Miguel-LA/TFM_MiguelLerinAlonso/workspace/ros_ur_driver/src/trayectories/data/saved_trajectories/20240523_1735_trajectory.csv
,shoulder_pan_joint,shoulder_lift_joint,elbow_joint,wrist_1_joint,wrist_2_joint,wrist_3_joint,time_from_start
0,-1.5173420690634076,-2.0283353975661957,-1.671312671938956,-2.6387043340128473,-1.9069914914971542,-0.05477710696412651,0.0
1,-1.5166518089469214,-2.0278007005936667,-1.6717360826166376,-2.639589926927613,-1.9055336049758442,-0.05977710696412651,1.0
2,-1.5145810285974621,-2.0261966096760786,-1.6730063146496823,-2.6422467056719094,-1.901159945411914,-0.07477710696412648,2.0
3,-1.5111297280150306,-2.0235231248134324,-1.6751233680380908,-2.6466746702457375,-1.8938705128053632,-0.0997771069641264,3.0
4,-1.5062979071996263,-2.019780246005727,-1.678087242781862,-2.6528738206490963,-1.8836653071561926,-0.13477710696412643,4.0
5,-1.5000478858724495,-2.0149548212361266,-1.6819241247803909,-2.660718127693076,-1.870404468700041,-0.17977700650513456,5.0
6,-1.4922516547221876,-2.0090021641137943,-1.686722972975898,-2.6697795008261265,-1.8536128803628527,-0.23477656147634957,6.0
7,-1.4828092031339055,-2.0018873592413726,-1.6925532882908512,-2.679723515628274,-1.8329193557646317,-0.2997756320420069,7.0
8,-1.471612788955099,-1.99357698372317,-1.6994882806413967,-2.6901413601033277,-1.8079605284232652,-0.37477407465329976,8.0
9,-1.4585436164475616,-1.9840428441006999,-1.7076052314235617,-2.700482026153144,-1.7784112284472888,-0.4597718134029542,9.0
10,-1.4434715963022016,-1.9732546099309853,-1.7169887307797662,-2.71015339978243,-1.7438939448387052,-0.5547686843196737,10.0
11,-1.4262849247011748,-1.9612098520875856,-1.7277025785382476,-2.7184208457971217,-1.7042188408602117,-0.6597646331585915,11.0
12,-1.4068925367720468,-1.9479249226245774,-1.739796665999686,-2.7244913658174634,-1.6593082948301656,-0.7747596023615357,12.0
13,-1.3852335891115517,-1.933443016095898,-1.7532999097055144,-2.7274820171574117,-1.609267799110671,-0.8997535934630468,13.0
14,-1.3613291052275702,-1.9178557455163991,-1.7681941981944393,-2.7264745752382566,-1.5545840169426874,-1.0347467110331035,14.0
15,-1.3352855161611046,-1.9012921966085372,-1.7844247199080225,-2.720547326584936,-1.496096646884949,-1.1797093008139048,15.0
16,-1.3092911606901252,-1.8851324280726507,-1.8006593362044803,-2.709848723625164,-1.4392982186778647,-1.3236102775214933,16.0
17,-1.2851828041051339,-1.870420046627171,-1.8157852459111883,-2.6957968640581593,-1.3884177223769743,-1.4575091979226829,17.0
18,-1.2630861638784188,-1.8571250555624945,-1.8297405130372446,-2.6794885090838614,-1.3436074808973055,-1.581409238179459,18.0
19,-1.2430555019611131,-1.845196741798158,-1.8424947338576085,-2.6618997261262387,-1.3047589674277518,-1.695309801099002,19.0
20,-1.225084711636152,-1.8345715571852854,-1.8540395961541165,-2.643899729612668,-1.2715535179927544,-1.79921025951599,20.0
21,-1.209113281318875,-1.8251811286028168,-1.8643884354763742,-2.626144663831839,-1.243471811740008,-1.893112509622156,21.0
22,-1.1950853424545138,-1.816965043854267,-1.8735507661684832,-2.6092434603112364,-1.2200565748018235,-1.9770159401215903,22.0
23,-1.1829963033832558,-1.8099052874501032,-1.8814958095469128,-2.5938045283709616,-1.200724516656772,-2.0512571147350798,23.0
24,-1.1757659940048528,-1.8056844897799817,-1.886250784289201,-2.5845122979684443,-1.1892194825153422,-2.1248208659484575,24.0
25,-1.174436051387178,-1.8049084667469573,-1.8871250616886552,-2.582803948257819,-1.1871038041062825,-2.200551059615189,25.0
26,-1.1744361827292509,-1.8049090347113284,-1.887124461541004,-2.5828054028800445,-1.187104645243586,-2.284272662143284,26.0
27,-1.1744363080400555,-1.8049096831144125,-1.8871237537948289,-2.582807161918516,-1.1871054032257196,-2.37799425678706,27.0
28,-1.174436314915247,-1.804909783431701,-1.8871236968294989,-2.5828073273929846,-1.1871054230125528,-2.4817158419917185,28.0
29,-1.1744363067387085,-1.804909821599824,-1.8871237205197016,-2.582807293110797,-1.187105346044405,-2.5954374225247134,29.0
30,-1.174436307575541,-1.804909859652926,-1.8871237523817117,-2.5828072366124353,-1.1871052975558016,-2.7191589985633122,30.0
31,-1.1744363272683649,-1.8049098954693208,-1.8871237942915526,-2.582807156044903,-1.1871053169342833,-2.8528805695199204,31.0
32,-1.1744363532560287,-1.804909931962408,-1.887123838603987,-2.5828070730216934,-1.1871053432222247,-2.9966021329817565,32.0
33,-1.1744363954330028,-1.8049099650165474,-1.8871238835876545,-2.582806995683693,-1.1871053861429697,-3.150323690127756,33.0
34,-1.1744364475473763,-1.8049099952089367,-1.8871239288813397,-2.582806921061665,-1.1871054389297775,-3.314045240111035,34.0
35,-1.1744365127216168,-1.8049100198248758,-1.8871239728403584,-2.5828068535355797,-1.1871055046341987,-3.4864475563082773,35.0
36,-1.174436584620349,-1.8049100333081372,-1.8871240081426606,-2.582806805862881,-1.1871055769009675,-3.652904863663802,36.0
37,-1.174436655211716,-1.8049100425290014,-1.8871240389269146,-2.582806766937347,-1.1871056477901234,-3.8093621710193233,37.0
38,-1.1744367264136877,-1.8049100387570347,-1.8871240573621968,-2.582806753325377,-1.1871057190855483,-3.9558194783748366,38.0
39,-1.1744367929754191,-1.804910034706587,-1.8871240740900739,-2.5828067416292697,-1.1871057857263447,-4.092276785730342,39.0
40,-1.1744368543168993,-1.8049100208418585,-1.887124079728552,-2.5828067507307395,-1.1871058469801898,-4.218734093085849,40.0
41,-1.1744369107829409,-1.8049100073448772,-1.8871240842103303,-2.5828067605494875,-1.1871059033539302,-4.335191400441358,41.0
42,-1.174436960096416,-1.8049099908126824,-1.88712408354552,-2.5828067784346036,-1.1871059525116323,-4.441648707796865,42.0
43,-1.1744370027946052,-1.8049099722233692,-1.8871240788445756,-2.5828068023083657,-1.1871059950072267,-4.538106015152375,43.0
44,-1.1744370410661549,-1.8049099555612669,-1.8871240746309854,-2.5828068237070685,-1.1871060330971854,-4.624563322507886,44.0
45,-1.1744370726967044,-1.8049099390900325,-1.8871240685426323,-2.5828068466911445,-1.1871060645348777,-4.701020629863398,45.0
46,-1.174437096927127,-1.8049099222144158,-1.8871240597697336,-2.58280687265259,-1.1871060885501143,-4.767477937218909,46.0
47,-1.1744371175115367,-1.8049099078781166,-1.8871240523169144,-2.5828068947075504,-1.1871061089517176,-4.82393524457442,47.0
48,-1.1744371344499336,-1.8049098960811363,-1.887124046184173,-2.582806912856028,-1.1871061257396882,-4.87039255192993,48.0
49,-1.174437147742317,-1.8049098868234728,-1.8871240413715125,-2.5828069270980203,-1.1871061389140247,-4.906849859285439,49.0
50,-1.1744371573886871,-1.804909880105125,-1.8871240378789333,-2.582806937433528,-1.1871061484747272,-4.933307166640949,50.0
51,-1.1744371633890436,-1.804909875926094,-1.8871240357064354,-2.58280694386255,-1.1871061544217958,-4.949764473996458,51.0
52,-1.175170303488084,-1.8067446445140585,-1.88472874092767,-2.5833728276408046,-1.1878382754042647,-4.957597640077069,52.0
53,-1.1768032831002282,-1.8108313881765794,-1.8793934958540788,-2.5846332632602773,-1.189468985703983,-4.956256879012308,53.0
54,-1.177142836967966,-1.8116811763972942,-1.8782841008012923,-2.5848953557503163,-1.189808070523133,-4.946330407940851,54.0
55,-1.1771428308177914,-1.8116811819145062,-1.8782841009662623,-2.5848953583113907,-1.1898080700606748,-4.927184692048684,55.0
56,-1.1771428214553188,-1.811681190313414,-1.8782841012173979,-2.5848953622101405,-1.18980806935667,-4.898038976156514,56.0
57,-1.1771428088805478,-1.8116812015940167,-1.8782841015546987,-2.5848953674465642,-1.1898080684111183,-4.858893260264345,57.0
58,-1.177142793157323,-1.8116812157109,-1.8782841021113708,-2.5848953735251663,-1.1898080677682177,-4.809747545044996,58.0
59,-1.1771427748167977,-1.811681232286229,-1.8782841039956328,-2.5848953763236064,-1.1898080719554676,-4.750601835183628,59.0
60,-1.1771427533753671,-1.8116812516640148,-1.8782841061984745,-2.58489537959519,-1.1898080768506725,-4.68145612532226,60.0
61,-1.1771427198225362,-1.8116812674889986,-1.8782841101978107,-2.584895361571238,-1.1898080477255761,-4.60231042990182,61.0
62,-1.1771426807581429,-1.8116812844169377,-1.8782841149235412,-2.584895338152456,-1.1898080099893664,-4.513164738531859,62.0
63,-1.1771426372813598,-1.811681303226149,-1.8782841202441865,-2.5848953118213336,-1.189807967768727,-4.414019056983099,63.0
64,-1.1771425858519113,-1.811681317787768,-1.878284118545669,-2.5848952977580284,-1.1898079167044058,-4.304873384169094,64.0
65,-1.177142528433539,-1.8116813314860294,-1.8782841139863007,-2.584895287753478,-1.1898078593154269,-4.185727718922095,65.0
66,-1.1771424660683962,-1.8116813424888876,-1.8782841052725168,-2.5848952845373163,-1.1898077969406722,-4.05658206067484,66.0
67,-1.1771423986177698,-1.8116813465680597,-1.8782840882632619,-2.5848952964755556,-1.1898077294076048,-3.9174364064795,67.0
68,-1.1771423280504727,-1.8116813467497455,-1.8782840665123137,-2.5848953169947206,-1.1898076586898814,-3.768290754528971,68.0
69,-1.1771422566929641,-1.8116813374007152,-1.8782840352891497,-2.584895356475378,-1.1898075870295002,-3.60914510944607,69.0
70,-1.1771421884554096,-1.8116813203376072,-1.8782839975666341,-2.584895410193951,-1.1898075183729329,-3.4427705298511704,70.0
71,-1.1771421288651132,-1.8116812978068402,-1.8782839572371222,-2.584895472100587,-1.189807458295183,-3.2841530638447374,71.0
72,-1.1771420842875266,-1.8116812688609123,-1.8782839153610482,-2.584895542174669,-1.1898074131604381,-3.135535597838306,72.0
73,-1.1771420465064368,-1.811681239219433,-1.8782838749232655,-2.584895611605451,-1.189807374825799,-2.9969181318318707,73.0
74,-1.177142022817267,-1.811681206771802,-1.8782838361470648,-2.5848956823830878,-1.1898073505688411,-2.868300665825435,74.0
75,-1.1771420053394102,-1.8116811749461932,-1.8782837999030115,-2.5848957501010243,-1.1898073325465166,-2.749683199818999,75.0
76,-1.1771419937803995,-1.8116811447426988,-1.8782837670685257,-2.584895812880241,-1.1898073204816515,-2.6410657338125607,76.0
77,-1.1771419927745868,-1.811681115055282,-1.8782837380126896,-2.584895871523694,-1.1898073190009986,-2.542448267806123,77.0
78,-1.1771419918707653,-1.811681088378232,-1.878283711903165,-2.584895924220589,-1.1898073176704864,-2.4538308017996826,78.0
79,-1.177141992816453,-1.8116810646058696,-1.8782836891806172,-2.5848959706617154,-1.1898073182397264,-2.3752133357932417,79.0
80,-1.1771420015840088,-1.8116810433770454,-1.878283671351055,-2.584896009790312,-1.1898073266882285,-2.3065958697867996,80.0
81,-1.177142009073821,-1.8116810252420141,-1.878283656119892,-2.584896043216484,-1.189807333905484,-2.247978403780358,81.0
82,-1.177142015285889,-1.811681010200779,-1.878283643487126,-2.5848960709402298,-1.189807339891493,-2.1993609377739176,82.0
83,-1.1771420202202127,-1.8116809982533368,-1.8782836334527606,-2.584896092961551,-1.1898073446462554,-2.1607434717674803,83.0
84,-1.1771420238767925,-1.8116809893996868,-1.8782836260167963,-2.584896109280447,-1.189807348169771,-2.132126005761043,84.0
85,-1.177142026255628,-1.8116809836398293,-1.8782836211792326,-2.584896119896918,-1.1898073504620403,-2.1135085397546014,85.0
86,-1.1775428001650705,-1.8126962906746253,-1.8769501282810483,-2.585217214130782,-1.1902075326307238,-2.103992293553929,86.0
87,-1.1791654907045954,-1.8168071836394986,-1.871550952522627,-2.5865172728847705,-1.1918278277805914,-2.103158711839521,87.0
88,-1.1798098317746115,-1.8184395494054535,-1.8694070367638558,-2.5870335014974075,-1.1924712208055237,-2.111379498387886,88.0
89,-1.179809830532764,-1.8184395550351704,-1.8694070396333842,-2.5870334985828287,-1.1924712262759345,-2.128324380943427,89.0
90,-1.1798098285580416,-1.8184395639872575,-1.869407044196361,-2.587033493948215,-1.1924712349747013,-2.1552692634989663,90.0
91,-1.1798098258504446,-1.818439576261714,-1.8694070504527862,-2.5870334875935663,-1.1924712469018235,-2.192214146054506,91.0
92,-1.1798098224099731,-1.8184395918585412,-1.8694070584026599,-2.5870334795188827,-1.1924712620573017,-2.2391590286100502,92.0
93,-1.1798098177757608,-1.8184396112419268,-1.869407066636465,-2.587033475108899,-1.1924712764672576,-2.2961039002715298,93.0
94,-1.1798098122645837,-1.8184396340928122,-1.8694070761230326,-2.5870334706624205,-1.1924712928631342,-2.3630487706005403,94.0
95,-1.1798098106595318,-1.8184396582377054,-1.8694070947195076,-2.5870334390452623,-1.1924712989794781,-2.439993630088569,95.0
96,-1.1798098113958615,-1.8184396843778186,-1.869407119880663,-2.587033389027274,-1.192471299027665,-2.526938484105851,96.0
97,-1.1798098121834244,-1.8184397135030268,-1.8694071480136987,-2.58703333291609,-1.1924712988027577,-2.623883326611981,97.0
98,-1.1798098209771934,-1.8184397436960753,-1.8694071798905063,-2.587033271564482,-1.1924713073126958,-2.7308281624881294,98.0
99,-1.1798098380965718,-1.8184397748799674,-1.8694072155424446,-2.5870332050053437,-1.1924713249241674,-2.847772990324391,99.0
100,-1.179809858624767,-1.818439807885786,-1.8694072540275524,-2.5870331338429366,-1.192471345992657,-2.9747178103987273,100.0
101,-1.179809895719879,-1.81843983700189,-1.869407293866225,-2.5870330655227423,-1.192471383636979,-3.1116626251223947,101.0
102,-1.179809936948694,-1.8184398672527236,-1.869407336094315,-2.587032993743983,-1.1924714254423643,-3.2586074390524007,102.0
103,-1.1798099955459729,-1.8184398894293303,-1.869407375886801,-2.5870329327127433,-1.1924714845216973,-3.4155522458598884,103.0
104,-1.1798100612292417,-1.8184399086445875,-1.8694074150090911,-2.5870328754104133,-1.1924715506549664,-3.5815587822884334,104.0
105,-1.179810132890514,-1.8184399180593496,-1.8694074464720605,-2.5870328356292482,-1.1924716226223393,-3.7423773597415293,105.0
106,-1.1798102028891306,-1.818439920125499,-1.8694074702781807,-2.587032810807881,-1.1924716928058514,-3.8931959371946228,106.0
107,-1.1798102707276137,-1.8184399160475062,-1.8694074874426536,-2.5870327987226287,-1.1924717607262203,-4.034014514647701,107.0
108,-1.179810333565792,-1.8184399068662715,-1.869407498092217,-2.5870327981664034,-1.1924718235537706,-4.164833092100771,108.0
109,-1.1798103914205265,-1.8184398930790526,-1.8694075027152026,-2.587032808155279,-1.1924718813133572,-4.285651669553836,109.0
110,-1.179810444096302,-1.8184398797219965,-1.8694075061432491,-2.587032818832832,-1.192471933889635,-4.396470247006899,110.0
111,-1.1798104881716072,-1.8184398605638503,-1.8694075012572902,-2.5870328434806265,-1.1924719777539505,-4.497288824459954,111.0
112,-1.1798105278751694,-1.8184398433059665,-1.8694074968559558,-2.587032865683655,-1.1924720172674508,-4.588107401913008,112.0
113,-1.1798105632069877,-1.8184398279483438,-1.8694074929392486,-2.587032885441918,-1.1924720524301349,-4.6689259793660565,113.0
114,-1.179810588998289,-1.8184398104339532,-1.8694074839561883,-2.58703291227475,-1.1924720779970936,-4.739744556819106,114.0
115,-1.1798106108975477,-1.818439795196345,-1.869407475972932,-2.587032935779347,-1.1924720997000036,-4.800563134272157,115.0
116,-1.179810629196056,-1.818439782464159,-1.8694074693023075,-2.5870329554192386,-1.192472117834447,-4.851381711725216,116.0
117,-1.1798106438938123,-1.8184397722373935,-1.8694074639443166,-2.5870329711944224,-1.1924721324004235,-4.892200289178276,117.0
118,-1.179810654990817,-1.818439764516047,-1.8694074598989614,-2.5870329831049,-1.1924721433979324,-4.923018866631336,118.0
119,-1.17981066248707,-1.8184397593001203,-1.8694074571662413,-2.58703299115067,-1.1924721508269738,-4.943837444084395,119.0
120,-1.1799581293734402,-1.8188179325601688,-1.868907806674093,-2.587155531176588,-1.1926193869441177,-4.955072228903965,120.0
121,-1.1814557840863895,-1.822658741850144,-1.863833299703344,-2.5884000223081385,-1.1941146983449862,-4.958128614500752,121.0
122,-1.1824414839689632,-1.8251866272705743,-1.8604934413392358,-2.589219101850363,-1.1950988577828734,-4.9516463469789755,122.0
123,-1.1824414792852387,-1.8251866314647085,-1.8604934414378107,-2.5892191039010535,-1.1950988573325299,-4.936940264232956,123.0
124,-1.182441471416625,-1.825186638510815,-1.8604934416034156,-2.589219107346194,-1.1950988565759568,-4.912234181486941,124.0
125,-1.1824414603631217,-1.825186648408894,-1.8604934418360508,-2.5892191121857846,-1.1950988555131543,-4.877528098740923,125.0
126,-1.1824414461247295,-1.8251866611589458,-1.8604934421357158,-2.589219118419826,-1.1950988541441228,-4.8328220159949025,126.0
127,-1.1824414291153456,-1.8251866764719966,-1.8604934433515101,-2.5892191229107597,-1.1950988560338796,-4.77811593704816,127.0
128,-1.1824414092229967,-1.8251866944262236,-1.8604934452537252,-2.5892191265073965,-1.1950988602179742,-4.713409860025449,128.0
129,-1.1824413819931971,-1.825186712087008,-1.8604934482362252,-2.5892191199688392,-1.1950988486522562,-4.638703790259807,129.0
130,-1.182441345339319,-1.8251867279526246,-1.8604934526838703,-2.589219098062338,-1.1950988133114506,-4.553997729684035,130.0
131,-1.1824413043326545,-1.8251867456754667,-1.8604934577143106,-2.5892190733175893,-1.1950987735839098,-4.459291678044478,131.0
132,-1.182441257590701,-1.825186762859875,-1.8604934603245549,-2.5892190517148537,-1.1950987277771663,-4.354585633137438,132.0
133,-1.182441202994118,-1.8251867758463245,-1.8604934559618869,-2.5892190422593604,-1.1950986732141373,-4.239879596759317,133.0
134,-1.1824411436364672,-1.8251867899663778,-1.860493451214458,-2.5892190319964303,-1.1950986138823736,-4.115173569586821,134.0
135,-1.182441079180521,-1.8251867949761817,-1.860493435978226,-2.589219041271993,-1.1950985493570982,-3.980467547898645,135.0
136,-1.1824410098987346,-1.825186799117891,-1.8604934183870592,-2.5892190537016697,-1.195098479989583,-3.83576152692786,136.0
137,-1.1824409406734921,-1.82518679181849,-1.8604933896610114,-2.5892190886731066,-1.1950984104960471,-3.6810555118536303,137.0
138,-1.1824408687609909,-1.8251867810715416,-1.8604933567353357,-2.589219131241381,-1.1950983382541478,-3.5164177629943363,138.0
139,-1.182440808257455,-1.825186758154222,-1.8604933155066075,-2.58921919441917,-1.1950982772501657,-3.353364146376415,139.0
140,-1.1824407559889143,-1.8251867334959506,-1.8604932751513497,-2.589219258582543,-1.1950982244711115,-3.2003105297585,140.0
141,-1.1824407174774683,-1.8251867032563562,-1.8604932336495192,-2.5892193296635817,-1.1950981853893394,-3.0572569131405922,141.0
142,-1.1824406859773147,-1.8251866732547186,-1.8604931945683552,-2.5892193981913914,-1.195098153337959,-2.924203296522697,142.0
143,-1.1824406680675241,-1.8251866406336075,-1.860493157176007,-2.589219467845475,-1.1950981348644063,-2.801149679904807,143.0
144,-1.1824406516131805,-1.8251866106634707,-1.8604931228223553,-2.5892195318390927,-1.1950981178921145,-2.6880960632869235,144.0
145,-1.182440648600465,-1.8251865804920273,-1.8604930924685035,-2.5892195922344228,-1.1950981143874928,-2.5850424466690423,145.0
146,-1.1824406476617275,-1.8251865528243656,-1.8604930652029494,-2.5892196470757023,-1.195098113001643,-2.4919888300511626,146.0
147,-1.1824406468238715,-1.8251865281300104,-1.860493040867483,-2.589219696023468,-1.1950981117647232,-2.4089352134332884,147.0
148,-1.182440653179699,-1.825186505984992,-1.8604930212629411,-2.5892197378055997,-1.1950981177781665,-2.335881596815412,148.0
149,-1.1824406611361586,-1.8251864867236303,-1.8604930049692716,-2.5892197734252314,-1.1950981254421156,-2.272827980197535,149.0
150,-1.1824406678307622,-1.8251864705170293,-1.8604929912596977,-2.5892198033957605,-1.195098131890599,-2.219774363579652,150.0
151,-1.1824406732635095,-1.8251864573651888,-1.8604929801342203,-2.5892198277171885,-1.1950981371236176,-2.176720746961764,151.0
152,-1.1824406774344007,-1.825186447268107,-1.8604929715928409,-2.589219846389514,-1.1950981411411705,-2.143667130343881,152.0
153,-1.1824406803434357,-1.8251864402257838,-1.8604929656355598,-2.589219859412737,-1.1950981439432582,-2.1206135137259987,153.0
154,-1.182452482091227,-1.8252170708209363,-1.8604522496808356,-2.5892300292463415,-1.1951099261016551,-2.1075219840729456,154.0
155,-1.183683569100632,-1.8284131306643336,-1.8562047665995085,-2.5902902641397625,-1.1963389756909886,-2.102347614604175,155.0
156,-1.185000616957387,-1.8318323618093013,-1.8516607009479746,-2.591424527117958,-1.1976538456810302,-2.1069778905110335,156.0
157,-1.1850351625821887,-1.8319220532941376,-1.8515415108859916,-2.59145427714232,-1.1976883389964628,-2.119519812372794,157.0
158,-1.1850351609341119,-1.8319220606736821,-1.8515415146131557,-2.59145427350507,-1.197688346047688,-2.1419518580890613,158.0
159,-1.1850351585513372,-1.8319220713429596,-1.851541520001856,-2.591454268246366,-1.197688356242284,-2.174383903805329,159.0
160,-1.185035155433865,-1.8319220853019698,-1.8515415270520914,-2.5914542613662093,-1.1976883695802514,-2.2168159495215978,160.0
161,-1.1850351513641384,-1.8319221027659047,-1.851541535109329,-2.5914542553500697,-1.1976883841665167,-2.2692479934580465,161.0
162,-1.1850351462134947,-1.8319221238620282,-1.851541543786479,-2.591454251667848,-1.1976883988803375,-2.331680035136748,162.0
163,-1.1850351417058833,-1.8319221476751262,-1.8515415562594075,-2.5914542391323026,-1.1976884121487574,-2.404112073301712,163.0
164,-1.1850351423954502,-1.831922172151287,-1.8515415799917956,-2.5914541921082295,-1.19768841217663,-2.486544098544932,164.0
165,-1.1850351431520048,-1.8319221995854056,-1.8515416066441184,-2.5914541392023924,-1.1976884120676345,-2.578976117615088,165.0
166,-1.1850351450459744,-1.8319222297150626,-1.8515416363350854,-2.591454080469776,-1.1976884129928258,-2.6814081298642036,166.0
167,-1.1850351613042494,-1.8319222593352766,-1.8515416704269103,-2.5914540170213556,-1.1976884297211632,-2.7938401312968613,167.0
168,-1.1850351790100606,-1.8319222915890179,-1.8515417075538032,-2.5914539479191916,-1.1976884479501921,-2.9162721249581947,168.0
169,-1.185035209172119,-1.8319223217052425,-1.8515417464691089,-2.5914538793940616,-1.1976884786549582,-3.048704112725896,169.0
170,-1.185035247282334,-1.8319223516379242,-1.8515417876816975,-2.5914538089006154,-1.197688517335679,-3.191136098404466,170.0
171,-1.18503529807064,-1.8319223767194894,-1.8515418281153428,-2.5914537442141987,-1.1976885686419336,-3.343568079695544,171.0
172,-1.1850353579746267,-1.831922399426146,-1.851541869078031,-2.5914536815037397,-1.1976886290441957,-3.5060000545159387,172.0
173,-1.185035428912963,-1.8319224110095813,-1.8515419026113844,-2.591453637479511,-1.1976887003250443,-3.671118403677617,173.0
174,-1.185035497654406,-1.831922419128234,-1.8515419320673574,-2.5914536009549014,-1.197688769348161,-3.826446431098359,174.0
175,-1.1850355668072121,-1.8319224150164128,-1.8515419496861387,-2.5914535884699004,-1.1976888385857738,-3.9717744585191355,175.0
176,-1.1850356311857835,-1.831922410721044,-1.8515419656312098,-2.591453577770295,-1.1976889030357387,-4.10710248593995,176.0
177,-1.18503569046382,-1.831922396634508,-1.8515419704006648,-2.591453587933867,-1.1976889622156826,-4.232430513360783,177.0
178,-1.185035745012028,-1.83192238367195,-1.8515419747895558,-2.5914535972864825,-1.1976890166736254,-4.347758540781654,178.0
179,-1.1850357921157222,-1.8319223668886866,-1.8515419731105922,-2.5914536164057176,-1.1976890636089839,-4.4530865682025755,179.0
180,-1.1850358332791535,-1.8319223490246466,-1.8515419685151986,-2.5914536394303624,-1.197689104573606,-4.548414595623541,180.0
181,-1.1850358701245036,-1.8319223330345646,-1.8515419644018607,-2.5914536600397016,-1.1976891412410022,-4.6337426230445065,181.0
182,-1.1850358998861306,-1.8319223167462186,-1.8515419577798347,-2.5914536833492967,-1.1976891708043547,-4.709070650465472,182.0
183,-1.1850359231200926,-1.8319223005963532,-1.8515419492504392,-2.5914537083306155,-1.1976891938280008,-4.774398677886445,183.0
184,-1.1850359427975476,-1.8319222869186076,-1.8515419420266686,-2.5914537294879523,-1.1976892133273334,-4.829726705307405,184.0
185,-1.1850359589184953,-1.8319222757129827,-1.8515419361085215,-2.5914537468213084,-1.1976892293023527,-4.87505473272836,185.0
186,-1.1850359714829355,-1.8319222669794761,-1.8515419314960009,-2.591453760330682,-1.1976892417530582,-4.910382760149318,186.0
187,-1.185035980490868,-1.831922260718088,-1.8515419281891066,-2.591453770016074,-1.1976892506794499,-4.935710787570273,187.0
188,-1.1850359859422928,-1.831922256928818,-1.8515419261878387,-2.591453775877484,-1.197689256081528,-4.95103881499123,188.0
189,-1.1858937736686614,-1.8341766402497752,-1.8485285257776707,-2.592218891109679,-1.1985455450003077,-4.958029755418385,189.0
190,-1.1873893404699105,-1.838107211143886,-1.843274597056863,-2.5935528823128635,-1.200038499400612,-4.955637636432731,190.0
191,-1.1875949666820533,-1.8386476387878896,-1.8425522203804003,-2.593736297809317,-1.2002437693043566,-4.944947680329909,191.0
192,-1.1875949603283327,-1.8386476444674753,-1.842552220479971,-2.5937363007162206,-1.2002437685636929,-4.924826242143483,192.0
193,-1.1875949508169246,-1.8386476529697147,-1.8425522206290261,-2.5937363050678037,-1.2002437674549316,-4.894704803957055,193.0
194,-1.1875949381478295,-1.8386476642946081,-1.8425522208275662,-2.5937363108640676,-1.2002437659780738,-4.854583365770634,194.0
195,-1.187594922443089,-1.8386476783583767,-1.8425522213220917,-2.5937363172002748,-1.200243765195255,-4.8044619301863865,195.0
196,-1.1875949041184146,-1.8386476948756452,-1.8425522229522562,-2.5937363209946307,-1.2002437687244227,-4.744340504608751,196.0
197,-1.1875948827457963,-1.8386477141402318,-1.8425522248535657,-2.5937363254201022,-1.2002437728405968,-4.67421907903111,197.0
198,-1.1875948486762238,-1.8386477290706242,-1.8425522289976746,-2.5937363054231044,-1.200243740518498,-4.594097669710492,198.0
199,-1.1875948101471794,-1.8386477457131347,-1.842552233721059,-2.5937362823224106,-1.2002437033250155,-4.503976264084732,199.0
200,-1.1875947673180232,-1.8386477641860801,-1.8425522390276017,-2.593736256402694,-1.2002436617938372,-4.403854867283644,200.0
201,-1.1875947162500708,-1.8386477776842818,-1.8425522363762739,-2.593736244527615,-1.2002436109702734,-4.293733480377698,201.0
202,-1.1875946597730118,-1.838647791081868,-1.8425522318297656,-2.593736234820997,-1.2002435545232015,-4.173612100870668,202.0
203,-1.18759459843291,-1.838647800741548,-1.8425522220775012,-2.5937362339987957,-1.2002434931636807,-4.043490728095583,203.0
204,-1.1875945321641157,-1.8386478046626222,-1.8425522051328698,-2.593736246045329,-1.2002434268112845,-3.90336935880207,204.0
205,-1.1875944633914965,-1.838647803477833,-1.8425521823891216,-2.593736268944263,-1.200243357867467,-3.7532479923140682,205.0
206,-1.1875943933442952,-1.8386477942122896,-1.8425521513111158,-2.5937363082146874,-1.2002432875158222,-3.5931266325402156,206.0
207,-1.1875943279658001,-1.8386477761953417,-1.842552113104409,-2.59373636341068,-1.2002432217008092,-3.4269030944173107,207.0
208,-1.1875942701849365,-1.8386477542801871,-1.842552073453744,-2.5937364240516025,-1.2002431634367041,-3.2692682402615594,208.0
209,-1.1875942284596275,-1.8386477251476396,-1.8425520317536996,-2.593736494179344,-1.2002431211461198,-3.12163338610578,209.0
210,-1.187594191857216,-1.8386476963928544,-1.8425519920320603,-2.593736562028571,-1.200243083995833,-2.983998531949999,210.0
211,-1.1875941704740374,-1.8386476642809146,-1.8425519537892843,-2.5937366319743473,-1.2002430620436522,-2.856363677794211,211.0
212,-1.1875941535600916,-1.8386476334733777,-1.8425519182297516,-2.59373669800293,-1.2002430445917298,-2.7387288236384064,212.0
213,-1.1875941437691058,-1.838647603935594,-1.8425518861521333,-2.593736759389884,-1.200243034299064,-2.631093969482601,213.0
214,-1.187594142794725,-1.8386475752656344,-1.8425518576931843,-2.593736816424594,-1.200243032856488,-2.5334591153267807,214.0
215,-1.187594141920143,-1.8386475495321277,-1.842551832149065,-2.593736867617669,-1.200243031561664,-2.445824261170965,215.0
216,-1.1875941438097566,-1.8386475265774345,-1.8425518102010265,-2.5937369124849026,-1.2002430330822826,-2.368189407015145,216.0
217,-1.1875941522392426,-1.838647506178174,-1.8425517928144535,-2.59373695034013,-1.2002430411986884,-2.300554552859321,217.0
218,-1.187594159422406,-1.8386474887950002,-1.8425517779985332,-2.593736982598357,-1.2002430481150612,-2.2429196987035014,218.0
219,-1.1875941653592466,-1.8386474744279169,-1.8425517657532624,-2.5937370092595846,-1.200243053831401,-2.195284844547693,219.0
220,-1.1875941700497643,-1.8386474630769203,-1.8425517560786449,-2.593737030323812,-1.200243058347708,-2.1576499903918838,220.0
221,-1.1875941734939592,-1.8386474547420095,-1.8425517489746812,-2.5937370457910394,-1.2002430616639816,-2.13001513623607,221.0
222,-1.1875941756918313,-1.8386474494231853,-1.842551744441371,-2.593737055661267,-1.2002430637802226,-2.112380282080259,222.0
223,-1.1880944049432625,-1.839978347690401,-1.84076256440598,-2.594198869760881,-1.2007423717405756,-2.103608920363507,223.0
224,-1.189634291487966,-1.8440753508798988,-1.8352548162007587,-2.595620488996351,-1.2022794228166171,-2.1036823315307775,224.0
225,-1.1901182714049583,-1.845363026557705,-1.8335237529947745,-2.5960672970995393,-1.202762514778207,-2.1125706324079414,225.0
226,-1.190118270096101,-1.8453630323480483,-1.833523755895505,-2.5960672943794467,-1.2027625202185264,-2.13034778087041,226.0
227,-1.190118268050986,-1.8453630413955753,-1.8335237604279548,-2.5960672901292483,-1.2027625287191337,-2.1581249293328764,227.0
228,-1.190118265269613,-1.8453630537002859,-1.8335237665921231,-2.596067284348943,-1.202762540280029,-2.195902077795346,228.0
229,-1.1901182617519817,-1.8453630692621796,-1.8335237743880104,-2.5960672770385327,-1.2027625549012124,-2.243679226257809,229.0
230,-1.1901182569912927,-1.8453630885745933,-1.8335237823132293,-2.59606727386818,-1.2027625681232095,-2.301456372465158,230.0
231,-1.1901182513904531,-1.8453631112453237,-1.8335237915621825,-2.5960672703300895,-1.202762583491314,-2.3692335186056552,231.0
232,-1.190118250326596,-1.8453631348260515,-1.8335238110286314,-2.5960672359708354,-1.2027625877572028,-2.44701065237361,232.0
233,-1.1901182510508752,-1.8453631605631722,-1.8335238361808577,-2.5960671862973124,-1.2027625877586041,-2.534787781443347,233.0
234,-1.1901182518266111,-1.8453631892101363,-1.8335238642787486,-2.596067130620142,-1.202762587496079,-2.632564898832853,234.0
235,-1.1901182616860564,-1.8453632186023086,-1.833523896206167,-2.596067069902338,-1.2027625971989204,-2.7403420090732675,235.0
236,-1.1901182785130469,-1.8453632492528589,-1.833523931739567,-2.596067003985999,-1.202762614523487,-2.858119111425235,236.0
237,-1.1901183000111053,-1.8453632811025389,-1.8335239699231212,-2.596066934297536,-1.2027626365627522,-2.9858962062414314,237.0
238,-1.1901183364301524,-1.8453633097162527,-1.8335240095871455,-2.596066866642055,-1.2027626735326833,-3.1236732961428793,238.0
239,-1.1901183781565188,-1.8453633385571369,-1.833524051144729,-2.5960667969465874,-1.2027627158252683,-3.271450384800518,239.0
240,-1.1901184356392205,-1.8453633603698925,-1.8335240907320207,-2.596066736466973,-1.2027627737914233,-3.429227466471625,240.0
241,-1.190118500798044,-1.8453633781078544,-1.8335241287180974,-2.596066681766944,-1.2027628393840257,-3.5954845282152967,241.0
242,-1.1901185703589037,-1.8453633873255388,-1.8335241596909384,-2.5960666426427013,-1.2027629092491208,-3.755464129808698,242.0
243,-1.1901186387247722,-1.845363388338276,-1.833524182200244,-2.596066620146426,-1.2027629777824997,-3.905443731402113,243.0
244,-1.1901187045245818,-1.8453633844632846,-1.8335241990843565,-2.596066608111192,-1.2027630436642776,-4.0454233329955285,244.0
245,-1.190118765415187,-1.8453633747360114,-1.8335242086552694,-2.5960666091518387,-1.2027631045303702,-4.175402934588959,245.0
246,-1.1901188214746035,-1.8453633614494354,-1.8335242131976952,-2.5960666186981673,-1.2027631604964382,-4.295382536182408,246.0
247,-1.1901188721231792,-1.8453633479254137,-1.833524215803567,-2.5960666303368773,-1.2027632110358368,-4.405362137775864,247.0
248,-1.1901189147706812,-1.845363329446533,-1.833524211007988,-2.596066654198506,-1.202763253475519,-4.505341739369316,248.0
249,-1.1901189531525644,-1.8453633128159215,-1.8335242066920596,-2.5960666756734865,-1.2027632916703686,-4.595321340962773,249.0
250,-1.1901189870813877,-1.8453632978863068,-1.8335242026516476,-2.5960666951100135,-1.2027633254301242,-4.6753009425562375,250.0
251,-1.1901190116669829,-1.8453632808155485,-1.8335241935609283,-2.596066721592282,-1.202763349791029,-4.745280544149706,251.0
252,-1.190119032739326,-1.8453632661841806,-1.8335241857692617,-2.5960667442902663,-1.2027633706707903,-4.80526014574317,252.0
253,-1.1901190502984185,-1.845363253992205,-1.8335241792766448,-2.596066763203968,-1.2027633880694086,-4.8552397473366256,253.0
254,-1.190119064344259,-1.8453632442396202,-1.833524174083081,-2.5960667783333857,-1.202763401986883,-4.895219348930074,254.0
255,-1.1901190748768478,-1.845363236926426,-1.8335241701885703,-2.596066789678519,-1.2027634124232136,-4.925198950523525,255.0
256,-1.1901190818961849,-1.8453632320526214,-1.833524167593113,-2.596066797239368,-1.2027634193784005,-4.945178552116975,256.0
257,-1.190332957759842,-1.8459392906149514,-1.8327453705097292,-2.596271035993955,-1.2029768806830519,-4.955765108139126,257.0
258,-1.1917937674928383,-1.8498739551356014,-1.8274259691005477,-2.597666019754395,-1.2044348591814007,-4.958057351590438,258.0
259,-1.1926090887192722,-1.8520700175287519,-1.8244570439549737,-2.5984446045620326,-1.2052486020654243,-4.951001263646805,259.0
260,-1.1926090838987429,-1.8520700218304977,-1.824457044006256,-2.598444606855183,-1.2052486014074393,-4.935603700056254,260.0
261,-1.1926090759475043,-1.8520700289260268,-1.824457044090844,-2.5984446106376287,-1.2052486003221237,-4.9102061364657015,261.0
262,-1.192609064865557,-1.8520700388153397,-1.8244570442087382,-2.598444615909369,-1.2052485988094779,-4.874808572875155,262.0
263,-1.1926090506529001,-1.8520700514984356,-1.824457044359938,-2.598444622670404,-1.2052485968695015,-4.829411009284616,263.0
264,-1.1926090337622643,-1.8520700666692496,-1.82445704544579,-2.5984446276351427,-1.2052485984831067,-4.774013457410392,264.0
265,-1.192609013999501,-1.8520700844590354,-1.8244570470797625,-2.5984446322125754,-1.2052486019431239,-4.70861590976455,265.0
266,-1.1926089864584375,-1.8520701014112384,-1.8244570500281871,-2.598444624730611,-1.2052485877263321,-4.63321837059935,266.0
267,-1.192608950399546,-1.8520701169726803,-1.8244570544565906,-2.598444603205405,-1.205248553002046,-4.547820839539592,267.0
268,-1.1926089100920623,-1.8520701343383297,-1.824457059468739,-2.5984445788795654,-1.205248513988077,-4.452423318453567,268.0
269,-1.1926088638680625,-1.8520701506208024,-1.8244570613903976,-2.5984445590213405,-1.2052484686294553,-4.347025804119414,269.0
270,-1.1926088102680812,-1.8520701633029348,-1.8244570570468128,-2.5984445498619855,-1.205248415063924,-4.231628298179784,270.0
271,-1.1926087520220137,-1.8520701770853685,-1.82445705232284,-2.598444539923929,-1.205248356845237,-4.1062308008399935,271.0
272,-1.1926086887726863,-1.8520701811741511,-1.8244570364099497,-2.598444550813119,-1.205248293518368,-3.9708333095031763,272.0
273,-1.1926086208385396,-1.8520701851579315,-1.824457018913916,-2.5984445633223663,-1.2052482254974628,-3.8254358183955652,273.0
274,-1.1926085533482838,-1.8520701770410561,-1.8244569895853524,-2.5984445997352608,-1.2052481577241059,-3.6700383337378315,274.0
275,-1.1926084837564455,-1.8520701655192546,-1.8244569562244783,-2.5984446435443482,-1.2052480877886587,-3.5048722148475138,275.0
276,-1.1926084249621878,-1.8520701432004754,-1.824456915587032,-2.5984447055590403,-1.205248028497236,-3.3425168399565894,276.0
277,-1.192608375223631,-1.8520701184852741,-1.8244568754358192,-2.5984447696129553,-1.2052479782422343,-3.1901614650656684,277.0
278,-1.1926083378211354,-1.8520700890972797,-1.8244568345534664,-2.598444839242722,-1.2052479402738918,-3.047806090174732,278.0
279,-1.1926083083301258,-1.8520700594859592,-1.8244567959466063,-2.5984449069381754,-1.205247910230919,-2.915450715283782,279.0
280,-1.1926082909481042,-1.8520700278340008,-1.82445675914152,-2.59844497504822,-1.2052478922902716,-2.793095340392823,280.0
281,-1.1926082749867006,-1.852069998768936,-1.8244567253444752,-2.5984450375916888,-1.205247875815898,-2.680739965501856,281.0
282,-1.1926082730371201,-1.8520699693102844,-1.8244566955794395,-2.598445096705468,-1.2052478733779717,-2.5783845906108844,282.0
283,-1.1926082721251858,-1.852069942529176,-1.824456668791305,-2.5984451501876764,-1.2052478720239874,-2.486029215719904,283.0
284,-1.1926082713119937,-1.852069918647859,-1.8244566449037174,-2.598445197878971,-1.2052478708166092,-2.4036738408289198,284.0
285,-1.1926082781404206,-1.8520698972240526,-1.8244566258592136,-2.5984452383908283,-1.205247877308184,-2.331318465937937,285.0
286,-1.1926082858171996,-1.8520698786560812,-1.8244566099083086,-2.5984452729737804,-1.2052478846969161,-2.2689630910469507,286.0
287,-1.1926082922628454,-1.8520698630658778,-1.8244565965154658,-2.5984453020106266,-1.2052478909007092,-2.216607716155976,287.0
288,-1.1926082974773575,-1.852069850453441,-1.824456585680686,-2.5984453255013666,-1.2052478959195634,-2.1742523412650123,288.0
289,-1.1926083014607363,-1.8520698408187695,-1.8244565774039712,-2.5984453434460004,-1.2052478997534783,-2.141896966374041,289.0
290,-1.1926083042129814,-1.8520698341618633,-1.8244565716853214,-2.5984453558445284,-1.205247902402454,-2.1195415914830686,290.0
291,-1.1926419101255639,-1.8521614636909651,-1.8243319956517645,-2.598478536520861,-1.2052814398088532,-2.107072317690337,291.0
292,-1.1938839003931185,-1.8555481503461995,-1.8197278862985706,-2.5997046135483615,-1.2065209002543469,-2.102456170809137,292.0
293,-1.195052120278353,-1.8587336837480375,-1.8153972453496565,-2.6008578631327626,-1.2076867425176803,-2.107634956543493,293.0
294,-1.1950647954614875,-1.858768253571592,-1.815350256438487,-2.6008703749579274,-1.2076993967238105,-2.120665407336778,294.0
295,-1.1950647937661523,-1.8587682609839793,-1.8153502601249003,-2.600870371636268,-1.2076994035715702,-2.1436511358269623,295.0
296,-1.195064791333257,-1.858768271621144,-1.8153502654150968,-2.600870366869511,-1.207699413398465,-2.176636864317148,296.0
297,-1.1950647881628016,-1.858768285483087,-1.815350272309077,-2.600870360657658,-1.2076994262044956,-2.219622592807326,297.0
298,-1.1950647840092683,-1.8587683028054562,-1.8153502800886465,-2.6008703556943553,-1.207699439807415,-2.2726083187233086,298.0
299,-1.1950647787981359,-1.858768323659778,-1.8153502885358161,-2.6008703527971955,-1.2076994535448562,-2.3355940419894194,299.0
300,-1.1950647746245786,-1.8587683469724907,-1.8153503014237629,-2.6008703388724768,-1.207699464988381,-2.4085797607780495,300.0
301,-1.1950647753027281,-1.8587683709999299,-1.8153503250918712,-2.600870292307465,-1.2076994649858468,-2.4915654674643273,301.0
302,-1.195064776045399,-1.8587683979097251,-1.8153503516587126,-2.6008702399323194,-1.2076994648352624,-2.5845511671678496,302.0
303,-1.1950647787033015,-1.858768427255564,-1.8153503813172243,-2.600870181899008,-1.2076994666036147,-2.687536859972209,303.0
304,-1.1950647946530344,-1.8587684562978382,-1.8153504152422721,-2.6008701191871095,-1.2076994830265435,-2.800522542605045,304.0
305,-1.1950648120159848,-1.8587684879095596,-1.815350452172825,-2.600870050914248,-1.2076995009167768,-2.923508216873241,305.0
306,-1.195064842457456,-1.8587685170511468,-1.8153504907678606,-2.600869983689235,-1.2076995319002606,-3.056493885364804,306.0
307,-1.1950648798011314,-1.8587685463910915,-1.8153505317355627,-2.6008699140197837,-1.2076995698150184,-3.199479552140497,307.0
308,-1.1950649303864904,-1.8587685704107526,-1.8153505716083531,-2.600869850950499,-1.2076996209110376,-3.3524652142136944,308.0
309,-1.1950649890551688,-1.858768592687616,-1.8153506123079342,-2.600869788913996,-1.2076996800785853,-3.5154508699190505,309.0
310,-1.19506505875887,-1.8587686032847093,-1.8153506448967778,-2.6008697468014432,-1.2076997501127824,-3.680139220495549,310.0
311,-1.1950651259024503,-1.8587686105337031,-1.815350673349142,-2.600869712125979,-1.2076998175258382,-3.8349069674350336,311.0
312,-1.1950651931359304,-1.8587686066069953,-1.815350690727379,-2.6008696996712737,-1.2076998848443785,-3.9796747143745157,312.0
313,-1.1950652556894543,-1.858768601903572,-1.8153507058527723,-2.6008696901738833,-1.2076999474596952,-4.114442461314013,313.0
314,-1.1950653132855984,-1.8587685882862546,-1.8153507105536002,-2.6008696999164043,-1.207700004959323,-4.239210208253528,314.0
315,-1.1950653662654762,-1.8587685757603563,-1.8153507148776535,-2.6008697088780752,-1.2077000578504204,-4.353977955193043,315.0
316,-1.1950654117559472,-1.8587685590952667,-1.815350712719221,-2.6008697283379267,-1.2077001031670307,-4.45874570213258,316.0
317,-1.1950654516941315,-1.858768541817551,-1.8153507081948839,-2.6008697506914387,-1.207700142908852,-4.553513449072116,317.0
318,-1.1950654874179947,-1.858768526363003,-1.8153507041479549,-2.6008697706861845,-1.2077001784570733,-4.638281196011656,318.0
319,-1.1950655159403987,-1.8587685103846852,-1.8153506973014428,-2.6008697938949425,-1.207700206779124,-4.713048942951201,319.0
320,-1.1950655384209925,-1.8587684947937109,-1.8153506889275253,-2.600869818154279,-1.2077002290522907,-4.777816689890738,320.0
321,-1.1950655574306317,-1.85876848160995,-1.8153506818465213,-2.6008698386680265,-1.207700247886529,-4.832584436830272,321.0
322,-1.195065572969316,-1.8587684708334034,-1.8153506760584297,-2.600869855436186,-1.2077002632818392,-4.877352183769794,322.0
323,-1.1950655850370455,-1.858768462464069,-1.8153506715632535,-2.6008698684587563,-1.2077002752382204,-4.9121199307093075,323.0
324,-1.1950655936338193,-1.8587684565019467,-1.815350668360993,-2.6008698777357373,-1.2077002837556727,-4.9368876776488335,324.0
325,-1.1950655987596381,-1.8587684529470367,-1.815350666451648,-2.6008698832671286,-1.207700288834196,-4.95165542458837,325.0
326,-1.1959531059577104,-1.8612185324904114,-1.8120015095813369,-2.601775104352675,-1.2085858986608917,-4.958255278828087,326.0
327,-1.197337381509999,-1.8650400215530998,-1.8067776987103,-2.603187010122495,-1.2099672156570123,-4.955374597780909,327.0
328,-1.1974893303786147,-1.8654595100899518,-1.806204280022586,-2.6033419969097498,-1.2101188425607283,-4.944360814944868,328.0
329,-1.197489324003138,-1.86545951577001,-1.8062042800601554,-2.6033420000505303,-1.2101188415664073,-4.923821061875779,329.0
330,-1.1974893145236913,-1.8654595242154652,-1.806204280116016,-2.6033420047204325,-1.2101188400879903,-4.893281308806704,330.0
331,-1.1974893019402755,-1.865459535426318,-1.8062042801901677,-2.603342010919458,-1.2101188381254775,-4.852741555737624,331.0
332,-1.19748928639822,-1.8654595493056747,-1.8062042805680947,-2.603342017614224,-1.210118836969914,-4.802201806915662,332.0
333,-1.1974892682589888,-1.8654595656125457,-1.806204281959849,-2.6033420222345196,-1.2101188398323686,-4.741662070858167,333.0
334,-1.1974892469152854,-1.8654595844543245,-1.8062042836320962,-2.603342027041967,-1.2101188423727594,-4.671122335232049,334.0
335,-1.1974892133150727,-1.865459598932933,-1.806204287784674,-2.603342006994523,-1.2101188100347287,-4.590582615779172,335.0
336,-1.1974891755332333,-1.8654596152021359,-1.8062042924783885,-2.603341984349078,-1.210118773597276,-4.500042900336051,336.0
337,-1.1974891335566515,-1.865459633252374,-1.8062042977476112,-2.6033419589591404,-1.2101187329470202,-4.399503193348011,337.0
338,-1.1974890833327658,-1.8654596460961719,-1.8062042947043606,-2.603341948212598,-1.2101186829151545,-4.288963496758393,338.0
339,-1.1974890280131083,-1.8654596591546948,-1.8062042901866195,-2.603341938828608,-1.2101186276265183,-4.168423807520399,339.0
340,-1.1974889679304983,-1.865459668098425,-1.8062042800419642,-2.6033419391294936,-1.21011856752039,-4.037884124938179,340.0
341,-1.1974889030504297,-1.865459671874169,-1.8062042632087265,-2.6033419512270997,-1.2101185025558792,-3.8973444456422826,341.0
342,-1.197488835952679,-1.86545967012069,-1.806204240156343,-2.603341975023794,-1.210118435277838,-3.746804769438068,342.0
343,-1.1974887673975363,-1.8654596610002252,-1.8062042092932922,-2.6033420139545536,-1.2101183664176607,-3.5862650998597467,343.0
344,-1.1974887041051008,-1.8654596428402348,-1.806204171084024,-2.603342069325497,-1.2101183026817592,-3.4201675188972143,344.0
345,-1.1974886478529991,-1.8654596214779344,-1.806204131915597,-2.60334212895482,-1.2101182459487356,-3.2629576471056554,345.0
346,-1.1974886078614508,-1.8654595926842827,-1.8062040904967682,-2.6033421984896776,-1.210118205389279,-3.1157477753141434,346.0
347,-1.197488572239976,-1.8654595647005974,-1.8062040512733115,-2.603342265086926,-1.210118169223145,-2.97853790352269,347.0
348,-1.197488552087854,-1.8654595331917008,-1.8062040134446988,-2.603342334037013,-1.2101181485024806,-2.8513280317313368,348.0
349,-1.1974885356341178,-1.8654595032458197,-1.8062039783493915,-2.6033423987504714,-1.2101181315144531,-2.7341181599400333,349.0
350,-1.1974885266946549,-1.8654594744118345,-1.8062039467488882,-2.6033424589729313,-1.2101181220760115,-2.626908288148794,350.0
351,-1.197488525744808,-1.8654594465774905,-1.8062039186821315,-2.60334251478453,-1.2101181206616987,-2.5296984163576113,351.0
352,-1.197488524892672,-1.8654594216064768,-1.8062038935026026,-2.6033425648547786,-1.2101181193928763,-2.442488544566473,352.0
353,-1.1974885271360889,-1.8654593993243447,-1.8062038719880704,-2.603342608624844,-1.2101181212712087,-2.365278672775367,353.0
354,-1.1974885353106792,-1.8654593795660905,-1.8062038548742114,-2.6033426455661353,-1.2101181291359318,-2.2980688009842867,354.0
355,-1.1974885422689916,-1.865459362747621,-1.8062038403066831,-2.6033426770110184,-1.2101181358304813,-2.2408589291932257,355.0
356,-1.1974885480110258,-1.865459348868939,-1.8062038282854829,-2.603342702959493,-1.2101181413548567,-2.193649057402183,356.0
357,-1.1974885525367815,-1.8654593379300406,-1.8062038188106144,-2.6033427234115587,-1.2101181457090586,-2.1564391856111467,357.0
358,-1.197488555846259,-1.8654593299309263,-1.806203811882078,-2.6033427383672163,-1.2101181488930868,-2.129229313820099,358.0
359,-1.1974885579394583,-1.8654593248715958,-1.8062038074998734,-2.603342747826465,-1.210118150906941,-2.1120194420290463,359.0
360,-1.1980112629752786,-1.8669202377794536,-1.804195943119505,-2.6038932942181656,-1.2106396844811307,-2.1035520157261414,360.0
361,-1.199463988274652,-1.8709804875436393,-1.7986155913351716,-2.6054233878937194,-1.2120891546315753,-2.1039807366582512,361.0
362,-1.1998800791923447,-1.8721434327851367,-1.7970172606792478,-2.605861638094465,-1.2125043163728964,-2.1131076134735087,362.0
363,-1.1998800778582088,-1.8721434385518159,-1.7970172635287285,-2.6058616356277606,-1.2125043216109996,-2.1311704560698397,363.0
364,-1.1998800757854649,-1.8721434475110592,-1.797017267955746,-2.6058616317954324,-1.212504329749036,-2.1592332986661598,364.0
365,-1.1998800729741133,-1.8721434596628672,-1.7970172739603008,-2.605861626597481,-1.2125043407870058,-2.1972961412624734,365.0
366,-1.1998800694238256,-1.8721434750075505,-1.7970172815414454,-2.6058616200374356,-1.212504354721966,-2.2453589838537895,366.0
367,-1.1998800646162433,-1.872143494036489,-1.7970172892010743,-2.6058616176983165,-1.2125043669002227,-2.3034218213316398,367.0
368,-1.1998800589806646,-1.8721435163427287,-1.7970172981798997,-2.6058616149563374,-1.2125043811759064,-2.371484658809509,368.0
369,-1.1998800580994675,-1.8721435393552466,-1.7970173178195565,-2.6058615800963167,-1.2125043846539412,-2.44954748336631,369.0
370,-1.1998800588090628,-1.8721435645284696,-1.7970173428353753,-2.6058615310549915,-1.2125043846194254,-2.537610303320423,370.0
371,-1.1998800595712846,-1.8721435925379248,-1.797017370771486,-2.605861476108037,-1.2125043843383998,-2.635673111749033,371.0
372,-1.1998800696341674,-1.8721436211784748,-1.7970174025400514,-2.6058614162419307,-1.2125043942899878,-2.7437359126824563,372.0
373,-1.1998800861049723,-1.8721436511477874,-1.797017437833683,-2.605861351237744,-1.2125044112608745,-2.8617987057619625,373.0
374,-1.1998801075927386,-1.8721436820929978,-1.797017475700068,-2.6058612827697845,-1.212504433290354,-2.9898614913442128,374.0
375,-1.1998801432237118,-1.872143710077708,-1.7970175150816758,-2.6058612160119923,-1.2125044694718778,-3.1279242721157683,375.0
376,-1.1998801844678575,-1.872143737989,-1.7970175561773205,-2.6058611476983398,-1.2125045112777744,-3.2759870514424696,376.0
377,-1.1998802406895706,-1.8721437593403474,-1.797017595472116,-2.605861087953599,-1.2125045679828326,-3.4340498238547985,377.0
378,-1.1998803037496804,-1.8721437761995392,-1.7970176324452853,-2.6058610351131737,-1.2125046314666381,-3.5982397806430018,378.0
379,-1.199880369807735,-1.8721437849953375,-1.7970176622963372,-2.6058609974815146,-1.21250469782045,-3.753856165466778,379.0
380,-1.1998804344889933,-1.8721437862963213,-1.7970176842013639,-2.6058609752498976,-1.2125047626691863,-3.8994725502905396,380.0
381,-1.1998804967238317,-1.8721437826867726,-1.7970177004083272,-2.605860963576964,-1.2125048249839754,-4.03508893511428,381.0
382,-1.199880554206417,-1.8721437745668221,-1.7970177105836007,-2.605860962362674,-1.2125048824604694,-4.160705319937985,382.0
383,-1.1998806069432504,-1.872143762126751,-1.7970177149198616,-2.605860971224677,-1.2125049351083625,-4.276321704761666,383.0
384,-1.1998806551187224,-1.8721437507626622,-1.7970177188810608,-2.6058609793201803,-1.2125049832025871,-4.381938089585334,384.0
385,-1.1998806951487315,-1.872143733953921,-1.7970177147939679,-2.6058610007717364,-1.2125050230420555,-4.477554474408984,385.0
386,-1.1998807308007218,-1.8721437185547212,-1.7970177107243406,-2.6058610207343555,-1.2125050585171822,-4.563170859232632,386.0
387,-1.1998807622885581,-1.872143704954151,-1.7970177071300428,-2.6058610383653398,-1.2125050898488123,-4.638787244056283,387.0
388,-1.1998807872997284,-1.872143691335938,-1.797017701455173,-2.605861057997274,-1.2125051146888886,-4.704403628879927,388.0
389,-1.199880806373868,-1.8721436781239174,-1.797017694296163,-2.60586107861913,-1.2125051335853403,-4.760020013703587,389.0
390,-1.1998808220184178,-1.8721436672874594,-1.7970176884243658,-2.605861095533112,-1.212505149084151,-4.805636398527271,390.0
391,-1.1998808342333778,-1.8721436588265652,-1.7970176838397791,-2.60586110873922,-1.2125051611853208,-4.8412527833509404,391.0
392,-1.1998808430187478,-1.8721436527412338,-1.797017680542405,-2.6058611182374536,-1.2125051698888496,-4.866869168174613,392.0
393,-1.1998808483745278,-1.8721436490314645,-1.7970176785322436,-2.605861124027813,-1.212505175194737,-4.882485552998282,393.0
394,-1.1997190358007468,-1.8716969788414333,-1.797652814346939,-2.6056715632292335,-1.212343865115623,-4.88848051665113,394.0
395,-1.1992744733276994,-1.870469823870598,-1.7993977575130067,-2.6051507661203486,-1.2119006832332249,-4.885642353321703,395.0
396,-1.1991731771624325,-1.8701902230690581,-1.7997953390074346,-2.6050320998036183,-1.2117997016681812,-4.873468139904919,396.0
397,-1.1989886754858121,-1.8696809558472183,-1.8005194972430587,-2.604815959988873,-1.2116157730070198,-4.851293926488129,397.0
398,-1.1987209682978381,-1.8689420222050788,-1.8015702322198792,-2.604502346676114,-1.2113488972497413,-4.819119713071341,398.0
399,-1.1983687278746205,-1.8679732256212194,-1.8029458589484264,-2.604093128376066,-1.2109977390300062,-4.776945461882472,399.0
400,-1.1979295008873765,-1.8667742033557269,-1.8046432631866238,-2.603591758048954,-1.2105598308962309,-4.724771120906994,400.0
401,-1.1974060894180614,-1.865345370374263,-1.80666600056875,-2.6029942925306546,-1.2100379910585592,-4.662596779931532,401.0
402,-1.1967963573930824,-1.8636863715374448,-1.8090114481915645,-2.6023036880839094,-1.2094300724836375,-4.590422373298307,402.0
403,-1.1960991028573313,-1.861797007325102,-1.811678129539223,-2.6015216084889143,-1.2087348670483717,-4.508247878631818,403.0
404,-1.1953144137273055,-1.8596772664954664,-1.8146662081795697,-2.6006479026292277,-1.2079524624631248,-4.41607331074331,404.0
405,-1.1944405819608193,-1.8573268481830327,-1.8179736231513024,-2.5996849151228534,-1.207081141487015,-4.313898634554091,405.0
406,-1.1934754578071531,-1.8547453132875857,-1.8215979141783154,-2.598635523610972,-1.2061187432594014,-4.201723801388345,406.0
407,-1.1924195819291148,-1.8519327357728983,-1.8255397809649185,-2.5974989597619147,-1.2050658114983366,-4.079548843163312,407.0
408,-1.1912708632477598,-1.8488886829019415,-1.8297968431235354,-2.596278015421834,-1.2039202443257282,-3.9473737191741862,408.0
409,-1.1900255540120361,-1.845612322387065,-1.8343649606869934,-2.594977624459017,-1.2026782750078158,-3.8051983533298275,409.0
410,-1.188683529974656,-1.8421035401595331,-1.839244189371308,-2.593597843560596,-1.201339779251253,-3.6530227699104674,410.0
411,-1.1872478400833621,-1.8383749205816855,-1.8444143231762218,-2.592146308788992,-1.199907783411459,-3.4914147279751027,411.0
412,-1.1858386416696205,-1.8347406361830925,-1.8494384959050802,-2.5907465489731223,-1.198502129194826,-3.334004300493995,412.0
413,-1.184509213503068,-1.8313348743610827,-1.854133146851392,-2.5894483146265053,-1.1971759719650468,-3.1865936544727544,413.0
414,-1.1832616551956272,-1.8281580786772282,-1.858500646653087,-2.588248812934114,-1.1959314221240176,-3.0491828311378946,414.0
415,-1.1820981183248553,-1.825210744640212,-1.8625433325143783,-2.587145233301981,-1.194770642027309,-2.9217718683544036,415.0
416,-1.1810185303417562,-1.8224928043340325,-1.8662612414017234,-2.5861376056592613,-1.1936935591135027,-2.804360760695665,416.0
417,-1.180025029732227,-1.8200047683246747,-1.8696566560300756,-2.585223158789871,-1.1927023224595308,-2.696949547119666,417.0
418,-1.179121440744702,-1.8177476660662772,-1.8727333944474513,-2.5843970852998552,-1.191800774450811,-2.5995382858017035,418.0
419,-1.178304371835416,-1.8157205338470017,-1.8754881860329813,-2.5836635836599298,-1.1909855078092708,-2.512126916912777,419.0
420,-1.177580500537896,-1.813925229573789,-1.8779275601171792,-2.583014337013819,-1.1902632313198476,-2.4347155438518207,420.0
421,-1.1769451453783835,-1.8123604113481901,-1.8800470289801114,-2.582455125402056,-1.1896292418723897,-2.3673040898057347,421.0
422,-1.1764040405459857,-1.811027722550407,-1.8818520900183022,-2.5819788687746756,-1.1890893001585745,-2.309892635759649,422.0
423,-1.1759565746299945,-1.8099269831461995,-1.8833421680860936,-2.5815863158066903,-1.1886427919754203,-2.262481173060406,423.0
424,-1.1756010297901058,-1.8090576871711677,-1.8845156474991245,-2.581279569870723,-1.1882879916377738,-2.2250696708364517,424.0
425,-1.1753405211874046,-1.8084207518134214,-1.8853754588306098,-2.581054816348247,-1.1880280285337468,-2.1976581686125103,425.0
426,-1.1751750488218906,-1.8080161770729601,-1.8859216020805503,-2.580912055239262,-1.187862902663339,-2.180246666388561,426.0
427,-1.17503587695886,-1.8076762646678357,-1.8863802413607305,-2.5807923245352833,-1.187724021347293,-2.1726976616653437,427.0
428,-1.1744320637582377,-1.8062032445460028,-1.8883667293477917,-2.5802744976625687,-1.1871214644947938,-2.174172632940883,428.0
429,-1.1744318169206318,-1.8062031749271423,-1.8883665030284695,-2.580274790654662,-1.1871212168699723,-2.184714910989286,429.0
430,-1.1744313359423542,-1.8062030392705046,-1.8883660620313316,-2.580275361567799,-1.1871207343577563,-2.20525718903769,430.0
431,-1.1744306208234052,-1.8062028375760903,-1.8883654063563786,-2.580276210401981,-1.1871200169581466,-2.235799467086089,431.0
432,-1.1744296714737048,-1.8062025699514404,-1.8883645356956682,-2.580277338309803,-1.1871190638738238,-2.276341722559675,432.0
433,-1.17442848792779,-1.8062022363551007,-1.8883634501676423,-2.580278744847609,-1.187117875411663,-2.3268839705882116,433.0
434,-1.1744270702122528,-1.8062018367552979,-1.8883621498632523,-2.580280429674938,-1.1871164518071793,-2.3874262186167305,434.0
435,-1.174427061090761,-1.806201855366818,-1.888362161390352,-2.5802803998426946,-1.1871164426883944,-2.4579684477497854,435.0
436,-1.1744270618720625,-1.8062018799164477,-1.8883621849588235,-2.580280352188287,-1.1871164435123076,-2.538510676245632,436.0
437,-1.1744270627399518,-1.806201907508067,-1.8883622114758822,-2.5802802985184226,-1.187116444352636,-2.629052899232385,437.0
438,-1.1744270714891392,-1.8062019362644874,-1.8883622416171084,-2.5802802399934115,-1.1871164533379768,-2.729595115822466,438.0
439,-1.1744270878759409,-1.8062019662445807,-1.888362275360967,-2.5802801765787557,-1.187116470217192,-2.8401373253976683,439.0
440,-1.1744271059516078,-1.8062019988465567,-1.8883623121358748,-2.5802801075393225,-1.1871164888325825,-2.9606795282676743,440.0
441,-1.1744271417532783,-1.8062020270725103,-1.8883623501898723,-2.5802800418734693,-1.1871165251564217,-3.0912217214877478,441.0
442,-1.174427180297502,-1.8062020574606983,-1.888362391158874,-2.5802799711776254,-1.18711656426293,-3.231763911193988,442.0
443,-1.1744272358699552,-1.8062020800279914,-1.8883624299058872,-2.5802799107565253,-1.187116620309911,-3.3823061003397648,443.0
444,-1.17442729748133,-1.806202102037467,-1.8883624699842692,-2.580279849650345,-1.1871166823998331,-3.542848281553086,444.0
445,-1.1744273710122912,-1.806202111741053,-1.8883625019734118,-2.5802798090816093,-1.1871167562409244,-3.7058239661395818,445.0
446,-1.174427441686142,-1.8062021170219085,-1.8883625288499735,-2.5802797779928985,-1.1871168271491115,-3.85896902537955,446.0
447,-1.1744275115087457,-1.8062021128069743,-1.8883625463811669,-2.5802797657053973,-1.1871168970546164,-4.0021140846194925,447.0
448,-1.17442757635489,-1.8062021059581825,-1.8883625598562932,-2.5802797600260745,-1.187116961931521,-4.135259143859402,448.0
449,-1.1744276360625094,-1.806202091667814,-1.8883625646268571,-2.58027977039493,-1.187117021541663,-4.258404203099289,449.0
450,-1.174427690921572,-1.8062020785379012,-1.8883625690100196,-2.580279779921783,-1.187117076311164,-4.371549262339138,450.0
451,-1.1744277372333065,-1.8062020598020228,-1.888362565391633,-2.5802798029126417,-1.1871171224267305,-4.474694321578991,451.0
452,-1.1744277784645718,-1.8062020418023472,-1.8883625609084487,-2.580279825958474,-1.187117163462563,-4.5678393808188265,452.0
453,-1.1744278152692733,-1.8062020257351095,-1.8883625569065725,-2.5802798465301193,-1.1871172000928136,-4.650984440058646,453.0
454,-1.1744278436284592,-1.8062020084317831,-1.8883625491142642,-2.5802798719988393,-1.1871172282400129,-4.724129499298471,454.0
455,-1.1744278666508583,-1.8062019923432762,-1.8883625408357927,-2.5802798966628346,-1.187117251058154,-4.787274558538284,455.0
456,-1.1744278860273036,-1.806201978802635,-1.8883625338683432,-2.5802799174209037,-1.1871172702626889,-4.84041961777814,456.0
457,-1.1744279017577952,-1.8062019678098604,-1.8883625282119172,-2.5802799342730474,-1.1871172858536172,-4.883564677018011,457.0
458,-1.1744279138423321,-1.8062019593649494,-1.8883625238665163,-2.580279947219264,-1.1871172978309388,-4.916709736257861,458.0
459,-1.174427922280915,-1.8062019534679028,-1.8883625208321404,-2.580279956259554,-1.1871173061946534,-4.9398547954977206,459.0
460,-1.174439105530023,-1.8062298917872215,-1.8883259835592654,-2.580288636762036,-1.187128473772622,-4.953033847048885,460.0
461,-1.1757226186032534,-1.8094381593814761,-1.8841309643311934,-2.5812847447664677,-1.1884101923605086,-4.958251154901611,461.0
462,-1.1770979566426911,-1.8128759640803251,-1.879635814726032,-2.582352117405427,-1.1897836089092129,-4.953654461784121,462.0
463,-1.1771336863962862,-1.8129652880167206,-1.8795190227577032,-2.582379851341034,-1.1898192924119928,-4.941093508911384,463.0
464,-1.1771336791782383,-1.8129652945029555,-1.8795190229278163,-2.582379854367371,-1.1898192918226638,-4.918640155754679,464.0
465,-1.1771336687455045,-1.8129653038779503,-1.8795190231736922,-2.582379858741541,-1.189819290970867,-4.886186802597971,465.0
466,-1.1771336550980849,-1.812965316141705,-1.879519023495331,-2.582379864463544,-1.1898192898566018,-4.8437334494412525,466.0
467,-1.177133638505936,-1.8129653311043805,-1.879519024451603,-2.582379869453784,-1.1898192907808254,-4.791280098440115,467.0
468,-1.1771336191261292,-1.8129653486555217,-1.8795190263676813,-2.5823798725022726,-1.189819295082325,-4.72882675015555,468.0
469,-1.1771335945603023,-1.8129653675410824,-1.879519028941805,-2.582379870975977,-1.1898192920620478,-4.656373405390444,469.0
470,-1.1771335584353388,-1.8129653832454005,-1.8795190332486675,-2.5823798493840227,-1.1898192572103288,-4.5739200734360175,470.0
471,-1.177133517910991,-1.8129654008437837,-1.879519038116897,-2.582379825001458,-1.1898192179814884,-4.48146674762042,471.0
472,-1.1771334726354898,-1.8129654197297178,-1.879519042813568,-2.582379799270334,-1.1898191739082729,-4.379013428571342,472.0
473,-1.1771334184439124,-1.8129654326744418,-1.879519038483877,-2.5823797898321073,-1.1898191197493913,-4.26656012031026,473.0
474,-1.177133359432157,-1.812965446771512,-1.8795190337654208,-2.5823797795689547,-1.1898190607644696,-4.144106819813606,474.0
475,-1.1771332953472609,-1.8129654542919664,-1.879519021153537,-2.5823797837134235,-1.189818996634926,-4.011653525169961,475.0
476,-1.17713322629457,-1.8129654584345647,-1.8795190037565432,-2.5823797959531762,-1.1898189274980686,-3.86920023262112,476.0
477,-1.1771331559995082,-1.8129654541030769,-1.8795189778438133,-2.582379825138112,-1.1898188569830885,-3.716746944501903,477.0
478,-1.1771330831603328,-1.8129654444623944,-1.8795189460493242,-2.5823798654596475,-1.1898187838349956,-3.5542936628682416,478.0
479,-1.1771330193874077,-1.812965422867801,-1.879518905589439,-2.5823799265015714,-1.189818719583197,-3.389187993086208,479.0
480,-1.1771329621538675,-1.8129653998875548,-1.8795188658236976,-2.582379988328567,-1.1898186618628577,-3.2338783535549585,480.0
481,-1.1771329225496476,-1.812965368647131,-1.8795188235873421,-2.582380061125715,-1.18981862167888,-3.0885687140237117,481.0
482,-1.1771328863984545,-1.8129653392392928,-1.8795187841782515,-2.582380129319726,-1.1898185849843628,-2.9532590744924963,482.0
483,-1.1771328679350095,-1.8129653054548611,-1.8795187460434393,-2.5823802008673478,-1.1898185659462555,-2.8279494349613064,483.0
484,-1.1771328509449903,-1.8129652743665128,-1.8795187109518667,-2.582380266705302,-1.1898185484274333,-2.7126397954301456,484.0
485,-1.177132844499075,-1.8129652438066224,-1.879518679630717,-2.5823803284031204,-1.1898185414837212,-2.6073301558990027,485.0
486,-1.1771328435271309,-1.8129652149867987,-1.8795186516735285,-2.5823803850834994,-1.1898185400532888,-2.512020516367872,486.0
487,-1.1771328426571646,-1.8129651891907896,-1.8795186266496373,-2.5823804358169067,-1.1898185387729394,-2.426710876836741,487.0
488,-1.1771328469207476,-1.812965166116769,-1.879518605826635,-2.582380479711747,-1.189818542680267,-2.3514012373056086,488.0
489,-1.1771328552655715,-1.8129651458278602,-1.8795185889394175,-2.5823805169544904,-1.189818550721704,-2.2860915977744964,489.0
490,-1.1771328623326631,-1.8129651286455242,-1.8795185746379148,-2.5823805484947457,-1.189818557531862,-2.230781958243368,490.0
491,-1.1771328681220226,-1.8129651145697618,-1.8795185629221258,-2.5823805743325123,-1.1898185631107416,-2.1854723187121965,491.0
492,-1.1771328726336496,-1.8129651036005712,-1.879518553792054,-2.582380594467792,-1.1898185674583424,-2.150162679181042,492.0
493,-1.1771328758675441,-1.8129650957379515,-1.8795185472476985,-2.582380608900583,-1.1898185705746647,-2.1248530396498824,493.0
494,-1.1771328778237065,-1.812965090981903,-1.8795185432890595,-2.5823806176308866,-1.1898185724597081,-2.1095434001187328,494.0
495,-1.1780344512851684,-1.8152463570243969,-1.8765176699896131,-2.583106751270898,-1.1907188076652682,-2.1026016961465754,495.0
496,-1.1795933777912966,-1.8191909430600046,-1.87132880510142,-2.5843623159263123,-1.1922754213173847,-2.1050709162785517,496.0
497,-1.179800770335657,-1.8197157184178885,-1.8706385011345,-2.584529349400036,-1.1924825102802452,-2.1158631397913212,497.0
498,-1.1798007688474883,-1.819715725169968,-1.870638504531537,-2.584529345948507,-1.1924825167802786,-2.1361113712922473,498.0
499,-1.1798007666243573,-1.8197157352566988,-1.8706385096062697,-2.584529340792371,-1.1924825264904855,-2.1663596027931704,499.0
500,-1.179800763666264,-1.8197157486780813,-1.870638516358698,-2.584529333931627,-1.1924825394108658,-2.206607834294097,500.0
501,-1.1798007598665694,-1.819715765540234,-1.8706385244652777,-2.58452932660302,-1.192482554621995,-2.2568560632831733,501.0
502,-1.1798007548922826,-1.8197157861745255,-1.8706385329157038,-2.5845293226684256,-1.192482569252864,-2.3171042834412257,502.0
503,-1.1798007490923637,-1.819715810233697,-1.8706385427687318,-2.584529318080767,-1.1924825863121649,-2.387352503599282,503.0
504,-1.1798007497221392,-1.8197158344883206,-1.8706385658090843,-2.5845292721833797,-1.1924825864845512,-2.4676007075202406,504.0
505,-1.179800750476209,-1.819715861734461,-1.8706385918335109,-2.5845292201560266,-1.192482586449843,-2.5578489078690034,505.0
506,-1.1798007512887962,-1.8197158919835619,-1.8706386208003425,-2.584529162107095,-1.1924825862027957,-2.6580970997201145,506.0
507,-1.1798007652979114,-1.819715922044777,-1.870638654048367,-2.584529099203733,-1.1924826004452218,-2.7683452815472727,507.0
508,-1.179800782901041,-1.8197159542644261,-1.8706386905606502,-2.5845290307527264,-1.1924826185586652,-2.888593456045183,508.0
509,-1.1798008094058,-1.8197159859257912,-1.87063872928631,-2.584528960804703,-1.1924826456051973,-3.018841623926968,509.0
510,-1.1798008473949,-1.819716015904852,-1.8706387699374458,-2.584528890824485,-1.1924826841563791,-3.159089788408849,510.0
511,-1.179800894717626,-1.8197160433963464,-1.8706388110882366,-2.5845288229653063,-1.1924827320206977,-3.30933794991633,511.0
512,-1.1798009545470447,-1.8197160661849376,-1.8706388515898795,-2.584528760632278,-1.1924827923418841,-3.469586104682808,512.0
513,-1.1798010242169958,-1.819716081056296,-1.8706388875206597,-2.584528710911663,-1.1924828623987542,-3.635780959627929,513.0
514,-1.1798010944048631,-1.8197160903711964,-1.8706389182618692,-2.5845286719290224,-1.1924829328861954,-3.7932960098293718,514.0
515,-1.1798011646512956,-1.8197160881192802,-1.8706389378837274,-2.58452865560069,-1.1924830032482123,-3.940811060030792,515.0
516,-1.1798012308971086,-1.8197160841690434,-1.8706389546293032,-2.5845286437824684,-1.1924830695739528,-4.078326110232188,516.0
517,-1.179801292024305,-1.8197160715807728,-1.8706389614696666,-2.5845286504066878,-1.1924831306325436,-4.205841160433556,517.0
518,-1.1798013482961336,-1.819716058153377,-1.8706389659959215,-2.5845286601093296,-1.1924831868119419,-4.323356210634902,518.0
519,-1.1798013979548476,-1.8197160425293921,-1.8706389663557483,-2.584528676070114,-1.1924832363290048,-4.430871260836225,519.0
520,-1.1798014405852166,-1.819716023948919,-1.8706389616886545,-2.5845286999010857,-1.1924832787555104,-4.52838631103754,520.0
521,-1.179801478843917,-1.8197160072738465,-1.870638957500157,-2.584528721288235,-1.1924833168312527,-4.615901361238844,521.0
522,-1.17980151113336,-1.8197159912434246,-1.870638952080745,-2.584528743174419,-1.1924833489351316,-4.69341641144014,522.0
523,-1.179801535443469,-1.8197159742713889,-1.8706389432795127,-2.5845287692623318,-1.1924833730274873,-4.760931461641446,523.0
524,-1.1798015561528832,-1.8197159598131687,-1.8706389357818756,-2.5845287914862305,-1.192483393551401,-4.8184465118427555,524.0
525,-1.1798015732616034,-1.8197159478687661,-1.8706389295878312,-2.584528809846115,-1.1924834105068736,-4.865961562044092,525.0
526,-1.1798015867696285,-1.8197159384381782,-1.870638924697383,-2.584528824341986,-1.1924834238939033,-4.9034766122454325,526.0
527,-1.1798015966769588,-1.8197159315214049,-1.870638921110531,-2.584528834973842,-1.1924834337124908,-4.930991662446757,527.0
528,-1.179801602983594,-1.8197159271184458,-1.8706389188272754,-2.5845288417416827,-1.1924834399626356,-4.948506712648092,528.0
529,-1.1803496999851866,-1.821119844020193,-1.8687811706961703,-2.5849866131987143,-1.1930306750609971,-4.9571764053165355,529.0
530,-1.1819570099691565,-1.8252369001311022,-1.8633332437171781,-2.5863290394458396,-1.1946354579484084,-4.956934130043893,530.0
531,-1.182432508652946,-1.826454879685567,-1.8617215461346996,-2.5867261797122234,-1.1951102114962577,-4.94788916059659,531.0
532,-1.1824325029141998,-1.8264548848330389,-1.8617215462369279,-2.5867261822405623,-1.195110210907114,-4.9298839004673844,532.0
533,-1.182432493988193,-1.8264548928393816,-1.8617215463959331,-2.5867261861731228,-1.1951102099907636,-4.901878640338182,533.0
534,-1.182432481874925,-1.8264549037045954,-1.8617215466117152,-2.5867261915099062,-1.1951102087472067,-4.863873380208968,534.0
535,-1.1824324665743964,-1.8264549174286804,-1.861721546884274,-2.5867261982509118,-1.1951102071764435,-4.815868120079765,535.0
536,-1.182432448725582,-1.8264549335706093,-1.8617215485141387,-2.5867262015889194,-1.1951102107818543,-4.757862866704879,536.0
537,-1.1824324278041802,-1.8264549524922604,-1.86172155043418,-2.5867262054684192,-1.195110215047725,-4.6898576133718795,537.0
538,-1.1824323961939656,-1.8264549686929565,-1.861721554075995,-2.5867261907152175,-1.1951101907298216,-4.611852372726668,538.0
539,-1.1824323581112695,-1.8264549852211076,-1.8617215586468703,-2.586726167949335,-1.1951101539975775,-4.5238471366612645,539.0
540,-1.1824323156683454,-1.826455003607003,-1.8617215638118565,-2.5867261422700976,-1.1951101128157098,-4.425841911907518,540.0
541,-1.182432265922984,-1.826455018725158,-1.8617215632001214,-2.586726126420344,-1.195110063589174,-4.317836694563773,541.0
542,-1.1824322097566502,-1.826455032102702,-1.8617215586808893,-2.5867261167114277,-1.1951100074539627,-4.199831485048844,542.0
543,-1.1824321487467309,-1.8264550440913851,-1.8617215513074186,-2.586726111185442,-1.1951099464468478,-4.071826282964745,543.0
544,-1.1824320826742853,-1.8264550480093749,-1.8617215345473759,-2.5867261230552696,-1.1951098802922788,-3.9338210856348437,544.0
545,-1.1824320128954975,-1.8264550495829377,-1.8617215143696244,-2.586726140625192,-1.1951098103865236,-3.7858158897421648,545.0
546,-1.1824319429228165,-1.8264550402737458,-1.8617214836172447,-2.586726179616266,-1.1951097401135289,-3.6278107008265015,546.0
547,-1.1824318742156166,-1.8264550247963838,-1.8617214472983945,-2.5867262303434977,-1.1951096710100186,-3.461507458408649,547.0
548,-1.1824318149375452,-1.8264550021993176,-1.8617214070320807,-2.5867262922585974,-1.195109611242048,-3.3017531945769485,548.0
549,-1.1824317688141028,-1.8264549744267837,-1.8617213658553118,-2.5867263604414243,-1.1951095645743757,-3.151998930745294,549.0
550,-1.1824317311916934,-1.8264549447260148,-1.86172132545871,-2.5867264298937878,-1.1951095263952887,-3.012244666913678,550.0
551,-1.1824317057376534,-1.8264549130235266,-1.8617212869116093,-2.5867264996743664,-1.195109500378884,-2.8824904030820733,551.0
552,-1.1824316883085206,-1.8264548811237953,-1.861721250669198,-2.586726567466723,-1.1951094824016022,-2.7627361392504968,552.0
553,-1.1824316751168438,-1.8264548512249505,-1.8617212176777285,-2.586726630076121,-1.1951094687029653,-2.652981875418938,553.0
554,-1.182431674110652,-1.8264548214331957,-1.8617211885787164,-2.5867266888681524,-1.1951094672179077,-2.553227611587386,554.0
555,-1.182431673205327,-1.8264547946279595,-1.861721162396769,-2.5867267417664976,-1.1951094658817212,-2.463473347755868,555.0
556,-1.1824316729734081,-1.8264547707752916,-1.8617211392771162,-2.586726788668329,-1.195109465267642,-2.3837190839243383,556.0
557,-1.1824316817753195,-1.826454749379482,-1.8617211213403921,-2.5867268280721136,-1.195109473746262,-2.3139648200928145,557.0
558,-1.1824316893153854,-1.8264547310509844,-1.8617211059750844,-2.5867268618269557,-1.1951094810093836,-2.254210556261287,558.0
559,-1.1824316955936058,-1.8264547157898017,-1.86172109318119,-2.5867268899328546,-1.1951094870570067,-2.204456292429728,559.0
560,-1.1824317006099805,-1.8264547035959309,-1.8617210829587116,-2.5867269123898113,-1.1951094918891316,-2.1647020285981555,560.0
561,-1.1824317043645096,-1.8264546944693716,-1.86172107530765,-2.5867269291978245,-1.1951094955057577,-2.1349477647665998,561.0
562,-1.182431706857193,-1.8264546884101236,-1.8617210702280054,-2.5867269403568955,-1.1951094979068855,-2.1151935009350398,562.0
563,-1.1826807029367843,-1.8271003291735302,-1.8608617044722136,-2.586942443113492,-1.1953580799487153,-2.1047896938361736,563.0
564,-1.1842177584911227,-1.8310859161386446,-1.8555568190958631,-2.5882727158231478,-1.1968925800871066,-2.1027800134925774,564.0
565,-1.1850262754201817,-1.8331824060397415,-1.8527663597989907,-2.5889724602431827,-1.1976997555526694,-2.1100718709494783,565.0
566,-1.1850262742614281,-1.8331824112324826,-1.8527663623875208,-2.5889724577169964,-1.197699760467452,-2.1257990474026163,566.0
567,-1.1850262723658902,-1.833182419726987,-1.8527663666219465,-2.588972453584555,-1.1976997685072597,-2.151526223855751,567.0
568,-1.185026269733568,-1.8331824315232548,-1.852766372502269,-2.5889724478458582,-1.1976997796720927,-2.1872534003088893,568.0
569,-1.1850262663644613,-1.8331824466212856,-1.8527663800284873,-2.588972440500906,-1.1976997939619514,-2.232980576762032,569.0
570,-1.1850262618639387,-1.833182465406776,-1.8527663880227978,-2.5889724360247595,-1.1976998079396046,-2.2887077509496483,570.0
571,-1.1850262564258214,-1.8331824876902933,-1.852766397063673,-2.5889724322195145,-1.1976998232932319,-2.354434924462155,571.0
572,-1.1850262540060277,-1.833182511641366,-1.852766413773157,-2.588972406193755,-1.1976998311339628,-2.430162089042006,572.0
573,-1.1850262547226655,-1.8331825372070865,-1.852766438344523,-2.588972357282831,-1.1976998311593225,-2.515889246113807,573.0
574,-1.1850262554950954,-1.8331825657361402,-1.8527664658508534,-2.5889723023686173,-1.1976998309536864,-2.611616393017626,574.0
575,-1.1850262623246097,-1.8331825957845092,-1.8527664968803745,-2.5889722420892505,-1.1976998373089738,-2.717343533232662,575.0
576,-1.185026279059226,-1.8331826264195081,-1.85276653182937,-2.5889721767751035,-1.1976998545291304,-2.8330706651361783,576.0
577,-1.1850262972414813,-1.833182659700645,-1.8527665698013625,-2.5889721058059467,-1.1976998732511137,-2.9587977888137087,577.0
578,-1.185026333513969,-1.8331826883955804,-1.8527666089349069,-2.5889720385972645,-1.1976999100666716,-3.0945249063847573,578.0
579,-1.185026372505026,-1.8331827191847234,-1.8527666509463614,-2.5889719664636557,-1.197699949641032,-3.2402520238503683,579.0
580,-1.1850264294801736,-1.8331827414100383,-1.852766690258986,-2.588971905838691,-1.1977000070977095,-3.3959791344236385,580.0
581,-1.1850264926855067,-1.8331827621334904,-1.8527667300573132,-2.588971846318769,-1.1977000707738323,-3.561365029353345,581.0
582,-1.185026564002206,-1.8331827716425513,-1.8527667615095127,-2.588971806449083,-1.1977001423985507,-3.7233977594832375,582.0
583,-1.1850266330406964,-1.8331827754045213,-1.8527667866785265,-2.588971778559611,-1.1977002116476687,-3.8754304896130938,583.0
584,-1.1850267006242503,-1.8331827714184779,-1.8527668038806846,-2.5889717663416585,-1.1977002793140656,-4.017463219742933,584.0
585,-1.1850267633125569,-1.8331827636624891,-1.8527668159011177,-2.5889717629917506,-1.197700342013933,-4.149495949872751,585.0
586,-1.1850268210309758,-1.8331827499288083,-1.8527668205756964,-2.5889717728744888,-1.1977003996369577,-4.271528680002544,586.0
587,-1.1850268740196486,-1.833182737320541,-1.8527668248672096,-2.5889717819473863,-1.1977004525380528,-4.383561410132329,587.0
588,-1.1850269182251223,-1.8331827184187548,-1.8527668203179157,-2.588971806005878,-1.1977004965356213,-4.485594140262088,588.0
589,-1.1850269579649633,-1.8331827011257849,-1.8527668159366508,-2.5889718282253256,-1.197700536083724,-4.5776268703918355,589.0
590,-1.1850269933867938,-1.8331826857118192,-1.8527668120314378,-2.5889718480304755,-1.1977005713346496,-4.659659600521578,590.0
591,-1.1850270200015596,-1.833182668632064,-1.8527668037655223,-2.5889718737259457,-1.1977005977325677,-4.731692330651312,591.0
592,-1.1850270420632087,-1.8331826532456597,-1.8527667957223475,-2.588971897442055,-1.1977006195947053,-4.793725060781042,592.0
593,-1.1850270605684052,-1.8331826403396256,-1.8527667889757722,-2.5889719173350043,-1.1977006379325528,-4.845757790910803,593.0
594,-1.1850270755171488,-1.8331826299139609,-1.8527667835257975,-2.5889719334047934,-1.1977006527461098,-4.887790521040577,594.0
595,-1.1850270869094395,-1.8331826219686644,-1.8527667793724256,-2.5889719456514215,-1.1977006640353756,-4.919823251170333,595.0
596,-1.1850270947452766,-1.833182616503736,-1.8527667765156561,-2.5889719540748883,-1.1977006718003507,-4.9418559813001,596.0
597,-1.1850803546777402,-1.833322408487072,-1.8525796286617064,-2.589019687652576,-1.1977538382389779,-4.954056758092078,597.0
598,-1.1864226768761383,-1.8368459759379145,-1.8478625590678328,-2.5902227086079184,-1.1990938048837212,-4.958336527948646,598.0
599,-1.1875820864498219,-1.8398894120850486,-1.8437882545768811,-2.5912618010495847,-1.2002511814107208,-4.95284538066824,599.0
600,-1.1875861625797275,-1.8399001267917503,-1.8437739157311788,-2.5912654599278127,-1.2002552541006701,-4.9394187982639615,600.0
601,-1.1875861551812366,-1.8399001334161151,-1.8437739158233633,-2.5912654633322,-1.2002552531896336,-4.916006162328477,601.0
602,-1.1875861446227036,-1.8399001428698778,-1.8437739159549218,-2.5912654681906684,-1.2002552518894753,-4.882593526392997,602.0
603,-1.187586130904129,-1.8399001551530378,-1.843773916125854,-2.591265474503217,-1.2002552502001953,-4.839180890457505,603.0
604,-1.1875861143531525,-1.8399001700432418,-1.8437739169926548,-2.591265479859574,-1.2002552509731084,-4.785768261703132,604.0
605,-1.187586095011571,-1.8399001875121255,-1.843773918639073,-2.5912654839522613,-1.2002552545719545,-4.722355639175587,605.0
606,-1.1875860697030165,-1.839900205585518,-1.843773921154842,-2.591265481072989,-1.2002552475721895,-4.648943021814078,606.0
607,-1.1875860340514472,-1.8399002210374344,-1.843773925454693,-2.591265459793738,-1.200255213221718,-4.565530415823998,607.0
608,-1.1875859941056546,-1.8399002383286631,-1.8437739303180911,-2.591265435755143,-1.200255174582895,-4.472117817284658,608.0
609,-1.1875859490870118,-1.8399002561073554,-1.8437739340642536,-2.591265412287518,-1.2002551306744547,-4.368705225582136,609.0
610,-1.1875858957659184,-1.839900268772058,-1.8437739297458908,-2.591265403126238,-1.2002550773877856,-4.255292643550634,610.0
611,-1.1875858377420179,-1.8399002825547826,-1.843773925042694,-2.5912653931726086,-1.200255019391261,-4.131880070269039,611.0
612,-1.18758577473104,-1.8399002888012934,-1.8437739114317968,-2.5912653996040333,-1.2002549563251015,-3.998467502586948,612.0
613,-1.187585706906953,-1.839900292781913,-1.8437738941065906,-2.591265411949398,-1.2002548884156785,-3.8550549363676385,613.0
614,-1.1875856384094552,-1.839900287184712,-1.8437738672499102,-2.5912654433651827,-1.2002548196777592,-3.7016423751542673,614.0
615,-1.1875855669238191,-1.839900277634233,-1.843773835611995,-2.5912654834589572,-1.2002547478816752,-3.5382298202753915,615.0
616,-1.1875855061359246,-1.839900255284401,-1.8437737948603126,-2.59126554559018,-1.2002546865996118,-3.373907993965121,616.0
617,-1.1875854520988676,-1.8399002319227384,-1.8437737552337718,-2.5912656077061635,-1.2002546320667642,-3.2195645014560874,617.0
618,-1.1875854137132,-1.8399002016053754,-1.8437737137291927,-2.5912656788704913,-1.200254593107026,-3.0752210089470946,618.0
619,-1.1875853802217655,-1.8399001724166315,-1.8437736748527396,-2.5912657463543347,-1.200254559070461,-2.9408775164381407,619.0
620,-1.1875853623436965,-1.839900139695751,-1.8437736374184532,-2.5912658161516684,-1.2002545406242497,-2.8165340239292096,620.0
621,-1.1875853459034251,-1.8399001096063703,-1.843773602994713,-2.591265880335733,-1.2002545236615272,-2.702190531420288,621.0
622,-1.1875853410332433,-1.839900079740829,-1.8437735724050373,-2.591265940635404,-1.2002545182977875,-2.5978470389113903,622.0
623,-1.1875853400918488,-1.839900051914867,-1.8437735450283719,-2.5912659957468462,-1.2002545169043974,-2.5035035464025106,623.0
624,-1.1875853392502382,-1.83990002703834,-1.8437735205535093,-2.5912660450167158,-1.2002545156587006,-2.419160053893618,624.0
625,-1.187585344317747,-1.8399000047703296,-1.8437735004643452,-2.591266087387899,-1.2002545203772101,-2.3448165613847447,625.0
626,-1.1875853523369628,-1.8398999852843874,-1.8437734840054618,-2.591266123398551,-1.2002545280988597,-2.2804730688758568,626.0
627,-1.1875853591098655,-1.8398999688268713,-1.8437734701045487,-2.591266153812577,-1.2002545346204425,-2.2261295763669597,627.0
628,-1.1875853646364547,-1.8398999553977813,-1.8437734587616053,-2.591266178629975,-1.2002545399419584,-2.181786083858034,628.0
629,-1.1875853689167304,-1.8398999449971156,-1.8437734499766347,-2.5912661978507465,-1.2002545440634076,-2.147442591349126,629.0
630,-1.1875853719506926,-1.8398999376248737,-1.8437734437496365,-2.591266211474891,-1.2002545469847898,-2.123099098840213,630.0
631,-1.1875853737383413,-1.839899933281056,-1.8437734400806103,-2.5912662195024088,-1.200254548706105,-2.108755606331303,631.0
632,-1.1885801041213935,-1.8425433152553055,-1.8402144826411637,-2.5921888014782515,-1.2012474397166353,-2.1025209403844034,632.0
633,-1.1899922330413846,-1.8462958933537403,-1.8351621500526036,-2.5934985036526776,-1.202656958799305,-2.105880483126513,633.0
634,-1.1901095535019555,-1.8466076654719623,-1.8347423982912645,-2.593607313512496,-1.202774066639949,-2.1173036039908464,634.0
635,-1.1901095519466718,-1.8466076723579097,-1.8347424016956841,-2.593607310320945,-1.2027740730473382,-2.138368137229537,635.0
636,-1.1901095496530454,-1.846607682512834,-1.8347424067162896,-2.5936073056142637,-1.2027740824965178,-2.1694326704682236,636.0
637,-1.190109546621077,-1.8466076959367355,-1.834742413353081,-2.593607299392452,-1.2027740949874879,-2.2104972037069364,637.0
638,-1.1901095427028918,-1.8466077127718588,-1.8347424211711947,-2.5936072932976604,-1.2027741092191668,-2.2615617359307216,638.0
639,-1.1901095376423292,-1.846607733264615,-1.8347424294173202,-2.5936072901745733,-1.2027741229376985,-2.3226262657866776,639.0
640,-1.1901095322716098,-1.8466077568794412,-1.8347424398684409,-2.5936072836115547,-1.2027741376250392,-2.393690794361543,640.0
641,-1.1901095329412692,-1.8466077807525574,-1.8347424629902576,-2.593607237745364,-1.2027741376334067,-2.474755307689788,641.0
642,-1.190109533681948,-1.8466078075623034,-1.8347424889944872,-2.593607186091605,-1.2027741375442802,-2.56581981644974,642.0
643,-1.1901095344833796,-1.8466078373013037,-1.8347425179078327,-2.593607128535471,-1.2027741372703677,-2.6668843175455277,643.0
644,-1.190109549444123,-1.8466078665639194,-1.8347425511815452,-2.5936070663121065,-1.2027741525961066,-2.77794880764245,644.0
645,-1.1901095667409562,-1.8466078982206289,-1.8347425875586358,-2.593606998550058,-1.2027741704087354,-2.8990132905399233,645.0
646,-1.1901095940751496,-1.846607928756846,-1.8347426259733015,-2.5936069300526867,-1.2027741982846556,-3.0300777670334167,646.0
647,-1.1901096313623718,-1.8466079582093187,-1.8347426664338047,-2.5936068607769034,-1.20277423613552,-3.171142240622639,647.0
648,-1.1901096790330195,-1.8466079843574295,-1.8347427069199735,-2.5936067949269046,-1.20277428433755,-3.322206710772034,648.0
649,-1.1901097377122496,-1.8466080067656105,-1.8347427472023128,-2.593606733175621,-1.2027743435098728,-3.4832711743139626,649.0
650,-1.1901098065244122,-1.8466080202339288,-1.8347427819265674,-2.593606686049094,-1.2027744126920041,-3.6491714898255685,650.0
651,-1.1901098746545464,-1.8466080293520228,-1.834742812187088,-2.5936066477143083,-1.2027744811198826,-3.8058635529242424,651.0
652,-1.1901099432510454,-1.846608026192447,-1.834742830599016,-2.593606633478964,-1.202774549815566,-3.9525556160230226,652.0
653,-1.190110007504351,-1.8466080224392298,-1.8347428470697746,-2.5936066217118525,-1.2027746141488742,-4.089247679121946,653.0
654,-1.1901100667340039,-1.8466080094219286,-1.834742852915473,-2.593606629733269,-1.202774673296906,-4.215939742221016,654.0
655,-1.1901101212564231,-1.846607996482918,-1.8347428573623623,-2.593606639005033,-1.202774727728646,-4.332631805320201,655.0
656,-1.1901101689862312,-1.8466079807726032,-1.834742856972949,-2.5936066557752078,-1.202774775307816,-4.4393238684195175,656.0
657,-1.1901102102307317,-1.8466079628533512,-1.834742852392955,-2.593606678841847,-1.202774816351536,-4.536015931518909,657.0
658,-1.1901102472096818,-1.8466079467873322,-1.834742848286623,-2.593606699522911,-1.2027748531504705,-4.622707994618388,658.0
659,-1.1901102779218606,-1.8466079309938033,-1.8347428424824501,-2.5936067215363705,-1.2027748836733105,-4.699400057717939,659.0
660,-1.1901103013521117,-1.8466079146709056,-1.834742833878896,-2.5936067467682395,-1.202774906889636,-4.7660921208175395,660.0
661,-1.1901103212691635,-1.84660790079551,-1.8347428265653833,-2.5936067682167687,-1.202774926624839,-4.822784183917178,661.0
662,-1.1901103376730167,-1.8466078893676192,-1.8347428205419094,-2.5936067858819607,-1.2027749428789203,-4.869476247016845,662.0
663,-1.1901103505636703,-1.8466078803872303,-1.834742815808478,-2.593606799763813,-1.2027749556518783,-4.906168310116522,663.0
664,-1.1901103599411245,-1.846607873854343,-1.8347428123650886,-2.5936068098623255,-1.2027749649437136,-4.932860373216175,664.0
665,-1.1901103658053793,-1.8466078697689576,-1.834742810211742,-2.5936068161774997,-1.202774970754426,-4.949552436315826,665.0
666,-1.1907364818224495,-1.8482922689765349,-1.8324622108735587,-2.594207397043904,-1.203399868650773,-4.957611318375779,666.0
667,-1.192243461912551,-1.852346423659937,-1.82697308046087,-2.5956529173805944,-1.2049039174123055,-4.956620295226418,667.0
668,-1.1926004539925772,-1.8533068324670825,-1.8256727367183223,-2.595995354231374,-1.205260217536814,-4.947037615353417,668.0
669,-1.1926004481396573,-1.853306837698543,-1.8256727367619054,-2.5959953570304584,-1.2052602166991533,-4.928356372513025,669.0
670,-1.192600439153691,-1.8533068457303852,-1.8256727368288184,-2.5959953613278834,-1.2052602154130962,-4.899675129672607,670.0
671,-1.1926004270346784,-1.8533068565626087,-1.8256727369190613,-2.5959953671236473,-1.2052602136786428,-4.860993886832164,671.0
672,-1.1926004118187388,-1.853306870171074,-1.8256727371039636,-2.5959953741576682,-1.2052602118133784,-4.812312645040729,672.0
673,-1.1926003940729046,-1.853306886176814,-1.8256727385033142,-2.595995378346946,-1.2052602148030322,-4.753631418781609,673.0
674,-1.1926003733029629,-1.8533069049101278,-1.8256727401411315,-2.595995383250128,-1.20526021830216,-4.6849501925225345,674.0
675,-1.1926003415333712,-1.8533069203787622,-1.825672743840355,-2.5959953673514113,-1.205260191857845,-4.606268980192182,675.0
676,-1.192600304084705,-1.8533069365804664,-1.8256727483943966,-2.595995344970472,-1.2052601557658498,-4.51758777219614,676.0
677,-1.1926002623847984,-1.8533069545894816,-1.8256727535333503,-2.595995319758908,-1.2052601153610158,-4.4189065748871705,677.0
678,-1.1926002132327622,-1.8533069688439743,-1.8256727522659693,-2.5959953055609475,-1.205260066648579,-4.310225385793906,678.0
679,-1.1926001581080774,-1.8533069819041028,-1.825672747768119,-2.5959952961592734,-1.2052600115558814,-4.191544204417352,679.0
680,-1.1926000982316118,-1.8533069928528616,-1.8256727396987982,-2.5959952923820153,-1.2052599516758715,-4.062863030302677,680.0
681,-1.1926000334366236,-1.853306996621653,-1.8256727230282692,-2.5959953043273742,-1.2052598867977848,-3.924181860581437,681.0
682,-1.1925999653896533,-1.853306997213187,-1.8256727022196617,-2.595995323530352,-1.2052598186093735,-3.7755006926851986,682.0
683,-1.1925998968108578,-1.8533069880211455,-1.8256726716496448,-2.59599536224117,-1.2052597497292241,-3.6168195316477316,683.0
684,-1.1925998305109915,-1.8533069719523816,-1.825672635051601,-2.5959954138719943,-1.2052596830205877,-3.450446991579076,684.0
685,-1.1925997729070512,-1.8533069499469992,-1.825672595364451,-2.5959954746424057,-1.205259624929956,-3.291375448770118,685.0
686,-1.192599729114394,-1.8533069222301584,-1.8256725544168184,-2.595995542575812,-1.205259580587722,-3.142303905961014,686.0
687,-1.1925996925754805,-1.8533068933675634,-1.8256725146253971,-2.59599561060417,-1.2052595434965039,-3.0032323631517768,687.0
688,-1.192599668929554,-1.8533068621238513,-1.8256724765510877,-2.5959956794829475,-1.2052595192877873,-2.8741608203424023,688.0
689,-1.192599652014485,-1.853306831174113,-1.8256724408806568,-2.5959957457653915,-1.2052595018295758,-2.7550892775328917,689.0
690,-1.1925996401696919,-1.8533068019585945,-1.8256724085046876,-2.5959958070997655,-1.205259489481166,-2.646017734723271,690.0
691,-1.1925996391915914,-1.8533067731034425,-1.825672379897658,-2.595995864468421,-1.205259488029304,-2.54694619191355,691.0
692,-1.1925996383122177,-1.8533067471608526,-1.8256723541781354,-2.595995916046447,-1.205259486723989,-2.4578746491037444,692.0
693,-1.1925996387583675,-1.8533067240594714,-1.8256723316617438,-2.5959959616077364,-1.2052594867935569,-2.3788031062938715,693.0
694,-1.1925996472619398,-1.8533067034077793,-1.8256723140804056,-2.595995999911547,-1.2052594949783546,-2.309731563483931,694.0
695,-1.1925996545343867,-1.8533066857459857,-1.8256722990444478,-2.595996032669831,-1.2052595019781787,-2.2506600206739567,695.0
696,-1.1925996605757085,-1.853306671074094,-1.8256722865538684,-2.595996059882588,-1.2052595077930284,-2.2015884778639494,696.0
697,-1.192599665385905,-1.8533066593921002,-1.82567227660867,-2.595996081549818,-1.2052595124229044,-2.1625169350539313,697.0
698,-1.1925996689649763,-1.8533066507000049,-1.825672269208853,-2.595996097671521,-1.2052595158678063,-2.1334453922439227,698.0
699,-1.192599671312922,-1.8533066449978077,-1.8256722643544177,-2.5959961082476966,-1.2052595181277344,-2.114373849433931,699.0
700,-1.1929045745952136,-1.8541370598531746,-1.824541661852165,-2.5962984151015536,-1.2055637981277132,-2.104489040724565,700.0
701,-1.1943792558098194,-1.858153435578669,-1.8190734323868236,-2.59776051871076,-1.2070354652405642,-2.103089696349717,701.0
702,-1.1950562460950407,-1.8599972605108512,-1.8165631001631024,-2.5984317339963128,-1.207711074579958,-2.1108293411456374,702.0
703,-1.1950562448919546,-1.8599972657750374,-1.8165631027466835,-2.598431731669756,-1.2077110793954475,-2.127095160117964,703.0
704,-1.1950562429492282,-1.859997274275572,-1.8165631069186143,-2.5984317279128657,-1.2077110871714334,-2.153360979090309,704.0
705,-1.195056240266861,-1.8599972860124554,-1.816563112678895,-2.59843172272564,-1.2077110979079153,-2.1896267980626716,705.0
706,-1.1950562368448534,-1.8599973009856874,-1.8165631200275256,-2.59843171610808,-1.2077111116048933,-2.2358926170350175,706.0
707,-1.1950562322608123,-1.8599973195959212,-1.8165631277388254,-2.5984317126597856,-1.2077111245082917,-2.292158430943525,707.0
708,-1.1950562267627451,-1.859997341607914,-1.816563136532452,-2.5984317096801046,-1.207711138822314,-2.358424243746799,708.0
709,-1.1950562246850176,-1.8599973650116661,-1.8165631537052467,-2.5984316821786138,-1.207711145219812,-2.434690046632824,709.0
710,-1.195056225389501,-1.859997390096963,-1.8165631781983547,-2.598431633769666,-1.2077111452137559,-2.5209558428543994,710.0
711,-1.1950562261481361,-1.8599974180692955,-1.816563205605911,-2.5984315794283814,-1.2077111449706734,-2.6172216280411438,711.0
712,-1.195056233625329,-1.8599974473362537,-1.8165632365790954,-2.598431519891829,-1.2077111520552042,-2.723487406533162,712.0
713,-1.1950562500380408,-1.8599974773640873,-1.8165632713461641,-2.598431455357838,-1.207711168957314,-2.8397531768108437,713.0
714,-1.195056268675326,-1.8599975096221617,-1.8165633090142943,-2.598431385722326,-1.2077111881355111,-2.9660189390022653,714.0
715,-1.195056304263165,-1.859997537731393,-1.8165633479117287,-2.5984313193232955,-1.2077112242669097,-3.102284695310448,715.0
716,-1.1950563428276537,-1.8599975676495624,-1.8165633895284663,-2.598431248446112,-1.207711263411725,-3.248550451418505,716.0
717,-1.19505639907632,-1.8599975891424199,-1.8165634284237229,-2.598431188958819,-1.2077113201382994,-3.4048162003868003,717.0
718,-1.1950564615081534,-1.8599976087323369,-1.8165634673944866,-2.598431131386366,-1.2077113830304445,-3.5705111572171537,718.0
719,-1.1950565308809904,-1.8599976180427542,-1.8165634984317545,-2.5984310921028198,-1.2077114527100332,-3.7319986707546455,719.0
720,-1.1950565983064538,-1.8599976210749465,-1.8165635226732628,-2.598431065847044,-1.2077115203347657,-3.883486184292207,720.0
721,-1.1950566640153704,-1.8599976172685087,-1.8165635396399824,-2.598431053660411,-1.2077115861267713,-4.024973697829964,721.0
722,-1.1950567249269168,-1.8599976092163968,-1.816563550913831,-2.5984310513289524,-1.2077116470410056,-4.156461211367818,722.0
723,-1.195056781007885,-1.8599975959401718,-1.8165635555209274,-2.5984310608018335,-1.2077117030281088,-4.277948724905835,723.0
724,-1.1950568323850392,-1.8599975835964693,-1.8165635595633447,-2.598431069838966,-1.207711754316296,-4.389436238443972,724.0
725,-1.195056875154478,-1.859997565044059,-1.816563554778797,-2.5984310937660084,-1.2077117968756623,-4.490923751982188,725.0
726,-1.1950569137096616,-1.8599975483197007,-1.8165635504656872,-2.5984311153354183,-1.2077118352414729,-4.5824112655205305,726.0
727,-1.1950569480505897,-1.859997533423392,-1.816563546624017,-2.5984311345471935,-1.207711869413727,-4.663898779058911,727.0
728,-1.1950569735290753,-1.8599975166837075,-1.8165635381733958,-2.5984311600735763,-1.2077118946736047,-4.735386292597376,728.0
729,-1.1950569948708067,-1.8599975018332873,-1.8165635302789256,-2.5984311830977287,-1.207711915818605,-4.796873806135878,729.0
730,-1.1950570127416336,-1.859997489398061,-1.8165635236683673,-2.598431202377357,-1.2077119335246964,-4.848361319674401,730.0
731,-1.1950570271415555,-1.8599974793780285,-1.8165635183417226,-2.5984312179124607,-1.207711947791879,-4.8898488332129615,731.0
732,-1.1950570380705725,-1.8599974717731882,-1.8165635142989929,-2.5984312297030394,-1.2077119586201515,-4.921336346751512,732.0
733,-1.1950570455286844,-1.8599974665835404,-1.8165635115401786,-2.598431237749093,-1.2077119660095137,-4.942823860290032,733.0
734,-1.1951373844236142,-1.8602189737704902,-1.81626027176612,-2.598513525087775,-1.2077921325591143,-4.95457683773115,734.0
735,-1.1964520822610714,-1.863844031980215,-1.8112977119452416,-2.599860104501713,-1.2091040105492799,-4.958403015876177,735.0
736,-1.1974806946745031,-1.86668026797932,-1.8074150218144736,-2.6009136635765135,-1.210130418247383,-4.95253916717623,736.0
737,-1.19748086122209,-1.8666807428711123,-1.807414376961432,-2.600913840683739,-1.210130588022469,-4.938722169047947,737.0
738,-1.197480853824041,-1.8666807494726707,-1.8074143769815425,-2.6009138443462785,-1.2101305868192718,-4.91490581110986,738.0
739,-1.1974808433197033,-1.8666807588460883,-1.8074143770100974,-2.600913849546644,-1.2101305851108766,-4.881089453171735,739.0
740,-1.1974808297090767,-1.8666807709913644,-1.8074143770470963,-2.6009138562848344,-1.2101305828972837,-4.837273095233613,740.0
741,-1.1974808133398358,-1.866680785679348,-1.8074143777699023,-2.6009138621083348,-1.2101305832669116,-4.783456747445831,741.0
742,-1.1974807942050811,-1.866680802914586,-1.8074143791650745,-2.600913867065808,-1.2101305861584786,-4.719640407087052,742.0
743,-1.1974807688967084,-1.8666808204203034,-1.8074143815657098,-2.600913863967565,-1.2101305774126718,-4.645824072600761,743.0
744,-1.197480733930365,-1.8666808355296063,-1.8074143858352565,-2.6009138431211007,-1.2101305437618592,-4.562007748846843,744.0
745,-1.197480694772275,-1.8666808524269891,-1.807414390666897,-2.6009138195627246,-1.2101305059236434,-4.4681914331902375,745.0
746,-1.197480650480031,-1.86668086947761,-1.8074143939934029,-2.6009137973632073,-1.210130462709013,-4.364375124426365,746.0
747,-1.197480598247673,-1.8666808818226777,-1.8074143897023576,-2.6009137885056166,-1.2101304105126287,-4.250558824860053,747.0
748,-1.1974805414247887,-1.8666808952537386,-1.807414385030175,-2.6009137788852357,-1.2101303537181385,-4.126742534499815,748.0
749,-1.197480479717571,-1.8666809008699665,-1.8074143710717867,-2.6009137863106475,-1.210130291951044,-3.992926249676839,749.0
750,-1.1974804133260355,-1.8666809047022093,-1.8074143538642682,-2.600913798704379,-1.2101302254733222,-3.8491099661154475,750.0
751,-1.1974803464998498,-1.8666808986524044,-1.8074143267501954,-2.6009138308511974,-1.2101301583980457,-3.695293687814071,751.0
752,-1.1974802765467816,-1.866680889254203,-1.807414295337143,-2.6009138705887453,-1.2101300881339727,-3.5314774157627027,752.0
753,-1.1974802178215467,-1.866680866917223,-1.807414254682592,-2.6009139326398816,-1.2101300289088304,-3.3675446324014913,753.0
754,-1.1974801658140366,-1.86668084373316,-1.8074142153148978,-2.600913994349639,-1.2101299764023816,-3.2136115076364775,754.0
755,-1.1974801284479177,-1.8666808142229787,-1.807414174322866,-2.600914064212225,-1.2101299384654205,-3.0696783828713214,755.0
756,-1.1974800964845407,-1.866680785546575,-1.8074141358636662,-2.6009141307914225,-1.2101299059570134,-2.9357452581057215,756.0
757,-1.1974800790874653,-1.8666807537321575,-1.807414098908353,-2.6009141992145897,-1.2101298879955082,-2.8118121333399637,757.0
758,-1.197480063094138,-1.8666807244848111,-1.807414064934907,-2.600914262116783,-1.210129871483294,-2.6978790085741986,758.0
759,-1.1974800589188506,-1.866680695342,-1.8074140348020578,-2.6009143212512456,-1.2101298668171765,-2.5939458838083462,759.0
760,-1.1974800580011684,-1.8666806683278971,-1.8074140078039438,-2.6009143751768304,-1.210129865451095,-2.5000127590424976,760.0
761,-1.197480057181182,-1.8666806441896844,-1.8074139836800107,-2.600914423361566,-1.210129864230445,-2.4160796342766124,761.0
762,-1.197480062495006,-1.8666806225789814,-1.807413963994649,-2.6009144646789695,-1.2101298691990332,-2.3421465095107408,762.0
763,-1.1974800702710073,-1.8666806037076973,-1.8074139477962778,-2.6009144998142544,-1.210129876680548,-2.2782133847448884,763.0
764,-1.1974800768307376,-1.8666805877881372,-1.8074139341315485,-2.6009145294539096,-1.2101298829918534,-2.224280259979038,764.0
765,-1.197480082174197,-1.866680574820301,-1.8074139230004602,-2.600914553597933,-1.2101298881329499,-2.180347135213263,765.0
766,-1.1974800863013852,-1.8666805648041866,-1.8074139144030155,-2.600914572246326,-1.2101298921038364,-2.1464140104474474,766.0
767,-1.197480089212302,-1.8666805577397936,-1.8074139083392147,-2.600914585399088,-1.2101298949045136,-2.122480885681634,767.0
768,-1.197480090906948,-1.866680553627123,-1.8074139048090572,-2.6009145930562187,-1.2101298965349812,-2.10854776091581,768.0
769,-1.1984749551847849,-1.8694577922086046,-1.803591366080261,-2.6019667179066843,-1.211122524368719,-2.102582991141436,769.0
770,-1.1997828808985018,-1.8731089722908816,-1.7985659581512075,-2.6033499193237337,-1.2124275112764935,-2.1062780363310827,770.0
771,-1.199871693472563,-1.873356905752983,-1.7982247145155907,-2.603443842723946,-1.2125161284142787,-2.1179114452266017,771.0
772,-1.1998716918922343,-1.8733569125889018,-1.7982247178487045,-2.6034438398412982,-1.2125161345615458,-2.1392475194088716,772.0
773,-1.1998716895712218,-1.8733569226287456,-1.7982247227440147,-2.6034438356075826,-1.2125161435899745,-2.17058359359116,773.0
774,-1.1998716865095256,-1.8733569358725148,-1.7982247292015214,-2.6034438300227984,-1.2125161554995643,-2.2119196677734094,774.0
775,-1.1998716825463036,-1.8733569524708993,-1.7982247367601227,-2.6034438248062957,-1.2125161688464285,-2.26325573997473,775.0
776,-1.1998716774533964,-1.8733569726376584,-1.7982247447657294,-2.60344382239703,-1.2125161815823629,-2.3245918081245804,776.0
777,-1.1998716722421194,-1.8733569957665992,-1.7982247552658774,-2.6034438155522226,-1.2125161947703493,-2.3959278745218464,777.0
778,-1.199871672898984,-1.8733570191188127,-1.7982247782611311,-2.603443770278389,-1.2125161947518817,-2.4772639260677307,778.0
779,-1.1998716736250494,-1.873357045332849,-1.7982248041167357,-2.6034437192979425,-1.212516194630845,-2.568599972617691,779.0
780,-1.1998716744123532,-1.873357074402333,-1.7982248328555366,-2.6034436625141955,-1.2125161943381402,-2.6699360117134368,780.0
781,-1.1998716894461097,-1.8733571029190816,-1.7982248659462818,-2.6034436011837823,-1.2125162097823403,-2.7812720394783597,781.0
782,-1.1998717063737177,-1.8733571338654316,-1.7982249020694676,-2.603443534377078,-1.212516227228221,-2.9026080600568296,782.0
