Miguel-LA/TFM_MiguelLerinAlonso/workspace/ros_ur_driver/src/trayectories/data/saved_trajectories/20240522_1808_trajectory.csv
,shoulder_pan_joint,shoulder_lift_joint,elbow_joint,wrist_1_joint,wrist_2_joint,wrist_3_joint,time_from_start
0,1.2174355932702308,-1.3993776385074186,1.9939777306529798,-0.6006807432791034,-5.061075122534235,-2.420208139700167,0.0
1,1.2216262430177882,-1.3977021417587254,1.9918148163964196,-0.6001103498208726,-5.057109678882374,-2.4152081397001672,1.0
2,1.2341981922604603,-1.3926756515126453,1.9853260736267382,-0.5983991694461805,-5.04521334792679,-2.400208139700167,2.0
3,1.255146385914394,-1.3842941206721784,1.9745050732085245,-0.5955454067556929,-5.025391325035447,-2.375208133159792,3.0
4,1.2840801285069277,-1.3722448574364263,1.9588550695600386,-0.591410339997108,-4.998045141203987,-2.3402077128484606,4.0
5,1.318653402428776,-1.356797817406698,1.9385918751841473,-0.586039837639741,-4.965440088331766,-2.2973412274464367,5.0
6,1.3535599882594993,-1.3399954824592357,1.9162867956767309,-0.5800721871865281,-4.932602839673548,-2.252797411104479,6.0
7,1.3868563064685455,-1.3227639967564908,1.8931241235064658,-0.5737905391416057,-4.901362563748856,-2.208991707016055,7.0
8,1.4124794394367275,-1.3086631542029075,1.8739453696918003,-0.5685077573099706,-4.877378227569741,-2.1743258092515196,8.0
9,1.4303188693654096,-1.2983883260527596,1.8598441492514144,-0.5645739981918473,-4.860710329717301,-2.149659419296739,9.0
10,1.440981904892197,-1.292060544968624,1.8511107435650302,-0.5621185588325678,-4.850759990202516,-2.1349783710013157,10.0
11,1.4507109827368956,-1.2862405985199385,1.8430663581137976,-0.5598522455912974,-4.84168427679631,-2.130238174753433,11.0
12,1.4603728859753096,-1.2804608087211722,1.8350774723947885,-0.5576015664665304,-4.8326712196522585,-2.1354964739969398,12.0
13,1.4671366202241733,-1.2764146837198285,1.829484870229102,-0.5560259815495693,-4.82636169633257,-2.1507475438481185,13.0
14,1.4680947637433477,-1.2758414539784335,1.8286925338972806,-0.5558027557851181,-4.825467880100485,-2.1747900123516772,14.0
15,1.4680950981468557,-1.275841162492045,1.8286921136666627,-0.5558026320125258,-4.825467544099538,-2.2081926313053337,15.0
16,1.4680955326334013,-1.2758407837496686,1.8286915676510263,-0.5558024712569901,-4.825467107751617,-2.251595246258468,16.0
17,1.4680960671327599,-1.2758403177713413,1.8286908959035555,-0.5558022736870862,-4.825466571630028,-2.304997849922322,17.0
18,1.468096701720751,-1.2758397645354094,1.828690098366811,-0.5558020391208769,-4.825465935116032,-2.3684004535861756,18.0
19,1.468096838383521,-1.2758396272095076,1.8286899427435643,-0.5558020229622198,-4.825465798530926,-2.4418030495440535,19.0
20,1.4680968375866734,-1.275839602498594,1.8286899662845355,-0.5558020712607581,-4.825465800018272,-2.5252056436171557,20.0
21,1.4680968366929685,-1.2758395748198454,1.8286899926298197,-0.5558021252762768,-4.825465801693899,-2.6186082329934455,21.0
22,1.4680968281051152,-1.2758395459104612,1.8286900224389848,-0.5558021839280658,-4.825465810967495,-2.7220108216871477,22.0
23,1.4680968111509156,-1.2758395159237337,1.8286900557689227,-0.5558022471146346,-4.825465828494752,-2.8354134090396714,23.0
24,1.4680967919959949,-1.275839483586601,1.8286900919726214,-0.5558023155092321,-4.825465848267613,-2.9588159936987006,24.0
25,1.468096754941842,-1.2758394554345867,1.828690129599625,-0.5558023810236148,-4.825465885912004,-3.092218575858499,25.0
26,1.4680967151100701,-1.2758394251722698,1.8286901700472165,-0.5558024514491711,-4.8254659263782695,-3.235621154752794,26.0
27,1.4680966566253923,-1.2758394033801341,1.8286902081009688,-0.5558025108724711,-4.8254659853949455,-3.3890237254047615,27.0
28,1.4680965918889346,-1.2758393827019023,1.8286902469778266,-0.5558025699590475,-4.8254660506593865,-3.55239094049,28.0
29,1.4680965175622127,-1.2758393731837854,1.8286902782114414,-0.5558026101697713,-4.825466125340734,-3.7146043699216253,29.0
30,1.4680964456874073,-1.2758393691645362,1.828690303529057,-0.5558026389823567,-4.825466197466762,-3.8668177993532415,30.0
31,1.4680963751826337,-1.2758393731390154,1.8286903209038896,-0.555802651866717,-4.825466268077943,-4.009031228784855,31.0
32,1.4680963097539297,-1.275839380675173,1.8286903334020392,-0.5558026563490355,-4.8254663335373404,-4.1412446582164675,32.0
33,1.4680962494822856,-1.2758393944005921,1.8286903385233177,-0.555802647301566,-4.825466393717286,-4.263458087648077,33.0
34,1.468096194142312,-1.2758394070029366,1.828690343225546,-0.5558026389943957,-4.825466448973064,-4.375671517079684,34.0
35,1.4680961478435806,-1.2758394257504408,1.8286903394289458,-0.5558026161079712,-4.8254664950562525,-4.477884946511288,35.0
36,1.4680961062909887,-1.2758394430467415,1.8286903355780697,-0.5558025946534652,-4.825466536407074,-4.570098375942893,36.0
37,1.4680960692445293,-1.2758394584673587,1.8286903321447954,-0.5558025755255723,-4.825466573273643,-4.652311805374497,37.0
38,1.4680960412591388,-1.2758394754728872,1.8286903245038149,-0.5558025506709234,-4.825466601028403,-4.724525234806101,38.0
39,1.468096018143541,-1.2758394908790236,1.8286903169111606,-0.5558025274999177,-4.8254666239294535,-4.786738664237705,39.0
40,1.468095998743475,-1.2758395038088224,1.828690310538924,-0.5558025080533492,-4.825466643149458,-4.838952093669311,40.0
41,1.4680959830589408,-1.2758395142622843,1.8286903053871075,-0.5558024923312181,-4.825466658688416,-4.88116552310092,41.0
42,1.4680959710899386,-1.2758395222394103,1.828690301455712,-0.5558024803335255,-4.825466670546328,-4.913378952532528,42.0
43,1.468095962836468,-1.2758395277402008,1.8286902987447378,-0.555802472060271,-4.825466678723194,-4.935592381964136,43.0
44,1.4681040922974036,-1.2757678237196515,1.828591668852092,-0.5557755542120048,-4.825458398163467,-4.94789696597578,44.0
45,1.4684870887029766,-1.272391434152472,1.8239476632430422,-0.5545083175705512,-4.8250682891210435,-4.952531439190077,45.0
46,1.468847636997084,-1.269212967099437,1.8195758916874083,-0.5533153706762806,-4.824701047038742,-4.947478497419572,46.0
47,1.4688507152197954,-1.269185863325017,1.8195386182984876,-0.5533052052050598,-4.8246979164786525,-4.9347214943367295,47.0
48,1.4688507224617022,-1.2691858580203443,1.8195386218377636,-0.5533052160044317,-4.8246979177012115,-4.9120002256932915,48.0
49,1.4688507328908893,-1.2691858503809983,1.8195386269347327,-0.5533052315567828,-4.824697919461839,-4.879278957049852,49.0
50,1.4688507465073575,-1.2691858404069796,1.8195386335893946,-0.553305251862113,-4.824697921760532,-4.836557688406412,50.0
51,1.4688507633884715,-1.2691858282620077,1.8195386424095499,-0.5533052794029195,-4.8246979239853145,-4.783836430702755,51.0
52,1.4688507835667037,-1.269185814014798,1.8195386536503024,-0.5533053152211473,-4.8246979258793266,-4.721115185293403,52.0
53,1.4688508093094756,-1.2691857982737267,1.819538664201471,-0.5533053507370652,-4.8246979191519195,-4.648393943930781,53.0
54,1.4688508463823902,-1.2691857829488231,1.8195386679674714,-0.5533053711817997,-4.82469788188588,-4.565672715015814,54.0
55,1.4688508879560298,-1.2691857657641477,1.819538672168159,-0.5533053940288851,-4.824697839955861,-4.472951492983967,55.0
56,1.4688509344901697,-1.2691857475416604,1.819538675835308,-0.5533054173556913,-4.824697792960956,-4.370230278043897,56.0
57,1.468850989706565,-1.269185734970391,1.8195386711145614,-0.5533054255899692,-4.824697737778321,-4.257509073575933,57.0
58,1.4688510498207115,-1.2691857212831228,1.8195386659721537,-0.553305434542828,-4.824697677706157,-4.134787877329863,58.0
59,1.4688511150703278,-1.2691857143367555,1.8195386529167492,-0.5533054289012899,-4.824697612401005,-4.002066687090286,59.0
60,1.4688511853424486,-1.269185710386504,1.8195386355208578,-0.5533054159712123,-4.824697542023777,-3.859345498917901,60.0
61,1.4688512566764045,-1.2691857150700414,1.8195386096377117,-0.5533053859274514,-4.824697470427606,-3.706624315303205,61.0
62,1.4688513307263191,-1.2691857245708185,1.8195385783804519,-0.553305345711971,-4.824697396022409,-3.543903138010334,62.0
63,1.4688513949672595,-1.2691857460355387,1.8195385387538197,-0.5533052850884572,-4.824697331238207,-3.37901558755498,63.0
64,1.468851452443232,-1.269185768742475,1.8195384999862843,-0.5533052240318085,-4.8246972732139275,-3.223995965724116,64.0
65,1.4688514924503344,-1.2691857991581592,1.8195384591787749,-0.5533051530963606,-4.824697232565529,-3.0789763438932503,65.0
66,1.4688515285012669,-1.269185827974933,1.8195384210737031,-0.55330508643351,-4.824697195911679,-2.9439567220623815,66.0
67,1.468851547066095,-1.2691858608248106,1.819538384411388,-0.5533050170508872,-4.824697176716299,-2.8189371002315107,67.0
68,1.4688515641459703,-1.2691858910471032,1.8195383506815905,-0.5533049532180032,-4.824697159056309,-2.7039174784006383,68.0
69,1.4688515701412859,-1.269185920827122,1.8195383207036273,-0.5533048934978169,-4.824697152516656,-2.598897856569767,69.0
70,1.4688515710046957,-1.269185948809773,1.819538293969449,-0.5533048387814279,-4.824697151153777,-2.503878234738893,70.0
71,1.4688515717772386,-1.269185973847486,1.8195382700488087,-0.553304789823469,-4.82469714993433,-2.4188586129080187,71.0
72,1.4688515670888,-1.2691859962421175,1.8195382502710533,-0.55330474761188,-4.82469715423659,-2.343838991077144,72.0
73,1.4688515585674469,-1.269186015902155,1.8195382342331636,-0.5533047118471455,-4.824697162430018,-2.278819369246268,73.0
74,1.4688515513566758,-1.269186032538483,1.819538220661896,-0.5533046815830174,-4.824697169363298,-2.223799747415393,74.0
75,1.4688515454564863,-1.2691860461511006,1.8195382095572494,-0.5533046568194957,-4.824697175036432,-2.178780125584521,75.0
76,1.4688515408668787,-1.2691860567400108,1.8195382009192262,-0.5533046375565803,-4.824697179449419,-2.143760503753648,76.0
77,1.4688515375878528,-1.269186064305213,1.819538194747827,-0.5533046237942713,-4.824697182602259,-2.118740881922774,77.0
78,1.4688515356194085,-1.2691860688467078,1.8195381910430515,-0.5533046155325686,-4.824697184494952,-2.103721260091901,78.0
79,1.4690997524467935,-1.2669708279438239,1.8164748623896423,-0.5524567728157711,-4.824444227338816,-2.0969074858447834,79.0
80,1.4695399618865643,-1.2630421374520524,1.8110421130420795,-0.5509531490404513,-4.823995611994728,-2.0993466400647907,80.0
81,1.469596289355021,-1.262539442628453,1.8103469737342297,-0.5507607620877141,-4.823938212327021,-2.1098079788073436,81.0
82,1.4695962910648688,-1.2625394370567522,1.810346979894212,-0.5507607774826918,-4.823938217250914,-2.12970036689302,82.0
83,1.4695962936342655,-1.2625394286841303,1.8103469891508477,-0.5507608006167994,-4.823938224650073,-2.159592754978693,83.0
84,1.469596297063211,-1.2625394175105875,1.8103470015041363,-0.5507608314900372,-4.823938234524498,-2.1994851430643663,84.0
85,1.469596301301488,-1.2625394034809938,1.8103470167433182,-0.5507608692276392,-4.823938247282826,-2.2493775286004043,85.0
86,1.4695963061479977,-1.262539386374578,1.8103470340243928,-0.5507609103265467,-4.823938264561487,-2.309269902956684,86.0
87,1.4695963118037103,-1.262539366411969,1.8103470541908213,-0.5507609582875811,-4.8239382847251004,-2.3791622773129717,87.0
88,1.4695963112992967,-1.2625393429796707,1.810347076353888,-0.5507610032486137,-4.823938287151203,-2.459054635752904,88.0
89,1.4695963104303573,-1.2625393165838887,1.810347101242477,-0.550761053368397,-4.823938288888415,-2.5489469903028046,89.0
90,1.4695963094919295,-1.2625392872419745,1.8103471288721433,-0.5507611089722085,-4.823938290590954,-2.648839335447491,90.0
91,1.4695962959076305,-1.2625392579284198,1.8103471607171904,-0.5507611697646415,-4.823938304734886,-2.758731670944461,91.0
92,1.4695962782314327,-1.2625392266227555,1.810347195791981,-0.5507612360117065,-4.823938322956069,-2.878623998923361,92.0
93,1.4695962521049488,-1.2625391956095267,1.8103472331433408,-0.5507613041880636,-4.82393834966491,-3.0085163199595404,93.0
94,1.469596213772931,-1.262539166450956,1.8103472724194236,-0.550761372347629,-4.823938388614487,-3.1484086372151383,94.0
95,1.4695961665152901,-1.2625391393320538,1.8103473124523193,-0.5507614391570124,-4.823938436476181,-3.2983009517470303,95.0
96,1.4695961060243667,-1.2625391171248783,1.8103473518137803,-0.5507615002826338,-4.823938497516912,-3.458193259619718,96.0
97,1.469596035765957,-1.2625391021008798,1.810347387300079,-0.5507615502761558,-4.823938568221521,-3.624460502978936,97.0
98,1.4695959644198606,-1.262539092931754,1.8103474175524632,-0.5507615891716392,-4.823938639911969,-3.78231111108961,98.0
99,1.469595893149767,-1.2625390946008017,1.810347437485301,-0.5507616069077284,-4.82393871133268,-3.930161719200264,99.0
100,1.4695958257367197,-1.262539098380602,1.8103474542482942,-0.550761619391325,-4.823938778848886,-4.068012327310862,100.0
101,1.4695957634714891,-1.2625391102197532,1.810347461800386,-0.5507616146410947,-4.823938841060324,-4.195862935421454,101.0
102,1.4695957061423432,-1.2625391232664147,1.8103474667149535,-0.5507616060821037,-4.823938898301618,-4.3137135435320335,102.0
103,1.4695956553638672,-1.2625391381906719,1.8103474678679108,-0.5507615919319898,-4.82393894894213,-4.421564151642612,103.0
104,1.4695956118719655,-1.2625391562951804,1.8103474637995096,-0.5507615694335258,-4.823938992220829,-4.519414759753184,104.0
105,1.469595572824789,-1.2625391725494657,1.8103474601468788,-0.5507615492343264,-4.823939031076591,-4.607265367863755,105.0
106,1.4695955396350067,-1.2625391880281267,1.8103474554626033,-0.5507615288226082,-4.823939064073982,-4.685115975974326,106.0
107,1.4695955147691038,-1.2625392046073767,1.810347447219523,-0.5507615038128585,-4.8239390887067675,-4.752966584084894,107.0
108,1.469595493568003,-1.2625392187431337,1.810347440191329,-0.5507614824891112,-4.8239391097091096,-4.810817192195467,108.0
109,1.4695954760317038,-1.2625392304353944,1.8103474343780186,-0.5507614648513651,-4.823939127081006,-4.858667800306045,109.0
110,1.4695954621602065,-1.2625392396841628,1.8103474297795956,-0.5507614508996217,-4.82393914082246,-4.896518408416623,110.0
111,1.4695954519535106,-1.2625392464894387,1.8103474263960602,-0.5507614406338807,-4.823939150933468,-4.924369016527199,111.0
112,1.4695954454116167,-1.2625392508512217,1.8103474242274122,-0.550761434054142,-4.823939157414032,-4.942219624637778,112.0
113,1.4697207982899267,-1.26140669619979,1.8087729539687216,-0.5503196417736194,-4.823811343542234,-4.951162669500063,113.0
114,1.4701741512647368,-1.2573107806391586,1.8030788530008284,-0.5487219025558593,-4.82334909082955,-4.951573380598217,114.0
115,1.4703304520120877,-1.2558986701017398,1.8011157550308026,-0.5481710696298197,-4.823189724732181,-4.943245676705474,115.0
116,1.470330457382404,-1.255898666175606,1.8011157576695518,-0.5481710776416737,-4.823189725612,-4.9262064876868665,116.0
117,1.4703304659044647,-1.2558986599452928,1.8011157618569362,-0.5481710903555438,-4.82318972700817,-4.899167298668261,117.0
118,1.4703304775782695,-1.255898651410801,1.801115767592956,-0.54817110777143,-4.82318972892069,-4.8621281096496505,118.0
119,1.4703304924038187,-1.2558986405721302,1.8011157748776114,-0.5481711298893321,-4.8231897313495615,-4.815088920631041,119.0
120,1.4703305105314537,-1.2558986277548034,1.8011157849137927,-0.5481711615962606,-4.823189733090818,-4.758049751009345,120.0
121,1.470330531855067,-1.255898612729071,1.8011157968525198,-0.5481711994430457,-4.823189734994199,-4.691010583494609,121.0
122,1.4703305629418713,-1.255898597658654,1.8011158035249073,-0.5481712259330274,-4.823189712088425,-4.613971427102049,122.0
123,1.4703306014212434,-1.2558985817524397,1.8011158074689653,-0.5481712471894851,-4.82318967341063,-4.52693227600403,123.0
124,1.4703306443556456,-1.2558985640057063,1.8011158118286414,-0.548171270762358,-4.823189630001214,-4.429893137358153,124.0
125,1.4703306941047365,-1.2558985487033203,1.8011158115621355,-0.5481712867282728,-4.823189580029059,-4.322854005367571,125.0
126,1.4703307506611867,-1.255898535834449,1.8011158066826405,-0.548171295112839,-4.82318952350955,-4.205814881467441,126.0
127,1.4703308120920726,-1.2558985232787474,1.8011158000242853,-0.548171301435722,-4.823189462104687,-4.078775765516273,127.0
128,1.4703308786559206,-1.255898519554658,1.8011157833964255,-0.5481712890262915,-4.823189395439633,-3.941736655165987,128.0
129,1.4703309495048884,-1.2558985168799721,1.8011157644683693,-0.548171273299311,-4.823189324460053,-3.794697545767394,129.0
130,1.4703310200059625,-1.2558985259534374,1.8011157344379214,-0.548171234718575,-4.823189253616827,-3.637658443325926,130.0
131,1.4703310906659608,-1.255898539802988,1.8011156998025606,-0.5481711867570507,-4.823189182528536,-3.4716242509257373,131.0
132,1.470331151053219,-1.2558985619875003,1.8011156603294274,-0.5481711255445616,-4.823189121589506,-3.3109252019994013,132.0
133,1.4703311995163062,-1.2558985882371827,1.8011156205928778,-0.5481710599138764,-4.823189072532044,-3.1602261530730704,133.0
134,1.4703312378109235,-1.2558986173812627,1.801115581177636,-0.5481709916338013,-4.823189033616991,-3.01952710414675,134.0
135,1.4703312652639111,-1.2558986478340506,1.8011155438006454,-0.5481709240022796,-4.823189005547672,-2.888828055220438,135.0
136,1.4703312829486568,-1.255898679148726,1.8011155085627877,-0.5481708575750959,-4.823188987255984,-2.76812900629413,136.0
137,1.4703312977353646,-1.2558987081949364,1.8011154763677915,-0.5481707964381195,-4.823188971910414,-2.657429957367831,137.0
138,1.4703312986411068,-1.2558987374713808,1.8011154481614318,-0.548170738956142,-4.823188970477004,-2.556730908441534,138.0
139,1.4703312994569036,-1.2558987638405004,1.8011154227561228,-0.5481706871824582,-4.823188969185939,-2.4660318595152404,139.0
140,1.470331300182755,-1.2558987873022978,1.8011154001518672,-0.5481706411170683,-4.82318896803722,-2.385332810588947,140.0
141,1.470331291470651,-1.2558988083797344,1.8011153826837667,-0.5481706025024016,-4.82318897639326,-2.3146337616626527,141.0
142,1.4703312836247562,-1.2558988264963604,1.8011153677778782,-0.5481705694178057,-4.823188983934019,-2.2539347127363594,142.0
143,1.4703312770714507,-1.25589884162832,1.8011153553276904,-0.548170541783805,-4.823188990232457,-2.203235663810059,143.0
144,1.470331271810735,-1.2558988537756157,1.8011153453332065,-0.5481705196003996,-4.823188995288579,-2.162536614883757,144.0
145,1.4703312678426086,-1.2558988629382482,1.8011153377944271,-0.5481705028675898,-4.8231889991023795,-2.1318375659574578,145.0
146,1.4703312651670712,-1.2558988691162172,1.8011153327113523,-0.5481704915853756,-4.823189001673862,-2.1111385170311556,146.0
147,1.4703643982954866,-1.2555958124387503,1.8006918087810084,-0.5480500568291841,-4.823155200002813,-2.1000751136415503,147.0
148,1.4707744958051683,-1.2518449177313276,1.795449994495745,-0.5465595396175832,-4.822736828831584,-2.0968228656161685,148.0
149,1.4710566851817122,-1.2492639205351668,1.7918430987282377,-0.5455339190234665,-4.8224489483528385,-2.1030358482103173,149.0
150,1.471056686392316,-1.249263916618508,1.7918431030918986,-0.5455339298753447,-4.8224489517955575,-2.117204344274132,150.0
151,1.4710566884573533,-1.2492639099375062,1.7918431105353936,-0.5455339483863828,-4.822448957668117,-2.1413728403379464,151.0
152,1.4710566913768242,-1.2492639004921615,1.7918431210587222,-0.545533974556581,-4.8224489659705165,-2.1755413364017615,152.0
153,1.4710566951507285,-1.2492638882824734,1.7918431346618848,-0.5455340083859396,-4.822448976702757,-2.2197098324655777,153.0
154,1.4710566996107544,-1.2492638731190087,1.791843150625013,-0.5455340469034293,-4.822448991251091,-2.273878326242411,154.0
155,1.4710567047794156,-1.2492638550271056,1.7918431690443954,-0.5455340905064504,-4.822449009430093,-2.338046818603517,155.0
156,1.4710567080546233,-1.2492638338792228,1.7918431899978726,-0.5455341371240764,-4.822449022562564,-2.412215304534828,156.0
157,1.4710567072420315,-1.2492638094830413,1.7918432132119553,-0.5455341836826242,-4.822449024242112,-2.4963837804150657,157.0
158,1.47105670635648,-1.2492637821797703,1.7918432391596562,-0.5455342356920869,-4.822449025921048,-2.5905522475591924,158.0
159,1.4710567017347442,-1.2492637528359403,1.7918432682761272,-0.5455342930779261,-4.822449031252902,-2.6947207077534707,159.0
160,1.4710566851245204,-1.2492637234021637,1.7918433015312027,-0.5455343556330143,-4.8224490483827935,-2.808889159172326,160.0
161,1.4710566670598266,-1.249263691391306,1.7918433377028393,-0.5455344236825098,-4.8224490670097575,-2.9330576009506006,161.0
162,1.4710566333379322,-1.249263662712746,1.7918433754502998,-0.5455344898629149,-4.8224491013247075,-3.067226037205562,162.0
163,1.4710565943602865,-1.2492636330378901,1.7918434157529928,-0.5455345595568778,-4.822449140937253,-3.2113944722767065,163.0
164,1.4710565396645083,-1.2492636099840628,1.7918434544957957,-0.5455346209487641,-4.822449196188808,-3.3655629018618676,164.0
165,1.47105647802347,-1.2492635878613638,1.7918434944606116,-0.5455346825787952,-4.822449258386593,-3.529722426887312,165.0
166,1.4710564050809167,-1.2492635784625388,1.791843525673862,-0.5455347226462101,-4.822449331685244,-3.693294246578553,166.0
167,1.471056335261408,-1.2492635727249857,1.79184355242799,-0.5455347546159076,-4.8224494017868365,-3.846866066269823,167.0
168,1.4710562659915005,-1.2492635765929676,1.791843569810574,-0.5455347676107478,-4.822449471164201,-3.9904378859611382,168.0
169,1.471056201617981,-1.2492635825031229,1.7918435837456068,-0.5455347751521455,-4.822449535595824,-4.124009705652487,169.0
170,1.4710561423124198,-1.2492635959921636,1.7918435888754791,-0.5455347663459706,-4.82244959480985,-4.247581525343851,170.0
171,1.4710560878061376,-1.2492636083896045,1.791843593590212,-0.5455347582524291,-4.822449649232005,-4.36115334503526,171.0
172,1.4710560415472864,-1.2492636258024992,1.7918435909881398,-0.545534737887432,-4.822449695295183,-4.4647251647266915,172.0
173,1.4710560005161355,-1.2492636428825779,1.791843587113422,-0.5455347166218385,-4.822449736123288,-4.558296984418144,173.0
174,1.4710559638699752,-1.2492636581373093,1.7918435836527895,-0.5455346976288931,-4.8224497725881035,-4.641868804109607,174.0
175,1.471055935329214,-1.249263674399155,1.7918435767594683,-0.5455346742566733,-4.822449800908623,-4.715440623801085,175.0
176,1.4710559123451146,-1.249263689727685,1.7918435690687684,-0.5455346510622077,-4.822449823675096,-4.779012443492579,176.0
177,1.4710558929764692,-1.2492637026449989,1.7918435625878324,-0.5455346315162866,-4.8224498428603475,-4.832584263184082,177.0
178,1.471055877223278,-1.2492637131510975,1.7918435573166607,-0.5455346156189103,-4.822449858464379,-4.876156082875594,178.0
179,1.4710558650855408,-1.2492637212459816,1.791843553255255,-0.5455346033700792,-4.82244987048719,-4.909727902567105,179.0
180,1.4710558565632574,-1.249263726929652,1.7918435504036156,-0.5455345947697936,-4.822449878928779,-4.933299722258607,180.0
181,1.4710558775115874,-1.2492634908033764,1.791843212473152,-0.5455344929534921,-4.822449857398105,-4.946871540321037,181.0
182,1.471361502823999,-1.2464336192923016,1.7878680279216017,-0.5443894789317306,-4.822137897522272,-4.952650821347556,182.0
183,1.4717507709828497,-1.2428293078890242,1.7828049753178934,-0.5429311189281038,-4.821740562685139,-4.948838367041173,183.0
184,1.4717719307125947,-1.2426334158104815,1.7825298069198108,-0.5428518642742202,-4.821718968628723,-4.937319653224606,184.0
185,1.471771937343204,-1.2426334109726889,1.7825298101966098,-0.5428518741724939,-4.82171896968605,-4.91604573980325,185.0
186,1.471771947090593,-1.242633403860847,1.7825298150136983,-0.542851888723543,-4.821718971240385,-4.884771826381885,186.0
187,1.4717719599547614,-1.2426333944749555,1.7825298213710765,-0.542851907927367,-4.821718973291727,-4.843497912960519,187.0
188,1.4717719759857508,-1.2426333829259173,1.782529829676511,-0.5428519334315023,-4.821718975434432,-4.792224002826328,188.0
189,1.4717719952565549,-1.2426333693754963,1.782529840524782,-0.5428519676390887,-4.821718977076815,-4.730950099526504,189.0
190,1.4717720185806127,-1.2426333539185515,1.7825298521587996,-0.5428520050640077,-4.82171897551486,-4.659676197880082,190.0
191,1.471772054030925,-1.2426333392654958,1.782529855825735,-0.5428520246808136,-4.821718939883473,-4.578402310897769,191.0
192,1.4717720938561423,-1.2426333228044384,1.7825298599291997,-0.5428520466623232,-4.821718899756312,-4.48712842901864,192.0
193,1.4717721380656976,-1.2426333045317144,1.78252986445862,-0.5428520709732071,-4.821718855052803,-4.385854554905261,193.0
194,1.4717721909460215,-1.2426332921553498,1.7825298602125996,-0.5428520795315736,-4.82171880218392,-4.274580692060179,194.0
195,1.4717722487673088,-1.24263327900466,1.782529855177244,-0.5428520880515155,-4.821718744403647,-4.153306836505688,195.0
196,1.471772311539667,-1.242633270808963,1.7825298438648927,-0.542852085391023,-4.8217186815968995,-4.022032987500003,196.0
197,1.4717723792470692,-1.2426332670340319,1.7825298267952276,-0.5428520726055186,-4.821718613785315,-3.8807591415277027,197.0
198,1.4717724488127968,-1.2426332697718403,1.7825298028893388,-0.5428520464848829,-4.821718543991958,-3.7294852992144216,198.0
199,1.4717725202527008,-1.2426332789858094,1.7825297721775248,-0.5428520070959745,-4.821718472201381,-3.568211463356473,199.0
200,1.4717725848638021,-1.242633298148155,1.782529733978464,-0.5428519502179887,-4.82171840707682,-3.402422661364142,200.0
201,1.471772642878724,-1.242633319482621,1.782529695705587,-0.5428518910438961,-4.821718348526019,-3.2459610276164184,201.0
202,1.4717726829117548,-1.242633348973788,1.7825296550801302,-0.542851821223381,-4.821718307855545,-3.099499393868672,202.0
203,1.4717727195618275,-1.2426333768846405,1.7825296170100673,-0.5428517555133765,-4.821718270605372,-2.963037760120934,203.0
204,1.4717727390252466,-1.242633408786295,1.7825295803539098,-0.5428516870961361,-4.8217182505137295,-2.836576126373176,204.0
205,1.4717727558652185,-1.2426334386166864,1.782529546493456,-0.5428516235264848,-4.821718233089819,-2.7201144926254077,205.0
206,1.4717727638928677,-1.242633467560759,1.7825295161805386,-0.5428515643244243,-4.821718224516962,-2.6136528588776344,206.0
207,1.4717727647518437,-1.2426334952447555,1.7825294892723322,-0.5428515097333504,-4.821718223154054,-2.5171912251298583,207.0
208,1.4717727655217718,-1.2426335200587983,1.7825294651536447,-0.5428514608016327,-4.821718221932436,-2.43072959138208,208.0
209,1.4717727623732202,-1.2426335422163817,1.7825294447898927,-0.5428514182522821,-4.821718224687521,-2.354267957634295,209.0
210,1.4717727538988,-1.2426335617959665,1.7825294285358835,-0.5428513823510186,-4.821718232828894,-2.2878063238865076,210.0
211,1.4717727466994643,-1.242633578429553,1.7825294147274968,-0.5428513518515579,-4.8217182397452945,-2.2313446901387275,211.0
212,1.4717727407752133,-1.2426335921171385,1.7825294033647299,-0.5428513267538994,-4.8217182454367205,-2.184883056390956,212.0
213,1.4717727361260466,-1.2426336028587268,1.7825293944475868,-0.5428513070580437,-4.821718249903174,-2.1484214226431875,213.0
214,1.4717727327519645,-1.2426336106543174,1.782529387976067,-0.542851292763991,-4.821718253144654,-2.121959788895411,214.0
215,1.471772730652967,-1.2426336155039106,1.7825293839501712,-0.542851283871741,-4.82171825516116,-2.1054981551476413,215.0
216,1.4719458439532913,-1.2410108996246807,1.7802382586418606,-0.5421830434033641,-4.821541456768055,-2.097580899150653,216.0
217,1.4723776643502218,-1.2369631534340408,1.7745232276996787,-0.540516180444883,-4.821100444853418,-2.098535263893201,217.0
218,1.4724796122783728,-1.2360075310272016,1.7731739864482907,-0.5401226627765643,-4.820996329815402,-2.1078744674901895,218.0
219,1.4724796138375256,-1.236007526018247,1.7731739920752192,-0.5401226766990219,-4.820996334198958,-2.1262366718847203,219.0
220,1.4724796162457883,-1.236007518281431,1.7731740007665557,-0.5401226982036069,-4.820996340969786,-2.1545988762792527,220.0
221,1.472479619503161,-1.2360075078167536,1.7731740125223006,-0.5401227272903195,-4.820996350127885,-2.192961080673775,221.0
222,1.4724796236013684,-1.236007494614664,1.773174027306385,-0.5401227638111662,-4.820996361742228,-2.2413232843792534,222.0
223,1.4724796282789736,-1.2360074783734034,1.7731740439792856,-0.5401228030904741,-4.820996377991891,-2.299685469770461,223.0
224,1.4724796337580575,-1.2360074593493033,1.7731740635089852,-0.5401228491000489,-4.8209963970258345,-2.368047655161675,224.0
225,1.472479634296012,-1.2360074370405907,1.7731740851944926,-0.5401228938697042,-4.82099640228334,-2.446409827273419,225.0
226,1.4724796334557844,-1.236007411757048,1.7731741094667766,-0.5401229423281384,-4.820996404000825,-2.53477199491981,226.0
227,1.4724796325511869,-1.236007383600777,1.7731741364535434,-0.5401229961639012,-4.8209964056488825,-2.6331341510980244,227.0
228,1.4724796216750455,-1.2360073549153774,1.7731741673428336,-0.5401230551892421,-4.820996417122502,-2.74149629941878,228.0
229,1.4724796046791466,-1.2360073247915713,1.7731742016843302,-0.5401231195207574,-4.82099643465512,-2.8598584399020943,229.0
230,1.4724795819799064,-1.2360072938992201,1.7731742385237568,-0.5401231870839385,-4.820996457930095,-2.988220572876942,230.0
231,1.472479545063469,-1.2360072657804795,1.7731742770495795,-0.5401232534561901,-4.820996495453919,-3.1265827010568352,231.0
232,1.472479501847908,-1.23600723805127,1.7731743171331393,-0.5401233209483836,-4.820996539286462,-3.2749448274365576,232.0
233,1.4724794435150754,-1.23600721659316,1.7731743557952342,-0.5401233806301554,-4.8209965981611145,-3.433306947014506,233.0
234,1.472479376874804,-1.2360071999457543,1.7731743923572771,-0.5401234333372392,-4.820996665277028,-3.5996500424616427,234.0
235,1.4724793067417514,-1.236007190893886,1.7731744226480468,-0.5401234721495937,-4.82099673575635,-3.759025456178336,235.0
236,1.472479237475932,-1.2360071905751786,1.773174444228589,-0.5401234935234935,-4.820996805207129,-3.9084008698950403,236.0
237,1.4724791711196348,-1.2360071942699928,1.7731744610349929,-0.5401235061310465,-4.820996871667758,-4.047776283611764,237.0
238,1.4724791097290597,-1.2360072042869616,1.7731744702036176,-0.5401235048151408,-4.820996933034668,-4.177151697328492,238.0
239,1.4724790531958472,-1.236007217139853,1.7731744751384944,-0.5401234964658739,-4.820996989479998,-4.296527111045231,239.0
240,1.4724790023926646,-1.2360072306774443,1.773174477651584,-0.5401234850534558,-4.820997040168009,-4.405902524761971,240.0
241,1.472478959394312,-1.236007248575278,1.7731744735519064,-0.5401234627264082,-4.82099708295158,-4.505277938478723,241.0
242,1.4724789207228195,-1.2360072646720757,1.773174469864768,-0.5401234426460967,-4.8209971214299046,-4.594653352195479,242.0
243,1.4724788868978493,-1.2360072793636592,1.7731744660478719,-0.5401234238782698,-4.820997155074768,-4.67402876591224,243.0
244,1.4724788621486402,-1.2360072958713755,1.7731744576877269,-0.5401233988195606,-4.820997179587318,-4.743404179629005,244.0
245,1.4724788409668634,-1.2360073099996152,1.7731744505326406,-0.5401233773728961,-4.820997200566548,-4.80277959334576,245.0
246,1.472478823352519,-1.2360073217483767,1.7731744445826099,-0.5401233595382751,-4.820997218012458,-4.852155007062501,246.0
247,1.4724788093056067,-1.2360073311176618,1.7731744398376383,-0.5401233453156988,-4.820997231925048,-4.8915304207792465,247.0
248,1.4724787988261268,-1.236007338107471,1.7731744362977266,-0.5401233347051676,-4.82099724230432,-4.920905834495993,248.0
249,1.472478791914079,-1.236007342717804,1.7731744339628739,-0.5401233277066811,-4.820997249150273,-4.94028124821274,249.0
250,1.4725466205549154,-1.235363654823453,1.7722610143099258,-0.5398536619851034,-4.820927937943613,-4.9503747334808486,250.0
251,1.4729629725648667,-1.231412699075031,1.7666544727413753,-0.5381984817008977,-4.820502486347379,-4.952352831568782,251.0
252,1.473176706715421,-1.2293845000293933,1.7637763926477665,-0.5373488094098775,-4.82028408345836,-4.945194178880421,252.0
253,1.4731767114705745,-1.2293844965671672,1.7637763950121794,-0.5373488165143131,-4.820284084198918,-4.929767214474589,253.0
254,1.473176719308093,-1.2293844908606717,1.7637763989092423,-0.5373488282239554,-4.8202840854195195,-4.904340250068756,254.0
255,1.4731767302279763,-1.2293844829099072,1.7637764043389546,-0.5373488445388039,-4.820284087120163,-4.868913285662934,255.0
256,1.4731767442302248,-1.2293844727148733,1.7637764113013166,-0.5373488654588592,-4.820284089300847,-4.823486321257109,256.0
257,1.4731767614303033,-1.2293844605375988,1.7637764207546138,-0.5373488948339182,-4.820284091014262,-4.768059364679894,257.0
258,1.4731767817772705,-1.2293844462624788,1.7637764322760614,-0.5373489309654904,-4.820284092678351,-4.702632410792777,258.0
259,1.4731768100150238,-1.229384431418313,1.763776440308793,-0.5373489600654688,-4.82028407626294,-4.627205465278514,259.0
260,1.473176846785513,-1.2293844162216572,1.763776444147916,-0.5373489804481819,-4.820284039306279,-4.541778527586518,260.0
261,1.4731768878870026,-1.2293843992355562,1.7637764484059677,-0.53734900311539,-4.820283997792933,-4.446351600399684,261.0
262,1.4731769349200268,-1.22938438335944,1.7637764496066692,-0.5373490212834183,-4.820283950462295,-4.340924680063944,262.0
263,1.4731769892303874,-1.2293843710124597,1.7637764448352726,-0.5373490292501306,-4.82028389618784,-4.225497768128724,263.0
264,1.4731770482451931,-1.2293843575950096,1.7637764396475246,-0.5373490378948398,-4.820283837217408,-4.10007086491814,264.0
265,1.473177112288258,-1.2293843537057987,1.7637764236667262,-0.5373490262895981,-4.820283773078641,-3.9646439680069205,265.0
266,1.4731771810709138,-1.2293843498792962,1.763776406163336,-0.5373490131365196,-4.820283704188882,-3.8192170716193354,266.0
267,1.4731772493326565,-1.2293843579261357,1.7637763772877626,-0.5373489767335413,-4.820283635602449,-3.6637901816479164,267.0
268,1.4731773196771814,-1.2293843693013127,1.7637763445365722,-0.5373489331420123,-4.82028356486676,-3.49860681684581,268.0
269,1.4731773790715357,-1.2293843911540203,1.7637763049857937,-0.5373488721877969,-4.82028350491786,-3.3363009547227627,269.0
270,1.4731774292347346,-1.2293844153766975,1.7637762659806908,-0.537348809338398,-4.820283454180745,-3.18399509259971,270.0
271,1.4731774669558035,-1.2293844441110748,1.7637762264314232,-0.5373487413373441,-4.820283415835536,-3.041689230476644,271.0
272,1.473177496612604,-1.2293844730794812,1.763776189142669,-0.5373486753011872,-4.820283385571285,-2.9093833683535646,272.0
273,1.4731775140687497,-1.2293845040035665,1.7637761537181418,-0.537348609080103,-4.820283367503623,-2.7870775062304736,273.0
274,1.473177530097642,-1.229384532399224,1.7637761211899963,-0.5373485482734008,-4.820283350913213,-2.6747716441073823,274.0
275,1.4731775319022529,-1.229384561175349,1.7637760926805188,-0.5373484909962709,-4.820283348577119,-2.5724657819842807,275.0
276,1.473177532716158,-1.2293845873238183,1.7637760670291425,-0.5373484391978212,-4.8202833472824125,-2.4801599198611726,276.0
277,1.4731775334418884,-1.2293846106394777,1.763776044156717,-0.5373483930109809,-4.820283346127967,-2.3978540577380603,277.0
278,1.4731775264216609,-1.2293846315483161,1.7637760260119066,-0.5373483538999035,-4.82028335278369,-2.3255481956149464,278.0
279,1.4731775185832896,-1.2293846496649545,1.7637760108318044,-0.5373483205400048,-4.820283360310799,-2.2632423334918395,279.0
280,1.4731775120029653,-1.2293846648738973,1.7637759980880845,-0.5373482925343208,-4.820283366629818,-2.2109364713687403,280.0
281,1.4731775066806883,-1.2293846771751453,1.7637759877807482,-0.5373482698828518,-4.820283371740747,-2.1686306092456458,281.0
282,1.4731775026164584,-1.2293846865687,1.7637759799097967,-0.537348252585598,-4.820283375643586,-2.136324747122547,282.0
283,1.4731774998102758,-1.229384693054561,1.76377597447523,-0.5373482406425594,-4.820283378338336,-2.1140188849994437,283.0
284,1.4731841031175126,-1.2293212447491753,1.763685482125242,-0.5373212030061948,-4.820276626794148,-2.101629103762876,284.0
285,1.473524718829677,-1.2260489988038488,1.7590188998804288,-0.5359271978256934,-4.819928369594829,-2.096854964136152,285.0
286,1.4738612472510935,-1.222816025877212,1.7544083317767236,-0.534549930665059,-4.8195842929947,-2.1017862662239004,286.0
287,1.4738665926836465,-1.2227646799374727,1.7543351155157139,-0.5345280677546241,-4.819578831668099,-2.114330303309453,287.0
288,1.4738665945796008,-1.2227646738884208,1.754335122371415,-0.5345280846287858,-4.819578836944186,-2.136805234135881,288.0
289,1.4738665973191418,-1.2227646651479027,1.7543351322774934,-0.5345281090109404,-4.819578844567817,-2.1692801649623106,289.0
290,1.4738666009022694,-1.222764653715918,1.7543351452339486,-0.5345281409010876,-4.819578854538992,-2.211755095788734,290.0
291,1.4738666052151008,-1.2227646394576142,1.7543351607348887,-0.5345281782359381,-4.81957886781818,-2.264230016144761,291.0
292,1.4738666101956235,-1.2227646222995574,1.754335178504836,-0.5345282198919513,-4.819578884928397,-2.326704923530357,292.0
293,1.473866614484112,-1.2227646022652057,1.754335198940681,-0.5345282661655788,-4.819578900530035,-2.399179827307418,293.0
294,1.4738666137053187,-1.2227645789729151,1.754335221518195,-0.5345283110340292,-4.819578902144857,-2.48165471840295,294.0
295,1.473866612848751,-1.2227645528501894,1.754335246815299,-0.5345283612839691,-4.819578903810806,-2.574129602840146,295.0
296,1.4738666107849496,-1.2227645241635663,1.7543352749640266,-0.5345284168780504,-4.819578906619431,-2.676604480087151,296.0
297,1.4738665948417704,-1.2227644959081558,1.7543353074774526,-0.534528477515021,-4.819578923072902,-2.789079346584983,297.0
298,1.4738665774814286,-1.2227644651414273,1.7543353428846462,-0.5345285435553265,-4.819578940986565,-2.9115542050527923,298.0
299,1.473866547716286,-1.2227644364344195,1.7543353801286345,-0.5345286092832073,-4.8195789713373625,-3.0440290573679354,299.0
300,1.4738665101950785,-1.2227644078526758,1.7543354196551069,-0.5345286771109282,-4.819579009482594,-3.186503907377759,300.0
301,1.473866460049282,-1.222764383928561,1.754335458547811,-0.5345287395479332,-4.819579060199907,-3.3389787529702457,301.0
302,1.4738664009794409,-1.2227643621939288,1.7543354980690125,-0.5345288003540974,-4.819579119824312,-3.5014535922489816,302.0
303,1.4738663309455486,-1.2227643511148387,1.754335530588322,-0.5345288434167333,-4.819579190245303,-3.6665196134312135,303.0
304,1.4738662631112358,-1.2227643433345585,1.7543355592061833,-0.5345288792954106,-4.819579258400246,-3.82177955468309,304.0
305,1.4738661948552683,-1.2227643471293168,1.7543355766572595,-0.5345288924269497,-4.819579326764967,-3.967039495934971,305.0
306,1.4738661313137276,-1.222764351161236,1.7543355924156858,-0.5345289036648344,-4.819579390398563,-4.102299437186874,306.0
307,1.4738660727684312,-1.2227643644673387,1.754335597573821,-0.5345288950649412,-4.819579448852199,-4.227559378438782,307.0
308,1.4738660188970387,-1.2227643767111571,1.7543356023201542,-0.5345288871516083,-4.819579502639249,-4.34281931969069,308.0
309,1.4738659723797531,-1.2227643926402973,1.7543356011902547,-0.5345288697325276,-4.819579548985141,-4.4480792609426185,309.0
310,1.4738659317011837,-1.2227644095704575,1.7543355972737245,-0.5345288485704481,-4.819579589458622,-4.543339202194546,310.0
311,1.4738658952928845,-1.222764424723355,1.75433559376833,-0.5345288296298758,-4.819579625683362,-4.628599143446483,311.0
312,1.4738658658969694,-1.2227644401877944,1.7543355877854943,-0.5345288079541076,-4.8195796548716405,-4.703859084698421,312.0
313,1.4738658429210136,-1.2227644555124972,1.7543355799492866,-0.5345287846140235,-4.819579677625734,-4.769119025950359,313.0
314,1.473865823465741,-1.2227644684889438,1.7543355733138464,-0.5345287648504186,-4.819579696893142,-4.8243789672022865,314.0
315,1.4738658075311508,-1.2227644791171328,1.7543355678791719,-0.5345287486632924,-4.819579712673864,-4.869638908454201,315.0
316,1.473865795117244,-1.2227644873970664,1.7543355636452669,-0.5345287360526458,-4.819579724967899,-4.904898849706122,316.0
317,1.4738657862240196,-1.2227644933287452,1.7543355606121307,-0.5345287270184791,-4.819579733775248,-4.930158790958044,317.0
318,1.4738657808514783,-1.2227644969121687,1.754335558779764,-0.534528721560792,-4.81957973909591,-4.945418732209967,318.0
319,1.4740823432199093,-1.2206582739253042,1.751317061418855,-0.5336166573644017,-4.819358191061438,-4.952484185193093,319.0
320,1.4744845726713542,-1.2167463540209005,1.7457107674714911,-0.531922673930677,-4.818946702603685,-4.950371143396732,320.0
321,1.4745462712841586,-1.2161463255079716,1.7448508526018867,-0.5316628482896121,-4.818883587249677,-4.940186474425004,321.0
322,1.4745462772285935,-1.2161463211891377,1.744850855576972,-0.5316628571800269,-4.818883588157322,-4.920686805130508,322.0
323,1.4745462862215082,-1.2161463146554792,1.7448508600777677,-0.5316628706297062,-4.818883589530435,-4.891187135836022,323.0
324,1.4745462982629025,-1.2161463059069963,1.744850866104274,-0.5316628886386499,-4.818883591369013,-4.851687466541543,324.0
325,1.474546313374053,-1.2161462949931534,1.7448508738363633,-0.531662911925211,-4.818883593496404,-4.802187800652836,325.0
326,1.474546331671937,-1.2161462821859024,1.7448508842629726,-0.5316629444388865,-4.818883594941355,-4.742688153971116,326.0
327,1.474546353045114,-1.2161462672261594,1.7448508964419636,-0.5316629824170777,-4.818883596629157,-4.673188507289384,327.0
328,1.4745463861311197,-1.2161462530378402,1.7448509007671607,-0.5316630029932347,-4.818883565332236,-4.593688875446485,328.0
329,1.4745464241602346,-1.2161462373243015,1.7448509047671101,-0.5316630240809349,-4.818883527059788,-4.504189247668614,329.0
330,1.4745464664640082,-1.2161462198447768,1.74485090918421,-0.5316630474260248,-4.818883484287467,-4.404689630034385,330.0
331,1.47454651641572,-1.2161462066764097,1.744850906640262,-0.5316630586787391,-4.818883434254174,-4.295190021588238,331.0
332,1.4745465719125592,-1.2161461940625307,1.7448509017174922,-0.5316630667701753,-4.818883378797043,-4.175690420791014,332.0
333,1.4745466321747749,-1.2161461843678067,1.7448508924501722,-0.531663067640378,-4.818883318526125,-4.046190827187137,333.0
334,1.4745466972992836,-1.2161461807480074,1.7448508757195378,-0.5316630550313459,-4.818883253298594,-3.906691237779615,334.0
335,1.474546765207792,-1.2161461812249863,1.7448508541041887,-0.5316630334623597,-4.818883185203741,-3.757191650965864,335.0
336,1.4745468340334282,-1.2161461901145336,1.7448508239528207,-0.5316629949516284,-4.818883116032628,-3.597692070776861,336.0
337,1.474546899227797,-1.216146206603808,1.7448507874785415,-0.5316629424888439,-4.818883050361741,-3.4313673523116783,337.0
338,1.4745469563831748,-1.216146227632632,1.7448507490553071,-0.5316628834746238,-4.81888299266701,-3.273136951953476,338.0
339,1.4745469985353623,-1.2161462549296405,1.7448507091564143,-0.531662816599561,-4.8188829498990335,-3.1249065515953305,339.0
340,1.4745470347045504,-1.2161462824788605,1.7448506708732832,-0.5316627510417862,-4.818882913125139,-2.9866761512372566,340.0
341,1.47454705675187,-1.2161463128230823,1.744850634246491,-0.5316626842357681,-4.818882890458584,-2.858445750879255,341.0
342,1.4745470734109039,-1.2161463423277672,1.7448506001210382,-0.5316626207291503,-4.81888287321002,-2.7402153505213116,342.0
343,1.474547083884488,-1.216146370422368,1.7448505693047551,-0.5316625618942509,-4.818882862189264,-2.631984950163441,343.0
344,1.4745470847422721,-1.2161463978864366,1.744850542101308,-0.5316625072285491,-4.818882860821279,-2.5337545498056144,344.0
345,1.4745470855127327,-1.2161464225546172,1.744850517667207,-0.5316624581278967,-4.818882859592555,-2.4455241494478197,345.0
346,1.474547084172209,-1.2161464445393875,1.7448504965223264,-0.5316624149840385,-4.8188828605300005,-2.3672937490900656,346.0
347,1.4745470757016883,-1.216146464119697,1.7448504799560296,-0.5316623787685668,-4.818882868660678,-2.2990633487323464,347.0
348,1.4745470684726263,-1.216146480830273,1.7448504658177266,-0.5316623478609156,-4.818882875599706,-2.2408329483746483,348.0
349,1.4745470624850228,-1.216146494671112,1.7448504541074135,-0.5316623222610846,-4.818882881347083,-2.192602548016959,349.0
350,1.4745470577388775,-1.2161465056422174,1.7448504448250943,-0.5316623019690738,-4.818882885902809,-2.1543721476592808,350.0
351,1.4745470542341907,-1.2161465137435896,1.7448504379707697,-0.5316622869848839,-4.818882889266886,-2.1261417473015944,351.0
352,1.4745470519709623,-1.2161465189752283,1.7448504335444388,-0.5316622773085145,-4.818882891439312,-2.1079113469439004,352.0
353,1.4746471519469586,-1.2151609188322328,1.7434310643817104,-0.5312286053144514,-4.818780427188032,-2.098660122952711,353.0
354,1.4750552972268451,-1.2111422902324267,1.7376438354642907,-0.529460400786553,-4.818362642421052,-2.097804171017973,354.0
355,1.4752190694169924,-1.2095297820660575,1.7353216674030316,-0.5287509010389151,-4.818195004721793,-2.1057981896484885,355.0
356,1.4752190708001383,-1.2095297776829743,1.7353216724177059,-0.5287509133153656,-4.818195008536186,-2.1223060652290973,356.0
357,1.475219073021155,-1.2095297706447445,1.7353216804701266,-0.5287509330285394,-4.818195014661232,-2.1488139408097,357.0
358,1.4752190760800414,-1.209529760951368,1.7353216915602936,-0.5287509601784364,-4.818195023096926,-2.1853218163902897,358.0
359,1.4752190799767986,-1.209529748602845,1.7353217056882073,-0.5287509947650568,-4.818195033843273,-2.231829691970884,359.0
360,1.4752190844918842,-1.2095297333323616,1.7353217218598163,-0.5287510327593394,-4.818195048773601,-2.288337555611989,360.0
361,1.4752190897637503,-1.2095297153081812,1.735321740702011,-0.5287510767021756,-4.818195066706515,-2.3548454171298583,361.0
362,1.4752190915055683,-1.2095296941970086,1.7353217618677426,-0.5287511213444551,-4.818195075128353,-2.431353268545237,362.0
363,1.475219090697424,-1.2095296700842997,1.735321785472539,-0.5287511680256325,-4.818195076806898,-2.5178611139040523,363.0
364,1.4752190898254085,-1.2095296431729374,1.7353218117735811,-0.5287512199971202,-4.818195078419839,-2.614368947342358,364.0
365,1.4752190819641071,-1.209529615102408,1.7353218416202338,-0.5287512771567238,-4.8181950869221115,-2.720876774061677,365.0
366,1.4752190656586843,-1.2095295862169946,1.7353218751892925,-0.5287513394771264,-4.818195103754669,-2.8373845925822607,366.0
367,1.4752190467388646,-1.2095295553586478,1.7353219115247198,-0.5287514065258279,-4.818195123243202,-2.963892402927964,367.0
368,1.4752190112487529,-1.2095295283322054,1.735321949270564,-0.5287514710292225,-4.818195159329392,-3.1004002072696686,368.0
369,1.4752189724129967,-1.209529499823217,1.73532198952466,-0.5287515394977682,-4.818195198798133,-3.2469080108977826,369.0
370,1.4752189162423215,-1.20952947916069,1.7353220274681305,-0.5287515976707696,-4.81819525550177,-3.4034158075462004,370.0
371,1.475218854279896,-1.2095294607450988,1.7353220650091719,-0.5287516531489971,-4.818195317970699,-3.5677386349688183,371.0
372,1.4752187868998634,-1.2095294520443103,1.7353220946698173,-0.5287516909882759,-4.818195385690893,-3.724897706180073,372.0
373,1.475218721648754,-1.2095294488865589,1.7353221182006235,-0.5287517171702787,-4.818195451173474,-3.872056777391278,373.0
374,1.4752186580286795,-1.2095294524227527,1.7353221346229732,-0.5287517295614138,-4.818195514896256,-4.009215848602397,374.0
375,1.4752185991464941,-1.2095294588796508,1.7353221466838689,-0.528751734706711,-4.818195573814304,-4.136374919813453,375.0
376,1.4752185450931143,-1.2095294711623346,1.7353221514913968,-0.5287517268093868,-4.818195627782455,-4.2535339910244385,376.0
377,1.4752184956534085,-1.2095294823966367,1.7353221558885763,-0.5287517195861285,-4.818195677144205,-4.360693062235383,377.0
378,1.4752184538594093,-1.2095294979511948,1.7353221536348964,-0.5287517014504366,-4.818195718759687,-4.45785213344627,378.0
379,1.4752184171204745,-1.2095295132389174,1.7353221500624065,-0.5287516823021003,-4.81819575531168,-4.545011204657104,379.0
380,1.4752183845966989,-1.2095295267726347,1.7353221468997937,-0.5287516653507045,-4.818195787669963,-4.622170275867902,380.0
381,1.475218357913162,-1.2095295397898789,1.7353221424187424,-0.5287516476428171,-4.818195814182146,-4.689329347078689,381.0
382,1.475218338049498,-1.2095295530366599,1.735322135577382,-0.5287516273980445,-4.818195833852132,-4.746488418289452,382.0
383,1.4752183216609893,-1.2095295639659118,1.7353221299329202,-0.5287516106951021,-4.818195850080846,-4.793647489500193,383.0
384,1.4752183087476354,-1.2095295725776336,1.7353221254853555,-0.5287515975339894,-4.81819586286829,-4.830806560710925,384.0
385,1.475218299309437,-1.209529578871826,1.7353221222346886,-0.5287515879147068,-4.818195872214463,-4.857965631921665,385.0
386,1.4752182933463935,-1.20952958284849,1.7353221201809208,-0.5287515818372546,-4.818195878119364,-4.875124703132418,386.0
387,1.4752018943425755,-1.2096894376722567,1.7355599263117032,-0.5288295170645795,-4.818212721707146,-4.882470305857491,387.0
388,1.4750507385417118,-1.2111630976745422,1.7377522311773175,-0.5295480138809591,-4.818367976290204,-4.88116426364139,388.0
389,1.4750265259370379,-1.2113991851960786,1.7381034538347362,-0.5296631253266262,-4.81839284558079,-4.870786413990268,389.0
390,1.4749789822903003,-1.2118627644711795,1.7387931113984467,-0.5298891570973481,-4.818441678689915,-4.85040856433914,390.0
391,1.4749081076014994,-1.2125538354998444,1.7398212038684489,-0.5302261091931245,-4.81851447561758,-4.82003071468803,391.0
392,1.4748137664173004,-1.213472384742398,1.7411870059108026,-0.5306732696162302,-4.818611368560521,-4.7796528359795385,392.0
393,1.4746949395198616,-1.2146183096290943,1.7428850583621682,-0.5312252802420894,-4.818733352228751,-4.729274739602693,393.0
394,1.4745525256062422,-1.2159916994200066,1.7449201724679995,-0.5318868644059658,-4.818879549528897,-4.668896643225865,394.0
395,1.4743862039763587,-1.217592549311942,1.7472906924083782,-0.5326563710818969,-4.81905027347367,-4.598518475798709,395.0
396,1.474195214864781,-1.2194208473767714,1.7499926943012074,-0.533529888294084,-4.8192462656135975,-4.518140093080818,396.0
397,1.4739800923126491,-1.2214766172115192,1.7530289700804864,-0.5345101840478084,-4.819467004876124,-4.427761632410835,397.0
398,1.4737398123353742,-1.223759886796372,1.7563943287813624,-0.5355920384135481,-4.819713491162714,-4.327382901779973,398.0
399,1.4734744564601114,-1.226270706461567,1.760089301873768,-0.536775932606678,-4.819985645294429,-4.2170039396249255,399.0
400,1.473183863022479,-1.2290091008809243,1.7641131155111902,-0.5380610679487404,-4.820283625278807,-4.096624741451892,400.0
401,1.472867093775507,-1.2319752195190719,1.768461291910712,-0.53944281627393,-4.820608348176491,-3.9662451450933243,401.0
402,1.4725238561756968,-1.2351691929221102,1.773132624466116,-0.5409198401147662,-4.820960100477545,-3.8258651290102206,402.0
403,1.4721538758504291,-1.2385911461809305,1.7781259879795668,-0.5424908888857284,-4.821339150898459,-3.6754846801492005,403.0
404,1.4717566578855585,-1.2422405055934993,1.7834377392086576,-0.5441528925199062,-4.821745979969249,-3.5151381691263914,404.0
405,1.4713594160866468,-1.2458647105046032,1.7886988949591216,-0.5457894550277589,-4.822152702454293,-3.355930442468495,405.0
406,1.4709845391607526,-1.2492620772860157,1.7936181335185593,-0.5473109601915185,-4.822536408769915,-3.2067222268679454,406.0
407,1.4706325761484949,-1.2524325097946805,1.7981980562464954,-0.5487201060566664,-4.8228965622198645,-3.0675136016217586,407.0
408,1.4703040574027377,-1.2553758750496904,1.8024410846397014,-0.5500194476387418,-4.823232644106546,-2.938304638856473,408.0
409,1.4699986537159069,-1.2580923831410604,1.8063460073715147,-0.55120756314363,-4.8235449772660814,-2.8190952672183416,409.0
410,1.4697176705603403,-1.2605815460185452,1.8099184182646342,-0.552290535822505,-4.823832283833257,-2.7098856922681502,410.0
411,1.469461503711238,-1.2628431894787888,1.8131599527452003,-0.5532701757320252,-4.824094176222496,-2.6106759549308816,411.0
412,1.4692295634679458,-1.2648776337275889,1.8160683134929423,-0.5541438646885652,-4.824331232346608,-2.5214659494682943,412.0
413,1.4690234421436557,-1.2666841136663747,1.818649932765239,-0.5549188017888005,-4.824541892403415,-2.442255911651717,413.0
414,1.4688421287983564,-1.2682631584265533,1.820900826951801,-0.5555904731704654,-4.824727146990936,-2.3730456730298437,414.0
415,1.468686843752514,-1.2696141386770112,1.8228258262133479,-0.5561643396749465,-4.824885800407408,-2.313835403928278,415.0
416,1.4685577847394513,-1.270736952382899,1.8244257130762063,-0.5566412860820927,-4.825017658908255,-2.2646251348262543,416.0
417,1.4684541436352827,-1.2716320447242437,1.825697354640179,-0.5570177334078463,-4.825123514510782,-2.225414728126052,417.0
418,1.4683769331949001,-1.272298858544624,1.8266446786097628,-0.5572981676458381,-4.825202374648979,-2.1962043211472886,418.0
419,1.468326155265519,-1.2727373928272132,1.8272676921477011,-0.5574825969777032,-4.825254237512454,-2.176993914168517,419.0
420,1.4683017144165766,-1.2729484699987292,1.8275675626580126,-0.5575713662877969,-4.825279200561532,-2.1677833618691413,420.0
421,1.4681161723730072,-1.2745474817117552,1.8298372992063643,-0.5582419104119982,-4.82546868898808,-2.1675324276504258,421.0
422,1.4681129366423373,-1.2745749578409715,1.829876066095949,-0.5582531982274517,-4.825471991370523,-2.1759832475063416,422.0
423,1.468112826399513,-1.2745750158644507,1.8298756378629397,-0.5582527123134915,-4.825472099230757,-2.1943983676552237,423.0
424,1.4681126562913038,-1.274575105396537,1.8298749770856917,-0.5582519625326894,-4.825472265662555,-2.2228134878040975,424.0
425,1.4681124262738754,-1.2745752263986927,1.8298740836231089,-0.558250948299103,-4.825472491025093,-2.2612285919067494,425.0
426,1.4681121363380434,-1.2745753788628915,1.8298729574456076,-0.5582496694902837,-4.825472775393372,-2.3096436823395843,426.0
427,1.4681117865167852,-1.2745755628181392,1.8298715986593284,-0.5582481265471194,-4.825473118497115,-2.3680587727723945,427.0
428,1.4681117018658585,-1.274575590863587,1.82987128704529,-0.5582477866257096,-4.825473201935168,-2.4364738489548743,428.0
429,1.4681117011261675,-1.2745755674985624,1.8298713089660792,-0.5582478316036824,-4.825473203255855,-2.514888921239753,429.0
430,1.4681117003012982,-1.2745755411498667,1.8298713336703814,-0.5582478822758252,-4.825473204668987,-2.6033039870581254,430.0
431,1.468111694617371,-1.2745755129212277,1.8298713616189513,-0.5582479381351944,-4.8254732109418255,-2.7017190481480298,431.0
432,1.4681116784113721,-1.274575484120509,1.8298713933499728,-0.5582479985481323,-4.825473227678964,-2.8101341016535053,432.0
433,1.468111660710763,-1.2745754526635604,1.829871428008931,-0.5582480645381427,-4.825473245958319,-2.92854914707935,433.0
434,1.4681116282185527,-1.2745754240988327,1.829871464381954,-0.5582481292446673,-4.82547327903022,-3.0569641846477786,434.0
435,1.4681115897726313,-1.2745753947382916,1.829871503275176,-0.5582481972248436,-4.825473318088756,-3.195379217487522,435.0
436,1.468111537457002,-1.2745753706729042,1.829871541361719,-0.5582482590001918,-4.82547337095848,-3.3437942488772947,436.0
437,1.468111476702821,-1.2745753482713198,1.829871580412393,-0.5582483200136141,-4.825473432258536,-3.5022092740729382,437.0
438,1.4681114031843514,-1.274575336717777,1.8298716131407764,-0.5582483637611295,-4.8254735061637195,-3.666295646457311,438.0
439,1.4681113316164185,-1.274575328514785,1.8298716421579397,-0.5582484004603928,-4.825473578054518,-3.8215521737089535,439.0
440,1.4681112596039456,-1.2745753325413463,1.82987165988632,-0.5582484136354201,-4.825473650175683,-3.9668087009605175,440.0
441,1.468111192565607,-1.2745753368292274,1.8298716758863274,-0.5582484248570244,-4.825473717305712,-4.102065228212093,441.0
442,1.4681111307940238,-1.2745753509130695,1.8298716811660576,-0.5582484155987282,-4.825473778983411,-4.2273217554636275,442.0
443,1.4681110739540464,-1.274575363872506,1.8298716860242663,-0.5582484070795761,-4.825473835737001,-4.342578282715153,443.0
444,1.4681110248765772,-1.2745753807376174,1.8298716849185173,-0.558248388746635,-4.8254738846399725,-4.447834809966649,444.0
445,1.4681109819532812,-1.2745753986506418,1.829871680997667,-0.558248366595397,-4.825473927354976,-4.543091337218126,445.0
446,1.4681109435360593,-1.2745754146831594,1.829871677488421,-0.5582483467695879,-4.825473965585772,-4.628347864469601,446.0
447,1.468110912526039,-1.274575431050704,1.8298716714559453,-0.5582483241395442,-4.825473996384999,-4.703604391721072,447.0
448,1.4681108882800742,-1.274575447262119,1.8298716635508598,-0.5582482998424527,-4.825474020406053,-4.768860918972534,448.0
449,1.4681108677495944,-1.2745754609892737,1.8298716568571596,-0.5582482792686807,-4.825474040746086,-4.824117446224016,449.0
450,1.4681108509345995,-1.2745754722321667,1.8298716513748432,-0.5582482624182273,-4.825474057405102,-4.869373973475515,450.0
451,1.4681108378350893,-1.2745754809908014,1.8298716471039138,-0.5582482492910941,-4.825474070383098,-4.904630500727012,451.0
452,1.4681108284510644,-1.2745754872651769,1.8298716440443712,-0.5582482398872808,-4.825474079680075,-4.929887027978513,452.0
453,1.4681108227825246,-1.2745754910552933,1.8298716421962156,-0.5582482342067875,-4.825474085296032,-4.945143555230011,453.0
454,1.4683533708936052,-1.272439363150456,1.8269290730615537,-0.5574420307112326,-4.825227020434345,-4.952140674507267,454.0
455,1.4688028108938487,-1.2684811773612803,1.821476581095289,-0.5559481653094498,-4.82476921204045,-4.949938639277217,455.0
456,1.4688654095647677,-1.267929901081613,1.8207171901064858,-0.5557401128478886,-4.824705451548541,-4.939652576703736,456.0
457,1.4688654158398702,-1.2679298964720374,1.82071719315495,-0.5557401222079803,-4.824705452571147,-4.9199781131082325,457.0
458,1.468865425304438,-1.2679298895195381,1.8207171977528662,-0.5557401363255544,-4.824705454113515,-4.890303649512734,458.0
459,1.4688654379584714,-1.267929880224116,1.8207172039002348,-0.5557401552006112,-4.824705456175645,-4.8506291859172315,459.0
460,1.4688654538283308,-1.2679298686407057,1.8207172118022328,-0.5557401796723145,-4.824705458548958,-4.800954726159709,460.0
461,1.4688654730400579,-1.2679298550319764,1.820717222439903,-0.5557402137530794,-4.82470546023614,-4.741280285649745,461.0
462,1.4688654954712086,-1.2679298391427514,1.8207172348601914,-0.5557402535449601,-4.824705462206054,-4.671605845139792,462.0
463,1.4688655305911777,-1.2679298241464512,1.820717239058306,-0.5557402747291653,-4.824705428539133,-4.5919314201424655,463.0
464,1.4688655707879898,-1.26792980748635,1.820717243076375,-0.5557402968455671,-4.824705388072441,-4.502256999129317,464.0
465,1.4688656154952333,-1.2679297889579053,1.8207172475122577,-0.5557403213263472,-4.82470534286036,-4.402582587842941,465.0
466,1.4688656683414858,-1.2679297751361411,1.8207172447311446,-0.5557403329909435,-4.824705289933205,-4.292908185950316,466.0
467,1.4688657269626275,-1.2679297617731635,1.820717239687999,-0.5557403417118827,-4.824705231351366,-4.173233791629216,467.0
468,1.468865790613878,-1.267929751688551,1.820717230066704,-0.555740342619967,-4.824705167688785,-4.043559404345915,468.0
469,1.4688658593849326,-1.267929747854041,1.8207172130598637,-0.5557403299518807,-4.824705098814725,-3.903885021008355,469.0
470,1.468865930992883,-1.2679297485787633,1.820717190928288,-0.5557403076205303,-4.824705027015738,-3.754210640274646,470.0
471,1.4688660036552896,-1.2679297579916644,1.8207171603343997,-0.5557402681458614,-4.8247049540048135,-3.5945362662113354,471.0
472,1.4688660721911304,-1.267929775658093,1.8207171232373438,-0.5557402138823786,-4.824704884984762,-3.428230581877396,472.0
473,1.468866132398115,-1.2679297978786468,1.8207170843649256,-0.5557401532271907,-4.824704824233856,-3.270164288495014,473.0
474,1.468866176523012,-1.2679298269011985,1.82071704393197,-0.5557400840898205,-4.824704779485033,-3.122097995112626,474.0
475,1.4688662146113176,-1.2679298560077132,1.8207170052286477,-0.5557400165537354,-4.824704740786446,-2.9840317017302858,475.0
476,1.4688662375358343,-1.267929888183175,1.820716968190182,-0.5557399475014586,-4.824704717235364,-2.855965408347968,476.0
477,1.4688662550678426,-1.2679299193496636,1.8207169337132552,-0.5557398819802748,-4.82470469910815,-2.737899114965674,477.0
478,1.468866265828398,-1.2679299490812974,1.8207169026103127,-0.555739821218467,-4.824704687794737,-2.6298328215833884,478.0
479,1.4688662667194354,-1.267929978084184,1.8207168751473308,-0.555739764752984,-4.824704686388467,-2.531766528201124,479.0
480,1.4688662675196122,-1.2679300041295873,1.8207168504847941,-0.5557397140453899,-4.824704685125598,-2.4437002348188797,480.0
481,1.4688662659137062,-1.2679300273465952,1.8207168291952394,-0.5557396695220906,-4.824704686324868,-2.365633941436638,481.0
482,1.4688662569931505,-1.2679300480088778,1.8207168124925062,-0.5557396320871207,-4.824704694902307,-2.297567648054396,482.0
483,1.4688662493831637,-1.2679300656355486,1.820716798243665,-0.5557396001519317,-4.824704702219587,-2.2395013546721416,483.0
484,1.4688662430837456,-1.267930080226605,1.8207167864487124,-0.5557395737165236,-4.824704708276707,-2.1914350612898654,484.0
485,1.4688662380948965,-1.2679300917820504,1.820716777107653,-0.5557395527808963,-4.824704713073668,-2.1533687679075957,485.0
486,1.4688662344166157,-1.267930100301885,1.8207167702204856,-0.5557395373450499,-4.8247047166104675,-2.1253024745253146,486.0
487,1.4688662320489037,-1.2679301057861088,1.8207167657872112,-0.5557395274089844,-4.8247047188871095,-2.107236181143043,487.0
488,1.4689835056821958,-1.2668845133442956,1.8192686990382907,-0.5553371676425235,-4.824585199610662,-2.098148597373137,488.0
489,1.4694424872902236,-1.2627923386330124,1.8136013687056978,-0.5537624605123215,-4.824117429654013,-2.0975416365757047,489.0
490,1.4696108198311544,-1.2612915286346598,1.8115228743396905,-0.5531849420709591,-4.823945876580957,-2.1057287960749815,490.0
491,1.4696108212826693,-1.2612915238951876,1.8115228795320106,-0.5531849551038538,-4.823945880717705,-2.1225709178590617,491.0
492,1.4696108235960197,-1.2612915163416565,1.8115228878072673,-0.5531849758750222,-4.823945887310644,-2.149413039643136,492.0
493,1.4696108267712065,-1.2612915059740664,1.8115228991654617,-0.5531850043844645,-4.823945896359775,-2.1862551614272245,493.0
494,1.4696108308082292,-1.2612914927924175,1.811522913606593,-0.5531850406321803,-4.823945907865098,-2.2330972832113076,494.0
495,1.469610835452603,-1.2612914765208538,1.8115229300694302,-0.5531850802072604,-4.82394592389763,-2.289939392300452,495.0
496,1.4696108408767212,-1.2612914573462455,1.8115229492728746,-0.553185126097751,-4.82394594305442,-2.3567814996708685,496.0
497,1.4696108424372278,-1.2612914348931406,1.8115229707521805,-0.5531851722377035,-4.823945951375921,-2.4336235961721044,497.0
498,1.4696108415891802,-1.2612914092891003,1.8115229946931852,-0.5531852206862703,-4.8239459531264615,-2.5204656870027766,498.0
499,1.469610840677546,-1.2612913807244897,1.8115230213562319,-0.5531852745982797,-4.8239459547928405,-2.6173077657607444,499.0
500,1.4696108318952514,-1.2612913510488952,1.811523051671529,-0.5531853338348569,-4.82394596421911,-2.72414983784513,500.0
501,1.4696108146688869,-1.2612913203983878,1.8115230857079525,-0.5531853983881309,-4.823945981977435,-2.840991901809287,501.0
502,1.4696107941415435,-1.2612912878876719,1.81152312249234,-0.5531854675348602,-4.823946003078205,-2.967833957795587,502.0
503,1.4696107566459027,-1.261291259218214,1.81152316076562,-0.5531855342086708,-4.823946041177507,-3.104676008118757,503.0
504,1.4696107151043738,-1.261291229327054,1.8115232014061047,-0.5531856044417317,-4.8239460833550964,-3.2515180576880733,504.0
505,1.4696106557682649,-1.2612912074102358,1.811523239889153,-0.5531856644072928,-4.823946143230311,-3.4083601002489745,505.0
506,1.4696105893204372,-1.2612911882511901,1.8115232779144756,-0.5531857211041676,-4.823946210186113,-3.574319665119521,506.0
507,1.4696105165967106,-1.2612911788149397,1.8115233086725255,-0.5531857607625453,-4.823946283260735,-3.735220413406081,507.0
508,1.4696104455803187,-1.2612911764824415,1.811523332228251,-0.5531857861259987,-4.823946354497461,-3.886121161692617,508.0
509,1.469610376676576,-1.2612911803144615,1.8115233493441192,-0.5531857988994218,-4.823946423506651,-4.02702190997911,509.0
510,1.4696103128229372,-1.2612911890704233,1.8115233603047483,-0.5531858006299911,-4.823946487365502,-4.157922658265573,510.0
511,1.4696102540107958,-1.2612912024706124,1.811523365376106,-0.5531857918633841,-4.823946546087611,-4.278823406552015,511.0
512,1.4696102004126186,-1.2612912153839095,1.811523369337713,-0.553185782512583,-4.8239465995912765,-4.38972415483844,512.0
513,1.469610155565582,-1.2612912341006606,1.8115233652028038,-0.5531857593253309,-4.82394664421861,-4.49062490312485,513.0
514,1.4696101151632137,-1.2612912509624417,1.81152336147769,-0.5531857384361034,-4.823946684423049,-4.581525651411258,514.0
515,1.4696100792055138,-1.261291265969255,1.811523358162374,-0.5531857198449012,-4.823946720204594,-4.662426399697657,515.0
516,1.469610052865403,-1.2612912830763476,1.8115233499768015,-0.5531856943538592,-4.823946746306996,-4.73332714798406,516.0
517,1.46961003054676,-1.261291298004893,1.8115233426329953,-0.5531856719133283,-4.823946768416522,-4.794227896270467,517.0
518,1.4696100118928734,-1.2612913104821453,1.8115233364950512,-0.5531856531575675,-4.823946786895629,-4.845128644556889,518.0
519,1.469609996903744,-1.2612913205081064,1.8115233315629715,-0.5531856380865776,-4.823946801744316,-4.886029392843319,519.0
520,1.4696099855793712,-1.2612913280827773,1.811523327836757,-0.5531856267003589,-4.823946812962584,-4.916930141129747,520.0
521,1.4696099779197551,-1.2612913332061575,1.811523325316408,-0.5531856189989113,-4.823946820550432,-4.93783088941617,521.0
522,1.469639674257533,-1.261023265582051,1.8111501006886856,-0.5530804908792941,-4.823916539593257,-4.949055864787757,522.0
523,1.4700521153393833,-1.257300643679407,1.805967246902688,-0.551620660531505,-4.823495980623521,-4.952504959626351,523.0
524,1.4703448191262074,-1.2546587732605747,1.8022890830895997,-0.5505846526166059,-4.823197517932173,-4.946451835158912,524.0
525,1.470344823537133,-1.2546587700267067,1.8022890852439324,-0.5505846591986969,-4.8231975186286,-4.932466271179021,525.0
526,1.470344831101972,-1.2546587644805485,1.8022890889386627,-0.5505846704871344,-4.823197519822989,-4.908480707199141,526.0
527,1.4703448418207241,-1.2546587566221006,1.802289094173791,-0.5505846864819186,-4.823197521515338,-4.874495143219244,527.0
528,1.4703448556933896,-1.2546587464513623,1.8022891009493167,-0.5505847071830491,-4.82319752370565,-4.830509579239344,528.0
529,1.470344872817039,-1.2546587341753246,1.8022891100346161,-0.5505847357205417,-4.823197525616336,-4.776524028276047,529.0
530,1.470344893183929,-1.2546587197774737,1.8022891213683123,-0.5505847718447001,-4.823197527309432,-4.712538486109201,530.0
531,1.470344920260828,-1.2546587043200643,1.802289130699835,-0.5505848044811599,-4.823197515851531,-4.63855295005018,531.0
532,1.4703449573898497,-1.25465868893131,1.8022891344534901,-0.5505848249752323,-4.823197478530149,-4.5545674242958,532.0
533,1.470344998962653,-1.254658671701494,1.8022891386287836,-0.5505848478245172,-4.823197436571668,-4.460581907087244,533.0
534,1.4703450459840604,-1.2546586544549654,1.8022891410923751,-0.5505848688077127,-4.823197389164712,-4.356596396866119,534.0
535,1.4703451010643953,-1.2546586419072452,1.8022891363132931,-0.550584876964038,-4.823197334118932,-4.242610895631126,535.0
536,1.4703451609761211,-1.2546586282578591,1.802289131111681,-0.5505848858224107,-4.8231972742507505,-4.118625403879188,536.0
537,1.470345225998773,-1.2546586227526078,1.8022891166769903,-0.5505848773693092,-4.8231972091539745,-3.984639917737373,537.0
538,1.4703452959357122,-1.2546586188715958,1.802289099224954,-0.5505848643176896,-4.823197139111005,-3.8406544329253363,538.0
539,1.4703453661836448,-1.2546586252605592,1.8022890719684779,-0.5505848311934518,-4.823197068571544,-3.6866689534811137,539.0
540,1.470345439658146,-1.254658634984202,1.8022890405844945,-0.5505847906307832,-4.823196994737406,-3.5226848365637484,540.0
541,1.4703455011919873,-1.2546586577282983,1.802289000494654,-0.5505847282502045,-4.823196932641534,-3.35893228674699,541.0
542,1.4703455554594467,-1.254658681430651,1.8022889616931506,-0.5505846661454281,-4.823196877813329,-3.205179736930269,542.0
543,1.470345594584575,-1.2546587113600725,1.8022889215764497,-0.5505845963844149,-4.823196838054581,-3.061427187113572,543.0
544,1.4703456277497657,-1.2546587405589404,1.8022888839504554,-0.5505845298004522,-4.82319680428391,-2.9276746372969127,544.0
545,1.4703456458816104,-1.254658772814004,1.802288847974685,-0.5505844616980062,-4.823196785530059,-2.803922087480278,545.0
546,1.4703456625482858,-1.2546588024626444,1.80228881490598,-0.5505843990986741,-4.82319676829164,-2.6901695376636683,546.0
547,1.4703456665514403,-1.2546588320556258,1.802288785714329,-0.550584340337814,-4.8231967637498006,-2.5864169878470595,547.0
548,1.470345667394642,-1.254658859428227,1.8022887595765482,-0.5505842868281375,-4.823196762415572,-2.4926644380304808,548.0
549,1.4703456681479048,-1.25465888388116,1.8022887362267173,-0.5505842390260044,-4.823196761223657,-2.4089118882138996,549.0
550,1.4703456623014324,-1.2546589057756514,1.8022887172892545,-0.5505841981460815,-4.823196766693883,-2.3351593383973324,550.0
551,1.470345654060921,-1.2546589248783306,1.8022887017146971,-0.5505841634036255,-4.823196774614074,-2.2714067885807565,551.0
552,1.4703456471129868,-1.2546589409846296,1.8022886885831082,-0.5505841341107484,-4.82319678129193,-2.2176542387641622,552.0
553,1.4703456414576301,-1.2546589540945485,1.802288677894488,-0.5505841102674499,-4.823196786727454,-2.173901688947542,553.0
554,1.4703456370948516,-1.2546589642080892,1.8022886696488385,-0.5505840918737307,-4.823196790920646,-2.140149139130939,554.0
555,1.4703456340246501,-1.2546589713252514,1.80228866384616,-0.5505840789295906,-4.823196793871504,-2.1163965893143377,555.0
556,1.4703456322470265,-1.2546589754460356,1.802288660486452,-0.5505840714350297,-4.823196795580028,-2.10264403949774,556.0
557,1.470644956090611,-1.2519239446308434,1.7984608679244862,-0.5494916002123555,-4.822891417669778,-2.096755317897105,557.0
558,1.4710458496716652,-1.248260842962527,1.7933342083057726,-0.548028432052672,-4.822482416975759,-2.1004164450301297,558.0
559,1.4710708936500396,-1.2480320132137972,1.7930139595378123,-0.5479370394079257,-4.822456870208474,-2.111810191931724,559.0
560,1.4710708954586753,-1.2480320073505258,1.7930139660108224,-0.5479370555752119,-4.822456875297855,-2.1329218102546563,560.0
561,1.4710708981240126,-1.248031998709982,1.7930139755499217,-0.5479370794005023,-4.822456882797939,-2.1640334285775893,561.0
562,1.4710709016460515,-1.2480319872921655,1.7930139881551097,-0.5479371108837969,-4.822456892708722,-2.2051450469005376,562.0
563,1.4710709059427156,-1.248031973005856,1.793014003477621,-0.5479371485836346,-4.822456905706261,-2.2562566643716195,563.0
564,1.471070910878973,-1.248031955700978,1.7930140209436662,-0.5479371901285246,-4.822456922902799,-2.3173682799645112,564.0
565,1.4710709160633815,-1.2480319355155673,1.793014041197911,-0.5479372376877261,-4.822456941295461,-2.3884798941656293,565.0
566,1.4710709152802957,-1.2480319119070367,1.7930140634644212,-0.5479372825542707,-4.822456942914298,-2.469591493280899,566.0
567,1.471070914413434,-1.2480318853832302,1.7930140884628116,-0.5479373329082986,-4.822456944624347,-2.560703087554273,567.0
568,1.4710709134735116,-1.248031855940242,1.7930141161819284,-0.5479373887129022,-4.822456946334653,-2.6618146739226107,568.0
569,1.471070898135896,-1.2480318269669195,1.793014148312032,-0.5479374496117384,-4.822456962196641,-2.772926249212917,569.0
570,1.4710708805160682,-1.248031795599954,1.7930141834416649,-0.5479375159749709,-4.82245698036572,-2.8940378172090204,570.0
571,1.4710708524933334,-1.2480317653767825,1.7930142206427084,-0.547937583194711,-4.822457008972853,-3.025149378647936,571.0
572,1.4710708143427311,-1.2480317361822757,1.7930142599395629,-0.5479376514086609,-4.82245704774445,-3.166260937019005,572.0
573,1.4710707654329571,-1.2480317103083036,1.7930142993454217,-0.5479377163286487,-4.822457097243253,-3.317372491861329,573.0
574,1.4710707052958338,-1.248031688068107,1.7930143387047344,-0.5479377774821874,-4.822457157932742,-3.4784840402012045,574.0
575,1.4710706346882132,-1.2480316747480298,1.7930143727680832,-0.5479378243394525,-4.822457228959201,-3.6443516779944547,575.0
576,1.4710705648428388,-1.2480316656620052,1.7930144025791976,-0.5479378627153014,-4.822457299145445,-3.8009802571477334,576.0
577,1.4710704944392783,-1.2480316687912316,1.7930144209588592,-0.5479378774378381,-4.8224573696720485,-3.947608836300996,577.0
578,1.4710704285201777,-1.2480316724422067,1.7930144374829908,-0.547937889816579,-4.822457435693414,-4.084237415454219,578.0
579,1.4710703677186776,-1.2480316853190565,1.793014443693347,-0.5479378826921606,-4.822457496418558,-4.21086599460742,579.0
580,1.471070311746085,-1.2480316980652708,1.7930144485632828,-0.5479378743941481,-4.822457552304847,-4.327494573760603,580.0
581,1.4710702627531362,-1.2480317135982244,1.7930144486699395,-0.5479378585978357,-4.822457601143707,-4.434123152913761,581.0
582,1.4710702203821246,-1.248031731281452,1.793014444726249,-0.5479378366500686,-4.82245764330518,-4.530751732066909,582.0
583,1.4710701823960488,-1.2480317471346547,1.7930144411906808,-0.5479378169736533,-4.822457681103402,-4.617380311220046,583.0
584,1.4710701508662554,-1.2480317627429198,1.7930144359297198,-0.5479377958651839,-4.8224577124333035,-4.694008890373167,584.0
585,1.4710701267772852,-1.2480317788596604,1.793014427929271,-0.5479377715643765,-4.822457736294316,-4.760637469526292,585.0
586,1.4710701063037264,-1.2480317925575075,1.7930144211295749,-0.5479377509107738,-4.82245775657413,-4.8172660486794365,586.0
587,1.4710700894455786,-1.2480318038364593,1.7930144155306291,-0.5479377339043748,-4.822457773272747,-4.863894627832598,587.0
588,1.471070076202842,-1.2480318126965186,1.7930144111324373,-0.547937720545181,-4.822457786390165,-4.900523206985749,588.0
589,1.471070066575516,-1.2480318191376853,1.7930144079349997,-0.5479377108331921,-4.822457795926387,-4.927151786138911,589.0
590,1.4710700605636013,-1.2480318231599596,1.7930144059383162,-0.5479377047684084,-4.822457801881409,-4.9437803652920635,590.0
591,1.471240157703187,-1.2464583747781766,1.7908009234664302,-0.5472978353027056,-4.822284170538772,-4.951827598631139,591.0
592,1.4716787340052162,-1.242401481535903,1.785093811272594,-0.5456480410062741,-4.821836482528392,-4.951040753398491,592.0
593,1.471785978884724,-1.2414094751921914,1.7836982916423574,-0.5452446323006359,-4.821727012794292,-4.9418275670014875,593.0
594,1.4717859845655124,-1.2414094710357326,1.7836982944328206,-0.5452446407827286,-4.821727013665892,-4.923613684331707,594.0
595,1.4717859933652337,-1.2414094645972458,1.7836982987553371,-0.5452446539217595,-4.821727015016025,-4.89539980166193,595.0
596,1.471786005283888,-1.2414094558767312,1.7836983046099069,-0.5452446717177285,-4.821727016844695,-4.857185918992144,596.0
597,1.4717860203242128,-1.241409444880163,1.783698312018621,-0.5452446942600159,-4.821727019129705,-4.808972036527841,597.0
598,1.4717860386457755,-1.2414094319558224,1.7836983222693563,-0.5452447267592363,-4.821727020577214,-4.750758164763688,598.0
599,1.471786060114623,-1.2414094168113343,1.783698334280967,-0.5452447648411847,-4.821727022273375,-4.682544292999541,599.0
600,1.471786092358704,-1.2414094020372581,1.7836983397888295,-0.5452447885891022,-4.82172699512077,-4.604330434209443,600.0
601,1.4717861308386189,-1.2414093860898572,1.783698343711109,-0.5452448098521444,-4.821726956421717,-4.5161165799235565,601.0
602,1.4717861737117808,-1.241409368322554,1.7836983480429693,-0.5452448334082272,-4.821726913069774,-4.417902737343842,602.0
603,1.4717862238423087,-1.241409353943939,1.7836983466477319,-0.5452448471752973,-4.821726862783898,-4.30968890244826,603.0
604,1.4717862802041206,-1.241409341110146,1.7836983417118515,-0.545244855470766,-4.821726806460474,-4.191475075424732,604.0
605,1.4717863414143344,-1.2414093298717426,1.7836983337773753,-0.5452448592084664,-4.821726745259943,-4.063261255978175,605.0
606,1.471786407654332,-1.241409326208609,1.7836983170956,-0.5452448466877348,-4.821726678917884,-3.9250474414462366,606.0
607,1.4717864774709897,-1.2414093251008624,1.7836982968870234,-0.5452448281118198,-4.821726608943977,-3.776833628647609,607.0
608,1.471786547554447,-1.2414093342263426,1.7836982668361232,-0.5452447894618737,-4.821726538516621,-3.618619822654168,608.0
609,1.471786616002055,-1.2414093495793899,1.7836982313428682,-0.5452447391284478,-4.8217264696169275,-3.452294901914577,609.0
610,1.471786675150753,-1.2414093714634737,1.7836981924517774,-0.545244678794757,-4.821726409922095,-3.2927733524241143,610.0
611,1.4717867207903412,-1.2414093985336696,1.7836981527281592,-0.545244612339613,-4.8217263636774055,-3.143251802933668,611.0
612,1.4717867582616793,-1.2414094272164218,1.7836981139541677,-0.5452445451596697,-4.821726325592786,-3.0037302534432384,612.0
613,1.4717867832124578,-1.2414094579477517,1.78369807703951,-0.5452444776957309,-4.821726300023814,-2.8742087039528386,613.0
614,1.4717868004945944,-1.2414094887028109,1.7836980424379245,-0.5452444124633403,-4.8217262821426825,-2.754687154462469,614.0
615,1.4717868132408713,-1.2414095175881605,1.783698011001413,-0.5452443522319156,-4.8217262688427445,-2.645165604972123,615.0
616,1.471786814127026,-1.241409546271305,1.7836979833701478,-0.5452442959186052,-4.821726267436931,-2.545644055481785,616.0
617,1.471786814924139,-1.241409572072341,1.7836979585152877,-0.5452442452636982,-4.821726266172375,-2.456122505991458,617.0
618,1.4717868148496858,-1.2414095950345438,1.7836979366339019,-0.5452442004150829,-4.821726265832823,-2.3766009565011337,618.0
619,1.4717868059851746,-1.241409615595781,1.7836979197201188,-0.5452441628692613,-4.821726274349135,-2.307079407010825,619.0
620,1.4717867983957376,-1.2414096331994837,1.7836979052392192,-0.5452441307240418,-4.821726281640458,-2.2475578575205044,620.0
621,1.471786792081374,-1.2414096478456498,1.7836978931912004,-0.5452441039794239,-4.821726287706792,-2.1980363080301584,621.0
622,1.4717867870420847,-1.2414096595342818,1.7836978835760653,-0.5452440826354081,-4.821726292548137,-2.158514758539801,622.0
623,1.471786783277869,-1.24140966826538,1.7836978763938145,-0.5452440666919942,-4.821726296164494,-2.128993209049468,623.0
624,1.4717867807887273,-1.241409674038944,1.7836978716444478,-0.5452440561491824,-4.821726298555862,-2.109471659559116,624.0
625,1.471849961883154,-1.2408180044375483,1.7828612788346452,-0.544999193935955,-4.8216617692602854,-2.099283741309185,625.0
626,1.472269599354516,-1.2368883000466986,1.777304906216577,-0.5433729309594314,-4.821233177915586,-2.097178852583849,626.0
627,1.472493505583478,-1.234791530003974,1.7743402014040615,-0.5425052136435544,-4.82100449638673,-2.1042488624649627,627.0
628,1.4724935068859841,-1.2347915258111037,1.7743402060712636,-0.5425052252413403,-4.821004500009668,-2.119547997666608,628.0
629,1.4724935090398497,-1.23479151887764,1.7743402137890967,-0.5425052444198066,-4.821004506000673,-2.1448471328682466,629.0
630,1.4724935120450744,-1.2347915092035833,1.7743402245575615,-0.5425052711789538,-4.821004514359746,-2.1801462680698944,630.0
631,1.4724935159016583,-1.2347914967889335,1.774340238376657,-0.5425053055187815,-4.821004525086885,-2.225445403271543,631.0
632,1.472493520413526,-1.2347914814101841,1.7743402543973585,-0.5425053439506435,-4.8210045398165144,-2.2807445249362024,632.0
633,1.4724935256617708,-1.2347914631597716,1.7743402729708044,-0.54250538791737,-4.821004557872672,-2.3460436415946453,633.0
634,1.4724935282105278,-1.234791441809552,1.7743402939602695,-0.5425054337548368,-4.821004568691192,-2.421342749997821,634.0
635,1.472493527396187,-1.2347914173017647,1.7743403172846128,-0.5425054805419662,-4.821004570377255,-2.506641850263189,635.0
636,1.4724935265131331,-1.234791389910912,1.7743403433149973,-0.5425055327205517,-4.821004572031211,-2.6019409402878706,636.0
637,1.472493520268711,-1.2347913608902568,1.7743403726899263,-0.542505590196412,-4.821004578954271,-2.707240023465327,637.0
638,1.472493503712772,-1.234791331410826,1.7743404059982153,-0.5425056528502414,-4.821004596033862,-2.822539098217139,638.0
639,1.4724934857212957,-1.23479129937554,1.7743404421987674,-0.5425057209518324,-4.821004614591747,-2.9478381641524463,639.0
640,1.4724934503305578,-1.2347912714434062,1.7743404797926683,-0.542505786216881,-4.8210046505768105,-3.0831372239337163,640.0
641,1.472493411563797,-1.2347912417639626,1.7743405200939348,-0.5425058559118494,-4.821004689981487,-3.228436283183518,641.0
642,1.472493355451275,-1.2347912198628577,1.7743405582471057,-0.5425059155450112,-4.821004746635562,-3.3837353361515143,642.0
643,1.472493292915336,-1.2347911992559044,1.7743405971251212,-0.5425059745597047,-4.8210048097061104,-3.5488297969468707,643.0
644,1.4724932214353808,-1.234791189942123,1.774340627917559,-0.542506014125699,-4.821004881538871,-3.711268170704677,644.0
645,1.472493152433667,-1.2347911856612248,1.7743406531290302,-0.5425060430956794,-4.821004950795771,-3.8637065444625662,645.0
646,1.472493084619977,-1.234791189406538,1.7743406702858733,-0.5425060559923055,-4.821005018716087,-4.006144918220641,646.0
647,1.4724930216746543,-1.2347911963608709,1.7743406828782908,-0.5425060611517907,-4.82100508169733,-4.138583291978848,647.0
648,1.472492963691627,-1.2347912095591989,1.774340687969268,-0.5425060526022795,-4.821005139590313,-4.261021665737156,648.0
649,1.4724929104442905,-1.2347912216795651,1.7743406926444387,-0.5425060447510365,-4.821005192754957,-4.3734600394956225,649.0
650,1.4724928657890315,-1.2347912395851446,1.7743406891473699,-0.5425060230063906,-4.821005237200534,-4.475898413254151,650.0
651,1.472492825792724,-1.2347912562761931,1.774340685388847,-0.5425060022503788,-4.821005276997187,-4.5683367870127904,651.0
652,1.472492790123224,-1.234791271161599,1.7743406820369185,-0.5425059837397557,-4.821005312488631,-4.650775160771484,652.0
653,1.4724927630355666,-1.234791287498974,1.7743406746682444,-0.5425059598252113,-4.821005339349824,-4.723213534530258,653.0
654,1.4724927407613575,-1.2347913024032748,1.7743406672002795,-0.54250593728122,-4.821005361411163,-4.785651908289075,654.0
655,1.4724927220545392,-1.2347913149205325,1.774340660928366,-0.5425059183478267,-4.821005379939203,-4.83809028204794,655.0
656,1.4724927069151121,-1.2347913250507476,1.7743406558525052,-0.5425059030250319,-4.821005394933945,-4.880528655806807,656.0
657,1.4724926953430757,-1.2347913327939213,1.774340651972699,-0.5425058913128359,-4.821005406395389,-4.912967029565693,657.0
658,1.4724926873384305,-1.2347913381500537,1.774340649288947,-0.542505883211239,-4.821005414323536,-4.93540540332454,658.0
659,1.4724983341475673,-1.2347377659680954,1.774264514289983,-0.5424833258043791,-4.820999643672781,-4.947914629586426,659.0
660,1.4728409166123286,-1.2314900013831196,1.7696492452438364,-0.5411161513823574,-4.820649556407551,-4.952806105765691,660.0
661,1.4731843789894816,-1.2282339234073307,1.7650221668925603,-0.539745482306569,-4.820298571755797,-4.947994332542288,661.0
662,1.4731904494911952,-1.2281764074248784,1.7649404391344214,-0.5397212774113245,-4.820292372765907,-4.9355565458966195,662.0
663,1.4731904563884353,-1.2281764023889215,1.7649404425431487,-0.539721287717944,-4.82029237379784,-4.913195607384629,663.0
664,1.4731904663701787,-1.228176395100842,1.7649404474762878,-0.5397213026337706,-4.820292375291261,-4.8808346688726,664.0
665,1.4731904794364263,-1.2281763855606402,1.7649404539338382,-0.5397213221588041,-4.8202923772461705,-4.838473730360569,665.0
666,1.4731904956532147,-1.2281763739159173,1.7649404624585951,-0.539721348476633,-4.820292379120619,-4.786112796111523,666.0
667,1.473190515060661,-1.228176360256337,1.764940473380291,-0.5397213829137236,-4.820292380585388,-4.723751867338414,667.0
668,1.47319053946838,-1.2281763450506507,1.7649404839815188,-0.539721417902507,-4.8202923750611975,-4.651390941971858,668.0
669,1.4731905749188212,-1.22817633036074,1.7649404876320216,-0.5397214375363774,-4.820292339430413,-4.569030029388635,669.0
670,1.4731906146897789,-1.228176313880815,1.7649404917071259,-0.5397214594919642,-4.820292299333127,-4.476669123346094,670.0
671,1.4731906590745354,-1.2281762961326652,1.764940495578186,-0.539721482529236,-4.820292254495579,-4.374308224532061,671.0
672,1.4731907119416738,-1.2281762840994852,1.764940490906945,-0.5397214902729381,-4.820292201662933,-4.261947336595455,672.0
673,1.4731907695132802,-1.2281762709946655,1.7649404858173192,-0.5397214986949664,-4.820292144133681,-4.139586456593897,673.0
674,1.4731908320082046,-1.228176264011974,1.7649404733288931,-0.5397214936528789,-4.8202920815885815,-4.007225582805433,674.0
675,1.4731908993398748,-1.2281762602965745,1.7649404562135638,-0.5397214807654298,-4.820292014151933,-3.8648647114231403,675.0
676,1.473190967894908,-1.2281762644564433,1.7649404311411012,-0.5397214520546951,-4.8202919453443895,-3.712503844393404,676.0
677,1.4731910388724332,-1.2281762737090467,1.7649404004215845,-0.5397214126224209,-4.820291874014641,-3.5501429836775276,677.0
678,1.4731911011079033,-1.2281762940926633,1.764940361672494,-0.5397213539607406,-4.820291811246697,-3.384997844325565,678.0
679,1.4731911569953644,-1.2281763157869032,1.7649403236124028,-0.5397212946287507,-4.8202917548193005,-3.22962606376467,679.0
680,1.4731911955285508,-1.2281763452902472,1.7649402833674297,-0.5397212251689277,-4.820291715648818,-3.084254283203661,680.0
681,1.473191230830366,-1.2281763730063957,1.764940245836031,-0.5397211601855555,-4.820291679750631,-2.9488825026424825,681.0
682,1.4731912487237908,-1.2281764048512778,1.7649402096795466,-0.5397210923147893,-4.820291661230662,-2.8235107220811755,682.0
683,1.4731912651899863,-1.2281764341561174,1.7649401764069963,-0.5397210298575823,-4.820291644187896,-2.7081389415197563,683.0
684,1.4731912714899855,-1.228176462909759,1.764940146789245,-0.5397209715289172,-4.820291637347683,-2.602767160958204,684.0
685,1.4731912723308511,-1.2281764900409562,1.7649401204110857,-0.5397209180209419,-4.820291636010294,-2.5073953803965923,685.0
686,1.4731912730835495,-1.228176514327366,1.7649400967987459,-0.5397208701234286,-4.820291634813135,-2.422023599834862,686.0
687,1.4731912689317364,-1.2281765360347427,1.764940077176488,-0.5397208287580922,-4.820291638580172,-2.3466518192730925,687.0
688,1.4731912607077207,-1.2281765551171628,1.7649400613327493,-0.5397207937656523,-4.820291646477781,-2.2812800387112677,688.0
689,1.4731912537417422,-1.228176571280521,1.7649400479126451,-0.5397207641260479,-4.820291653167282,-2.2259082581493876,689.0
690,1.4731912480338014,-1.228176584524817,1.7649400369161747,-0.5397207398392789,-4.820291658648677,-2.1805364775874976,690.0
691,1.4731912435838985,-1.2281765948500527,1.7649400283433407,-0.5397207209053456,-4.820291662921966,-2.145164697025596,691.0
692,1.473191240392033,-1.2281766022562284,1.7649400221941436,-0.5397207073242483,-4.820291665987148,-2.1197929164637186,692.0
693,1.4731912384582053,-1.2281766067433437,1.7649400184685826,-0.5397206990959865,-4.820291667844223,-2.104421135901844,693.0
694,1.4734042275961663,-1.2261324348530702,1.7620206848489695,-0.5388457421687747,-4.820073889656653,-2.0972952479637668,694.0
695,1.4738141087146321,-1.2221985976833791,1.756402682858647,-0.5371619719174007,-4.819654793267417,-2.09931563818501,695.0
696,1.4738801803313244,-1.2215644801669403,1.755497092021091,-0.5368905639156175,-4.819587239281533,-2.1094365780023416,696.0
697,1.4738801819727223,-1.2215644749195227,1.7554970979138624,-0.5368905784823063,-4.819587243799792,-2.1288426245122483,697.0
698,1.4738801844599378,-1.2215644669680932,1.7554971068431984,-0.5368906005552577,-4.819587250646326,-2.158248671022191,698.0
699,1.4738801877929713,-1.221564456312652,1.7554971188090989,-0.5368906301344721,-4.819587259821134,-2.197654717532136,699.0
700,1.4738801919375617,-1.2215644429131296,1.7554971336603815,-0.5368906666024755,-4.819587271613187,-2.2470607607544157,700.0
701,1.47388019668667,-1.2215644265273797,1.7554971504834325,-0.5368907062277875,-4.819587287768783,-2.3064667837566635,701.0
702,1.4738802022352104,-1.2215644073833658,1.75549717013836,-0.5368907525233512,-4.8195873066439,-2.3758728067588697,702.0
703,1.4738802020755317,-1.2215643849155857,1.755497191844105,-0.5368907965305809,-4.819587309865014,-2.4552788148654705,703.0
704,1.473880201237884,-1.2215643595581074,1.7554972161965017,-0.5368908451417829,-4.819587311558616,-2.5446848188773923,704.0
705,1.4738802003329412,-1.2215643313544766,1.7554972432441696,-0.5368908990963203,-4.819587313212329,-2.644090812705413,705.0
706,1.4738801880063206,-1.2215643029919045,1.7554972743567898,-0.5368909581585333,-4.819587326107144,-2.753496797452952,706.0
707,1.473880171081122,-1.22156427285814,1.755497308726902,-0.536891022528595,-4.819587343572605,-2.872902774551945,707.0
708,1.4738801468245182,-1.2215642426683164,1.7554973454177083,-0.536891089226829,-4.819587368406563,-3.0023087444679852,708.0
709,1.4738801101120733,-1.221564214559519,1.7554973839426402,-0.5368911555862502,-4.81958740572915,-3.141714710192694,709.0
710,1.4738800655706923,-1.221564187910618,1.7554974234721499,-0.5368912214293109,-4.8195874508746535,-3.2911206734269967,710.0
711,1.473880007617382,-1.2215641664571937,1.7554974621160289,-0.536891281085671,-4.819587509371823,-3.4505266299965776,711.0
712,1.4738799406349887,-1.2215641512417637,1.7554974975134017,-0.5368913311870935,-4.819587576807286,-3.616864958854718,712.0
713,1.4738798718707655,-1.2215641422756354,1.755497527415894,-0.5368913695295332,-4.819587645914721,-3.7751936842344285,713.0
714,1.4738798034286296,-1.2215641432069413,1.755497547645121,-0.5368913883019557,-4.819587714517972,-3.923522409614279,714.0
715,1.4738797384303872,-1.2215641467912866,1.7554975642448107,-0.5368914008177563,-4.819587779619777,-4.061851134994262,715.0
716,1.4738796783660253,-1.2215641576865535,1.7554975722493853,-0.5368913974640661,-4.819587839640969,-4.1901798603744265,716.0
717,1.4738796230609936,-1.2215641702713098,1.7554975771503587,-0.536891389353509,-4.8195878948595,-4.308508585754657,717.0
718,1.4738795738490618,-1.2215641843181118,1.7554975787559688,-0.5368913765320467,-4.819587943942292,-4.4168373111350325,718.0
719,1.4738795318605362,-1.2215642018383626,1.755497574771627,-0.5368913547019982,-4.819587985719263,-4.515166036515494,719.0
720,1.47387949414223,-1.2215642175768058,1.7554975711924858,-0.5368913350920572,-4.819588023247529,-4.603494761896047,720.0
721,1.4738794617846784,-1.221564232368409,1.755497566874208,-0.5368913157311371,-4.819588055418426,-4.6818234872766835,721.0
722,1.4738794377285713,-1.2215642484647011,1.7554975587310078,-0.5368912913040865,-4.819588079242374,-4.750152212657356,722.0
723,1.4738794171931076,-1.2215642622052794,1.755497551779576,-0.5368912704519673,-4.819588099579657,-4.808480938038069,723.0
724,1.4738794001782871,-1.2215642735901415,1.755497546019909,-0.5368912531747783,-4.819588116430271,-4.856809663418827,724.0
725,1.4738793866841102,-1.22156428261929,1.7554975414520104,-0.5368912394725207,-4.81958812979422,-4.895138388799584,725.0
726,1.4738793767105764,-1.2215642892927256,1.755497538075881,-0.536891229345195,-4.819588139671502,-4.923467114180344,726.0
727,1.473879370257686,-1.2215642936104478,1.7554975358915206,-0.5368912227928008,-4.8195881460621175,-4.941795839561074,727.0
728,1.4739785222953905,-1.2206008839950322,1.7541149099161497,-0.5364721016002794,-4.819486706296518,-4.951125141043441,728.0
729,1.4743922136905387,-1.2165813769606568,1.7483463790562543,-0.5347234749986187,-4.819063470553025,-4.952080174433775,729.0
730,1.4745597084322681,-1.214953988153906,1.7460108620876997,-0.5340155082884669,-4.818892114226485,-4.944165073267103,730.0
731,1.4745597134438055,-1.2149539845026833,1.7460108645806005,-0.5340155157847475,-4.818892114960541,-4.927737056132299,731.0
732,1.4745597215059472,-1.214953978628903,1.7460108685909708,-0.5340155278441356,-4.818892116141428,-4.901309038997486,732.0
733,1.4745597326186926,-1.214953970532564,1.7460108741188094,-0.5340155444666311,-4.818892117769146,-4.8648810218626615,733.0
734,1.4745597467820422,-1.214953960213667,1.7460108811641175,-0.5340155656522342,-4.818892119843696,-4.818453004727833,734.0
735,1.4745597641254289,-1.2149539479685996,1.7460108908104859,-0.5340155957343764,-4.81889212129009,-4.762025006484223,735.0
736,1.4745597845687564,-1.2149539336139463,1.746010902387351,-0.5340156320313814,-4.818892122773568,-4.695597011745173,736.0
737,1.4745598137270344,-1.2149539190287348,1.7460109094418448,-0.5340156588309695,-4.818892102845648,-4.619169026912255,737.0
738,1.4745598504441118,-1.214953903817074,1.7460109132588515,-0.5340156792015216,-4.818892065943278,-4.532741048215783,738.0
739,1.4745598914386635,-1.2149538868336476,1.7460109174833647,-0.5340157018155325,-4.818892024515994,-4.43631308138376,739.0
740,1.4745599387219719,-1.214953871740056,1.7460109177263095,-0.5340157181193326,-4.818891976991766,-4.329885121282392,740.0
741,1.4745599927918414,-1.2149538594360645,1.7460109129033488,-0.5340157259934815,-4.818891922959036,-4.213457169395967,741.0
742,1.474560051527294,-1.2149538468014098,1.7460109069512,-0.5340157330967487,-4.818891864258658,-4.087029225727046,742.0
743,1.4745601152170325,-1.214953843290017,1.746010890607524,-0.5340157207549522,-4.818891800468039,-3.9506012881374355,743.0
744,1.4745601833508255,-1.2149538400417514,1.7460108726296535,-0.5340157065503454,-4.818891732217329,-3.8041733512466145,744.0
745,1.4745602508501277,-1.2149538488429175,1.7460108431370789,-0.5340156687763477,-4.8188916643793265,-3.6477454213315568,745.0
746,1.474560319362204,-1.2149538614955993,1.7460108095866,-0.5340156231000694,-4.818891595454973,-3.4819743857202616,746.0
747,1.4745603776262755,-1.2149538830625577,1.7460107705501282,-0.534015562942753,-4.818891536641314,-3.320672431802169,747.0
748,1.4745604253142568,-1.2149539079518425,1.7460107315649138,-0.5340154994321089,-4.818891488370285,-3.169370477883965,748.0
749,1.4745604622865975,-1.2149539362568262,1.7460106925834915,-0.5340154324262074,-4.818891450780087,-3.0280685239655845,749.0
750,1.4745604897649545,-1.2149539654280899,1.7460106557049853,-0.5340153665834761,-4.818891422692785,-2.8967665700470997,750.0
751,1.4745605068564827,-1.2149539958381532,1.7460106208442585,-0.5340153014392981,-4.818891404996705,-2.775464616128432,751.0
752,1.4745605220158877,-1.2149540238602607,1.7460105889039823,-0.534015241589028,-4.818891389281765,-2.664162662209696,752.0
753,1.474560522900409,-1.2149540523026872,1.7460105609831151,-0.534015185227543,-4.818891387871354,-2.5628607082908563,753.0
754,1.474560523697615,-1.214954077937422,1.7460105358184466,-0.5340151344297691,-4.818891386600172,-2.471558754371908,754.0
755,1.4745605244075053,-1.214954100764467,1.7460105134099784,-0.5340150891957065,-4.818891385468219,-2.3902568004529035,755.0
756,1.4745605165836848,-1.2149541212494626,1.7460104959251175,-0.5340150511618162,-4.818891392935436,-2.318954846533832,756.0
757,1.4745605089733536,-1.2149541389101879,1.7460104811192707,-0.5340150186333578,-4.818891400240594,-2.2576528926147192,757.0
758,1.4745605026044726,-1.2149541536899713,1.7460104687286537,-0.5340149914111666,-4.818891406354084,-2.206350938695576,758.0
759,1.4745604974770417,-1.2149541655888143,1.7460104587532688,-0.5340149694952432,-4.818891411275907,-2.165048984776398,759.0
760,1.4745604935910606,-1.2149541746067176,1.746010451193117,-0.5340149528855879,-4.818891415006061,-2.1337470308572293,760.0
761,1.4745604909465295,-1.2149541807436814,1.7460104460481984,-0.5340149415822003,-4.818891417544548,-2.112445076938085,761.0
762,1.474580311874903,-1.214759200078492,1.7457292586039852,-0.5339287537971319,-4.818871127389423,-2.1008936285287048,762.0
763,1.474941540645356,-1.2112059454782584,1.740605139701637,-0.5323582358459144,-4.818501348794939,-2.097000768401513,763.0
764,1.475232095444969,-1.2083478869811337,1.7364835633066542,-0.5310949975254857,-4.818203918743936,-2.1027274102759224,764.0
765,1.4752323609110443,-1.2083452832258699,1.736479817687045,-0.5310938582571088,-4.818203651229079,-2.1161646615039125,765.0
766,1.47523236287966,-1.208345276974932,1.7364798247731028,-0.531093875679292,-4.8182036565984445,-2.1395982118256587,766.0
767,1.4752323656883597,-1.208345268056478,1.7364798348830544,-0.5310939005361928,-4.818203664259123,-2.1730317621474415,767.0
768,1.4752323693371439,-1.2083452564705075,1.7364798480169006,-0.5310939328278115,-4.818203674211118,-2.2164653124692113,768.0
769,1.4752323736898023,-1.2083452420535052,1.7364798635620464,-0.5310939700676675,-4.818203687616791,-2.2698988548404984,769.0
770,1.4752323787320116,-1.208345224788276,1.7364798814540743,-0.5310940119942907,-4.818203704598373,-2.3333323904839887,770.0
771,1.4752323824194626,-1.208345204614523,1.7364799019128674,-0.5310940575925052,-4.818203718248259,-2.40676592099408,771.0
772,1.4752323816400574,-1.2083451812618953,1.7364799245709501,-0.5310941026089582,-4.818203719867373,-2.4901994404831953,772.0
773,1.4752323807864798,-1.2083451551029485,1.7364799499235413,-0.531094152951461,-4.818203721511434,-2.583632952032324,773.0
774,1.4752323773796554,-1.2083451267244125,1.7364799782714753,-0.5310942085677284,-4.818203725637215,-2.6870664564785964,774.0
775,1.4752323615046536,-1.2083450984720512,1.736480010812339,-0.5310942692279641,-4.818203742026007,-2.8004999513051145,775.0
776,1.4752323442305117,-1.2083450677299594,1.7364800462252863,-0.5310943352492759,-4.818203759856626,-2.9239334371350134,776.0
777,1.4752323131212057,-1.2083450396839863,1.7364800833191638,-0.5310944001530947,-4.818203791552532,-3.057366917102848,777.0
778,1.475232275831023,-1.20834501114162,1.7364801228251507,-0.5310944679191187,-4.818203829469101,-3.2008003953120623,778.0
779,1.4752322245791443,-1.208344988210289,1.736480161201059,-0.5310945288328156,-4.818203881280433,-3.3542338684994415,779.0
780,1.4752321660155348,-1.2083449665367079,1.7364802006270783,-0.5310945894811746,-4.81820394039948,-3.517411314163974,780.0
781,1.4752320978459708,-1.208344957000268,1.7364802311910024,-0.5310946290535937,-4.818204008925105,-3.677644647110498,781.0
782,1.4752320328284076,-1.208344950014173,1.7364802582811243,-0.5310946626259144,-4.818204074243228,-3.8278779800571185,782.0
783,1.4752319677831802,-1.2083449536003463,1.7364802750522905,-0.5310946753049794,-4.818204139393463,-3.968111313003762,783.0
784,1.4752319073816986,-1.208344957103718,1.7364802904568923,-0.5310946867363717,-4.818204199889247,-4.098344645950473,784.0
785,1.4752318519106256,-1.2083449697237132,1.7364802954190797,-0.5310946786454579,-4.818204255272942,-4.2185779788971995,785.0
786,1.4752318010531709,-1.208344981294079,1.7364802999685478,-0.5310946712274768,-4.818204306050284,-4.328811311843974,786.0
787,1.4752317566934128,-1.2083449951661966,1.7364803002442326,-0.5310946572840426,-4.8182043502702205,-4.429044644790787,787.0
788,1.4752317186590684,-1.2083450110336111,1.7364802965991983,-0.531094637473389,-4.818204388111158,-4.519277977737619,788.0
789,1.475231684839834,-1.2083450251425347,1.736480293358115,-0.5310946198582256,-4.81820442175842,-4.599511310684442,789.0
790,1.4752316554117002,-1.2083450376276768,1.736480290334546,-0.5310946041187502,-4.818204451033059,-4.669744643631277,790.0
791,1.4752316344799108,-1.2083450516312388,1.736480283179428,-0.5310945827950484,-4.818204471760872,-4.729977976578114,791.0
792,1.4752316170232385,-1.208345063309915,1.7364802772122099,-0.5310945650115295,-4.818204489047433,-4.780211309524892,792.0
793,1.4752316030416834,-1.2083450726637048,1.7364802724328916,-0.5310945507681933,-4.818204502892742,-4.820444642471653,793.0
794,1.4752315925352457,-1.208345079692608,1.736480268841471,-0.5310945400650395,-4.818204513296797,-4.850677975418453,794.0
795,1.4752315855039253,-1.208345084396626,1.736480266437952,-0.5310945329020689,-4.8182045202595996,-4.870911308365222,795.0
796,1.475231581947722,-1.2083450867757584,1.7364802652223335,-0.5310945292792815,-4.818204523781148,-4.8811446413120025,796.0
797,1.4750825205833027,-1.2097967778262861,1.7386429376819588,-0.5318053663088446,-4.818357634566959,-4.882492684388083,797.0
