Miguel-LA/TFM_MiguelLerinAlonso/workspace/ros_ur_driver/src/trayectories/data/saved_trajectories/20240522_1952_trajectory.csv
,shoulder_pan_joint,shoulder_lift_joint,elbow_joint,wrist_1_joint,wrist_2_joint,wrist_3_joint,time_from_start
0,5.138404369354248,-2.0571616331683558,-2.075317684804098,1.000719428062439,-5.122517172490255,0.04422441124916077,0.0
1,5.138164994544915,-2.0575600849101976,-2.074654379158751,1.0004545718257052,-5.122277305398079,0.04922441124916076,1.0
2,5.137446870116913,-2.058755440135723,-2.0726644622227095,0.9996600031155035,-5.12155770412155,0.06422441124916078,2.0
3,5.136249996070244,-2.0607476988449323,-2.0693479339959735,0.9983357219318342,-5.120358368660668,0.08922441124916092,3.0
4,5.134574372404909,-2.063536861037825,-2.0647047944785433,0.9964817282746972,-5.118679299015434,0.12422441124916114,4.0
5,5.132428734444844,-2.067122432119927,-2.0587303769788043,0.9940929707997341,-5.116529339466993,0.1692244010123643,5.0
6,5.129833814294379,-2.0715032408059297,-2.0514136004607373,0.9911574581374509,-5.113929480731429,0.22422438959377836,6.0
7,5.1268062210155705,-2.076678348235907,-2.0427455886501313,0.9876655842054483,-5.110896539048511,0.28922437761145126,7.0
8,5.12336427708744,-2.0826473058180754,-2.0327153835008076,0.9836061290475158,-5.107449109836551,0.36422435153898414,8.0
9,5.119528210030147,-2.089410081899815,-2.0213099667144796,0.978966214347416,-5.103607756785941,0.44922432209609964,9.0
10,5.115371031266882,-2.0968754869597888,-2.008669364595587,0.9737947983507205,-5.099445919681088,0.5430759899062056,10.0
11,5.1115360069506295,-2.1038927111671333,-1.996740647494299,0.9688874786857333,-5.09560768449078,0.6312974929809856,11.0
12,5.10819315123404,-2.110115127988405,-1.9861256640865932,0.9644990261233417,-5.092262946682659,0.7095189930041885,12.0
13,5.105320689923445,-2.1155431314050324,-1.976837713754648,0.9606429231455245,-5.089389596909498,0.7777404889855701,13.0
14,5.102900618987455,-2.1201765056491904,-1.9688888794457178,0.957330909138534,-5.0869693241983,0.8359619829673308,14.0
15,5.100917305156457,-2.124015228353348,-1.9622893199922302,0.9545729948956101,-5.084986234475416,0.8841834736511482,15.0
16,5.099358833295064,-2.1270586584747067,-1.9570480377047872,0.9523775014421538,-5.083428192219742,0.922404961000761,16.0
17,5.098215799271522,-2.1293062628570643,-1.9531721926596965,0.9507510263634344,-5.082285618414389,0.9506264457237639,17.0
18,5.097480949106088,-2.1307576302246725,-1.9506673079008805,0.9496986587998331,-5.081551124179832,0.9688479281232674,18.0
19,5.096611950648712,-2.132474852099564,-1.9477033087154443,0.9484532432948172,-5.080682554996701,0.9775120263106188,19.0
20,5.094917052887051,-2.1358241400780633,-1.9419223079433523,0.9460241865847254,-5.078988494430099,0.976600810469732,20.0
21,5.094474758957201,-2.136698163539733,-1.9404137173835871,0.9453903126145896,-5.078546418938834,0.9671522781319072,21.0
22,5.094474760654446,-2.1366981727568968,-1.940413717028774,0.945390321487738,-5.078546420570157,0.9487536787625115,22.0
23,5.09447476327418,-2.13669818698377,-1.940413716481114,0.9453903351836169,-5.0785464230881345,0.920355079393116,23.0
24,5.09447476681618,-2.1366982062204736,-1.940413715740517,0.9453903537028416,-5.078546426490862,0.881956481708426,24.0
25,5.0944747712803204,-2.136698230467079,-1.9404137148069305,0.9453903770457767,-5.078546430777209,0.8335578860488045,25.0
26,5.0944747766668295,-2.1366982597234596,-1.9404137136804487,0.9453904052117721,-5.078546435949189,0.7751592903891821,26.0
27,5.094474777716506,-2.1366982925526212,-1.9404137161863642,0.9453904405041196,-5.07854643673793,0.7067607025369244,27.0
28,5.094474776873815,-2.136698329622476,-1.9404137205466885,0.9453904818522545,-5.0785464355923935,0.6283621175266658,28.0
29,5.094474775923631,-2.13669837142065,-1.9404137254632419,0.945390528474201,-5.078546434300684,0.539963535579582,29.0
30,5.094474770837577,-2.136698416867326,-1.9404137316683312,0.9453905799830336,-5.078546428840201,0.44156495516921557,30.0
31,5.0944747554314604,-2.136698464304759,-1.9404137402862083,0.9453906357845132,-5.078546413035577,0.3331663769892607,31.0
32,5.0944747386041,-2.1366985161183973,-1.940413749699093,0.9453906967337887,-5.0785463957729595,0.21476780889701433,32.0
33,5.094474708338101,-2.1366985652229102,-1.940413761655796,0.945390757384035,-5.078546365081942,0.08636924767113105,33.0
34,5.094474672079271,-2.136698616008274,-1.9404137750727761,0.9453908211100321,-5.078546328379211,-0.05202930982092685,34.0
35,5.09447462319306,-2.136698660277092,-1.9404137904320722,0.9453908801439835,-5.078546279090943,-0.20042786356380934,35.0
36,5.094474566070193,-2.136698702498433,-1.9404138073068353,0.9453909385646999,-5.078546221575434,-0.3588264105897141,36.0
37,5.094474497237789,-2.1366987293774864,-1.9404138249336995,0.9453909823044502,-5.078546152464675,-0.5230391216097477,37.0
38,5.09447443009467,-2.1366987507370965,-1.940413841579739,0.9453910195723896,-5.078546085089478,-0.678498062649723,38.0
39,5.0944743625096365,-2.136698752315825,-1.9404138560880781,0.9453910349564633,-5.078546017432535,-0.8239570036896956,39.0
40,5.09447429958208,-2.1366987532956094,-1.9404138695413038,0.9453910487358994,-5.078545954442,-0.9594159447296643,40.0
41,5.094474241673527,-2.1366987377725195,-1.940413880068714,0.9453910431713973,-5.078545896608804,-1.0848748857696064,41.0
42,5.094474188380708,-2.136698723486737,-1.9404138897570036,0.9453910380504227,-5.078545843385336,-1.2003338268095516,42.0
43,5.09447414230967,-2.136698702414013,-1.9404138971484315,0.9453910239339094,-5.07854579744505,-1.3057927678495016,43.0
44,5.094474102109972,-2.136698678712478,-1.9404139029983976,0.9453910057131448,-5.078545757402575,-1.4012517088894565,44.0
45,5.094474066121476,-2.13669865749385,-1.9404139082355332,0.945390989401131,-5.078545721554833,-1.4867106499294134,45.0
46,5.094474036968876,-2.1366986350819177,-1.9404139118886259,0.9453909703849284,-5.07854569255865,-1.562169590969375,46.0
47,5.09447401428408,-2.136698611992245,-1.9404139140938828,0.9453909493114706,-5.078545670041424,-1.627628532009338,47.0
48,5.094473995064782,-2.1366985924299247,-1.9404139159622467,0.9453909314573519,-5.078545650964099,-1.6830874730493037,48.0
49,5.094473979310985,-2.1366985763949575,-1.9404139174937165,0.9453909168225716,-5.078545635326674,-1.7285464140892701,49.0
50,5.0944739670226875,-2.136698563887342,-1.9404139186882956,0.9453909054071314,-5.07854562312915,-1.7640053551292367,50.0
51,5.09447395819989,-2.1366985549070785,-1.940413919545984,0.945390897211032,-5.078545614371526,-1.7894642961692027,51.0
52,5.094473952842593,-2.136698549454166,-1.9404139200667816,0.9453908922342726,-5.078545609053804,-1.8049232372091684,52.0
53,5.093709367344722,-2.138183990462961,-1.937457379265826,0.9439194539033962,-5.07778287172307,-1.8121347631326574,53.0
54,5.092259791737507,-2.141000250001967,-1.9318520599485938,0.9411297510876584,-5.076336800593284,-1.8101551461962773,54.0
55,5.092016937001675,-2.1414720816233013,-1.9309129589718113,0.9406623690688625,-5.076094535229457,-1.7999953388117005,55.0
56,5.092016944258656,-2.1414720861195446,-1.9309129604041568,0.9406623651750261,-5.076094546949794,-1.7805661175016376,56.0
57,5.092016955250723,-2.1414720929299538,-1.9309129625737147,0.9406623592770764,-5.076094564702458,-1.751136896191575,57.0
58,5.092016969977876,-2.141472102054528,-1.9309129654804846,0.9406623513750132,-5.076094588487445,-1.7117076748815117,58.0
59,5.092016988339914,-2.141472113396229,-1.930912969226658,0.9406623411071303,-5.0760946174256505,-1.6622784564683049,59.0
60,5.0920170097464315,-2.1414721263832885,-1.9309129744143618,0.9406623263422095,-5.076094646337262,-1.602849255595883,60.0
61,5.092017034754969,-2.141472141555648,-1.930912980474987,0.940662309092833,-5.076094680113757,-1.5334200547234587,61.0
62,5.092017067460441,-2.1414721608332483,-1.9309129767210524,0.9406623208487059,-5.076094712186385,-1.4539908686962761,62.0
63,5.092017104685278,-2.14147218274723,-1.9309129714199813,0.9406623372819063,-5.076094747620777,-1.3645616867565356,63.0
64,5.0920171460606545,-2.141472207188869,-1.930912965455297,0.9406623558850123,-5.076094786911906,-1.26513251500879,64.0
65,5.092017195254663,-2.1414722235767725,-1.9309129568528007,0.9406623641503389,-5.076094835544075,-1.1557033523680413,65.0
66,5.092017250050251,-2.1414722382870957,-1.9309129468478798,0.9406623694843416,-5.076094890258876,-1.036274197379664,66.0
67,5.092017309584097,-2.1414722476776786,-1.93091293524057,0.9406623679281428,-5.0760949497694305,-0.9068450495854923,67.0
68,5.092017373981401,-2.1414722461944287,-1.9309129213839116,0.9406623532597437,-5.076095014239365,-0.767415905996883,68.0
69,5.092017441201854,-2.1414722376711275,-1.930912906130351,0.9406623301971022,-5.076095081591497,-0.6179867649338739,69.0
70,5.0920175093549425,-2.1414722148074357,-1.930912889055219,0.940662291010629,-5.0760951499919145,-0.45855763051960097,70.0
71,5.092017574084405,-2.1414721797606697,-1.9309128713287378,0.9406622389782859,-5.076095215065349,-0.2922229560750458,71.0
72,5.092017630831657,-2.1414721378795245,-1.9309128545253627,0.9406621809653514,-5.076095272205437,-0.1339193931884355,72.0
73,5.0920176728757855,-2.1414720873365423,-1.930912839866905,0.9406621162999395,-5.076095314700257,0.014384169698173493,73.0
74,5.09201770889264,-2.141472036955098,-1.9309128265079245,0.9406620530326584,-5.076095351161153,0.1526877325847839,74.0
75,5.0920177310575685,-2.1414719835889025,-1.930912815755549,0.9406619892493246,-5.076095373782288,0.2809912954713978,75.0
76,5.092017747770187,-2.1414719321873124,-1.9309128063845367,0.9406619287514917,-5.076095390930219,0.39929485835801165,76.0
77,5.092017758446147,-2.1414718838911027,-1.9309127986482346,0.9406618729249678,-5.076095402010743,0.507598421244624,77.0
78,5.0920177594954605,-2.1414718377379325,-1.9309127932008288,0.9406618214262277,-5.076095403438573,0.6059019841312404,78.0
79,5.092017760438032,-2.14147179627973,-1.930912788307558,0.9406617751662308,-5.076095404721155,0.6942055470178548,79.0
80,5.092017759339078,-2.1414717595610635,-1.9309127843847462,0.9406617345856987,-5.076095403921631,0.7725091099044712,80.0
81,5.0920177510890134,-2.1414717276996456,-1.9309127825318508,0.9406617008485288,-5.076095395924931,0.8408126727910925,81.0
82,5.092017744046801,-2.141471700502906,-1.9309127809502291,0.9406616720506575,-5.076095389098989,0.8991162356777093,82.0
83,5.0920177382124425,-2.1414716779708476,-1.9309127796398775,0.9406616481920835,-5.076095383443807,0.947419798564323,83.0
84,5.092017733585936,-2.1414716601034676,-1.9309127786007998,0.9406616292728086,-5.0760953789593835,0.9857233614509344,84.0
85,5.0920177301672815,-2.1414716469007655,-1.9309127778329969,0.9406616152928325,-5.076095375645719,1.0140269243375477,85.0
86,5.092017727956481,-2.1414716383627423,-1.930912777336468,0.9406616062521554,-5.076095373502813,1.0323304872241637,86.0
87,5.091652425677399,-2.1421927770902083,-1.9294768307095613,0.9399466468491251,-5.0757309848735375,1.041653190151662,87.0
88,5.0901888594856315,-2.145082010695453,-1.923723762640189,0.9370822049350419,-5.074271079128457,1.042518923770498,88.0
89,5.089593432030112,-2.1462574521535998,-1.9213832198797562,0.9359168522411774,-5.073677141532639,1.0344799540537795,89.0
90,5.089593434196814,-2.146257457649153,-1.921383222344076,0.9359168510198567,-5.073677145138863,1.0179163193822645,90.0
91,5.089593437671623,-2.1462574664625493,-1.921383226296185,0.9359168490611852,-5.073677150922279,0.9913526847107497,91.0
92,5.089593442454541,-2.146257478593788,-1.921383231736083,0.935916846365163,-5.073677158882889,0.9547890500392379,92.0
93,5.089593448545566,-2.146257494042869,-1.9213832386637701,0.9359168429317902,-5.073677169020692,0.9082254153677246,93.0
94,5.089593456632514,-2.1462575131677406,-1.921383246664201,0.9359168399407964,-5.073677187404485,0.8516617854199362,94.0
95,5.089593466276162,-2.146257535739825,-1.9213832560024133,0.9359168366388346,-5.0736772101588805,0.7850981562820957,95.0
96,5.08959346983108,-2.1462575680376372,-1.9213832624687126,0.9359168611746813,-5.073677219811457,0.7085345374004667,96.0
97,5.089593469115995,-2.146257608532684,-1.9213832670945692,0.9359169067116522,-5.073677220348393,0.6219709245304527,97.0
98,5.089593468303254,-2.146257653793313,-1.9213832721742663,0.9359169578866646,-5.073677220813756,0.5254073235998782,98.0
99,5.089593460366487,-2.1462577017641427,-1.921383279172129,0.9359170132451772,-5.073677213365718,0.4188437293799237,99.0
100,5.0895934439937704,-2.1462577520677355,-1.9213832883558934,0.935917072541542,-5.073677196528036,0.30228014334638054,100.0
101,5.089593424931624,-2.1462578059275956,-1.9213832985184855,0.935917136331288,-5.073677176957301,0.17571656545192424,101.0
102,5.089593389579494,-2.146257855315002,-1.9213833116631116,0.9359171983970416,-5.073677141163319,0.03915299349918455,102.0
103,5.089593350823383,-2.146257907490172,-1.921383325850012,0.9359172642512823,-5.073677101939675,-0.10741057774172498,103.0
104,5.089593295033758,-2.1462579486033926,-1.9213833424098825,0.9359173212633328,-5.073677045761188,-0.2639741419950813,104.0
105,5.08959323284133,-2.146257986717234,-1.9213833599935695,0.9359173762390991,-5.073676983198897,-0.42981067366438186,105.0
106,5.089593164353064,-2.146258009647627,-1.9213833771942652,0.9359174156126743,-5.073676914460252,-0.5909815423876219,106.0
107,5.089593097656657,-2.1462580216743388,-1.9213833927745108,0.9359174425020761,-5.073676847604979,-0.7421524111108511,107.0
108,5.089593032842435,-2.146258023145841,-1.9213834067546403,0.9359174572763698,-5.073676782720612,-0.8833232798340713,108.0
109,5.089592972796419,-2.1462580167307426,-1.9213834188227286,0.9359174623170561,-5.073676722673751,-1.0144941485572878,109.0
110,5.089592917530306,-2.146258001915039,-1.9213834289179006,0.9359174570503812,-5.073676667480339,-1.1356650172805,110.0
111,5.089592867040644,-2.146257987660169,-1.9213834380588313,0.9359174514389081,-5.073676617063032,-1.2468358860037112,111.0
112,5.089592824940245,-2.1462579628672183,-1.9213834442148352,0.9359174324123261,-5.073676575129389,-1.348006754726917,112.0
113,5.08959278700116,-2.146257940524872,-1.921383449762359,0.9359174152663812,-5.07367653734058,-1.4391776234501203,113.0
114,5.08959275322339,-2.1462579206331283,-1.9213834547014044,0.9359174000010738,-5.0736765036966025,-1.5203484921733186,114.0
115,5.089592728357482,-2.146257896555328,-1.9213834572656885,0.9359173782758672,-5.073676479006981,-1.5915193608965177,115.0
116,5.089592707409522,-2.146257875268124,-1.9213834593119845,0.9359173588585844,-5.073676458215801,-1.6526902296197168,116.0
117,5.08959268988606,-2.1462578574608795,-1.9213834610237563,0.9359173426155696,-5.0736764408234905,-1.7038610983429263,117.0
118,5.089592675787097,-2.1462578431335926,-1.9213834624010064,0.9359173295468242,-5.073676426830049,-1.7450319670661356,118.0
119,5.089592665112634,-2.1462578322862633,-1.921383463443736,0.9359173196523488,-5.073676416235478,-1.776202835789344,119.0
120,5.089592657862671,-2.146257824918891,-1.921383464151945,0.9359173129321433,-5.073676409039775,-1.7973737045125515,120.0
121,5.089504455960969,-2.1464347327556923,-1.921031044993104,0.9357417674461019,-5.073588435327969,-1.8088525019477697,121.0
122,5.088202417881712,-2.149046420958872,-1.91582839464961,0.9331503013914101,-5.072289765533108,-1.8125862520672875,122.0
123,5.0872005369624835,-2.1510560487319066,-1.911825092298848,0.931156236159395,-5.071290477763694,-1.8066982239089644,123.0
124,5.08720035256417,-2.1510564318672407,-1.911824336303543,0.9311558564034955,-5.071290297018758,-1.793020917039159,124.0
125,5.087200361308077,-2.1510564372826497,-1.9118243380391946,0.931155851744045,-5.071290311238581,-1.769344361687785,125.0
126,5.08720037374505,-2.1510564449853042,-1.911824340507914,0.9311558451166349,-5.071290331464269,-1.7356678063364128,126.0
127,5.087200389875088,-2.1510564549752034,-1.9118243437097013,0.9311558365212651,-5.0712903576958235,-1.6919912509850399,127.0
128,5.087200409287634,-2.1510564668450423,-1.9118243480762778,0.9311558244343894,-5.0712903862936045,-1.6383147055654608,128.0
129,5.08720043197566,-2.1510564805878474,-1.9118243536150334,0.9311558088299272,-5.071290417195309,-1.574638167747159,129.0
130,5.087200459665947,-2.1510564971631205,-1.9118243562199357,0.9311558018773284,-5.071290450508675,-1.5009616354298205,130.0
131,5.087200494090499,-2.1510565173822527,-1.9118243513136068,0.9311558169373603,-5.071290483295876,-1.417285113683293,131.0
132,5.087200532619683,-2.151056540077194,-1.91182434576581,0.9311558340533933,-5.071290519917712,-1.3236086002155183,132.0
133,5.087200576164444,-2.1510565626255107,-1.9118243390830605,0.9311558501241596,-5.071290561738575,-1.2199320938316711,133.0
134,5.087200627704154,-2.1510565764634797,-1.9118243296266768,0.9311558550984752,-5.071290613192346,-1.1062555967791599,134.0
135,5.087200683779892,-2.1510565915197732,-1.9118243193372186,0.9311558605136008,-5.071290669191454,-0.9825791089756463,135.0
136,5.087200744711058,-2.151056593677782,-1.9118243065581972,0.9311558505443818,-5.071290730162276,-0.8489026269695058,136.0
137,5.087200810286487,-2.151056592211056,-1.911824292378774,0.9311558355849829,-5.0712907958129,-0.7052261465950662,137.0
138,5.087200876391397,-2.1510565750950557,-1.9118242763022764,0.9311558031150932,-5.071290862120801,-0.5515496713936879,138.0
139,5.087200945533198,-2.1510565519919966,-1.9118242588943313,0.9311557633700459,-5.071290931517185,-0.38787320234186784,139.0
140,5.0872010038623126,-2.1510565096123018,-1.9118242415993856,0.9311557043861008,-5.071290990251317,-0.2238226787751992,140.0
141,5.087201055592322,-2.1510564665727614,-1.9118242256393203,0.9311556460096289,-5.0712910423858535,-0.069768590240602,141.0
142,5.087201092661971,-2.1510564148505518,-1.9118242118221302,0.9311555809572573,-5.071291079918913,0.07428549829398182,142.0
143,5.087201124588821,-2.1510563652064913,-1.911824199340754,0.9311555192611672,-5.0712911122872475,0.20833958682855516,143.0
144,5.087201141905029,-2.151056312068053,-1.9118241895830739,0.9311554566487481,-5.07129113006075,0.33239367536312203,144.0
145,5.087201157825375,-2.1510562632131087,-1.9118241806119518,0.9311553990835127,-5.071291146401529,0.4464477638976815,145.0
146,5.0872011622340185,-2.151056215929594,-1.9118241742798137,0.9311553456055488,-5.07129115120712,0.5505018524322407,146.0
147,5.087201163224591,-2.151056172387414,-1.911824169104548,0.9311552969828787,-5.0712911525604545,0.6445559409667904,147.0
148,5.087201164109843,-2.1510561334747202,-1.9118241644795213,0.9311552535298564,-5.0712911537698995,0.7286100295013418,148.0
149,5.087201159050855,-2.151056099322129,-1.9118241616673037,0.9311552165785023,-5.07129114899016,0.8026641180358909,149.0
150,5.08720115140438,-2.1510560698545467,-1.9118241599420562,0.9311551853630485,-5.071291141581655,0.8667182065704407,150.0
151,5.087201144951658,-2.1510560449873877,-1.9118241584861493,0.9311551590208902,-5.071291135329753,0.9207722951049957,151.0
152,5.08720113969269,-2.151056024720651,-1.9118241572995829,0.9311551375520268,-5.071291130234451,0.9648263836395576,152.0
153,5.087201135627472,-2.151056009054336,-1.9118241563823593,0.9311551209564601,-5.071291126295751,0.9988804721741154,153.0
154,5.087201132756009,-2.1510559979884416,-1.9118241557344793,0.9311551092341898,-5.071291123513652,1.0229345607086737,154.0
155,5.087201131078299,-2.151055991522969,-1.9118241553559419,0.9311551023852159,-5.071291121888154,1.0369886492432312,155.0
156,5.0862698570574665,-2.1529539647838973,-1.9080416779880096,0.9292702634228512,-5.070362339046443,1.0431645403955014,156.0
157,5.084955266179355,-2.1556331610542,-1.902702309525132,0.9266096166446551,-5.06905126501318,1.039807434510246,157.0
158,5.084840289467323,-2.1558674952838097,-1.902235313704905,0.9263769075869355,-5.068936596872491,1.0286341403820596,158.0
159,5.084840292160916,-2.1558675020827978,-1.9022353167819723,0.926376906073826,-5.068936601434373,1.007861282222933,159.0
160,5.084840296151196,-2.1558675121548,-1.9022353213403318,0.9263769038323095,-5.0689366081923355,0.9770884240638076,160.0
161,5.084840301438164,-2.155867525499818,-1.9022353273799832,0.9263769008623861,-5.068936617146376,0.9363155659046762,161.0
162,5.084840308227553,-2.1558675422287643,-1.9022353347721155,0.9263768975330563,-5.068936630130728,0.8855427083417683,162.0
163,5.084840316944941,-2.155867562571076,-1.9022353432502639,0.926376894607644,-5.068936650939737,0.8247698523161029,163.0
164,5.084840326538404,-2.1558675867270036,-1.9022353528050366,0.9263768932906334,-5.068936673934302,0.7539969971258003,164.0
165,5.084840325878431,-2.1558676239922163,-1.902235357089165,0.9263769352373329,-5.068936674427321,0.6732241572678735,165.0
166,5.084840325131297,-2.155867665902215,-1.9022353618746646,0.9263769825119601,-5.068936674932422,0.5824513219004865,166.0
167,5.0848403242909646,-2.1558677124915606,-1.9022353671293928,0.9263770352637678,-5.068936675395385,0.48167849499175913,167.0
168,5.0848403101686515,-2.15586775997848,-1.9022353755463524,0.9263770910925977,-5.068936660995864,0.37090567876299274,168.0
169,5.08484029340488,-2.155867811365478,-1.902235384997806,0.9263771517328021,-5.06893664374252,0.25013286993746,169.0
170,5.084840267398915,-2.155867862375085,-1.9022353963960987,0.9263772138081785,-5.068936617258048,0.11936006786054126,170.0
171,5.084840231387018,-2.1558679125571483,-1.9022354098537542,0.9263772769724801,-5.06893658079001,-0.021412730829722778,171.0
172,5.084840185778779,-2.15586795916286,-1.9022354249582087,0.9263773381144753,-5.068936534748227,-0.17218552615441873,172.0
173,5.084840129163711,-2.1558680007612447,-1.902235441847807,0.926377395930164,-5.068936477732984,-0.3329583149864823,173.0
174,5.084840062961286,-2.1558680301523494,-1.902235459395029,0.9263774421194895,-5.06893641122378,-0.49896095093600784,174.0
175,5.0848399970469185,-2.155868052132882,-1.9022354760327078,0.926377480006007,-5.068936345064931,-0.655920482201184,175.0
176,5.084839930854142,-2.1558680554741354,-1.9022354905976222,0.9263774972134254,-5.068936278783527,-0.802880013466405,176.0
177,5.084839868712186,-2.155868056842821,-1.902235504068914,0.926377511400818,-5.068936216573178,-0.9398395447316574,177.0
178,5.084839811437712,-2.1558680436024433,-1.9022355148259449,0.9263775083439021,-5.068936159357127,-1.0667990759969534,178.0
179,5.084839758718598,-2.1558680294664354,-1.9022355245044607,0.9263775033622097,-5.06893610670811,-1.18375860726228,179.0
180,5.084839712450033,-2.155868010582954,-1.9022355322577296,0.926377491784399,-5.068936060555314,-1.2907181385276307,180.0
181,5.084839672575297,-2.1558679871258697,-1.9022355381177996,0.9263774738154591,-5.068936020840513,-1.38767766979301,181.0
182,5.084839636813072,-2.1558679660880533,-1.90223554337348,0.9263774576997577,-5.068935985221729,-1.474637201058407,182.0
183,5.084839606945556,-2.1558679449860074,-1.9022355473587982,0.9263774403112411,-5.06893595550359,-1.5515967323238284,183.0
184,5.084839584283856,-2.1558679219926957,-1.9022355495838115,0.926377419350159,-5.068935933013709,-1.6185562635892619,184.0
185,5.084839565006544,-2.1558679024332963,-1.9022355514765326,0.9263774015194876,-5.068935913882555,-1.6755157948547017,185.0
186,5.084839549113619,-2.1558678863078096,-1.902235553036958,0.9263773868192241,-5.068935898110127,-1.7224753261201435,186.0
187,5.084839536605081,-2.155867873616234,-1.9022355542650915,0.9263773752493718,-5.068935885696428,-1.7594348573855858,187.0
188,5.084839527480931,-2.1558678643585703,-1.902235555160934,0.9263773668099304,-5.068935876641456,-1.786394388651031,188.0
189,5.084839521741168,-2.1558678585348177,-1.9022355557244848,0.9263773615009001,-5.068935870945213,-1.8033539199164694,189.0
190,5.084321649375239,-2.1569402133451647,-1.900097568353244,0.9253115567765072,-5.068419430671921,-1.811699945263746,190.0
191,5.082912562958987,-2.1598580231494897,-1.8942802544499,0.9224115835608448,-5.067014241170798,-1.811260259889394,191.0
192,5.082509445723899,-2.1606927709048294,-1.8926160006475647,0.9215819390853389,-5.0666122407864504,-1.8022651506509,192.0
193,5.082509452242031,-2.160692774939964,-1.8926160019489886,0.9215819356353221,-5.066612251461272,-1.7844170968262816,193.0
194,5.082509462412179,-2.160692781235925,-1.892616003979581,0.9215819302523123,-5.06661226811704,-1.756569043001659,194.0
195,5.082509476234339,-2.160692789792712,-1.8926160067393414,0.9215819229363091,-5.066612290753751,-1.718720989177036,195.0
196,5.082509493708513,-2.160692800610325,-1.8926160102282703,0.9215819136873127,-5.066612319371407,-1.6708729353524143,196.0
197,5.082509514110818,-2.1606928129528935,-1.8926160152314626,0.9215818997439147,-5.066612347486257,-1.6130248935119125,197.0
198,5.082509538026362,-2.1606928274152137,-1.8926160211143355,0.9215818833381305,-5.0666123803390475,-1.5451768518727034,198.0
199,5.0825095687056745,-2.1606928455276337,-1.8926160191936023,0.9215818895836204,-5.066612412232119,-1.4673288223464789,199.0
200,5.082509604425912,-2.16069286648748,-1.892616014074956,0.9215819051716194,-5.066612446243422,-1.3794807973644927,200.0
201,5.082509644197975,-2.160692889922468,-1.8926160082900698,0.9215819229188434,-5.066612483997075,-1.281632784707225,201.0
202,5.082509690855814,-2.1606929076766566,-1.892616000319956,0.9215819330938668,-5.066612529776814,-1.1737847793044778,202.0
203,5.082509743663486,-2.160692921859396,-1.8926159905804307,0.921581938149014,-5.066612582501201,-1.0559367818582979,203.0
204,5.082509801036217,-2.1606929336196865,-1.8926159795846926,0.9215819395670732,-5.066612639827079,-0.9280887921695977,204.0
205,5.082509863215992,-2.1606929322719175,-1.8926159660699218,0.9215819253594488,-5.066612702079285,-0.7902408077110572,205.0
206,5.082509928967228,-2.160692927214155,-1.8926159513619523,0.9215819062925341,-5.066612767937169,-0.6423928248492627,206.0
207,5.082509994866742,-2.160692905282687,-1.8926159346846112,0.921581868416492,-5.066612834082866,-0.4845448487903722,207.0
208,5.082510059797716,-2.1606928743446256,-1.8926159171811974,0.9215818207148776,-5.066612899335134,-0.31828392427987395,208.0
209,5.082510115768673,-2.160692833279941,-1.892615900440152,0.921581763574477,-5.06661295570457,-0.15840350525324537,209.0
210,5.082510159558833,-2.160692785983254,-1.8926158856007043,0.9215817019878327,-5.066612999934519,-0.008523086226610323,210.0
211,5.082510195132031,-2.1606927364734156,-1.8926158722726325,0.9215816396174694,-5.066613035958571,0.13135733280004375,211.0
212,5.082510219458001,-2.16069268538524,-1.892615861179915,0.9215815777891926,-5.066613060738295,0.2612377518266979,212.0
213,5.082510235994302,-2.160692634751678,-1.8926158518130851,0.9215815180588617,-5.066613077717294,0.38111817085335686,213.0
214,5.082510248733335,-2.160692587693367,-1.89261584367265,0.9215814630835328,-5.066613090865328,0.49099858988003786,214.0
215,5.082510249771427,-2.1606925420907,-1.892615838213427,0.921581412119579,-5.066613092289288,0.590879008906711,215.0
216,5.0825102507055835,-2.1606925010537616,-1.8926158333007752,0.9215813662581205,-5.06661309357068,0.6807594279333904,216.0
217,5.0825102511508975,-2.1606924645908956,-1.892615829018358,0.9215813255871111,-5.066613094324172,0.7606398469600774,217.0
218,5.082510242905336,-2.1606924328799266,-1.8926158271488909,0.9215812919807401,-5.066613086338622,0.8305202659867568,218.0
219,5.0825102358397265,-2.160692405706848,-1.8926158255469476,0.9215812631834946,-5.0666130794958155,0.8904006850134474,219.0
220,5.08251022995407,-2.1606923830716616,-1.8926158242125248,0.9215812391953732,-5.0666130737957555,0.9402811040401163,220.0
221,5.082510225248367,-2.1606923649743655,-1.8926158231456256,0.9215812200163772,-5.06661306923844,0.9801615230667873,221.0
222,5.082510221722618,-2.16069235141496,-1.8926158223462513,0.9215812056465073,-5.066613065823869,1.0100419420934588,222.0
223,5.082510219376821,-2.1606923423934443,-1.8926158218144014,0.9215811960857634,-5.066613063552045,1.0299223611201314,223.0
224,5.082327157586283,-2.161077468670646,-1.8918476638787232,0.9211981084909034,-5.06643052496767,1.0404251528714503,224.0
225,5.080998478356056,-2.163872802179464,-1.886272268758016,0.9184176407437121,-5.065105642996174,1.0429060617921282,225.0
226,5.0802104133342505,-2.1655307729684687,-1.8829653920703893,0.9167684903584901,-5.064319830814994,1.0360716977396653,226.0
227,5.0802104152505905,-2.165530777781952,-1.882965394269811,0.9167684892849157,-5.064319834117541,1.0211645853762565,227.0
228,5.080210418452452,-2.1655307858244197,-1.8829653979446508,0.9167684874911654,-5.064319839635505,0.9962574730128579,228.0
229,5.0802104229398335,-2.1655307970958715,-1.8829654030949077,0.916768484977239,-5.064319847368886,0.9613503606494552,229.0
230,5.0802104287127365,-2.165530811596308,-1.8829654097205828,0.9167684817431366,-5.064319857317685,0.9164432482860626,230.0
231,5.080210436295452,-2.1655308296185103,-1.8829654174809836,0.9167684787714498,-5.064319874204814,0.8615361434222844,231.0
232,5.080210445514943,-2.1655308510658493,-1.8829654264885523,0.9167684757378827,-5.064319896471514,0.7966290418858197,232.0
233,5.080210450768142,-2.1655308802900803,-1.8829654337939212,0.9167684923131488,-5.064319910074936,0.7217219478198202,233.0
234,5.080210450081884,-2.165530918929522,-1.882965438265227,0.916768535851221,-5.064319910585072,0.636814862335654,234.0
235,5.080210449302532,-2.1655309621888534,-1.8829654431982108,0.9167685848156921,-5.064319911043926,0.5419077867359626,235.0
236,5.080210443924576,-2.1655310087538764,-1.8829654495383348,0.916768638300071,-5.064319906416765,0.4370007180637413,236.0
237,5.080210428163205,-2.165531056967488,-1.8829654584714444,0.916768695265742,-5.064319890197596,0.32209365788648536,237.0
238,5.080210411028253,-2.165531109374875,-1.882965468184204,0.9167687571809682,-5.064319872549667,0.19718660696544413,238.0
239,5.080210378166873,-2.1655311575208187,-1.8829654808123666,0.9167688175231229,-5.064319839240907,0.062279562040902334,239.0
240,5.080210341530234,-2.165531208446304,-1.8829654945761936,0.9167688817282137,-5.0643198021340465,-0.08262748199996597,240.0
241,5.080210289194039,-2.16553124954187,-1.8829655105894578,0.9167689382085206,-5.064319749399006,-0.23753452010770176,241.0
242,5.080210230662454,-2.1655312895073324,-1.8829655278073334,0.9167689947006501,-5.0643196904727095,-0.40233298682407226,242.0
243,5.080210163081702,-2.1655313119529085,-1.8829655449559513,0.9167690335417692,-5.064319622637679,-0.5651561247511129,243.0
244,5.080210098062651,-2.165531326915541,-1.8829655606902067,0.9167690635266883,-5.064319557430395,-0.7179792626781767,244.0
245,5.080210034013962,-2.1655313282812756,-1.8829655746483926,0.9167690781745921,-5.06431949331003,-0.8608024006052439,245.0
246,5.080209974560354,-2.1655313246947783,-1.8829655870457318,0.9167690863671103,-5.064319433831175,-0.9936255385323334,246.0
247,5.080209919841638,-2.165531310017122,-1.8829655971446215,0.9167690812408104,-5.064319379185988,-1.116448676459437,247.0
248,5.080209869578002,-2.1655312965344935,-1.8829656064212736,0.9167690765318793,-5.064319328989893,-1.2292718143865433,248.0
249,5.080209827301788,-2.1655312734428493,-1.8829656128694574,0.9167690594876468,-5.064319286870441,-1.3320949523136658,249.0
250,5.080209789571385,-2.1655312512687255,-1.8829656184438779,0.91676904253323,-5.06431924929326,-1.4249180902407916,250.0
251,5.080209755905744,-2.165531231483461,-1.8829656234177523,0.9167690274053408,-5.064319215764333,-1.507741228167924,251.0
252,5.080209730145361,-2.1655312087486336,-1.882965626348334,0.9167690073732999,-5.064319190173164,-1.5805643660950555,252.0
253,5.08020970913015,-2.165531187456871,-1.8829656284227663,0.9167689879753332,-5.064319169319343,-1.6433875040221888,253.0
254,5.0802096914600785,-2.165531169554269,-1.8829656301669944,0.9167689716650759,-5.064319151784971,-1.6962106419493108,254.0
255,5.080209677135144,-2.165531155040827,-1.8829656315810195,0.9167689584425283,-5.064319137570046,-1.739033779876424,255.0
256,5.080209666155349,-2.165531143916543,-1.8829656326648432,0.9167689483076916,-5.0643191266745715,-1.7718569178035413,256.0
257,5.080209658520692,-2.165531136181419,-1.8829656334184657,0.9167689412605661,-5.064319119098546,-1.7946800557306628,257.0
258,5.080197508400709,-2.16555709313183,-1.8829138323317944,0.9167430936997061,-5.0643070048757695,-1.8075516386526738,258.0
259,5.079135250334704,-2.167827632271716,-1.878383343119925,0.9144828473386845,-5.063247883451847,-1.8128057863539477,259.0
260,5.077980377299763,-2.1702961431201793,-1.8734578397618527,0.9120255305312663,-5.062096421586702,-1.8083244369057554,260.0
261,5.077939458947217,-2.170383616919045,-1.873283306520189,0.9119384537917274,-5.0620556269103005,-1.7962195791327673,261.0
262,5.077939466873691,-2.1703836218235004,-1.8732833081124407,0.9119384496235546,-5.06205563998449,-1.7742741957876185,262.0
263,5.077939478412075,-2.170383628962802,-1.873283310430244,0.9119384435560425,-5.062055659016285,-1.7423288124424672,263.0
264,5.07793949356237,-2.1703836383369497,-1.8732833134735996,0.9119384355891913,-5.062055684005683,-1.700383429097328,264.0
265,5.077939512056043,-2.1703836496661575,-1.8732833175429828,0.9119384246700312,-5.062055712522784,-1.6484380470039177,265.0
266,5.077939533659933,-2.170383662707495,-1.873283322899288,0.9119384098842986,-5.062055742457773,-1.586492666844031,266.0
267,5.077939559426237,-2.170383678171352,-1.8732833272895886,0.9119383979541187,-5.062055775950058,-1.5145472893662384,267.0
268,5.077939592363913,-2.1703836974721575,-1.873283322551278,0.9119384122543563,-5.062055807313879,-1.4326019250068063,268.0
269,5.0779396293142565,-2.1703837191699438,-1.8732833171953192,0.9119384284794755,-5.062055842443019,-1.3406565667270876,269.0
270,5.077939670395247,-2.1703837429349506,-1.8732833111403264,0.9119384462892446,-5.062055881494901,-1.2387112158027875,270.0
271,5.077939719977097,-2.1703837562571056,-1.8732833019463184,0.9119384509939662,-5.062055930991441,-1.1267658762216772,271.0
272,5.077939773989721,-2.1703837707701696,-1.873283291930003,0.911938456121722,-5.062055984924548,-1.0048205442144704,272.0
273,5.077939832675423,-2.170383775799237,-1.8732832798202876,0.9119384496864877,-5.062056043623909,-0.8728752186249848,273.0
274,5.077939895962402,-2.1703837744725756,-1.873283265990302,0.9119384351995483,-5.06205610698582,-0.7309298957889548,274.0
275,5.077939960671486,-2.170383761398923,-1.8732832504941939,0.9119384073363346,-5.062056171869855,-0.5789845770727078,275.0
276,5.077940027498442,-2.1703837392486522,-1.8732832334904232,0.9119383689283013,-5.062056238950031,-0.4170392646773353,276.0
277,5.077940086880581,-2.1703837011254627,-1.8732832162477713,0.9119383142601213,-5.062056298715236,-0.2516261734354554,277.0
278,5.077940140463103,-2.170383661368634,-1.8732832000694408,0.9119382589645819,-5.062056352689328,-0.09584529209846689,278.0
279,5.07794017710615,-2.1703836104959864,-1.8732831862659503,0.911938194770361,-5.062056389803144,0.04993558923853353,279.0
280,5.077940211235625,-2.1703835631130097,-1.8732831734093147,0.9119381349796101,-5.062056424371093,0.18571647057553328,280.0
281,5.077940228457954,-2.170383510764448,-1.873283163631973,0.9119380731336508,-5.06205644205842,0.3114973519125556,281.0
282,5.077940244242358,-2.1703834625374236,-1.8732831546421318,0.9119380161738253,-5.062056458271131,0.42727823324958847,282.0
283,5.07794025096125,-2.170383416409265,-1.8732831478541727,0.911937963415228,-5.062056465391744,0.5330591145866144,283.0
284,5.077940251943793,-2.1703833732731868,-1.8732831426519765,0.9119379151683737,-5.06205646674492,0.6288399959236532,284.0
285,5.077940252823752,-2.170383334640732,-1.8732831379929096,0.9119378719587284,-5.0620564679568165,0.7146208772606883,285.0
286,5.077940249434083,-2.170383300599268,-1.8732831347876002,0.9119378347401895,-5.0620564648556865,0.7904017585977354,286.0
287,5.077940241761101,-2.1703832711490807,-1.8732831330390387,0.91193780351589,-5.06205645742783,0.8561826399347827,287.0
288,5.077940235254565,-2.1703832461759074,-1.8732831315562928,0.9119377770383037,-5.0620564511291555,0.9119635212718245,288.0
289,5.077940229914473,-2.170383225679748,-1.8732831303393596,0.9119377553074296,-5.062056445959661,0.9577444026088483,289.0
290,5.077940225740828,-2.170383209660602,-1.8732831293882435,0.9119377383232692,-5.062056441919349,0.9935252839458764,290.0
291,5.077940222733627,-2.170383198118468,-1.8732831287029446,0.9119377260858227,-5.062056439008219,1.0193061652829052,291.0
292,5.077940220892873,-2.1703831910533475,-1.873283128283462,0.91193771859509,-5.06205643722627,1.0350870466199416,292.0
293,5.07729673688637,-2.1717805646299158,-1.8704937983394958,0.910545599704537,-5.061414915920642,1.0425671684498992,293.0
294,5.075966900970059,-2.1746684143638295,-1.8647293096195765,0.907668623690759,-5.0600891363163,1.040970893639327,294.0
295,5.0756991602418795,-2.175249841392377,-1.8635687201557978,0.9070893883521497,-5.059822213166765,1.0311285019639234,295.0
296,5.075699162659538,-2.1752498474349387,-1.8635687229444722,0.9070893870001033,-5.059822217406538,1.0121605522153254,296.0
297,5.075699166351799,-2.175249856663169,-1.8635687272033497,0.9070893849352512,-5.059822223881541,0.9831926024667235,297.0
298,5.0756991713186626,-2.1752498690770685,-1.8635687329324309,0.9070893821575932,-5.0598222325917765,0.9442246527181243,298.0
299,5.0756991776271265,-2.175249884715388,-1.8635687400865208,0.9070893787982305,-5.059822244146988,0.8952567047742592,299.0
300,5.075699185922494,-2.1752499039513538,-1.8635687482303382,0.9070893761198463,-5.05982226441988,0.836288773356548,300.0
301,5.075699195624618,-2.175249926449426,-1.8635687577552145,0.907089372987252,-5.059822288130725,0.7673208419388332,301.0
302,5.075699196449344,-2.1752499607007825,-1.86356876272594,0.9070894075728125,-5.059822291907249,0.68835292440043,302.0
303,5.075699195735383,-2.17525000065837,-1.8635687673657277,0.9070894526893605,-5.059822292409916,0.5993850110789881,303.0
304,5.075699194927372,-2.1752500451837102,-1.8635687724543781,0.9070895032079584,-5.059822292842448,0.5004171086290581,304.0
305,5.07569918378424,-2.175250091305438,-1.8635687801376095,0.9070895571488009,-5.0598222817357374,0.3914492147435381,305.0
306,5.075699167654532,-2.1752501405368703,-1.8635687893311168,0.907089615385701,-5.059822265124609,0.27248132861162966,306.0
307,5.075699145273656,-2.175250191024315,-1.863568800031654,0.9070896762930114,-5.059822242249963,0.143513449868627,307.0
308,5.075699110544717,-2.1752502391793698,-1.8635688131512733,0.9070897371086831,-5.059822207069019,0.004545575675849258,308.0
309,5.075699069067462,-2.175250286500319,-1.8635688276366946,0.9070897983864068,-5.059822165141441,-0.14442229622856606,309.0
310,5.075699014378779,-2.175250326448301,-1.8635688441291012,0.9070898541740491,-5.059822110055379,-0.30339016146070186,310.0
311,5.075698951522838,-2.1752503584437877,-1.8635688614683266,0.9070899027845662,-5.059822046862859,-0.46975307434368896,311.0
312,5.0756988863879196,-2.175250379989207,-1.86356887808808,0.9070899402209904,-5.059821981479365,-0.6285131960689846,312.0
313,5.07569882183016,-2.175250386658785,-1.8635688928554095,0.9070899609629861,-5.059821916802045,-0.7772733177942961,313.0
314,5.075698760320083,-2.175250387925721,-1.8635689063348126,0.9070899750567051,-5.059821855221988,-0.9160334395196212,314.0
315,5.0756987035002545,-2.1752503778055283,-1.8635689174753782,0.9070899754952735,-5.059821798435017,-1.0447935612449546,315.0
316,5.075698651200417,-2.1752503637693366,-1.863568927181523,0.9070899706385075,-5.059821746206195,-1.1635536829703153,316.0
317,5.0756986044864645,-2.175250347307304,-1.863568935395247,0.9070899619270553,-5.059821699589566,-1.2723138046956737,317.0
318,5.075698564804308,-2.1752503240064107,-1.8635689412907321,0.9070899441455926,-5.059821660070543,-1.371073926421041,318.0
319,5.075698529140184,-2.1752503030648622,-1.8635689465892615,0.9070899281645965,-5.0598216245530345,-1.4598340481464174,319.0
320,5.0756984982993405,-2.17525028336609,-1.8635689509866533,0.9070899125739113,-5.059821593852703,-1.5385941698717944,320.0
321,5.075698475562234,-2.1752502603613637,-1.8635689532436923,0.907089891628752,-5.059821571292435,-1.607354291597191,321.0
322,5.075698456131856,-2.1752502407022867,-1.863568955172483,0.9070898737297131,-5.059821552013179,-1.6661144133225705,322.0
323,5.075698440008206,-2.175250224388861,-1.8635689567730223,0.9070898588767925,-5.0598215360149315,-1.714874535047925,323.0
324,5.075698427191285,-2.1752502114210848,-1.8635689580453136,0.9070898470699924,-5.059821523297694,-1.7536346567732701,324.0
325,5.075698417681092,-2.1752502017989572,-1.8635689589893576,0.9070898383093128,-5.0598215138614675,-1.7823947784986227,325.0
326,5.075698411477629,-2.175250195522479,-1.8635689596051541,0.9070898325947536,-5.059821507706252,-1.8011549002239902,326.0
327,5.075413121756828,-2.1758795930141313,-1.8623121145998132,0.9064623204579431,-5.059537116604329,-1.8108464858204614,327.0
328,5.074095932033325,-2.1787855829484855,-1.8565091654282504,0.903565062658377,-5.058224075917107,-1.8122450954465399,328.0
329,5.0734858532739695,-2.180131549872273,-1.8538214186898587,0.9022231410428173,-5.05761592059396,-1.804618788491671,329.0
330,5.073485858979625,-2.1801315534004426,-1.8538214198432956,0.9022231380610525,-5.057615930073567,-1.7886487954645338,330.0
331,5.073485868258016,-2.1801315591378616,-1.853821421718986,0.9022231332121827,-5.05761594548906,-1.762678802437402,331.0
332,5.073485881109143,-2.18013156708453,-1.8538214243169282,0.9022231264962084,-5.057615966840439,-1.7267088094102814,332.0
333,5.073485897533005,-2.1801315772404473,-1.8538214276371239,0.9022231179131293,-5.057615994127704,-1.680738816383152,333.0
334,5.073485916978057,-2.1801315890164887,-1.8538214323164786,0.9022231052400499,-5.057616022309324,-1.6247688304632404,334.0
335,5.0734859397449545,-2.1801316027337956,-1.8538214380078055,0.9022230896887027,-5.057616054133511,-1.5587988463190805,335.0
336,5.073485968287667,-2.1801316196283143,-1.8538214381685063,0.9022230899116963,-5.057616086152418,-1.482828871128465,336.0
337,5.073486002449553,-2.1801316396260693,-1.853821433229372,0.9022231046872964,-5.057616118677972,-1.396858902623342,337.0
338,5.073486040572108,-2.1801316620284186,-1.8538214276407037,0.902223121520414,-5.05761615486662,-1.3008889455060995,338.0
339,5.0734860845659,-2.1801316813574054,-1.853821420367049,0.9022231338578905,-5.057616197622371,-1.1949189951871102,339.0
340,5.073486135342517,-2.1801316950088467,-1.853821410897682,0.9022231386344793,-5.057616248313078,-1.0789490531653483,340.0
341,5.07348619050842,-2.1801317094415977,-1.8538214005630027,0.9022231433802244,-5.0576163034040285,-0.9529791195559971,341.0
342,5.073486250436614,-2.180131708229732,-1.8538213873924474,0.9022231296358019,-5.057616363404272,-0.8170091923926022,342.0
343,5.073486314772272,-2.1801317069285564,-1.8538213732534259,0.9022231148797356,-5.057616427817351,-0.6710392657289826,343.0
344,5.073486378412683,-2.1801316859925204,-1.8538213569768294,0.9022230783803373,-5.05761649170174,-0.5150693460571687,344.0
345,5.0734864436039535,-2.1801316596420475,-1.853821339731914,0.9022230355246685,-5.057616557185567,-0.3495437727410112,345.0
346,5.073486498931606,-2.1801316192862896,-1.8538213229989546,0.902222979097145,-5.057616612918082,-0.18778973926884657,346.0
347,5.073486544917208,-2.180131575438126,-1.8538213078899903,0.9022229207086382,-5.057616659329862,-0.0360357057967248,347.0
348,5.073486580138283,-2.1801315266592862,-1.8538212945466437,0.90222285905008,-5.057616695009564,0.10571832767534164,348.0
349,5.073486607054397,-2.180131477905313,-1.8538212830118024,0.9022227991368086,-5.057616722376025,0.23747236114731607,349.0
350,5.073486623461345,-2.180131427882446,-1.8538212736138915,0.9022227399825145,-5.057616739234158,0.35922639461923567,350.0
351,5.073486638520745,-2.1801313819681014,-1.8538212649878507,0.9022226856867261,-5.057616754707684,0.4709804280910967,351.0
352,5.073486639664201,-2.1801313367881416,-1.8538212594729315,0.9022226350875638,-5.057616756245364,0.5727344615629001,352.0
353,5.07348664059335,-2.1801312960209347,-1.8538212545189658,0.9022225894516707,-5.057616757530134,0.6644884950346489,353.0
354,5.073486641421234,-2.180131259696826,-1.8538212501049152,0.9022225487894969,-5.057616758674881,0.7462425285063521,354.0
355,5.073486634557062,-2.1801312279693597,-1.8538212478990248,0.9022225148420773,-5.057616752080104,0.8179965619780384,355.0
356,5.073486627435451,-2.1801312006881495,-1.8538212462673753,0.9022224859041987,-5.057616745188953,0.8797505954496969,356.0
357,5.073486621467061,-2.180131177824661,-1.853821244899941,0.9022224616523092,-5.057616739413704,0.9315046289213388,357.0
358,5.073486616651893,-2.180131159378895,-1.8538212437967232,0.9022224420864093,-5.057616734754358,0.9732586623929667,358.0
359,5.073486612989948,-2.1801311453508494,-1.8538212429577239,0.9022224272064999,-5.057616731210915,1.005012695864595,359.0
360,5.073486610481225,-2.180131135740525,-1.8538212423829425,0.9022224170125808,-5.057616728783376,1.0267667293362386,360.0
361,5.0734385043446855,-2.180238949429278,-1.8536058573925862,0.9021148360590276,-5.0575687791279,1.038714804698156,361.0
362,5.072313744240444,-2.1827599126339665,-1.8485698486138586,0.8995995649107486,-5.0564476767551065,1.0430494611952186,362.0
363,5.071311193840924,-2.1850069689865146,-1.8440810182688963,0.8973575870081011,-5.0554483871800695,1.0376601389112918,363.0
364,5.0713021154345865,-2.185027324519037,-1.8440403650818744,0.8973372806254049,-5.055439339590666,1.0246644681334804,364.0
365,5.071302118336151,-2.1850273317343123,-1.844040368446605,0.8973372790036838,-5.055439344768648,1.0017077710271272,365.0
366,5.071302122501644,-2.1850273420925825,-1.844040373277021,0.8973372766755363,-5.055439352202175,0.9687510739207874,366.0
367,5.071302127931066,-2.185027355593846,-1.8440403795731228,0.8973372736409628,-5.055439361891243,0.9257943768144401,367.0
368,5.071302134979451,-2.1850273724507563,-1.844040387086265,0.8973372706247377,-5.055439377099825,0.872837691112871,368.0
369,5.071302143752181,-2.1850273927264325,-1.8440403957426454,0.8973372678419869,-5.055439398796725,0.8098810169578117,369.0
370,5.0713021508961065,-2.1850274187049106,-1.844040404018611,0.8973372757910401,-5.055439416986432,0.7369243470761552,370.0
371,5.071302150239849,-2.1850274554548363,-1.8440404083296993,0.8973373172885506,-5.055439417470037,0.653967688693855,371.0
372,5.071302149495434,-2.1850274966841923,-1.844040413113067,0.8973373640021892,-5.055439417927991,0.5610110377202361,372.0
373,5.071302146926472,-2.1850275418964205,-1.844040418727618,0.8973374156291755,-5.055439416404569,0.4580543939650499,373.0
374,5.071302131788633,-2.1850275880067223,-1.8440404274057327,0.8973374702453847,-5.055439400815576,0.34509776036890866,374.0
375,5.071302115308974,-2.1850276381972193,-1.8440404368541885,0.8973375296893918,-5.0554393838311285,0.22214113535076924,375.0
376,5.0713020865189975,-2.1850276860171363,-1.8440404487238262,0.8973375890045712,-5.055439354576846,0.0891845164199251,376.0
377,5.0713020512021,-2.185027734868194,-1.844040462143298,0.8973376508075666,-5.055439318794308,-0.05377210036932021,377.0
378,5.071302003423608,-2.1850277770410127,-1.8440404774987118,0.897337707749537,-5.055439270598413,-0.20672871242247812,378.0
379,5.071301948046052,-2.185027817374237,-1.8440404942959543,0.8973377642171431,-5.05543921481298,-0.3695590246873268,379.0
380,5.071301883872122,-2.185027840602918,-1.8440405110100775,0.8973378034350772,-5.055439150372382,-0.5302680211396941,380.0
381,5.071301822405646,-2.185027859437075,-1.8440405266194684,0.8973378371906178,-5.055439088680411,-0.6809770175920173,381.0
382,5.071301760742807,-2.1850278606607927,-1.8440405402109599,0.8973378513480598,-5.055439026946263,-0.821686014044281,382.0
383,5.07130170346226,-2.185027861797547,-1.844040552836513,0.8973378644993474,-5.055438969599475,-0.9523950104964788,383.0
384,5.071301650899004,-2.1850278481559244,-1.8440405627039291,0.8973378601914017,-5.055438917104166,-1.0731040069485915,384.0
385,5.07130160270016,-2.185027835211595,-1.844040571701083,0.8973378557556031,-5.055438868971442,-1.1838130034006513,385.0
386,5.071301560486018,-2.185027818468881,-1.8440405789485321,0.8973378458423111,-5.055438826862599,-1.2845219998526618,386.0
387,5.071301524453685,-2.185027797327454,-1.844040584333041,0.8973378297411599,-5.055438790980202,-1.375230996304634,387.0
388,5.071301492393653,-2.185027778516716,-1.8440405891239413,0.8973378154150398,-5.055438759053574,-1.4559399927565366,388.0
389,5.071301464305919,-2.1850277620366656,-1.8440405933212396,0.8973378028639533,-5.0554387310827185,-1.5266489892083783,389.0
390,5.071301444409913,-2.1850277420508246,-1.8440405953217378,0.8973377847037952,-5.055438711342369,-1.5873579856602218,390.0
391,5.071301427832465,-2.185027725299953,-1.8440405969770286,0.8973377694627381,-5.055438694895478,-1.6380669821120928,391.0
392,5.071301414524149,-2.1850277118524146,-1.844040598305889,0.8973377572272729,-5.055438681691973,-1.6787759785639744,392.0
393,5.071301404484967,-2.18502770170821,-1.8440405993083189,0.8973377479973994,-5.0554386717318565,-1.709484975015839,393.0
394,5.07130139771492,-2.1850276948673386,-1.8440405999843197,0.8973377417731184,-5.055438665015127,-1.7301939714677148,394.0
395,5.0713013942140055,-2.185027691329801,-1.844040600333892,0.8973377385544302,-5.055438661541785,-1.7409029679195807,395.0
396,5.0717616250480635,-2.184027865773116,-1.8461221737405864,0.8984195316605544,-5.055897013891655,-1.7426640844505723,396.0
397,5.0718893419706434,-2.1837504158138623,-1.8466998119096536,0.898719732450648,-5.056024209513805,-1.7355997232392353,397.0
398,5.072017486115644,-2.1834720479306324,-1.847279367555237,0.8990209328630776,-5.056151830602472,-1.718741379719002,398.0
399,5.072221642559747,-2.1830285583182736,-1.8482027029113763,0.8995007987606828,-5.056355153724682,-1.6918830361987602,399.0
400,5.07250181130295,-2.182419946976786,-1.8494698179780713,0.9001593301434633,-5.056634178880436,-1.6550246926785244,400.0
401,5.072861129170122,-2.1816482260233725,-1.8510768593845928,0.9009946921187987,-5.056992059591732,-1.608166216437618,401.0
402,5.07329817390935,-2.1807124838356504,-1.8530255728753295,0.9020077159250968,-5.0574273660383735,-1.5513076995062347,402.0
403,5.073812083956154,-2.179612167853496,-1.8553170166369042,0.9031989054418227,-5.057939232070128,-1.4844491825748738,403.0
404,5.074406877562179,-2.178349766340285,-1.8579464383024151,0.9045660032887504,-5.058531694031433,-1.4075904967519062,404.0
405,5.075079553402461,-2.1769234212443718,-1.8609173865235284,0.9061106950443888,-5.059201737084906,-1.3207317912612115,405.0
406,5.075834651148158,-2.1753358860121983,-1.864224611576164,0.9078304934775691,-5.059953922823151,-1.2238728888756016,406.0
407,5.07666988445326,-2.173585754164123,-1.867870798149736,0.9097266722843189,-5.060785953843153,-1.1170139007525937,407.0
408,5.077588654394079,-2.171675041440705,-1.8718521103414125,0.9117974179203743,-5.0617012473055265,-1.000154705451891,408.0
409,5.07859200489597,-2.169604296658461,-1.8761675149485595,0.9140422481226951,-5.062700851590291,-0.87329528114685,409.0
410,5.07968035031751,-2.167373712276754,-1.880816654233156,0.9164609984986543,-5.0637851826585525,-0.7364356355099919,410.0
411,5.080855557113363,-2.164984301000432,-1.8857976160127108,0.9190527733476644,-5.064956115156734,-0.5895757224157042,411.0
412,5.082119533309271,-2.1624370561895523,-1.8911085319609433,0.9218167016292157,-5.066215565205606,-0.43271549859627734,412.0
413,5.08343345271702,-2.159813720696127,-1.8965791187672076,0.9246642376659775,-5.067524856250279,-0.2708470449957378,413.0
414,5.084681911391947,-2.1573431640701246,-1.9017320388970385,0.927346887577395,-5.068768985731897,-0.11811714166084887,414.0
415,5.085856801547195,-2.1550386631740026,-1.9065394841883805,0.9298501164059993,-5.06993986509333,0.02461304660244648,415.0
416,5.08695719287846,-2.152899644523467,-1.9110025495253686,0.9321744437864412,-5.071036559485079,0.15734349541800485,416.0
417,5.087980285327116,-2.1509246139022613,-1.915124051899503,0.934321186787914,-5.072056256725817,0.28007412396996,417.0
418,5.088924159385179,-2.1491125813686134,-1.9189058514849873,0.9362912116707872,-5.072997029229389,0.3928048853018479,418.0
419,5.089789756296566,-2.1474639807159615,-1.9223471426679528,0.9380841486560803,-5.073859821852743,0.4955358175447751,419.0
420,5.090574335905851,-2.1459774255939124,-1.9254505255652208,0.9397012057940468,-5.074641883088483,0.5882668444109884,420.0
421,5.091276900084868,-2.1446524328584133,-1.9282169022039122,0.9411427998433427,-5.075342210822708,0.6709979516664193,421.0
422,5.091896979577737,-2.1434887512351533,-1.9306467464612473,0.9424091524558755,-5.075960333760985,0.743729127438276,422.0
423,5.092433908029183,-2.142486064701567,-1.9327406470633328,0.9435005349037985,-5.076495582931967,0.8064603672859358,423.0
424,5.092885244604436,-2.1416432166369828,-1.9345007585346492,0.9444179398485554,-5.076945507921204,0.8591916071336211,424.0
425,5.093252787660699,-2.1409610416314964,-1.9359255297556743,0.9451606546588306,-5.0773119140241265,0.901922897274498,425.0
426,5.09353516133417,-2.140438900855936,-1.9370161480736958,0.9457292248701763,-5.077593420067789,0.9346542148518155,426.0
427,5.093731264825329,-2.1400762833792246,-1.937773563087131,0.9461240867637913,-5.077788921005485,0.9573855324291287,427.0
428,5.093841098134176,-2.1398731892013623,-1.9381977747959804,0.946345240339676,-5.077898416837216,0.9701168500064445,428.0
429,5.094260684251121,-2.139099452673205,-1.9398140544390476,0.9471879222577907,-5.078316717942615,0.9734861638973814,429.0
430,5.094475171492731,-2.138704262631336,-1.9406396003015571,0.9476183492066927,-5.078530548966544,0.9680843967580596,430.0
431,5.094475473025937,-2.138704407562534,-1.940639344592356,0.9476182388925862,-5.078530850968422,0.9531583760872696,431.0
432,5.094475976577626,-2.1387046495934223,-1.9406389175654217,0.9476180546712345,-5.078531355302777,0.9282323554164713,432.0
433,5.09447668218493,-2.138704988743477,-1.9406383191974985,0.9476177966033971,-5.078532062302124,0.8933063405409603,433.0
434,5.094477590001185,-2.138705425093124,-1.9406375493925188,0.9476174649397842,-5.078532973338815,0.8483803503850544,434.0
435,5.0944786998867215,-2.138705958569099,-1.9406366082379536,0.9476170594517299,-5.078534087161617,0.7934543602291936,435.0
436,5.094479419275677,-2.1387063183890507,-1.9406359995368043,0.9476168120204393,-5.0785348091877,0.7285283782570395,436.0
437,5.09447941853376,-2.1387063539213718,-1.9406360035460963,0.9476168516374768,-5.078534808660768,0.6536024069004807,437.0
438,5.094479417690032,-2.138706394212708,-1.9406360080752447,0.9476168966138974,-5.07853480803899,0.568676439069411,438.0
439,5.094479416744357,-2.1387064392638515,-1.9406360131235258,0.9476169469531143,-5.0785348073211996,0.4737504743409461,439.0
440,5.0944794020303155,-2.138706485327439,-1.940636021277877,0.9476170009588769,-5.078534792221082,0.36882452103181174,440.0
441,5.094479385694634,-2.138706535720872,-1.9406360302510983,0.9476170600836427,-5.078534775448603,0.2538985732143153,441.0
442,5.094479361026329,-2.1387065864167725,-1.9406360410245427,0.9476171212122787,-5.078534750338402,0.12897263271508896,442.0
443,5.094479325677506,-2.138706636028384,-1.9406360539442424,0.947617183278868,-5.07853471455647,-0.005953301045305337,443.0
444,5.094479282587821,-2.1387066840980076,-1.9406360683337418,0.9476172451963707,-5.07853467103981,-0.15087923220717836,444.0
445,5.094479226717976,-2.1387067254900516,-1.940636084697069,0.9476173022917612,-5.078534614786574,-0.30580515987416956,445.0
446,5.09447916167071,-2.13870675888806,-1.9406361021273941,0.9476173523810628,-5.078534549412602,-0.4697756978043507,446.0
447,5.094479093403707,-2.138706781906734,-1.9406361191020824,0.9476173916226891,-5.07853448090004,-0.6285197615696333,447.0
448,5.094479025733357,-2.138706789132613,-1.940636134220039,0.9476174132522699,-5.078534413112417,-0.7772638253348788,448.0
449,5.094478961269242,-2.138706790671171,-1.9406361480360508,0.9476174279370229,-5.078534348579821,-0.9160078891001036,449.0
450,5.094478901723678,-2.138706780101609,-1.9406361594840895,0.9476174282205607,-5.078534289068008,-1.044751952865297,450.0
451,5.094478846915411,-2.1387067654100025,-1.940636169477557,0.9476174229846549,-5.078534234330958,-1.1634960166304724,451.0
452,5.094478797971965,-2.138706748102238,-1.940636177942753,0.9476174136701679,-5.078534185484989,-1.272240080395659,452.0
453,5.094478756389549,-2.1387067235627932,-1.940636184057205,0.9476173948637304,-5.078534144064955,-1.3709841441608182,453.0
454,5.094478719018263,-2.1387067015085073,-1.9406361895524291,0.9476173779618539,-5.078534106839605,-1.4597282079259593,454.0
455,5.09447868671649,-2.1387066807346486,-1.9406361941147041,0.9476173614573525,-5.078534074677817,-1.5384722716910912,455.0
456,5.09447866289368,-2.1387066564561055,-1.940636196497929,0.947617339363763,-5.0785340510307115,-1.6072163354562274,456.0
457,5.094478642536305,-2.1387066357092914,-1.940636198534473,0.947617320484064,-5.078534030823483,-1.6659603992213674,457.0
458,5.094478625644364,-2.138706618494208,-1.9406362002243327,0.947617304818253,-5.078534014056129,-1.7147044629865316,458.0
459,5.094478612217859,-2.138706604810854,-1.9406362015675125,0.9476172923663329,-5.078534000728651,-1.7534485267517015,459.0
460,5.094478602256789,-2.138706594659229,-1.9406362025640116,0.9476172831283038,-5.078533990841049,-1.7821925905168547,460.0
461,5.094478595761156,-2.1387065880393332,-1.9406362032138311,0.9476172771041659,-5.0785339843933235,-1.8009366542820195,461.0
462,5.094156768670419,-2.139329974534366,-1.9393916429882685,0.946995968750542,-5.078212933286811,-1.8105933495336657,462.0
463,5.092681325696603,-2.1421879855653367,-1.9336857943990893,0.9441475137676324,-5.076741047966274,-1.811896785585701,463.0
464,5.092021585053706,-2.1434659460561,-1.9311344270522492,0.942873827083218,-5.076082899855031,-1.8041852301784203,464.0
465,5.092021591091269,-2.143465949799527,-1.9311344282294503,0.9428738238372176,-5.076082909661989,-1.788041465122979,465.0
466,5.092021600868705,-2.1434659558617613,-1.9311344301358497,0.9428738185805339,-5.07608292554371,-1.7618977000675287,466.0
467,5.092021614386015,-2.143465964242802,-1.9311344327714477,0.9428738113131665,-5.076082947500195,-1.7257539350120834,467.0
468,5.092021631643197,-2.14346597494265,-1.9311344361362437,0.9428738020351155,-5.076082975531446,-1.6796101699566288,468.0
469,5.09202165202318,-2.1434659873551656,-1.9311344408689286,0.9428737884820142,-5.076083004223591,-1.6234664214410717,469.0
470,5.092021675879164,-2.14346600182729,-1.93113444660393,0.9428737719499354,-5.076083036675414,-1.5573226767252644,470.0
471,5.092021705889538,-2.1434660196887076,-1.9311344464988944,0.9428737727213434,-5.076083069720433,-1.4811789415365864,471.0
472,5.092021741748819,-2.1434660407953734,-1.93113444135804,0.9428737884217563,-5.07608310387581,-1.3950352130038366,472.0
473,5.092021781757368,-2.1434660644371957,-1.9311344355422948,0.9428738063106441,-5.076083141877317,-1.2988914959086575,473.0
474,5.0920218280017275,-2.14346608457335,-1.9311344279712053,0.9428738191957153,-5.076083186876646,-1.1927477855770543,474.0
475,5.092021881288266,-2.143466098878306,-1.9311344182131043,0.9428738243523989,-5.0760832400785185,-1.0766040835118917,475.0
476,5.092021939180959,-2.1434661137003843,-1.9311344075326629,0.9428738291569414,-5.0760832979003165,-0.9504603897395402,476.0
477,5.092022002059894,-2.143466112220517,-1.931134394024554,0.9428738148242328,-5.076083360850055,-0.8143167021916209,477.0
478,5.092022069487788,-2.1434661103625006,-1.9311343795095968,0.9428737991536289,-5.076083428356094,-0.6681730151153943,478.0
479,5.092022136235487,-2.1434660879008787,-1.9311343628736197,0.9428737607921236,-5.076083495345653,-0.5120293350671257,479.0
480,5.092022204400525,-2.1434660594414505,-1.9311343452773646,0.9428737154990561,-5.076083563802685,-0.3464042886216497,480.0
481,5.092022262324791,-2.143466016591433,-1.9311343282723454,0.9428736563288833,-5.076083622127312,-0.1848152974618198,481.0
482,5.092022310215469,-2.1434659698263405,-1.9311343129663778,0.9428735948463519,-5.0760836704414505,-0.03322630630202893,482.0
483,5.092022347087542,-2.143465918143135,-1.9311342994582437,0.9428735301389661,-5.076083707767399,0.10836268485773752,483.0
484,5.092022374998975,-2.1434658663612063,-1.9311342878410427,0.9428734671310764,-5.076083736125635,0.23995167601747214,484.0
485,5.092022392175651,-2.143465813434203,-1.9311342783762702,0.9428734050214895,-5.076083753749011,0.3615406671771796,485.0
486,5.092022407818526,-2.143465764827681,-1.9311342697120504,0.9428733480085364,-5.076083769802006,0.4731296583368769,486.0
487,5.092022408903057,-2.143465717050291,-1.9311342642288374,0.9428732948531422,-5.076083771277094,0.5747186494965459,487.0
488,5.092022409880833,-2.1434656739759115,-1.931134259285365,0.9428732469301434,-5.07608377260698,0.6663076406562154,488.0
489,5.092022410751851,-2.1434656356045414,-1.9311342548816355,0.9428732042395406,-5.076083773791665,0.7478966318158863,489.0
490,5.092022403407364,-2.143465602127067,-1.9311342527596298,0.9428731686297502,-5.076083766713711,0.8194856229755503,490.0
491,5.092022395968531,-2.143465573352309,-1.9311342511747034,0.9428731382495278,-5.076083759502981,0.8810746141352161,491.0
492,5.092022389737517,-2.143465549249614,-1.9311342498471138,0.9428731128020401,-5.076083753463033,0.9326636052949077,492.0
493,5.092022384714322,-2.1434655298189815,-1.931134248776862,0.9428730922872879,-5.076083748593867,0.9742525964546108,493.0
494,5.092022380898944,-2.1434655150604107,-1.9311342479639504,0.9428730767052718,-5.076083744895483,1.0058415876142972,494.0
495,5.092022378291387,-2.1434655049739013,-1.9311342474083792,0.9428730660559919,-5.0760837423678815,1.027430578773988,495.0
496,5.091960377733095,-2.1435875351419416,-1.9308905164404606,0.9427513410485389,-5.076021896534471,1.0392372298984356,496.0
497,5.090682160265098,-2.146103505247523,-1.9258655964724474,0.9402418921669307,-5.0747468680984555,1.0433477434151146,497.0
498,5.089601888458849,-2.148229856193584,-1.9216188355478891,0.9381210573710865,-5.073669291958924,1.0377647646379444,498.0
499,5.089598090442281,-2.148237339851799,-1.921603899911356,0.9381135965227392,-5.0736655046240635,1.024472324676086,499.0
500,5.089598093497629,-2.148237347586856,-1.9216039033526442,0.9381135947634285,-5.073665509783876,1.0011944363358425,500.0
501,5.089598097865531,-2.1482373586448333,-1.9216039082722833,0.9381135922483317,-5.073665517160302,0.9679165479955947,501.0
502,5.089598103545988,-2.1482373730257316,-1.9216039146702735,0.9381135889774487,-5.073665526753345,0.9246386596553358,502.0
503,5.089598110950776,-2.148237390948885,-1.9216039222928893,0.9381135856788118,-5.073665542196261,0.8713607740749018,503.0
504,5.0895981201485485,-2.1482374124508645,-1.9216039310978288,0.9381135824738023,-5.07366556409481,0.8080828909910189,504.0
505,5.089598127272881,-2.1482374403089874,-1.9216039392926187,0.9381135919920931,-5.073665581651592,0.7348050128179126,505.0
506,5.089598126585167,-2.1482374793362724,-1.921603943620513,0.9381136357592778,-5.073665582171581,0.6515271460009696,506.0
507,5.089598125805135,-2.1482375231054154,-1.921603948416954,0.9381136850213909,-5.073665582667577,0.5582492868856619,507.0
508,5.089598122664469,-2.1482375709658825,-1.9216039541441694,0.9381137393638668,-5.073665580590865,0.45497143487131886,508.0
509,5.089598106753728,-2.1482376199426345,-1.9216039629139594,0.9381137969268695,-5.073665564231877,0.34169359266446997,509.0
510,5.0895980894365085,-2.148237673240964,-1.9216039724600442,0.9381138595638217,-5.073665546411977,0.21841575928075282,510.0
511,5.089598058706156,-2.1482377237664902,-1.921603984569052,0.9381139217985233,-5.0736655152236505,0.08513793178616662,511.0
512,5.089598021616324,-2.148237775687398,-1.9216039981904185,0.938113986851522,-5.0736654776712395,-0.05813989388841612,512.0
513,5.089597970984142,-2.1482378200870964,-1.9216040138631727,0.9381140463102158,-5.073665426628364,-0.21141771464064377,513.0
514,5.089597912802692,-2.148237863063375,-1.921604030985061,0.9381141057196669,-5.073665368042022,-0.3746955291743726,514.0
515,5.089597843615758,-2.148237887726006,-1.9216040484281522,0.9381141470581176,-5.073665298590829,-0.5391173860333733,515.0
516,5.0895977771839265,-2.148237906686664,-1.9216040646558716,0.9381141815189922,-5.073665231944046,-0.693573981073028,516.0
517,5.089597710862146,-2.1482379082255063,-1.9216040789379913,0.9381141966475817,-5.073665165550604,-0.8380305761126874,517.0
518,5.089597649181753,-2.14823790744435,-1.9216040919765092,0.9381142082653425,-5.073665103821746,-0.9724871711522933,518.0
519,5.08959759241791,-2.1482378922270677,-1.9216041023760897,0.9381142028873091,-5.073665047132466,-1.0969437661918984,519.0
520,5.089597540214999,-2.1482378782324876,-1.9216041119400629,0.9381141979413922,-5.073664994998127,-1.211400361231463,520.0
521,5.0895974955475936,-2.1482378563054247,-1.921604119025384,0.9381141826781436,-5.073664950471197,-1.3158569562710167,521.0
522,5.089597456241876,-2.1482378331364895,-1.921604124832795,0.9381141649532673,-5.0736649113209324,-1.4103135513105625,522.0
523,5.089597421097403,-2.148237812420422,-1.9216041300253786,0.9381141491048988,-5.073664876315455,-1.4947701463500986,523.0
524,5.08959739322292,-2.148237789805326,-1.9216041334614906,0.9381141296803021,-5.0736648486020455,-1.5692267413896386,524.0
525,5.089597371150165,-2.1482377673466075,-1.9216041356803344,0.9381141092548134,-5.07366482669424,-1.6336833364291756,525.0
526,5.089597352501847,-2.148237748372207,-1.9216041375549384,0.9381140919981988,-5.07366480818528,-1.6881399314687284,526.0
527,5.089597337277964,-2.1482377328821234,-1.9216041390853014,0.9381140779104578,-5.0736647930751655,-1.7325965265083023,527.0
528,5.08959732547852,-2.1482377208763563,-1.921604140271427,0.9381140669915922,-5.073664781363898,-1.7670531215478733,528.0
529,5.089597317103512,-2.1482377123549052,-1.9216041411133151,0.938114059241602,-5.073664773051477,-1.7915097165874274,529.0
530,5.089597312152941,-2.14823770731777,-1.9216041416109655,0.9381140546604871,-5.073664768137902,-1.8059663116269928,530.0
531,5.088707449263513,-2.1500175058301383,-1.9180481602037704,0.936337548890402,-5.072777201798773,-1.8124460350440639,531.0
532,5.087350394548488,-2.1527317392445915,-1.9126252153541374,0.9336283435023159,-5.071423650093644,-1.8094856593042634,532.0
533,5.087205014393357,-2.153022523069872,-1.9120442448941715,0.9333380986891432,-5.071278647699508,-1.7986073427050377,533.0
534,5.087205021933151,-2.1530225277431803,-1.9120442463725549,0.9333380946636953,-5.071278660030363,-1.7782168182367253,534.0
535,5.087205033170642,-2.153022534708391,-1.9120442485759728,0.9333380886640721,-5.071278678408565,-1.747826293768418,535.0
536,5.0872050481058295,-2.1530225439655037,-1.9120442515044256,0.933338080690273,-5.071278702834114,-1.7074357693001014,536.0
537,5.087205066571752,-2.1530225553465683,-1.912044255336039,0.9333380701127514,-5.071278731826876,-1.657045248970855,537.0
538,5.087205088116266,-2.15302256839676,-1.9120442605532002,0.9333380552266258,-5.071278761378494,-1.5966547419047168,538.0
539,5.087205113272454,-2.1530225836287076,-1.912044266516621,0.9333380382196198,-5.071278795744731,-1.5262642350583446,539.0
540,5.087205146344326,-2.1530226030694677,-1.912044261754954,0.9333380526442094,-5.07127882724174,-1.4458737440625011,540.0
541,5.087205183525551,-2.153022624956757,-1.9120442563747437,0.9333380689848324,-5.071278862616135,-1.3554832570771453,541.0
542,5.087205224809367,-2.15302264933257,-1.9120442503369883,0.9333380874225001,-5.071278901807512,-1.2550927790716586,542.0
543,5.087205274284278,-2.1530226644197783,-1.9120442414440477,0.9333380941345344,-5.071278950925008,-1.1447023112972325,543.0
544,5.087205328868478,-2.1530226790758076,-1.912044231398765,0.9333380993748841,-5.071279005428571,-1.024311851005801,544.0
545,5.087205388173596,-2.153022686761366,-1.912044219583974,0.9333380959004495,-5.071279064724019,-0.893921397607298,545.0
546,5.087205452248307,-2.153022685296536,-1.9120442057514855,0.9333380812737605,-5.0712791288720895,-0.7535309478540873,546.0
547,5.087205518605945,-2.1530226749229313,-1.9120441904456211,0.9333380563055763,-5.071279195377521,-0.6031405012418167,547.0
548,5.087205586358705,-2.153022652214075,-1.9120441734762739,0.9333380173772025,-5.071279263379379,-0.4427500611548766,548.0
549,5.087205649167901,-2.153022615760269,-1.9120441560397212,0.9333379642118629,-5.071279326547087,-0.27661741091375747,549.0
550,5.087205704901702,-2.153022574652906,-1.9120441395974193,0.9333379073225521,-5.071279382671588,-0.11927731780461165,550.0
551,5.08720574477436,-2.1530225236336653,-1.912044125441609,0.933337842661754,-5.0712794230027765,0.02806277530450875,551.0
552,5.087205780115923,-2.1530224742217228,-1.9120441124304597,0.9333377807025869,-5.071279458785474,0.1654028684135901,552.0
553,5.087205800378056,-2.153022421039798,-1.9120441022190764,0.9333377176233624,-5.0712794795064,0.29274296152266094,553.0
554,5.087205816757003,-2.1530223706839546,-1.912044093149075,0.9333376584656652,-5.071279496317231,0.41008305463170597,554.0
555,5.087205825894653,-2.1530223230523604,-1.9120440859256367,0.9333376037980479,-5.07127950585768,0.5174231477407196,555.0
556,5.087205826919964,-2.1530222779114823,-1.9120440807087435,0.933337553538334,-5.071279507257851,0.6147632408497284,556.0
557,5.087205827839941,-2.153022237408047,-1.9120440760277884,0.9333375084419284,-5.071279508514181,0.7021033339587358,557.0
558,5.08720582583362,-2.153022201606555,-1.912044072491773,0.93333746915281,-5.071279506802627,0.7794434270677333,558.0
559,5.087205817795095,-2.1530221705780246,-1.9120440707712059,0.9333374363800032,-5.071279499013899,0.8467835201767413,559.0
560,5.087205810950291,-2.1530221441572297,-1.9120440693061425,0.9333374084739561,-5.071279492381798,0.9041236132857445,560.0
561,5.087205805299206,-2.153022122344171,-1.9120440680965793,0.9333373854346673,-5.071279486906321,0.9514637063947826,561.0
562,5.087205800841843,-2.153022105138847,-1.9120440671425216,0.933337367262139,-5.071279482587471,0.9888037995038184,562.0
563,5.0872057975782,-2.1530220925412578,-1.9120440664439686,0.9333373539563709,-5.071279479425246,1.0161438926128368,563.0
564,5.087205795508277,-2.153022084551403,-1.9120440660009208,0.9333373455173631,-5.071279477419647,1.033483985721867,564.0
565,5.086733554009676,-2.153981807681645,-1.910125851039324,0.9323786952108707,-5.070808496283115,1.0420977925746158,565.0
566,5.085302521200856,-2.1568900737268137,-1.9043130747708341,0.9294737040666321,-5.069381282783055,1.042020884201253,566.0
567,5.084844958859939,-2.157819975860234,-1.9024544784512074,0.9285448515377774,-5.068924942416525,1.0332879505239345,567.0
568,5.084844961134942,-2.157819981592536,-1.9024544810249182,0.928544850232815,-5.068924946324257,1.015801386910761,568.0
569,5.084844964710943,-2.1578199906029565,-1.9024544850704501,0.9285448481815864,-5.068924952466693,0.9883148232975829,569.0
570,5.084844969587943,-2.157820002891495,-1.902454490587804,0.9285448453840921,-5.068924960843835,0.9508282596844081,570.0
571,5.084844975765943,-2.1578200184581515,-1.9024544975769797,0.9285448418403317,-5.068924971455682,0.903341696071222,571.0
572,5.084844983999104,-2.157820037718711,-1.9024545055560935,0.9285448389426789,-5.068924991026127,0.8458551347626049,572.0
573,5.084844993710662,-2.157820060355192,-1.9024545148936782,0.9285448356262808,-5.068925014412902,0.7783685735732021,573.0
574,5.084844996222333,-2.157820093546862,-1.902454520684929,0.9285448640832634,-5.068925021927749,0.700882024073022,574.0
575,5.084844995507478,-2.157820133982956,-1.9024545251961202,0.9285449094791128,-5.068925022462891,0.6133954792854525,575.0
576,5.0848449946944605,-2.1578201791332887,-1.9024545301369884,0.9285449604624592,-5.068925022911543,0.5159089472123779,576.0
577,5.084844985492369,-2.157820226568456,-1.9024545372532418,0.9285450153133923,-5.068925014024037,0.4084224219717734,577.0
578,5.084844969185408,-2.15782027665077,-1.9024545462874962,0.9285450742399929,-5.0689249972460315,0.29093590474730086,578.0
579,5.084844948793167,-2.1578203294029694,-1.9024545564958646,0.9285451369490593,-5.068924976351134,0.16344939536968411,579.0
580,5.0848449136223035,-2.157820378513403,-1.9024545694775947,0.9285451985774978,-5.068924940735317,0.025962891394197114,580.0
581,5.0848448737343155,-2.1578204290023337,-1.9024545836217137,0.9285452626945302,-5.068924900387163,-0.12152361126089463,581.0
582,5.0848448182771815,-2.1578204698452867,-1.9024546000240894,0.9285453192819155,-5.068924844538621,-0.27901010704738255,582.0
583,5.084844755659903,-2.157820505752766,-1.9024546174097683,0.9285453718518519,-5.068924781564601,-0.4451859110230092,583.0
584,5.084844688366399,-2.157820528262414,-1.9024546343070283,0.9285454105124824,-5.068924714021877,-0.6054317186701526,584.0
585,5.084844622388642,-2.157820538247929,-1.9024546495311223,0.9285454350136075,-5.068924647900657,-0.7556775263172444,585.0
586,5.084844558756549,-2.157820539680702,-1.9024546633030235,0.9285454495507268,-5.068924584198638,-0.8959233339643328,586.0
587,5.084844499870918,-2.157820531801643,-1.902454675024785,0.9285454527933441,-5.068924525325146,-1.026169141611397,587.0
588,5.084844445671364,-2.157820517268152,-1.9024546850046176,0.9285454477013375,-5.068924471197552,-1.1464149492584388,588.0
589,5.084844396577595,-2.1578205021056585,-1.9024546938222795,0.928545440872709,-5.068924422185647,-1.2566607569054562,589.0
590,5.084844355352051,-2.1578204778307293,-1.9024546999441336,0.9285454223355397,-5.068924381125212,-1.356906564552462,590.0
591,5.084844318238952,-2.157820455977342,-1.9024547054552983,0.9285454056475397,-5.0689243441607506,-1.4471523721994508,591.0
592,5.084844285259299,-2.1578204365161717,-1.9024547103480267,0.9285453907719102,-5.06892431131353,-1.5273981798464367,592.0
593,5.084844261485818,-2.1578204123638858,-1.9024547127500215,0.9285453688196217,-5.06892428772003,-1.5976439874934332,593.0
594,5.084844241096665,-2.157820391649853,-1.9024547148100752,0.9285453499924007,-5.068924267485236,-1.6578897951404272,594.0
595,5.084844224091838,-2.157820374374074,-1.9024547165281847,0.928545334290245,-5.068924250609146,-1.7081356027874395,595.0
596,5.0848442104713385,-2.1578203605365482,-1.9024547179043527,0.9285453217131567,-5.068924237091762,-1.74838141043447,596.0
597,5.084844200235167,-2.157820350137275,-1.9024547189385799,0.9285453122611363,-5.068924226933085,-1.7786272180814835,597.0
598,5.084844193383323,-2.1578203431762546,-1.9024547196308663,0.9285453059341838,-5.0689242201331135,-1.7988730257284942,598.0
599,5.084688515243979,-2.1581417996540484,-1.9018119791827248,0.9282239738948553,-5.068768971544123,-1.8096526941755198,599.0
600,5.083358322976015,-2.1608885784247986,-1.8963199539652482,0.9254783168525085,-5.067442449481618,-1.81249695664934,600.0
601,5.082514119842616,-2.162631822902289,-1.8928344421417065,0.9237357857638637,-5.066600577157199,-1.8059370138345308,601.0
602,5.082514125167022,-2.1626318262011903,-1.8928344431917614,0.9237357829405558,-5.066600585925431,-1.7913755136042488,602.0
603,5.082514134147923,-2.1626318317655864,-1.8928344449629337,0.9237357781783628,-5.066600600715179,-1.766814013373965,603.0
604,5.08251414678532,-2.162631839595478,-1.8928344474552237,0.9237357714772843,-5.066600621526444,-1.732252513143686,604.0
605,5.082514163079212,-2.162631849690864,-1.8928344506686305,0.9237357628373206,-5.066600648359226,-1.6876910129133975,605.0
606,5.082514182561108,-2.1626318615689994,-1.8928344551185283,0.9237357504433196,-5.066600677017245,-1.6331295205494354,606.0
607,5.082514205346484,-2.162631875348872,-1.892834460677887,0.9237357347426804,-5.066600708534802,-1.568568032332157,607.0
608,5.082514233440384,-2.162631892101494,-1.8928344622955382,0.9237357305248597,-5.066600741587839,-1.4940065509871499,608.0
609,5.0825142678241795,-2.162631912289275,-1.89283445732247,0.9237357454645866,-5.066600774330684,-1.4094450787123605,609.0
610,5.082514306263105,-2.1626319349315217,-1.8928344516983207,0.9237357624606186,-5.0666008108463085,-1.314883615904036,610.0
611,5.082514350062557,-2.162631956268192,-1.8928344447308172,0.9237357770543483,-5.066600853105612,-1.2103221600770393,611.0
612,5.082514401395976,-2.1626319700555756,-1.8928344352353916,0.9237357819396325,-5.066600904352087,-1.0957607128057698,612.0
613,5.082514457212449,-2.1626319850475575,-1.8928344249098004,0.9237357872549403,-5.066600960091529,-0.9711992751450584,613.0
614,5.082514517863652,-2.1626319856904974,-1.89283441196743,0.92373577560136,-5.066601020795897,-0.8366378432770194,614.0
615,5.082514583070757,-2.162631984245193,-1.8928343978178641,0.9237357606920737,-5.066601086078902,-0.6920764125310904,615.0
616,5.0825146483271055,-2.162631965515511,-1.8928343817300899,0.9237357265936832,-5.066601151553523,-0.5375149875014988,616.0
617,5.082514716216449,-2.1626319412010506,-1.892834364454616,0.9237356857610726,-5.066601219709979,-0.37300218226340354,617.0
618,5.082514773337246,-2.1626318991946802,-1.8928343475161198,0.9237356274945832,-5.0666012772368365,-0.20983523434321433,618.0
619,5.082514822889161,-2.162631855632858,-1.892834332027844,0.9237355690465412,-5.066601327200921,-0.05666828642305698,619.0
620,5.08251485929778,-2.1626318048565194,-1.892834318554515,0.9237355052749956,-5.066601364070296,0.0864986614970551,620.0
621,5.08251488929829,-2.1626317553521175,-1.8928343065977213,0.9237354442223749,-5.066601394514954,0.219665609417135,621.0
622,5.08251490628784,-2.1626317032336098,-1.8928342971405474,0.9237353829239566,-5.0666014119586595,0.34283255733719514,622.0
623,5.0825149218979995,-2.16263165534664,-1.8928342884512002,0.9237353266023917,-5.066601427986099,0.4559995052572394,623.0
624,5.082514925017817,-2.1626316087113207,-1.8928342825809175,0.9237352742183199,-5.066601431501157,0.5591664531772582,624.0
625,5.082514925986242,-2.1626315661004907,-1.8928342776209879,0.9237352267388876,-5.066601432828978,0.652333401097253,625.0
626,5.082514926850723,-2.1626315280632618,-1.8928342731934253,0.9237351843556212,-5.066601434014278,0.7355003490172534,626.0
627,5.0825149210616045,-2.1626314947448266,-1.8928342707194823,0.9237351485660802,-5.066601428500147,0.8086672969372426,627.0
628,5.082514913608392,-2.1626314660345765,-1.8928342691164564,0.9237351182294298,-5.066601421281618,0.8718342448572378,628.0
629,5.082514907335103,-2.162631441869465,-1.8928342677672043,0.9237350926953929,-5.066601415205858,0.9250011927772527,629.0
630,5.082514902241737,-2.1626314222494933,-1.8928342666717268,0.9237350719639698,-5.066601410272868,0.9681681406972777,630.0
631,5.082514898328293,-2.162631407174659,-1.8928342658300261,0.9237350560351618,-5.066601406482648,1.0013350886173071,631.0
632,5.082514895594772,-2.162631396644962,-1.8928342652421026,0.9237350449089686,-5.0666014038351985,1.0245020365373267,632.0
633,5.082509982241839,-2.1626416960248953,-1.8928136525157526,0.9237247301730955,-5.066596504537979,1.037688036336412,633.0
634,5.081481253729526,-2.1648000531359406,-1.8884965885236575,0.9215657333038496,-5.065570709617712,1.0432035502516475,634.0
635,5.080273636805637,-2.1673337398921677,-1.88342881378707,0.9190313026286901,-5.064366536800263,1.0390185330252588,635.0
636,5.080215094768286,-2.167456573160078,-1.88318313703441,0.918908436203246,-5.064308162849521,1.0271776876197678,636.0
637,5.0802150975566684,-2.1674565801523245,-1.883183140203771,0.918908434608748,-5.064308167721203,1.0055573675599172,637.0
638,5.0802151016347565,-2.1674565903786798,-1.8831831448390504,0.9189084322767506,-5.064308174846174,0.9739370475000553,638.0
639,5.080215107002549,-2.1674566038391436,-1.8831831509402475,0.9189084292072532,-5.0643081842244335,0.9323167274401893,639.0
640,5.080215113926587,-2.167456620685806,-1.8831831583307055,0.9189084259137776,-5.064308198257041,0.8806964113994926,640.0
641,5.080215122706769,-2.1674566410897906,-1.8831831668116599,0.9189084229741107,-5.064308219645538,0.8190761023816182,641.0
642,5.0802151313823245,-2.1674566660724537,-1.8831831757910489,0.9189084252457811,-5.064308241040523,0.7474557955581128,642.0
643,5.08021513072284,-2.1674567032826157,-1.8831831799709096,0.9189084670576018,-5.06430824153399,0.665835502591634,643.0
644,5.080215129975582,-2.1674567450902185,-1.883183184626629,0.918908514158649,-5.064308242024646,0.5742152152375339,644.0
645,5.080215129137048,-2.1674567915146334,-1.8831831897399713,0.9189085666326801,-5.0643082424806645,0.47259493527026564,645.0
646,5.080215113901534,-2.1674568384577015,-1.8831831982518685,0.9189086219187582,-5.06430822681115,0.3609746669730833,646.0
647,5.080215097218016,-2.1674568895816533,-1.8831832075445814,0.9189086821382633,-5.064308209632399,0.23935440593433482,647.0
648,5.080215070063245,-2.1674569395426224,-1.8831832189711628,0.918908743176635,-5.064308182005108,0.1077341513824798,648.0
649,5.080215034257964,-2.1674569894145344,-1.8831832322571844,0.9189088058619208,-5.064308145740816,-0.033886100272023656,649.0
650,5.080214987705963,-2.1674570344707167,-1.8831832473158747,0.9189088654014148,-5.06430809876225,-0.18550634802310983,650.0
651,5.080214931456477,-2.1674570757756535,-1.883183264040627,0.9189089227621245,-5.064308042110217,-0.3471265893917923,651.0
652,5.0802148652453845,-2.1674571030919654,-1.8831832813426073,0.9189089666333418,-5.064307975605815,-0.5127325734872791,652.0
653,5.080214800451873,-2.1674571246780316,-1.8831832976981782,0.9189090038536517,-5.0643079105688695,-0.6688424869193083,653.0
654,5.080214734981717,-2.1674571263052114,-1.8831833119652015,0.9189090190571433,-5.064307845023868,-0.8149524003514864,654.0
655,5.080214673944434,-2.1674571276362746,-1.883183325245404,0.9189090330248166,-5.064307783918381,-0.9510623137838142,655.0
656,5.080214617747812,-2.1674571132016394,-1.883183335719468,0.9189090285012954,-5.064307727791736,-1.0771722272162687,656.0
657,5.0802145660206754,-2.1674570993255253,-1.8831833452945026,0.9189090236831541,-5.06430767613401,-1.1932821406488594,657.0
658,5.080214521004827,-2.1674570797305472,-1.883183352785563,0.918909011143473,-5.0643076312423165,-1.2993920540815322,658.0
659,5.080214481939056,-2.1674570567492926,-1.883183358617512,0.9189089936272997,-5.06430759233496,-1.3955019675143414,659.0
660,5.0802144469379815,-2.1674570361591834,-1.8831833638426545,0.9189089779336381,-5.064307557475818,-1.4816118809472012,660.0
661,5.080214418199015,-2.1674570148994823,-1.8831833676456544,0.9189089602152777,-5.064307528890298,-1.5577217943801402,661.0
662,5.080214396084715,-2.167456992465187,-1.8831833698919849,0.9189089398374517,-5.06430750694558,-1.6238317078131217,662.0
663,5.080214377315495,-2.167456973424376,-1.883183371798527,0.9189089225420413,-5.064307488320291,-1.6799416212461398,663.0
664,5.080214361891356,-2.16745695777705,-1.8831833733652794,0.9189089083290454,-5.064307473014432,-1.7260515346791936,664.0
665,5.080214349812297,-2.1674569455232087,-1.8831833745922455,0.9189088971984659,-5.064307461028002,-1.7621614481122516,665.0
666,5.080214341078319,-2.167456936662851,-1.883183375479425,0.918908889150303,-5.064307452361,-1.7882713615452783,666.0
667,5.080214335689423,-2.1674569311959777,-1.8831833760268182,0.9189088841845566,-5.064307447013428,-1.8043812749783161,667.0
668,5.079601184134944,-2.168763984888597,-1.8805681278060917,0.9176005330232788,-5.063696102134337,-1.8121097886344877,668.0
669,5.078245148182997,-2.17165466267279,-1.874784260763494,0.9147069964409433,-5.0623440622435085,-1.8108407769886377,669.0
670,5.0779441416551245,-2.1722963311085564,-1.8735003712627398,0.914064693820864,-5.062043944935061,-1.8012388940718664,670.0
671,5.077944148402457,-2.1722963352871414,-1.8735003726014468,0.914064690266569,-5.06204395612507,-1.7825805375489807,671.0
672,5.077944158766042,-2.1722963417052514,-1.8735003746576377,0.9140646848073393,-5.062043973312394,-1.7539221810260712,672.0
673,5.077944172745877,-2.1722963503628856,-1.873500377431312,0.9140646774431749,-5.062043996497036,-1.7152638245031593,673.0
674,5.077944190299422,-2.172296361215128,-1.873500380970742,0.914064668004712,-5.062044025294025,-1.666605468170795,674.0
675,5.077944210781883,-2.1722963735812075,-1.8735003860075379,0.9140646539250514,-5.0620440538687,-1.6079471146127071,675.0
676,5.077944234756167,-2.17229638805544,-1.873500391903001,0.9140646374451085,-5.0620440873147485,-1.5392887610546524,676.0
677,5.077944265735459,-2.172296406297047,-1.8735003890490083,0.9140646461353351,-5.062044118678026,-1.4606304207842786,677.0
678,5.077944301368605,-2.172296427208406,-1.8735003838590334,0.9140646616112464,-5.062044152590562,-1.3719720848041488,678.0
679,5.077944341007445,-2.172296450559161,-1.8735003780071122,0.9140646791813785,-5.0620441902053495,-1.2733137601300069,679.0
680,5.077944387829428,-2.1722964672198626,-1.8735003697874242,0.9140646880414767,-5.062044236318269,-1.1646554436568048,680.0
681,5.0779444403846075,-2.172296481342345,-1.8735003600128064,0.9140646930018106,-5.062044288790148,-1.0459971349983614,681.0
682,5.077944497483382,-2.17229649168136,-1.8735003488376232,0.9140646928141247,-5.062044345853282,-0.9173388338467626,682.0
683,5.077944559303942,-2.1722964903558064,-1.8735003353501,0.9140646786548763,-5.0620444077469235,-0.7786805374582466,683.0
684,5.077944624241535,-2.1722964837778083,-1.8735003206000382,0.9140646580227652,-5.0620444728047,-0.6300222431889158,684.0
685,5.077944689711218,-2.1722964620107144,-1.873500304028572,0.914064620414373,-5.062044538522107,-0.47136395561608363,685.0
686,5.077944753040182,-2.172296429886657,-1.8735002867553137,0.9140645717441757,-5.062044602185251,-0.30500506543971895,686.0
687,5.077944808080253,-2.1722963895289387,-1.873500270345367,0.914064515631862,-5.062044657622039,-0.1459371804306741,687.0
688,5.077944849971023,-2.172296341885864,-1.8735002559539982,0.91406445412795,-5.062044699959361,0.0031307045784735796,688.0
689,5.077944884926338,-2.1722962932568075,-1.8735002429482508,0.914064392952487,-5.062044735363108,0.14219858958782564,689.0
690,5.0779449076035075,-2.172296242382871,-1.8735002323394396,0.9140643318039825,-5.062044758496306,0.27126647459726627,690.0
691,5.077944923835926,-2.1722961926941404,-1.8735002232543225,0.9140642732942821,-5.06204477516855,0.39033435960686846,691.0
692,5.077944935247369,-2.1722961462507815,-1.8735002155740217,0.9140642193779107,-5.06204478698754,0.4994022446165527,692.0
693,5.077944936263735,-2.17229610155714,-1.8735002103331793,0.9140641695379562,-5.062044788386699,0.5984701296263534,693.0
694,5.077944937177508,-2.172296061374916,-1.8735002056213461,0.9140641247288881,-5.0620447896446255,0.6875380146362338,694.0
695,5.07794493684272,-2.172296025728686,-1.8735002016885465,0.9140640852131903,-5.06204478961406,0.7666058996461824,695.0
696,5.077944928786525,-2.172295994757274,-1.8735001999469767,0.9140640524734538,-5.062044781814862,0.8356737846562021,696.0
697,5.077944921896746,-2.17229596827006,-1.8735001984575606,0.9140640244739431,-5.062044775144872,0.8947416696662547,697.0
698,5.077944916173385,-2.172295946267047,-1.873500197220294,0.9140640012146564,-5.062044769604091,0.9438095546763269,698.0
699,5.07794491161644,-2.1722959287482326,-1.873500196235181,0.9140639826955953,-5.062044765192516,0.9828774396864234,699.0
700,5.077944908225912,-2.1722959157136166,-1.873500195502222,0.9140639689167606,-5.0620447619101485,1.01194532469651,700.0
701,5.077944906001801,-2.1722959071631984,-1.8735001950214176,0.9140639598781519,-5.062044759756988,1.0310132097065796,701.0
702,5.077690246678556,-2.172847447372403,-1.8723962426033658,0.9135114892890696,-5.061790875589022,1.0409198443987335,702.0
703,5.076365129924683,-2.1757174151764334,-1.866651815435626,0.9106367258718594,-5.060469792234227,1.042608340689204,703.0
704,5.075703847881424,-2.1771496398079093,-1.8637851313489777,0.9092021108421109,-5.05981052371388,1.0351898209770405,704.0
705,5.075703849886462,-2.177149644811332,-1.8637851336394236,0.909202109697995,-5.059810527277144,1.019509098658528,705.0
706,5.075703853170168,-2.1771496530055656,-1.863785137390546,0.909202107824247,-5.0598105331127945,0.9938283763400042,706.0
707,5.075703857732538,-2.177149664390611,-1.8637851426023442,0.909202105220867,-5.0598105412208305,0.9581476540214622,707.0
708,5.0757038635735725,-2.177149678966467,-1.8637851492748188,0.9092021018878547,-5.0598105516012515,0.9124669317029303,708.0
709,5.075703871270007,-2.1771496970737108,-1.8637851570113937,0.9092020989839107,-5.059810569502782,0.856786223595566,709.0
710,5.075703880538177,-2.1771497185448316,-1.8637851660071232,0.9092020959391336,-5.059810592343863,0.7911055197398771,710.0
711,5.075703884938445,-2.1771497484591222,-1.8637851727466939,0.9092021156877913,-5.059810604268432,0.7154248245294483,711.0
712,5.075703884253564,-2.1771497869956025,-1.8637851771046572,0.9092021590345539,-5.059810604778467,0.629744136593861,712.0
713,5.075703883474889,-2.1771498301051784,-1.863785181899523,0.9092022077667036,-5.059810605220867,0.5340634595919451,713.0
714,5.075703877062907,-2.177149876163493,-1.8637851883112075,0.9092022607458063,-5.059810599414532,0.4283827894225081,714.0
715,5.075703861379536,-2.1771499241247163,-1.8637851970949737,0.9092023173108685,-5.059810583268135,0.3127021276046859,715.0
716,5.075703844338694,-2.177149976229976,-1.86378520664015,0.9092023787581995,-5.059810565710271,0.18702147429479365,716.0
717,5.0757038105098875,-2.177150023388124,-1.8637852192798265,0.9092024381095574,-5.059810531440086,0.05134082751676185,717.0
718,5.07570377410381,-2.1771500739722747,-1.863785232863925,0.9092025017965535,-5.05981049456114,-0.09433981881775018,718.0
719,5.075703721010057,-2.1771501136546956,-1.8637852488292155,0.9092025568095157,-5.059810441075094,-0.25002045846071586,719.0
720,5.075703662105195,-2.1771501517719356,-1.863785265875503,0.9092026112799598,-5.059810381785965,-0.41537107092001324,720.0
721,5.075703595622516,-2.1771501738307037,-1.863785282750573,0.9092026494706619,-5.059810315049933,-0.5774184045998159,721.0
722,5.075703531294825,-2.1771501870476704,-1.8637852981621008,0.9092026773952313,-5.059810250547059,-0.7294657382797226,722.0
723,5.075703468328477,-2.177150188374627,-1.8637853119380638,0.9092026918307279,-5.05981018750918,-0.8715130719597459,723.0
724,5.0757034099327205,-2.1771501835503626,-1.8637853240311801,0.909202698491872,-5.059810129099208,-1.0035604056399867,724.0
725,5.075703356186057,-2.1771501691244923,-1.8637853340353305,0.9092026935294089,-5.059810075425422,-1.1256077393203,725.0
726,5.075703306843148,-2.1771501558806152,-1.8637853432197797,0.909202688973544,-5.059810026149417,-1.2376550730007772,726.0
727,5.07570326568619,-2.1771501322535647,-1.8637853494617238,0.9092026711977714,-5.059809985156564,-1.3397024066813186,727.0
728,5.075703228701835,-2.1771501105153193,-1.8637853550137073,0.9092026546613938,-5.059809948324037,-1.431749740361958,728.0
729,5.075703195735452,-2.1771500911387127,-1.8637853599625225,0.9092026399215228,-5.059809915492986,-1.5137970740426892,729.0
730,5.075703170953901,-2.1771500683340497,-1.8637853627534753,0.9092026196885477,-5.05980989088409,-1.5858444077234575,730.0
731,5.075703150436875,-2.1771500475484458,-1.8637853648492706,0.9092026008207517,-5.05980987052641,-1.6478917414042957,731.0
732,5.075703133226524,-2.177150030112802,-1.8637853666072899,0.9092025849938256,-5.059809853449721,-1.6999390750851593,732.0
733,5.075703119322844,-2.177150016027118,-1.863785368027535,0.9092025722077703,-5.059809839654025,-1.7419864087660342,733.0
734,5.075703108725838,-2.177150005291393,-1.8637853691100068,0.9092025624625868,-5.05980982913932,-1.7740337424469206,734.0
735,5.075703101435505,-2.1771499979056266,-1.863785369854706,0.9092025557582752,-5.059809821905608,-1.7960810761277684,735.0
736,5.075666139344191,-2.1772313180300333,-1.8636225387358136,0.9091210372170571,-5.059772976021022,-1.8082769114269521,736.0
737,5.0745492897061615,-2.179688880394352,-1.8587018775883426,0.9066577114178888,-5.058659637140262,-1.8128780841462044,737.0
738,5.073505341744861,-2.181986036633945,-1.8541023954391083,0.9043551708475248,-5.057618972009029,-1.807736256377576,738.0
739,5.073490547959552,-2.1820186024111927,-1.854037197118484,0.9043225291782945,-5.0576042277973645,-1.7949919298867938,739.0
740,5.0734905560729775,-2.1820186074329637,-1.8540371987384,0.9043225249311497,-5.057604241349708,-1.772309375560342,740.0
741,5.073490567763349,-2.18201861466867,-1.8540372010724842,0.9043225188115769,-5.057604260876838,-1.739626821233867,741.0
742,5.073490583030665,-2.182018624118312,-1.8540372041207367,0.9043225108195763,-5.057604286378755,-1.6969442669074037,742.0
743,5.073490601560398,-2.1820186354415516,-1.8540372082513605,0.9043224996686876,-5.057604314980415,-1.6442617168516749,743.0
744,5.073490623218649,-2.1820186484935005,-1.8540372136211074,0.9043224848112394,-5.057604345457856,-1.5815791715860659,744.0
745,5.073490649286255,-2.1820186640802803,-1.8540372172025288,0.9043224750999884,-5.057604378811308,-1.5088966301324565,745.0
746,5.073490682141085,-2.182018683329859,-1.8540372124038198,0.9043224892674108,-5.057604410090832,-1.426214100504378,746.0
747,5.073490718961418,-2.1820187049554285,-1.8540372069788946,0.9043225053550503,-5.057604445078627,-1.3335315779482961,747.0
748,5.073490760188118,-2.1820187276983973,-1.8540372006779513,0.9043225219066487,-5.057604484427232,-1.2308490626648305,748.0
749,5.073490809524228,-2.1820187409639615,-1.8540371914501863,0.9043225265211375,-5.057604533676722,-1.1181665578546371,749.0
750,5.073490863240458,-2.1820187554077517,-1.8540371814023422,0.9043225315483643,-5.057604587313308,-0.9954840613652312,750.0
751,5.073490921605114,-2.182018759193304,-1.8540371691543291,0.9043225237261283,-5.057604645702648,-0.8628015710725563,751.0
752,5.0734909844909595,-2.182018757891738,-1.8540371553565138,0.9043225092950957,-5.057604708664053,-0.7201190831150754,752.0
753,5.0734910484009585,-2.1820187435182756,-1.8540371398565176,0.9043224801247836,-5.057604772761689,-0.5674365997314411,753.0
754,5.073491114761369,-2.1820187215451927,-1.854037122964216,0.9043224420025717,-5.057604839376759,-0.4047541225705849,754.0
755,5.073491172472818,-2.1820186825911474,-1.854037106026806,0.904322386794193,-5.057604897481815,-0.2398517908419069,755.0
756,5.073491224147607,-2.1820186424470025,-1.8540370902650065,0.9043223315096145,-5.057604949554706,-0.08481034000745526,756.0
757,5.073491260185103,-2.1820185924349014,-1.8540370767803707,0.9043222684868666,-5.0576049860607935,0.06023111082708571,757.0
758,5.07349129271742,-2.1820185452713243,-1.8540370643790782,0.9043222093536069,-5.0576050190336055,0.19527256166177945,758.0
759,5.073491309567249,-2.1820184938016673,-1.8540370548944418,0.9043221486727987,-5.057605036346137,0.32031401249662966,759.0
760,5.073491325069539,-2.1820184464482226,-1.8540370461683167,0.9043220928448429,-5.057605052274125,0.43535546333158587,760.0
761,5.0734913306874505,-2.1820184009189205,-1.854037039794291,0.9043220410850854,-5.057605058292367,0.5403969141666809,761.0
762,5.0734913316499775,-2.182018358617699,-1.8540370347962623,0.9043219938741447,-5.057605059622729,0.6354383650018417,762.0
763,5.07349133251123,-2.1820183207672983,-1.8540370303241078,0.9043219516306071,-5.057605060813113,0.7204798158370784,763.0
764,5.0734913285012455,-2.18201828746646,-1.8540370274244184,0.9043219154491093,-5.057605057088095,0.7955212666724041,764.0
765,5.073491321000698,-2.182018258686603,-1.8540370257942578,0.9043218850128079,-5.0576050498299265,0.860562717507749,765.0
766,5.073491314653344,-2.182018234331595,-1.8540370244147304,0.9043218592560296,-5.057605043687688,0.9156041683431645,766.0
767,5.073491309459186,-2.1820182144014364,-1.854037023285835,0.9043218381787741,-5.05760503866138,0.9606456191785746,767.0
768,5.073491305418223,-2.182018198896126,-1.8540370224075742,0.9043218217810427,-5.057605034751,0.9956870700140172,768.0
769,5.073491302530455,-2.182018187815664,-1.8540370217799482,0.9043218100628354,-5.057605031956551,1.0207285208494143,769.0
770,5.073491300795881,-2.1820181811600503,-1.8540370214029571,0.9043218030241522,-5.05760503027803,1.035769971684823,770.0
771,5.072768921760003,-2.1836331098744752,-1.8508024329880717,0.9027020150800761,-5.056884995819197,1.0427182016226253,771.0
772,5.071501333934928,-2.186466900749501,-1.8451265624182254,0.8998597089388094,-5.055621522352389,1.0404021787479787,772.0
773,5.071306808530662,-2.186901783368677,-1.8442555329275674,0.8994235220142819,-5.055427629365263,1.0300373865848427,773.0
774,5.071306811024461,-2.186901789560801,-1.8442555357916475,0.8994235205926208,-5.055427633873454,1.0103683067977305,774.0
775,5.071306814786138,-2.1869017989010757,-1.8442555401118605,0.8994235184481698,-5.055427640673665,0.9806992270105857,775.0
776,5.0713068198156925,-2.186901811389501,-1.844255545888207,0.8994235155809291,-5.055427649765894,0.9410301472234437,776.0
777,5.071306826228594,-2.1869018270966407,-1.8442555530382934,0.8994235122326475,-5.0554276622117005,0.8913610713026032,777.0
778,5.071306834568318,-2.186901846354608,-1.8442555611743228,0.8994235095411534,-5.055427683007471,0.831692014510153,778.0
779,5.071306844305706,-2.186901868840039,-1.844255570673878,0.8994235063985889,-5.055427707288427,0.7620229577177486,779.0
780,5.071306844349758,-2.186901903644557,-1.8442555750916787,0.8994235437242114,-5.055427709319787,0.6823539157852527,780.0
781,5.071306843636838,-2.186901943459916,-1.8442555796036206,0.899423588621834,-5.055427709810592,0.5926848778688292,781.0
782,5.071306842831472,-2.1869019877848914,-1.8442555845520932,0.899423638826709,-5.055427710236147,0.4930158499420864,782.0
783,5.071306830798739,-2.1869020333933067,-1.8442555922846757,0.8994236922306684,-5.055427698111261,0.3833468313975307,783.0
784,5.071306814760367,-2.186902082334032,-1.8442556013203204,0.8994237500201885,-5.055427681586637,0.2636778204874603,784.0
785,5.071306791475947,-2.186902131886702,-1.8442556120108535,0.8994238099694256,-5.055427657813085,0.13400881675323656,785.0
786,5.0713067569716035,-2.1869021797120327,-1.8442556249601787,0.8994238702878575,-5.05542762285432,-0.005660182830074582,786.0
787,5.071306714787463,-2.1869022256907833,-1.8442556393717684,0.8994239301441878,-5.05542758022551,-0.15532917967512092,787.0
788,5.071306660485725,-2.1869022653330785,-1.8442556557013114,0.8994239854666,-5.055427525524376,-0.31499816994194646,788.0
789,5.071306598742006,-2.1869022952407082,-1.844255672544901,0.8994240315072672,-5.055427463459009,-0.478526572116462,789.0
790,5.071306536283199,-2.1869023158792134,-1.844255688490698,0.8994240673904536,-5.05542740075881,-0.6325231823057219,790.0
791,5.07130647442136,-2.186902321917943,-1.8442557026471733,0.8994240869176318,-5.055427338783747,-0.7765197924950513,791.0
792,5.071306415700908,-2.1869023231108837,-1.8442557155688715,0.8994241004064853,-5.055427279995485,-0.9105164026844723,792.0
793,5.071306361587192,-2.1869023143527517,-1.8442557263564852,0.8994241018773375,-5.055427225905424,-1.034513012873947,793.0
794,5.0713063119577635,-2.1869023010225663,-1.844255735648027,0.8994240973360643,-5.055427176343986,-1.1485096230634315,794.0
795,5.071306267092422,-2.1869022876091435,-1.8442557438927463,0.8994240917154785,-5.055427131552017,-1.2525062332529273,795.0
796,5.071306229754726,-2.186902265679807,-1.8442557495304834,0.8994240750675442,-5.055427094369472,-1.3465028434424862,796.0
797,5.071306196389268,-2.1869022460834646,-1.8442557545684362,0.8994240601907288,-5.055427061142659,-1.4304994536320401,797.0
798,5.071306166996049,-2.186902228820115,-1.8442557590066058,0.8994240470850331,-5.055427031871579,-1.504496063821607,798.0
799,5.071306144468622,-2.1869022098790465,-1.844255761759102,0.8994240306919316,-5.055427009487659,-1.568492674011169,799.0
800,5.071306126816697,-2.1869021920189704,-1.8442557635728418,0.8994240144908613,-5.05542699197456,-1.6224892842006726,800.0
801,5.071306112433851,-2.186902177466523,-1.8442557650506821,0.8994240012901775,-5.0554269777048315,-1.6664858943901872,801.0
