Miguel-LA/TFM_MiguelLerinAlonso/workspace/ros_ur_driver/src/trayectories/data/saved_trajectories/20240523_1808_trajectory.csv
,shoulder_pan_joint,shoulder_lift_joint,elbow_joint,wrist_1_joint,wrist_2_joint,wrist_3_joint,time_from_start
0,4.6029863357543945,-1.925798241292135,-2.142395321522848,0.6434241533279419,-4.610164586697714,-1.6590068976031702,0.0
1,4.6038784183623065,-1.9258552330514,-2.142481811812506,0.6437581152101934,-4.610332148688448,-1.65400689760317,1.0
2,4.6065546661860415,-1.926026208329195,-2.14274128268148,0.6447600008569481,-4.6108348346606505,-1.6390068976031704,2.0
3,4.6110150792255995,-1.9263111671255198,-2.14317373412977,0.6464298102682059,-4.611672644614322,-1.6140068976031703,3.0
4,4.617259657480981,-1.9267101094403747,-2.1437791661573753,0.6487675434439668,-4.612845578549462,-1.5790068976031704,4.0
5,4.625290625970605,-1.9272659286789566,-2.144520013286816,0.6518712692718447,-4.61438847978838,-1.5340069432387116,5.0
6,4.635114849773223,-1.9281107060284435,-2.1452806026467224,0.6560429733065627,-4.6164086428426945,-1.4790070985306953,6.0
7,4.646737667947495,-1.929347136031656,-2.1459709975488437,0.6615174528805685,-4.618989490537593,-1.4140074054610459,7.0
8,4.660169867080447,-1.9310870523433694,-2.1464890824962315,0.6685430912805783,-4.62226919182843,-1.3390079376607869,8.0
9,4.675433157169593,-1.9334475605414996,-2.146719196855388,0.6773646940162221,-4.626491419663949,-1.2540087539502975,9.0
10,4.692548440554559,-1.9365649061955486,-2.1465281483405225,0.6882682860907208,-4.631897297962363,-1.159009947225703,10.0
11,4.711554429662227,-1.9405626796258786,-2.1457711056682647,0.7014673811674923,-4.638890077277888,-1.0540116058615567,11.0
12,4.732493482237154,-1.9455724392624603,-2.1442862795766873,0.7171702497837016,-4.647910333342528,-0.9390138373884,12.0
13,4.755421726020743,-1.9517142269758017,-2.141896616783891,0.7355042950149868,-4.659525945058519,-0.8140167667209719,13.0
14,4.780406580250226,-1.959085812784253,-2.138409743749211,0.7564621188650513,-4.674417352421123,-0.6790205299587955,14.0
15,4.807520744665446,-1.967767872250023,-2.133614920008755,0.7799083068554176,-4.6933471174730625,-0.5340252789221751,15.0
16,4.836837718202548,-1.97781662865636,-2.1272828254849747,0.8055382913683019,-4.717152452376138,-0.3790311800166646,16.0
17,4.867377434654978,-1.988866969274131,-2.11945355990515,0.8319234031017816,-4.74567683564125,-0.21945763657385053,17.0
18,4.896440786155754,-1.9998142538953343,-2.1108580863714437,0.8561845995017533,-4.776318693598508,-0.0691873881901297,18.0
19,4.923791197713783,-2.010415946872571,-2.101759486221256,0.8778267706495309,-4.808192147720307,0.07108355964802304,19.0
20,4.949326278647127,-2.0205219233779665,-2.0923795427362992,0.8966623088339389,-4.8405170032478635,0.20135508527865353,20.0
21,4.972952937662869,-2.030018481064627,-2.082930253797193,0.9126588963898836,-4.872540051499117,0.3216270192059212,21.0
22,4.994598917282066,-2.0388244204000903,-2.0736120917068996,0.9259254882550998,-4.903578646079909,0.4318989525580045,22.0
23,5.014223268265555,-2.046886374342298,-2.064605348855287,0.9366766109977958,-4.9330713584647015,0.5321707968105991,23.0
24,5.031790493688636,-2.0541608025663947,-2.056080215363667,0.9451478586816116,-4.960496976131892,0.6224425906893675,24.0
25,5.047307930573602,-2.060630719565519,-2.0481780404201366,0.9516640002331087,-4.98550388368997,0.7027139769516302,25.0
26,5.0607799315419,-2.06628021080418,-2.041027801448475,0.9565156540853925,-5.007767011493828,0.772985251494914,26.0
27,5.072245468796128,-2.071112391595417,-2.034725443398794,0.9600317470761937,-5.027118613584779,0.8332564423608108,27.0
28,5.08172636315236,-2.0751245441880504,-2.029361660774539,0.9624765444420245,-5.043371088442764,0.883527617901042,28.0
29,5.089265330589296,-2.0783256900583713,-2.024995883815603,0.9641115871181603,-5.056456721396931,0.9237987985945857,29.0
30,5.094899456172108,-2.0807243784173783,-2.021673804902619,0.9651511617406321,-5.066331703200309,0.9540699725465748,30.0
31,5.0986587467832525,-2.0823275269368526,-2.0194323936152414,0.9657686499469409,-5.072960589082453,0.9743411354311979,31.0
32,5.102332186460515,-2.083894282180151,-2.017240167337008,0.9663659101611127,-5.079441286990338,0.9846372541034827,32.0
33,5.107633947506099,-2.086155537924495,-2.0140761797599045,0.9672279014369075,-5.088794657894159,0.9849463406599659,33.0
34,5.111328399277463,-2.0877312641290366,-2.011871392638384,0.9678285565503169,-5.095312400322069,0.975544003569662,34.0
35,5.111511317255646,-2.087809287804628,-2.0117622137618314,0.9678582793208869,-5.095635084325458,0.9597885956259289,35.0
36,5.111511339272669,-2.087809308937005,-2.0117621731813613,0.96785825528578,-5.095635090819988,0.9343319488399536,36.0
37,5.111511369950271,-2.0878093383037717,-2.0117621167173154,0.9678582215227163,-5.0956350999642765,0.8988753035682948,37.0
38,5.111511409533203,-2.087809374510485,-2.0117620455663414,0.9678581720652853,-5.095635113811532,0.8534186855012121,38.0
39,5.111511457823983,-2.087809418682312,-2.011761958762867,0.9678581117277159,-5.0956351307050465,0.7979620674341306,39.0
40,5.111511492306522,-2.087809462982033,-2.011761898122315,0.9678580820332249,-5.095635142733359,0.7325054554309687,40.0
41,5.111511491543904,-2.08780949994806,-2.011761903455932,0.9678581225148587,-5.0956351423642054,0.6570488534881616,41.0
42,5.111511490706704,-2.0878095418398352,-2.011761909469905,0.967858168461297,-5.095635142167579,0.5715922584308344,42.0
43,5.11151148979984,-2.08780958866233,-2.0117619161593145,0.9678582198910924,-5.0956351421845945,0.47613567027172216,43.0
44,5.111511474579167,-2.087809637166872,-2.011761925522876,0.9678582774711124,-5.0956351266983475,0.37067909196695326,44.0
45,5.111511457352989,-2.0878096901465932,-2.0117619358497794,0.9678583405539687,-5.0956351091235454,0.25522251697504844,45.0
46,5.11151143144253,-2.087809743491038,-2.0117619480112157,0.9678584057262479,-5.095635082819831,0.12976594459541357,46.0
47,5.111511394171061,-2.087809795625449,-2.0117619623590985,0.9678584717217645,-5.095635045110344,-0.005690623605469652,47.0
48,5.111511348719741,-2.0878098461030876,-2.011761978173504,0.9678585374458886,-5.095634999227771,-0.15114718366731972,48.0
49,5.11151128984505,-2.0878098896058805,-2.0117619958476967,0.9678585979308997,-5.09563493996726,-0.30660373678163466,49.0
50,5.111511221309746,-2.0878099245285506,-2.0117620144025152,0.9678586506362898,-5.095634871105075,-0.47090720175551515,50.0
51,5.111511149655202,-2.0878099486669046,-2.0117620322120375,0.9678586918032536,-5.0956347992049915,-0.6295723323479191,51.0
52,5.111511078585248,-2.087809956118153,-2.0117620477576406,0.9678587140605425,-5.095634728019657,-0.7782374629403281,52.0
53,5.111511010929227,-2.0878099577965177,-2.0117620618607823,0.9678587291494987,-5.095634660295881,-0.9169025935327393,53.0
54,5.111510948442837,-2.0878099466581084,-2.011762073256102,0.9678587287936887,-5.095634597845524,-1.0455677241251506,54.0
55,5.111510890927931,-2.087809931361328,-2.0117620830966807,0.9678587227842156,-5.095634540402989,-1.164232854717564,55.0
56,5.111510839609605,-2.0878099132062715,-2.0117620912980816,0.9678587123464554,-5.095634489184259,-1.2728979853099769,56.0
57,5.1115107959809505,-2.0878098876051734,-2.0117620969644037,0.9678586920216771,-5.095634445719288,-1.3715631159023907,57.0
58,5.111510756774185,-2.087809864598824,-2.0117621020564207,0.9678586737568717,-5.095634406659617,-1.4602282464948058,58.0
59,5.1115107229416,-2.0878098428552017,-2.011762106207532,0.9678586558659387,-5.095634372968658,-1.5388933770872204,59.0
60,5.111510697956263,-2.08780981751633,-2.0117621080806964,0.9678586321995308,-5.095634348160043,-1.6075585076796366,60.0
61,5.111510676609649,-2.087809795867668,-2.0117621096810634,0.9678586119797644,-5.095634326964413,-1.666223638272053,61.0
62,5.111510658901757,-2.0878097779092166,-2.01176211100863,0.9678585952066372,-5.09563430938177,-1.7148887688644656,62.0
63,5.111510644832588,-2.0878097636409745,-2.0117621120634,0.9678585818801515,-5.095634295412111,-1.7535538994568778,63.0
64,5.1115106344021415,-2.087809753062942,-2.011762112845374,0.9678585720003077,-5.095634285055439,-1.7822190300492908,64.0
65,5.111510627610417,-2.087809746175118,-2.0117621133545516,0.9678585655671058,-5.0956342783117545,-1.8008841606417043,65.0
66,5.111138939097516,-2.0884646700962146,-2.0104889998344486,0.9672400854325619,-5.095263288908248,-1.8104648884068208,66.0
67,5.109497467258149,-2.091357023692145,-2.0048665514645863,0.9645087072888713,-5.0936249045900155,-1.8116071575687511,67.0
68,5.108797539168652,-2.0925903389635407,-2.002469113640582,0.9633440335216555,-5.092926294542527,-1.803749661232556,68.0
69,5.108797545528089,-2.092590342887304,-2.002469114971534,0.9633440301287198,-5.092926304182346,-1.787363125422889,69.0
70,5.108797555768422,-2.092590349205572,-2.0024691171147095,0.9633440246652214,-5.092926319704935,-1.7609765896132208,70.0
71,5.1087975698896475,-2.092590357918344,-2.002469120070108,0.9633440171311595,-5.092926341110292,-1.724590053803553,71.0
72,5.1087975878917655,-2.0925903690256202,-2.00246912383773,0.9633440075265348,-5.092926368398418,-1.6782035179938868,72.0
73,5.108797609085478,-2.0925903819749876,-2.0024691289828405,0.9633439938548457,-5.092926395773757,-1.6218170013801703,73.0
74,5.108797633891065,-2.0925903971032644,-2.002469135160786,0.963343977333398,-5.092926426769978,-1.555430488513165,74.0
75,5.108797665452797,-2.092590415854409,-2.002469135179876,0.9633439796915748,-5.092926460036987,-1.4790439857360824,75.0
76,5.108797703197398,-2.092590437973252,-2.0024691303860527,0.9633439968725771,-5.092926496030098,-1.392657489358848,76.0
77,5.1087977452999755,-2.092590462744659,-2.0024691249572384,0.9633440164346538,-5.092926536094371,-1.2962710045346957,77.0
78,5.1087977940695914,-2.092590483487819,-2.002469117606565,0.9633440302507157,-5.092926583657068,-1.189884526432113,78.0
79,5.108797850127759,-2.092590498412824,-2.002469107977981,0.9633440361752537,-5.0929266396352695,-1.0734980565427072,79.0
80,5.108797911031552,-2.0925905134357703,-2.002469097364617,0.963344041265078,-5.092926700476221,-0.9471115948027841,80.0
81,5.108797977161699,-2.0925905118120385,-2.002469083553168,0.9633440265082236,-5.092926766676653,-0.810725139034097,81.0
82,5.108798047937485,-2.0925905092866897,-2.0024690686701576,0.9633440098266748,-5.092926837533698,-0.6643386837609878,82.0
83,5.108798118122548,-2.092590485687816,-2.0024690511925405,0.9633439695158263,-5.092926907961073,-0.5079522355351839,83.0
84,5.108798189456895,-2.0925904553297805,-2.0024690326073804,0.9633439213642536,-5.09292697959162,-0.34219884873105566,84.0
85,5.108798250183641,-2.092590410526452,-2.0024690143423167,0.9633438590097507,-5.092927040719117,-0.18084452839294493,85.0
86,5.108798300016375,-2.09259036127599,-2.0024689977448613,0.9633437937739155,-5.092927090978543,-0.029490208054846194,86.0
87,5.108798338666915,-2.0925903072864367,-2.002468982836664,0.9633437253841115,-5.0929271300837655,0.1118641122832404,87.0
88,5.10879836753052,-2.0925902529814815,-2.0024689699008684,0.9633436585521065,-5.092927159396523,0.24321843262131249,88.0
89,5.108798385533694,-2.0925901977317465,-2.002468959077169,0.9633435927785864,-5.092927177847372,0.3645727529593639,89.0
90,5.108798401574262,-2.092590146907412,-2.002468949227499,0.9633435323751622,-5.092927194299332,0.47592707329739753,90.0
91,5.108798402715048,-2.0925900970690976,-2.0024689425696196,0.9633434759954376,-5.092927195831596,0.5772813936354194,91.0
92,5.10879840374328,-2.092590052148022,-2.002468936568627,0.9633434251783479,-5.09292719721268,0.6686357139734058,92.0
93,5.108798404658957,-2.092590012144184,-2.0024689312245236,0.9633433799238941,-5.092927198442586,0.7499900343113858,93.0
94,5.108798396724513,-2.092589977272161,-2.002468928362184,0.9633433421819189,-5.092927190774919,0.8213443546493648,94.0
95,5.10879838894766,-2.0925899473107394,-2.002468926100316,0.9633433099422959,-5.09292718322649,0.8826986749873474,95.0
96,5.108798382438338,-2.092589922232663,-2.002468924207102,0.963343282957334,-5.092927176908362,0.9340529953253365,96.0
97,5.108798377196548,-2.09258990203793,-2.002468922682544,0.9633432612270342,-5.092927171820536,0.9754073156633285,97.0
98,5.10879837322229,-2.0925898867265404,-2.0024689215266434,0.9633432447513968,-5.092927167963011,1.0067616360013165,98.0
99,5.108798370515562,-2.092589876298493,-2.0024689207394,0.9633432335304221,-5.092927165335786,1.0281159563393054,99.0
100,5.1087128942233875,-2.0927429014656385,-2.0021711942791756,0.9631984681356698,-5.092841855802378,1.039732323863029,100.0
101,5.107264349781294,-2.095336317153302,-1.9971256234601549,0.9607452266861001,-5.091396136710397,1.0435480483388364,101.0
102,5.106123627494077,-2.097378626010887,-1.9931522559412294,0.9588133092840748,-5.0902576396751025,1.0377158758389697,102.0
103,5.1061233220066296,-2.09737918094675,-1.9931511876902848,0.9588127879841352,-5.090257335523353,1.0240409535430075,103.0
104,5.106123325150858,-2.0973791891718845,-1.9931511914118383,0.9588127865064826,-5.090257339942278,1.0003670928230448,104.0
105,5.106123329623231,-2.097379200871371,-1.9931511967054016,0.9588127844046596,-5.090257346227788,0.9666932321030832,105.0
106,5.106123335423747,-2.097379216045211,-1.9931512035709744,0.9588127816786659,-5.090257354379881,0.9230193713831176,106.0
107,5.106123343025533,-2.097379234872704,-1.9931512117961951,0.9588127788595779,-5.090257368399299,0.8693455200242755,107.0
108,5.106123352440132,-2.097379257358225,-1.9931512213758817,0.9588127759603542,-5.090257388383663,0.8056716758953453,108.0
109,5.106123359263741,-2.0973792869189345,-1.9931512302104122,0.9588127882682677,-5.0902574035082875,0.7319978373924863,109.0
110,5.106123358539179,-2.0973793278716126,-1.9931512355594616,0.9588128348619515,-5.090257404030355,0.6483240097907224,110.0
111,5.106123357719293,-2.097379373781138,-1.9931512414932437,0.9588128872911219,-5.090257404540653,0.5546501902585834,111.0
112,5.106123353836342,-2.097379423806453,-1.99315124857665,0.9588129450013929,-5.090257401710123,0.4509763777085559,112.0
113,5.106123337074512,-2.0973794751920325,-1.9931512586553368,0.958813006267742,-5.090257384501871,0.33730257451628115,113.0
114,5.10612331883597,-2.097379531096167,-1.9931512696225644,0.9588130729168249,-5.090257365761547,0.21362878046328093,114.0
115,5.1061232858464205,-2.097379583723578,-1.9931512832227525,0.9588131387134762,-5.090257332316485,0.07995499207944913,115.0
116,5.106123246805764,-2.0973796381834857,-1.9931512983117168,0.9588132077472769,-5.090257292810269,-0.06371879484433338,116.0
117,5.10612319291738,-2.097379684157068,-1.993151315363547,0.9588132701250917,-5.090257238513434,-0.21739257659960415,117.0
118,5.106123131700308,-2.0973797292541576,-1.9931513338125144,0.958813332951029,-5.090257176889527,-0.38106635213409024,118.0
119,5.106123058766174,-2.097379754231433,-1.9931513520752984,0.9588133753932577,-5.090257103697733,-0.5451310000096053,119.0
120,5.10612298900336,-2.097379773264162,-1.9931513689158102,0.9588134105134954,-5.090257033726845,-0.6991995439932642,120.0
121,5.106122919581796,-2.097379774950892,-1.9931513834432983,0.9588134260143795,-5.090256964234532,-0.8432680879769158,121.0
122,5.106122855048031,-2.097379773501001,-1.9931513965577508,0.9588134370221267,-5.0902568996588435,-0.9773366319605579,122.0
123,5.106122795658498,-2.097379757717593,-1.9931514067586626,0.9588134308653131,-5.090256840344889,-1.1014051759441938,123.0
124,5.106122741055794,-2.0973797432063406,-1.993151416137366,0.9588134252047376,-5.09025678581167,-1.215473719927824,124.0
125,5.106122694527258,-2.0973797198912676,-1.9931514227135416,0.9588134080387347,-5.090256739428857,-1.3195422639114467,125.0
126,5.10612265344551,-2.097379695825523,-1.993151428069951,0.9588133889595518,-5.090256698503269,-1.41361080789507,126.0
127,5.106122616730975,-2.097379674318101,-1.99315143285694,0.9588133719085881,-5.090256661928293,-1.4976793518786902,127.0
128,5.1061225878599465,-2.0973796505196702,-1.9931514357309967,0.9588133507386591,-5.090256633221409,-1.5717478958623072,128.0
129,5.1061225648350685,-2.0973796272164837,-1.9931514374640584,0.9588133289817209,-5.090256610361599,-1.6358164398459247,129.0
130,5.106122545403979,-2.097379607550525,-1.9931514389266176,0.9588133106206664,-5.090256591069813,-1.6898849838295484,130.0
131,5.106122529566676,-2.0973795915217948,-1.9931514401186736,0.9588132956554956,-5.09025657534605,-1.7339535278131768,131.0
132,5.106122517323163,-2.097379579130292,-1.9931514410402293,0.9588132840862098,-5.090256563190312,-1.768022071796803,132.0
133,5.106122508673438,-2.097379570376016,-1.9931514416912846,0.9588132759128091,-5.090256554602598,-1.7920906157804282,133.0
134,5.1061225036175,-2.097379565258967,-1.9931514420718393,0.9588132711352932,-5.090256549582907,-1.8061591597640543,134.0
135,5.105065570022999,-2.099302197748871,-1.9894078201698169,0.9569915221699956,-5.089201753002458,-1.812295322740278,135.0
136,5.103599641588397,-2.101968830895562,-1.984215537383639,0.9544648172245662,-5.087738789235954,-1.8088716880536106,136.0
137,5.103484607363242,-2.1021780970271533,-1.9838080748781393,0.9542665323031547,-5.087623989888382,-1.797582179287851,137.0
138,5.103484615394601,-2.1021781019789274,-1.983808076568633,0.9542665280451437,-5.087624002152087,-1.7766444094643583,138.0
139,5.103484627261782,-2.1021781092956973,-1.9838080790665165,0.9542665217534815,-5.087624020273009,-1.7457066396408667,139.0
140,5.103484642964787,-2.102178118977463,-1.98380808237179,0.9542665134281687,-5.0876240442511484,-1.704768869817373,140.0
141,5.103484662280743,-2.102178130840928,-1.9838080866731231,0.9542665024030176,-5.0876240721922175,-1.653831106797349,141.0
142,5.103484684796064,-2.1021781445459435,-1.9838080923206411,0.9542664874417548,-5.087624100580911,-1.5928933602515083,142.0
143,5.103484711309215,-2.1021781606344025,-1.9838080981742938,0.9542664721782647,-5.0876241333629295,-1.5219556148112872,143.0
144,5.103484746240131,-2.102178181067026,-1.9838080937228535,0.9542664880156106,-5.087624166668416,-1.4410178846946857,144.0
145,5.10348478548241,-2.1021782040592054,-1.9838080886906093,0.9542665059593464,-5.087624204051153,-1.3500801592159934,145.0
146,5.103484829031761,-2.1021782296450504,-1.9838080830475824,0.9542665261550388,-5.087624245474468,-1.2491424418892607,146.0
147,5.103484881456929,-2.1021782446899846,-1.9838080741530977,0.954266532876684,-5.0876242976586585,-1.1382047354372382,147.0
148,5.10348493899094,-2.102178259997676,-1.9838080642309497,0.954266538911045,-5.087624355117292,-1.0172670363224032,148.0
149,5.103485001501994,-2.102178267001186,-1.983808052214557,0.9542665345710191,-5.087624417628797,-0.8863293438392463,149.0
150,5.103485068996653,-2.102178265379049,-1.9838080380615937,0.9542665194906185,-5.0876244851963985,-0.7453916545533246,150.0
151,5.103485138586459,-2.102178253289431,-1.9838080221181573,0.9542664921951867,-5.087624554942616,-0.5944539686951162,151.0
152,5.103485209923022,-2.1021782293936178,-1.983808004282456,0.9542664512438819,-5.087624626529166,-0.43351628934956843,152.0
153,5.103485275116421,-2.102178190154284,-1.983807985725563,0.9542663941967757,-5.087624692089644,-0.26757475010804754,153.0
154,5.1034853334005765,-2.1021781472820003,-1.9838079681246943,0.9542663344095146,-5.087624750764048,-0.11077374560136075,154.0
155,5.103485374257276,-2.1021780932814673,-1.9838079526804608,0.9542662654950925,-5.087624792085061,0.03602725890531806,155.0
156,5.1034854111998476,-2.1021780418158906,-1.9838079383735767,0.9542662002076289,-5.087624829468478,0.17282826341198637,156.0
157,5.103485431498724,-2.1021779859510317,-1.9838079269342281,0.9542661332269831,-5.0876248502293215,0.2996292679186457,157.0
158,5.103485448610855,-2.102177933563618,-1.9838079166042235,0.9542660707932811,-5.087624867773057,0.41643027242529923,158.0
159,5.1034854573701285,-2.1021778838314846,-1.9838079083441138,0.9542660129936753,-5.087624876935797,0.5232312769319498,159.0
160,5.103485458444448,-2.1021778369320745,-1.9838079020389452,0.9542659598971315,-5.08762487838459,0.6200322814385943,160.0
161,5.103485459407785,-2.1021777948775986,-1.983807896385124,0.9542659122857083,-5.087624879683715,0.7068332859452143,161.0
162,5.103485456761155,-2.102177757752157,-1.9838078921163667,0.954265870941198,-5.087624877330592,0.7836342904518463,162.0
163,5.103485448397042,-2.102177725606409,-1.983807889674602,0.9542658363344892,-5.087624869215537,0.8504352949584849,163.0
164,5.103485441285023,-2.1021776982728264,-1.9838078875983656,0.9542658069083473,-5.087624862315293,0.9072362994651353,164.0
165,5.103485435425098,-2.1021776757514106,-1.9838078858876536,0.9542657826627707,-5.0876248566298585,0.954037303971792,165.0
166,5.103485430817266,-2.1021776580421596,-1.9838078845424705,0.9542657635977617,-5.0876248521592355,0.9908383084784551,166.0
167,5.1034854274615284,-2.102177645145074,-1.9838078835628161,0.9542657497133202,-5.087624848903421,1.0176393129851122,167.0
168,5.103485425357886,-2.1021776370601537,-1.983807882948691,0.9542657410094464,-5.087624846862418,1.0344403174917687,168.0
169,5.102880435507477,-2.1032957612210144,-1.9816289865354635,0.9532045526509013,-5.0870211245924715,1.0426206093203079,169.0
170,5.101299567302276,-2.1062174901153896,-1.975935414157944,0.9504316209639905,-5.085443568658968,1.0419269583816113,170.0
171,5.100884021128224,-2.1069854995450124,-1.9744388018587493,0.9497027271164172,-5.08502889365241,1.0327015618011968,171.0
172,5.1008840235221475,-2.106985505773367,-1.9744388047016903,0.9497027259925674,-5.085028897087939,1.014518951995992,172.0
173,5.10088402723267,-2.1069855154271675,-1.9744388091081804,0.9497027242506273,-5.085028902412926,0.9863363421907828,173.0
174,5.100884032259794,-2.1069855285064145,-1.97443881507822,0.9497027218905968,-5.085028909627372,0.9481537323855751,174.0
175,5.100884038614686,-2.10698554501553,-1.9744388226065859,0.9497027189258236,-5.0850289188267395,0.8999711228430294,175.0
176,5.1008840471313786,-2.10698556528483,-1.9744388313032037,0.9497027163531493,-5.085028937140468,0.841788530021444,176.0
177,5.100884057111856,-2.1069855890378695,-1.9744388414945326,0.9497027133383025,-5.085028958601826,0.7736059371998708,177.0
178,5.100884058871444,-2.1069856246471166,-1.9744388477985244,0.9497027469806725,-5.085028963920156,0.6954233574214209,178.0
179,5.100884058115471,-2.1069856671872973,-1.9744388533793635,0.949702795454572,-5.085028964452204,0.6072407821858471,179.0
180,5.100884057260804,-2.106985714642346,-1.9744388595130196,0.9497028498138789,-5.085028964933166,0.5090582185891831,180.0
181,5.100884046535115,-2.106985764218504,-1.9744388680907674,0.9497029081339414,-5.085028954425843,0.40087566263845886,181.0
182,5.100884029323192,-2.106985816853549,-1.9744388784838092,0.9497029709572318,-5.085028936742287,0.28269311455204466,182.0
183,5.100884006698992,-2.106985871622305,-1.97443889027979,0.9497030372383053,-5.0850289136225335,0.15451057401235274,183.0
184,5.100883969612771,-2.1069859232187698,-1.97443890467288,0.949703102739354,-5.085028876087576,0.016328038344281738,184.0
185,5.100883926510074,-2.1069859751826745,-1.9744389203594688,0.949703169838617,-5.085028832528863,-0.13185449567004406,185.0
186,5.100883868073835,-2.106986018102908,-1.9744389380433547,0.9497032297544975,-5.085028773698616,-0.29003702284606453,186.0
187,5.100883801518173,-2.106986054314321,-1.9744389565352232,0.9497032836999922,-5.085028706795928,-0.45635988255183546,187.0
188,5.100883731227484,-2.106986077815365,-1.9744389741463415,0.9497033240421644,-5.085028636257061,-0.6159176424753265,188.0
189,5.100883661962704,-2.106986086870524,-1.9744389896651868,0.9497033478863529,-5.085028566860968,-0.7654754023988533,189.0
190,5.100883595539305,-2.1069860884490534,-1.9744390036228041,0.9497033627371998,-5.085028500368698,-0.9050331623225225,190.0
191,5.100883534123078,-2.1069860791106776,-1.9744390151231073,0.9497033642876425,-5.0850284389755025,-1.0345909222462106,191.0
192,5.100883477593911,-2.106986064096242,-1.974439024872963,0.9497033584734076,-5.085028382519079,-1.1541486821698956,192.0
193,5.100883426722753,-2.1069860474945012,-1.97443903324483,0.949703349755235,-5.085028331738199,-1.2637064420935915,193.0
194,5.100883383775896,-2.106986022375768,-1.974439038867734,0.9497033298699518,-5.0850282889567175,-1.3632642020172978,194.0
195,5.1008833451428,-2.1069859997800675,-1.9744390439258444,0.9497033119820275,-5.085028250472386,-1.4528219619410025,195.0
196,5.100883311244352,-2.1069859791218333,-1.974439048255826,0.9497032953480821,-5.085028216711149,-1.5323797218647224,196.0
197,5.100883286552323,-2.1069859541796068,-1.9744390501222464,0.9497032720699075,-5.08502819219852,-1.6019374817884307,197.0
198,5.100883265410153,-2.1069859328232097,-1.9744390517203403,0.9497032521383292,-5.0850281712099585,-1.661495241712136,198.0
199,5.100883247817842,-2.1069859150526433,-1.9744390530501041,0.9497032355533452,-5.085028153745466,-1.711053001635833,199.0
200,5.1008832337753915,-2.1069859008679064,-1.9744390541115413,0.9497032223149577,-5.08502813980504,-1.750610761559526,200.0
201,5.100883223282801,-2.106985890268999,-1.9744390549046527,0.949703212423167,-5.085028129388681,-1.7801685214832237,201.0
202,5.100883216340069,-2.1069858832559203,-1.974439055429438,0.9497032058779733,-5.085028122496393,-1.799726281406926,202.0
203,5.10063916260585,-2.107444132419445,-1.9735453514788674,0.9492675906427324,-5.084784598458069,-1.80998252813344,203.0
204,5.099123777618064,-2.110289568526545,-1.9679960592279613,0.9465627381811138,-5.083272502450235,-1.812061530833067,204.0
205,5.098317461531426,-2.1118035949296092,-1.965043344220128,0.9451235158964567,-5.0824679378015585,-1.8049219185151475,205.0
206,5.098317467372477,-2.11180359852862,-1.965043345456538,0.945123512820102,-5.082467946786583,-1.789517267824635,206.0
207,5.098317477005274,-2.1118036044639448,-1.9650433474955689,0.9451235077467175,-5.082467961604276,-1.7641126171341277,207.0
208,5.0983174904298165,-2.111803612735584,-1.965043350337221,0.945123500676303,-5.082467982254638,-1.7287079664436216,208.0
209,5.0983175076461045,-2.1118036233435378,-1.9650433539814944,0.9451234916088588,-5.082468008737671,-1.6833033157531134,209.0
210,5.098317528078163,-2.111803635801593,-1.9650433589318672,0.9451234787679144,-5.0824680361050625,-1.6278986822600419,210.0
211,5.098317551976852,-2.1118036503215123,-1.9650433649690568,0.9451234629271845,-5.082468066511981,-1.5624940548317177,211.0
212,5.098317581956276,-2.1118036681349395,-1.965043366083037,0.9451234619741196,-5.082468099240781,-1.487089435814628,212.0
213,5.098317618368325,-2.1118036893975356,-1.9650433614260754,0.9451234784186875,-5.082468133954014,-1.4016848247420959,213.0
214,5.098317659033649,-2.11180371322882,-1.965043356153585,0.9451234971268003,-5.082468172643617,-1.306280224067266,214.0
215,5.098317705725762,-2.1118037345234972,-1.965043349261622,0.9451235118966381,-5.08246821794882,-1.2008756302321326,215.0
216,5.098317759957014,-2.1118037489450785,-1.965043339869354,0.9451235175392976,-5.082468272098202,-1.0854710448024374,216.0
217,5.098317818889633,-2.1118037646170644,-1.9650433296623073,0.9451235236730319,-5.082468330958146,-0.9600664680930382,217.0
218,5.098317882929874,-2.1118037637060447,-1.9650433162529852,0.9451235100170545,-5.082468395063965,-0.8246618976188264,218.0
219,5.098317951714251,-2.1118037620902124,-1.965043301768146,0.9451234946269798,-5.082468463923922,-0.6792573276255517,219.0
220,5.098318020079414,-2.11180374061918,-1.965043284777863,0.9451234569127381,-5.082468532521605,-0.523852764035244,220.0
221,5.098318090572391,-2.1118037133057803,-1.9650432665831996,0.9451234121855889,-5.082468603295961,-0.35868421598018363,221.0
222,5.098318150174833,-2.111803669593694,-1.965043248507436,0.9451233511000857,-5.082468663303242,-0.19635218010151742,222.0
223,5.098318200593799,-2.111803623011892,-1.9650432319627278,0.9451232885872537,-5.08246871414242,-0.04402014422283709,223.0
224,5.098318238559213,-2.11180357026025,-1.96504321719681,0.9451232215677652,-5.082468752567338,0.09831189165586314,224.0
225,5.09831826849393,-2.111803518080313,-1.9650432041720487,0.9451231567773297,-5.08246878295006,0.23064392753457064,225.0
226,5.098318286195783,-2.1118034640161616,-1.9650431934398265,0.9451230922731624,-5.082468801104706,0.3529759634132868,226.0
227,5.098318302450602,-2.1118034143714746,-1.9650431835848998,0.9451230330418694,-5.082468817775306,0.4653079992920119,227.0
228,5.098318304505213,-2.111803365759761,-1.965043176811652,0.9451229777769886,-5.082468820225185,0.5676400351707439,228.0
229,5.098318305515808,-2.1118033216745262,-1.9650431708460423,0.9451229278262686,-5.082468821593514,0.6599720710494812,229.0
230,5.098318306416951,-2.111803282363935,-1.9650431655265332,0.9451228832854484,-5.082468822813647,0.7423041069282236,230.0
231,5.098318299568737,-2.1118032480074724,-1.9650431624619882,0.9451228458638877,-5.082468816237688,0.814636142806963,231.0
232,5.09831829185829,-2.1118032184433364,-1.9650431602020726,0.945122814020656,-5.082468808759965,0.8769681786857042,232.0
233,5.09831828538484,-2.11180319362221,-1.9650431583047154,0.9451227872860694,-5.082468802481902,0.9293002145644369,233.0
234,5.098318280148385,-2.111803173544092,-1.965043156769918,0.9451227656601284,-5.082468797403498,0.9716322504431659,234.0
235,5.098318276148925,-2.1118031582089825,-1.9650431555976826,0.9451227491428342,-5.082468793524754,1.0039642863218923,235.0
236,5.098318273386462,-2.1118031476168806,-1.9650431547880085,0.9451227377341864,-5.082468790845669,1.0262963222006236,236.0
237,5.098289791352778,-2.1118574719909278,-1.9649371150048403,0.9450710044562816,-5.082440372866254,1.0387261910744716,237.0
238,5.097033438580282,-2.1142541257713328,-1.9602594313208204,0.9427891864788414,-5.081186843672463,1.043476262812556,238.0
239,5.0958070967284215,-2.1165935361066484,-1.9556934814171918,0.9405618749003805,-5.079963258239351,1.0384773413542587,239.0
240,5.095787555347317,-2.1166308212842653,-1.955620720243999,0.9405263796168832,-5.079943761549511,1.025800361024945,240.0
241,5.095787558298333,-2.1166308289208065,-1.9556207237607928,0.9405263782340062,-5.079943765873258,1.0031919966559235,241.0
242,5.0957875625546265,-2.1166308399350977,-1.955620728833114,0.9405263762394629,-5.07994377210946,0.970583632286905,242.0
243,5.095787568116195,-2.116630854327139,-1.9556207354609632,0.9405263736332534,-5.079943780258117,0.9279752679178928,243.0
244,5.095787575347359,-2.1166308722476272,-1.955620743466777,0.9405263708780263,-5.079943793467113,0.8753669108945001,244.0
245,5.095787584421299,-2.116630893768197,-1.9556207527661504,0.9405263681937032,-5.079943813232807,0.8127585625543916,245.0
246,5.0957875922280245,-2.11663092105791,-1.9556207620331971,0.9405263754383522,-5.079943830671751,0.7401502180623857,246.0
247,5.095787591528917,-2.1166309603302382,-1.9556207672238992,0.9405264202117165,-5.0799438311715415,0.6575418861379243,247.0
248,5.095787590737871,-2.1166310044066607,-1.9556207729983182,0.9405264706196406,-5.079943831668286,0.5649335609950421,248.0
249,5.095787588511018,-2.1166310529168753,-1.9556207796056828,0.9405265264554322,-5.079943830643246,0.4623252429886644,249.0
250,5.095787572312496,-2.1166311023396602,-1.95562078943001,0.940526585513535,-5.079943814000437,0.34971693558205497,250.0
251,5.095787554673673,-2.1166311561496864,-1.9556208001284825,0.9405266498100044,-5.0799437958639935,0.22710863630964678,251.0
252,5.095787524421582,-2.1166312078056673,-1.9556208131821373,0.940526714127699,-5.079943765146991,0.09450034311065321,252.0
253,5.0957874866139585,-2.1166312602688784,-1.9556208279198768,0.9405267808305677,-5.079943726875635,-0.04810794791233978,253.0
254,5.095787435996451,-2.1166313061682125,-1.9556208444620546,0.9405268426563629,-5.079943675838851,-0.20071623444282083,254.0
255,5.095787376655812,-2.1166313496242553,-1.9556208624984655,0.9405269034488952,-5.07994361609237,-0.36332451465490045,255.0
256,5.0957873063537145,-2.116631376131342,-1.955620880594655,0.9405269472735092,-5.079943545513165,-0.5282955011551677,256.0
257,5.095787238378848,-2.1166313968367163,-1.955620897446707,0.9405269840880048,-5.079943477310532,-0.6834254593688298,257.0
258,5.095787170141655,-2.11663139842049,-1.9556209118483936,0.9405269993664269,-5.0799434090013715,-0.8285554175825071,258.0
259,5.095787106630844,-2.116631398823188,-1.9556209251121999,0.9405270123770295,-5.079943345432321,-0.9636853757961857,259.0
260,5.095787048184462,-2.116631383306027,-1.9556209352370366,0.9405270064131773,-5.079943287061983,-1.088815334009876,260.0
261,5.09578699440893,-2.1166313690289527,-1.9556209445527193,0.9405270009259338,-5.07994323335642,-1.203945292223577,261.0
262,5.0957869480769915,-2.1166313475335845,-1.9556209513744431,0.9405269858177873,-5.079943187159791,-1.3090752504372851,262.0
263,5.09578690753733,-2.1166313238573493,-1.9556209567056062,0.9405269671023611,-5.0799431467782465,-1.4042052086509937,263.0
264,5.095786871259169,-2.1166313026699473,-1.9556209614763556,0.940526950354286,-5.079943110641583,-1.4893351668647048,264.0
265,5.095786842074113,-2.116631280042095,-1.9556209645829528,0.940526930577679,-5.079943081615913,-1.5644651250784252,265.0
266,5.095786819233632,-2.1166312570124908,-1.9556209663171695,0.9405269090931916,-5.079943058943587,-1.6295950832921409,266.0
267,5.09578679990006,-2.1166312375188334,-1.9556209677851155,0.9405268909074138,-5.079943039752351,-1.684725041505858,267.0
268,5.095786784073397,-2.116631221561123,-1.9556209689867887,0.9405268760203449,-5.079943024042205,-1.729854999719554,268.0
269,5.095786771753641,-2.116631209139359,-1.9556209699221925,0.940526864431987,-5.079943011813149,-1.7649849579332582,269.0
270,5.095786762940794,-2.116631200253541,-1.9556209705913268,0.9405268561423401,-5.079943003065184,-1.7901149161469627,270.0
271,5.095786757634856,-2.116631194903669,-1.9556209709941916,0.9405268511514042,-5.079942997798309,-1.8052448743606684,271.0
272,5.094958152217082,-2.118237016195041,-1.9524844098469993,0.9389956161359693,-5.079116320146901,-1.8122007957922366,272.0
273,5.093499935035046,-2.121063027766604,-1.946964528406601,0.9363008735278736,-5.077661496072083,-1.8098765908727867,273.0
274,5.093290275168572,-2.121469356336131,-1.9461708761798235,0.9359134192996483,-5.0774523261381495,-1.7994510866314437,274.0
275,5.093290282587079,-2.1214693609043374,-1.9461708777590043,0.9359134154189509,-5.077452337634468,-1.7796612459699395,275.0
276,5.0932902937542295,-2.121469367780904,-1.94617088013616,0.9359134095772994,-5.077452354939989,-1.74987140530843,276.0
277,5.093290308670024,-2.12146937696583,-1.9461708833112916,0.9359134017746937,-5.077452378054712,-1.7100815646469287,277.0
278,5.093290327206786,-2.1214693883484683,-1.9461708873996735,0.9359133916048705,-5.077452405870007,-1.6602917280598368,278.0
279,5.093290348814982,-2.1214694014525897,-1.946170892897455,0.9359133773192517,-5.077452433614269,-1.6005019102880391,279.0
280,5.0932903740372035,-2.1214694167484076,-1.946170899314754,0.9359133606443265,-5.077452465998831,-1.5307120925162385,280.0
281,5.093290407423796,-2.1214694362447903,-1.946170895545175,0.9359133741644616,-5.077452498270379,-1.4509222902499712,281.0
282,5.093290445243206,-2.1214694583187246,-1.946170890668499,0.935913391279016,-5.077452534297091,-1.361132491948932,282.0
283,5.093290487264805,-2.121469482925203,-1.9461708851821014,0.9359134106172466,-5.077452574250386,-1.2613427033429794,283.0
284,5.0932905373732575,-2.1214694989341645,-1.9461708768296302,0.9359134187912012,-5.077452623879477,-1.1515529242668527,284.0
285,5.0932905929870325,-2.1214695137184805,-1.9461708671540423,0.9359134245332656,-5.077452679415566,-1.0317631527680473,285.0
286,5.093290653409862,-2.121469522520592,-1.9461708556972437,0.9359134225422543,-5.077452739822071,-0.9019733883265091,286.0
287,5.093290718739667,-2.121469521023016,-1.946170841877693,0.9359134079034824,-5.07745280522484,-0.7621836278451642,287.0
288,5.0932907867326,-2.121469511728151,-1.9461708264779867,0.9359133839300462,-5.07745287335601,-0.6123938700981915,288.0
289,5.09329085585,-2.1214694887503054,-1.9461708090451588,0.9359133442798149,-5.077452942722861,-0.4526041189697676,289.0
290,5.093290920914541,-2.121469452907181,-1.9461707907663306,0.9359132909022561,-5.0774530081391225,-0.2863219729471237,290.0
291,5.09329097820447,-2.1214694110143286,-1.9461707733134481,0.935913232232717,-5.077453065823745,-0.12837722730297352,291.0
292,5.093291020105713,-2.1214693599255288,-1.946170757860686,0.9359131662266644,-5.07745310818185,0.019567518341193912,292.0
293,5.0932910564548255,-2.1214693095499753,-1.9461707436594127,0.935913102126518,-5.077453144977098,0.15751226398535695,293.0
294,5.093291078253166,-2.1214692558720243,-1.9461707320582193,0.935913037180231,-5.0774531672360075,0.2854570096295378,294.0
295,5.0932910951122725,-2.12146920450117,-1.946170721790221,0.9359129758185509,-5.077453184532384,0.40340175527372324,295.0
296,5.093291105372146,-2.1214691561134824,-1.946170713290436,0.9359129191340496,-5.077453195199219,0.5113465009179201,296.0
297,5.093291106429587,-2.1214691100179377,-1.9461707070108618,0.9359128668621707,-5.077453196636713,0.6092912465621224,297.0
298,5.0932911073790645,-2.121469068628677,-1.9461707013724157,0.9359128199271635,-5.077453197927443,0.697235992206323,298.0
299,5.093291105911797,-2.12146903199863,-1.9461706968634962,0.9359127788463806,-5.077453196760168,0.7751807378505351,299.0
300,5.093291097607402,-2.121469000229144,-1.9461706944191766,0.9359127446103382,-5.077453188709805,0.8431254834947441,300.0
301,5.093291090525235,-2.121468973135441,-1.946170692334608,0.9359127154131022,-5.077453181844282,0.9010702291389538,301.0
302,5.093291084665296,-2.1214689507175226,-1.9461706906097869,0.9359126912546711,-5.077453176163599,0.9490149747831507,302.0
303,5.0932910800275835,-2.121468932975386,-1.9461706892447173,0.9359126721350466,-5.077453171667754,0.9869597204273447,303.0
304,5.093291076612099,-2.1214689199090317,-1.9461706882394,0.935912658054229,-5.07745316835675,1.0149044660715398,304.0
305,5.093291074418842,-2.1214689115184595,-1.9461706875938343,0.9359126490122184,-5.077453166230585,1.032849211715736,305.0
306,5.092874676071719,-2.1222886991579584,-1.9445682409476954,0.9351297533878311,-5.077037770433329,1.041898630466384,306.0
307,5.091379802677065,-2.1252317658754185,-1.9388154308721515,0.9323191600265395,-5.0755464961587835,1.0423903009277131,307.0
308,5.090828241742816,-2.1263176693418906,-1.936692823198435,0.9312821378391306,-5.074996263695797,1.034069494951773,308.0
309,5.090828243936909,-2.1263176749894033,-1.9366928258228593,0.9312821368131371,-5.074996266977336,1.0171158235500413,309.0
310,5.090828247425172,-2.1263176839680615,-1.9366928299952815,0.9312821351819689,-5.074996272194468,0.990162152148309,310.0
311,5.090828252207604,-2.126317696277864,-1.9366928357157012,0.9312821329456258,-5.074996279347191,0.9532084807465796,311.0
312,5.090828258284207,-2.1263177119188112,-1.9366928429841184,0.9312821301041079,-5.074996288435508,0.9062548093448496,312.0
313,5.0908282663780735,-2.126317731203107,-1.9366928514332482,0.9312821276311152,-5.074996305774133,0.8493011500090322,313.0
314,5.090828275987,-2.12631775391392,-1.9366928613181789,0.9312821248503902,-5.074996326977351,0.78234749212027,314.0
315,5.090828279073237,-2.1263177868004908,-1.9366928682098146,0.9312821518557404,-5.074996335067039,0.7053938451672034,315.0
316,5.090828278345579,-2.1263178275536867,-1.9366928736296005,0.9312821983668352,-5.074996335584918,0.6184402036192292,316.0
317,5.09082827752053,-2.1263178730855175,-1.936692879589874,0.931282250621392,-5.074996336041817,0.5214865744696573,317.0
318,5.090828268907652,-2.126317921179383,-1.9366928876113443,0.9312823070365488,-5.074996327850783,0.41453295198469997,318.0
319,5.090828252287326,-2.1263179717704226,-1.936692897738937,0.931282367560307,-5.074996310763709,0.29757933761006916,319.0
320,5.0908282323321,-2.1263180255676253,-1.9366929089888718,0.9312824323625242,-5.074996290302674,0.17062573123014885,320.0
321,5.090828196461475,-2.1263180752156834,-1.9366929230364847,0.9312824955861017,-5.074996253985746,0.033672130530260885,321.0
322,5.090828156564472,-2.1263181270723717,-1.9366929382172473,0.9312825621047841,-5.074996213620992,-0.1132814692398395,322.0
323,5.090828099976854,-2.12631816839129,-1.936692955496672,0.9312826200344911,-5.074996156640845,-0.2702350620562476,323.0
324,5.090828036543669,-2.126318205866622,-1.9366929737001577,0.9312826749814109,-5.07499609284093,-0.43623661845815487,324.0
325,5.0908279674150885,-2.1263182288044202,-1.9366929911767476,0.9312827146338376,-5.074996023461024,-0.5970192039757003,325.0
326,5.090827899902873,-2.1263182400620853,-1.9366930067748438,0.9312827407675892,-5.074995955795735,-0.747801789493205,326.0
327,5.090827834504882,-2.12631824154217,-1.9366930206413149,0.9312827554334671,-5.0749958903276,-0.8885843750106406,327.0
328,5.09082777394622,-2.126318234464196,-1.9366930323673412,0.9312827594679928,-5.07499582977402,-1.0193669605280133,328.0
329,5.0908277182075725,-2.126318219669698,-1.9366930420679587,0.9312827538258652,-5.074995774108688,-1.1401495460453022,329.0
330,5.090827667468697,-2.1263182049283698,-1.9366930507303959,0.9312827472504364,-5.074995723447113,-1.2509321315625481,330.0
331,5.090827625035192,-2.126318180179467,-1.9366930563366411,0.9312827277171918,-5.074995681181221,-1.351714717079727,331.0
332,5.090827586812084,-2.1263181578862387,-1.9366930613866105,0.9312827101221016,-5.074995643109097,-1.4424973025968548,332.0
333,5.090827552799379,-2.126318138048684,-1.9366930658803063,0.9312826944651671,-5.074995609230741,-1.523279888113939,333.0
334,5.090827527995646,-2.126318113748261,-1.9366930678602547,0.931282671935916,-5.074995584606507,-1.5940624736309872,334.0
335,5.0908275069350495,-2.126318092550252,-1.9366930694669164,0.931282652168421,-5.074995563703001,-1.6548450591480297,335.0
336,5.090827489339359,-2.1263180748397574,-1.9366930708092462,0.9312826356530886,-5.074995546238557,-1.70562764466505,336.0
337,5.090827475208576,-2.126318060616777,-1.9366930718872464,0.9312826223899203,-5.074995532213174,-1.7464102301820552,337.0
338,5.090827464542698,-2.1263180498813092,-1.9366930727009184,0.9312826123789165,-5.074995521626853,-1.777192815699068,338.0
339,5.090827457341727,-2.126318042633355,-1.9366930732502614,0.9312826056200776,-5.074995514479594,-1.7979754012160925,339.0
340,5.090709817783652,-2.126553310280979,-1.9362328509842965,0.9310575875358947,-5.07487816795206,-1.8091518022336632,340.0
341,5.0893530042549076,-2.129266935857177,-1.930924634765129,0.9284622651699171,-5.073524733948542,-1.81249378447266,341.0
342,5.088397512306858,-2.131177927166451,-1.927186483817255,0.9266345871927333,-5.0725716231927445,-1.8063059611083971,342.0
343,5.088397517531449,-2.131177930381752,-1.9271864849357565,0.9266345844784023,-5.072571631349789,-1.7922102152967563,343.0
344,5.088397526462545,-2.1311779358780973,-1.927186486847761,0.9266345798384331,-5.072571645293717,-1.7681144694851136,344.0
345,5.088397539100142,-2.1311779436554854,-1.9271864895532684,0.9266345732728254,-5.07257166502453,-1.7340187236734823,345.0
346,5.088397555444242,-2.131177953713918,-1.927186493052279,0.9266345647815796,-5.072571690542225,-1.689922977861853,346.0
347,5.088397575047248,-2.131177965655117,-1.927186497762295,0.9266345528956397,-5.072571717919154,-1.6358272453065088,347.0
348,5.088397597961084,-2.131177979525286,-1.9271865036348834,0.9266345377854259,-5.072571747610953,-1.5717315212741179,348.0
349,5.088397626177479,-2.1311779963214508,-1.9271865061506217,0.9266345327384407,-5.072571779978423,-1.497635803449563,349.0
350,5.088397661180759,-2.1311780166983167,-1.9271865016382006,0.9266345484261936,-5.0725718133403825,-1.413540095585629,350.0
351,5.088397700337715,-2.131178039561994,-1.9271864965313075,0.9266345662529456,-5.072571850593086,-1.319444396513969,351.0
352,5.088397744763814,-2.1311780617196607,-1.92718649018375,0.9266345823580827,-5.07257189339623,-1.2153487044602425,352.0
353,5.0883977971002485,-2.1311780756301397,-1.9271864810351809,0.9266345877177737,-5.072571945649042,-1.1012530212516465,353.0
354,5.0883978540259855,-2.1311780907606774,-1.9271864710837234,0.9266345935497803,-5.072572002501293,-0.9771573476884935,354.0
355,5.088397915881085,-2.131178092195726,-1.9271864583056098,0.9266345828623692,-5.072572064402944,-0.8430616797628285,355.0
356,5.088397982418389,-2.131178090709636,-1.9271864441636604,0.9266345679280941,-5.0725721310157805,-0.6989660131851034,356.0
357,5.088398049262792,-2.131178072667535,-1.92718642776597,0.9266345342180389,-5.07257219807146,-0.5448703520410486,357.0
358,5.088398119124486,-2.1311780489790197,-1.927186409988508,0.9266344935243529,-5.072572268193566,-0.38077996254215846,358.0
359,5.088398177768218,-2.131178006220986,-1.9271863920381247,0.9266344335094208,-5.072572327247029,-0.21714324127930618,359.0
360,5.088398229343852,-2.1311779625718494,-1.9271863754511678,0.9266343738951411,-5.072572379233514,-0.0635065200164999,360.0
361,5.088398266738723,-2.1311779108785696,-1.9271863607716013,0.9266343080126428,-5.072572417093753,0.080130201246249,361.0
362,5.088398298288115,-2.1311778608945064,-1.9271863475433961,0.9266342452266285,-5.072572449089001,0.21376692250891988,362.0
363,5.088398315747804,-2.131177807814377,-1.9271863368584234,0.9266341817475101,-5.072572467007806,0.33740364377150756,363.0
364,5.088398331795315,-2.131177759027486,-1.927186327037665,0.9266341234027143,-5.0725724834773,0.45104036503405576,364.0
365,5.088398335655594,-2.1311777116740735,-1.9271863199609336,0.9266340691059923,-5.072572487736675,0.5546770862965488,365.0
366,5.0883983366529435,-2.1311776682288586,-1.9271863140015202,0.9266340197973422,-5.072572489097906,0.648313807558986,366.0
367,5.08839833754378,-2.1311776294234086,-1.9271863086785426,0.9266339757546426,-5.072572490313764,0.7319505288213807,367.0
368,5.0883983320410975,-2.1311775953981567,-1.9271863053282718,0.9266339383890081,-5.07257248509044,0.8055872500837418,368.0
369,5.08839832435518,-2.1311775660590553,-1.927186303055837,0.9266339067554443,-5.072572477642773,0.869223971346078,369.0
370,5.088398317877042,-2.1311775413303593,-1.927186301140495,0.9266338800928404,-5.072572471365448,0.9228606926083965,370.0
371,5.088398312606684,-2.1311775212120683,-1.9271862995822464,0.9266338584011964,-5.072572466258464,0.9664974138707061,371.0
372,5.088398308544107,-2.131177505704181,-1.9271862983810935,0.9266338416805134,-5.072572462321821,1.0001341351330095,372.0
373,5.08839830568931,-2.131177494806698,-1.9271862975370362,0.9266338299307914,-5.072572459555518,1.023770856395328,373.0
374,5.088397999810444,-2.1311781066183864,-1.9271850870966185,0.9266332311420021,-5.072572154511414,1.0374078893027712,374.0
375,5.087387392739061,-2.133231323433356,-1.9231658272233882,0.9246666720689286,-5.07156415080367,1.0432607342886644,375.0
376,5.086085580307119,-2.1358761800500075,-1.9179884171689556,0.9221334518506098,-5.070265692126255,1.039485072103253,376.0
377,5.086000705000786,-2.1360486255246047,-1.9176508574086635,0.9219682879791715,-5.070181036242212,1.0279677263460238,377.0
378,5.086000707724002,-2.1360486324967325,-1.9176508606788008,0.9219682867083561,-5.0701810403991345,1.0067469560470372,378.0
379,5.086000711730497,-2.136048642754381,-1.9176508654899465,0.9219682848386863,-5.0701810465149535,0.9755261857480713,379.0
380,5.086000717020271,-2.13604865629755,-1.9176508718421,0.9219682823701617,-5.070181054589666,0.9343054154491013,380.0
381,5.086000723833926,-2.1360486732346122,-1.9176508796078906,0.9219682796456954,-5.07018106674669,0.883084647986747,381.0
382,5.086000732535334,-2.136048693729465,-1.9176508885946908,0.9219682771838865,-5.07018108619735,0.8218638865629468,382.0
383,5.086000741594408,-2.1360487184726864,-1.9176508984487262,0.9219682783382314,-5.070181106619807,0.7506431267029237,383.0
384,5.0860007409222305,-2.136048756007327,-1.9176509034722535,0.9219683212228402,-5.070181107096005,0.6694223815315755,384.0
385,5.086000740161881,-2.1360487981987824,-1.9176509090819334,0.9219683695401455,-5.070181107582712,0.578201641411846,385.0
386,5.086000739309267,-2.1360488450739306,-1.9176509152532752,0.9219684234057434,-5.070181108043504,0.47698090914727803,386.0
387,5.086000724335869,-2.1360488926802232,-1.917650924693713,0.9219684803193375,-5.070181092711719,0.36576018808814637,387.0
388,5.086000707314805,-2.136048944371,-1.9176509351170103,0.9219685422315346,-5.070181075198971,0.24453947433863246,388.0
389,5.086000680224499,-2.1360489952655435,-1.9176509475612025,0.9219686052232532,-5.0701810476320555,0.11331876717081836,389.0
390,5.086000643677764,-2.136049045721866,-1.9176509619437523,0.921968669580784,-5.070181010624509,-0.027901936909633114,390.0
391,5.0860005967434585,-2.1360490919135624,-1.917650977942505,0.921968731190853,-5.070180963257455,-0.17912263735584022,391.0
392,5.0860005393099215,-2.1360491337285357,-1.917650995565939,0.9219687899492657,-5.070180905419928,-0.3403433313499412,392.0
393,5.08600047335378,-2.1360491618092965,-1.9176510131560296,0.921968834878305,-5.0701808391676675,-0.5027542084798186,393.0
394,5.086000408588466,-2.1360491832171657,-1.9176510296095164,0.921968872023328,-5.070180774163472,-0.6552027777059465,394.0
395,5.086000343718826,-2.136049186623058,-1.9176510436937728,0.9219688888312487,-5.070180709206437,-0.7976513469320308,395.0
396,5.0860002829238375,-2.136049187962387,-1.9176510566472658,0.921968902488317,-5.070180648345142,-0.9300999161581068,396.0
397,5.086000227010073,-2.136049176524735,-1.9176510668778772,0.9219689007213367,-5.070180592477075,-1.052548485384159,397.0
398,5.086000175733934,-2.136049162915992,-1.9176510758455416,0.9219688955728604,-5.070180541269112,-1.1649970546101787,398.0
399,5.08600013005499,-2.1360491473676912,-1.91765108337937,0.9219688871130727,-5.070180495679743,-1.2674456238362093,399.0
400,5.086000091592487,-2.13604912496265,-1.9176510884859597,0.9219688694578647,-5.070180457371083,-1.3598941930622181,400.0
401,5.086000057290404,-2.1360491049811245,-1.9176510930401736,0.9219688537123882,-5.070180423206203,-1.4423427622882163,401.0
402,5.086000027148741,-2.1360490874231144,-1.9176510970420155,0.9219688398766445,-5.070180393185103,-1.514791331514212,402.0
403,5.086000004861886,-2.1360490671880954,-1.917651099037655,0.9219688214447241,-5.070180371048459,-1.5772399007402118,403.0
404,5.085999986904411,-2.1360490491433257,-1.9176511004144356,0.9219688046249992,-5.070180353226672,-1.6296884699662297,404.0
405,5.085999972370761,-2.1360490345390253,-1.9176511015287152,0.9219687910121729,-5.07018033880284,-1.6721370391922599,405.0
406,5.085999961260935,-2.136049023375195,-1.9176511023804914,0.921968780606244,-5.07018032777696,-1.7045856084182862,406.0
407,5.0859999535749365,-2.136049015651835,-1.9176511029697672,0.9219687734072144,-5.070180320149038,-1.72703417764431,407.0
408,5.085999949312764,-2.136049011368943,-1.9176511032965424,0.9219687694150838,-5.070180315919068,-1.7394827468703378,408.0
409,5.086392225323152,-2.1352780737554506,-1.9192280402521436,0.9227749259050091,-5.070571287026811,-1.7427302544917511,409.0
410,5.086629751390161,-2.134811272904591,-1.9201828768467717,0.9232630568237112,-5.070808022954575,-1.7371666828460914,410.0
411,5.0867563808121545,-2.134562425392234,-1.9206919002871579,0.9235232835248806,-5.070934231121422,-1.7219833873114712,411.0
412,5.0869664107197075,-2.134149682293581,-1.9215361760047756,0.9239549003571157,-5.071143562327373,-1.6968000917768638,412.0
413,5.087259841112815,-2.1335730436086306,-1.9227157039996252,0.924557907320417,-5.071436016572431,-1.6616167962422403,413.0
414,5.087639445634689,-2.1328337627965372,-1.9242279271935294,0.9253310074733204,-5.071814379355794,-1.6164334372130016,414.0
415,5.08810509883409,-2.131931783524999,-1.9260729605037357,0.9262742590990454,-5.072278524691118,-1.5612500354835945,415.0
416,5.088655134870503,-2.1308663530628356,-1.9282523395143483,0.927388441040076,-5.072826779617509,-1.4960666337541917,416.0
417,5.089293280194898,-2.1296390917409975,-1.9307627594653831,0.9286718768640573,-5.073462883828324,-1.420883135985617,417.0
418,5.0900177748662,-2.1282492346016864,-1.9336057805316726,0.9301253580115393,-5.074185071129183,-1.335699602405369,418.0
419,5.0908319194513085,-2.1266981753992606,-1.9367785609037043,0.9317474446123981,-5.074996655086723,-1.2405159612770515,419.0
420,5.091733978663256,-2.1249851720279125,-1.9402826138826883,0.9335389037196027,-5.075895893751721,-1.1353322665209347,420.0
421,5.0927292739798595,-2.123112421534104,-1.9441134604033037,0.9354974659505195,-5.076888128644267,-1.0201484021869485,421.0
422,5.093816343659444,-2.1210792651732957,-1.9482724442942718,0.937623813020415,-5.077971892134794,-0.8949644172924096,422.0
423,5.094996934230311,-2.1188863845529777,-1.9527581765972024,0.9399172418340862,-5.079148937041736,-0.7597802872430628,423.0
424,5.096273201251225,-2.1165345921884313,-1.957569002061903,0.9423769149779795,-5.080421426489084,-0.614595982011867,424.0
425,5.09764735093624,-2.114024682151103,-1.9627033036353667,0.9450020150110142,-5.081791574174385,-0.45941147571198365,425.0
426,5.099095500129834,-2.11140428290581,-1.9680636584455131,0.9477427390202103,-5.083235577872009,-0.2971330146409992,426.0
427,5.10048432815052,-2.1089151209627652,-1.9731555862219166,0.9503462632547665,-5.08462049958669,-0.14273003052774538,427.0
428,5.10179304809827,-2.1065907359318228,-1.977910472251013,0.95277749822832,-5.085925599754743,0.0016731402052682226,428.0
429,5.103019302400738,-2.1044302111376014,-1.9823301844295425,0.9550373894203532,-5.087148512333197,0.1360764576093671,429.0
430,5.104160924266645,-2.1024327381864203,-1.9864163694734895,0.9571267697839745,-5.088287062983383,0.26047988916287745,430.0
431,5.1052156930050465,-2.1005975264926215,-1.9901706372158308,0.9590464529549267,-5.089339023545085,0.37488340541743254,431.0
432,5.106185977454452,-2.0989253352413444,-1.9935914431565358,0.9607956598525897,-5.090306770233862,0.4792870452449202,432.0
433,5.1070659495189314,-2.0974141753724425,-1.9966828360948292,0.9623764352408719,-5.0911844559519075,0.5736907232591149,433.0
434,5.10785686078477,-2.096064459588976,-1.999443976204439,0.9637883552565112,-5.091973336264861,0.6580944653716755,434.0
435,5.108556004029076,-2.09487527988406,-2.0018767114891456,0.9650323528924976,-5.092670695235448,0.7324982338680606,435.0
436,5.109164523570804,-2.0938470047700712,-2.003980292201721,0.9661080499227854,-5.09327768075843,0.796902051487887,436.0
437,5.109678558101517,-2.092978390240189,-2.00575724930869,0.9670167231538573,-5.093790419457943,0.8513058691077182,437.0
438,5.110099689800502,-2.092269934042253,-2.007206570338951,0.9677578620623327,-5.094210498372865,0.8957097073561319,438.0
439,5.110427468939099,-2.0917214945491325,-2.0083285433782936,0.9683316119129266,-5.0945374663928105,0.9301135679790871,439.0
440,5.110659974136729,-2.091332467250803,-2.009124398063758,0.9687385927323117,-5.094769396235637,0.9545174286020419,440.0
441,5.110797205393395,-2.091102852147266,-2.009594134395343,0.9689788045204875,-5.0949062879013445,0.9689212892249895,441.0
442,5.111132299689375,-2.0905435970281006,-2.0107382676746397,0.9695639049205297,-5.095240555484495,0.973772395958051,442.0
443,5.111511176349448,-2.0899117164346723,-2.0120309900265485,0.970224998302408,-5.095618498199762,0.9697819397914866,443.0
444,5.1115114895012015,-2.0899118200164954,-2.012030793156789,0.9702249057094706,-5.095618811681712,0.9564535286030977,444.0
445,5.111512037603504,-2.089912001313374,-2.0120304485801817,0.9702247436461844,-5.095619360361949,0.9331251174147088,445.0
446,5.111512820662189,-2.089912260327623,-2.0120299562938913,0.970224512118885,-5.095620144290606,0.8997967071331469,446.0
447,5.111513838899534,-2.0899125971474,-2.01202931618986,0.970224211368783,-5.09562116537681,0.8564683260812875,447.0
448,5.111515092141585,-2.089913011703702,-2.0120285283526305,0.9702238412068784,-5.095622422125224,0.8031399450294547,448.0
449,5.111516150934089,-2.089913371076268,-2.012027863801854,0.9702235386731444,-5.09562348393549,0.7398115691574615,449.0
450,5.1115161501691855,-2.089913407505815,-2.0120278684891204,0.9702235798257591,-5.095623483390982,0.6664832069039199,450.0
451,5.111516149298286,-2.0899134489155666,-2.0120278738050503,0.9702236266424675,-5.095623482758094,0.5831548471139392,451.0
452,5.111516148319868,-2.089913495316569,-2.01202787974009,0.9702236791703421,-5.095623482024033,0.48982649148057666,452.0
453,5.1115161353010405,-2.089913543464424,-2.01202788841936,0.9702237358412528,-5.0956234687269895,0.38649814542115235,453.0
454,5.111516118380471,-2.0899135955579426,-2.0120278984055116,0.970223797666792,-5.095623451376968,0.27316980538707947,454.0
455,5.111516095305735,-2.08991364950786,-2.012027909887398,0.9702238627701064,-5.095623427853912,0.14984147242163945,455.0
456,5.111516058620417,-2.0899137009307855,-2.01202792384738,0.9702239276703919,-5.0956233907397825,0.01651314714012403,456.0
457,5.111516016274133,-2.089913753256103,-2.0120279390806046,0.9702239946867317,-5.095623347953388,-0.12681517498109923,457.0
458,5.111515958206191,-2.0899137962677488,-2.012027956369111,0.9702240543051818,-5.095623289505708,-0.28014349483089995,458.0
459,5.111515892140362,-2.089913834485789,-2.012027974696286,0.9702241100975183,-5.09562322309084,-0.44324940407573,459.0
460,5.111515819727911,-2.0899138589587225,-2.0120279926024374,0.9702241516883021,-5.0956231504306775,-0.6035950737398108,460.0
461,5.1115157487816525,-2.0899138701210607,-2.012028008540793,0.970224178043786,-5.095623079340974,-0.7539407434038756,461.0
462,5.111515680306766,-2.0899138718567554,-2.012028022791852,0.9702241933304224,-5.095623010797633,-0.8942864130679058,462.0
463,5.1115156169339535,-2.0899138637062693,-2.0120280347589037,0.9702241965196933,-5.095622947437031,-1.0246320827319058,463.0
464,5.111515558605525,-2.0899138481944974,-2.0120280447700436,0.9702241904586548,-5.095622889181875,-1.1449777523958773,464.0
465,5.111515505727288,-2.0899138321138855,-2.01202805359293,0.9702241826971612,-5.0956228363856955,-1.255323422059832,465.0
466,5.1115154613563485,-2.089913806052908,-2.0120280594221347,0.9702241620692746,-5.0956227921809445,-1.3556690917237726,466.0
467,5.111515421407216,-2.089913782589053,-2.0120280646704214,0.9702241434970684,-5.0956227523814395,-1.4460147613877017,467.0
468,5.111515385879891,-2.0899137617223182,-2.012028069337795,0.9702241269805442,-5.095622716987181,-1.5263604310516228,468.0
469,5.1115153602552486,-2.0899137357700064,-2.0120280713386336,0.9702241028233911,-5.095622691542944,-1.596706100715532,469.0
470,5.111515338297589,-2.0899137134728765,-2.012028073045793,0.9702240820572983,-5.09562266974033,-1.6570517703794552,470.0
471,5.111515319978576,-2.089913694870649,-2.0120280744700523,0.9702240647323938,-5.095622651550668,-1.7073974400433996,471.0
472,5.1115153052982105,-2.089913679963323,-2.012028075611415,0.9702240508486792,-5.09562263697396,-1.74774310970736,472.0
473,5.111515294256492,-2.0899136687508983,-2.012028076469882,0.9702240404061555,-5.095622626010208,-1.7780887793713105,473.0
474,5.11151528685342,-2.089913661233375,-2.012028077045452,0.9702240334048226,-5.0956226186594105,-1.7984344490352588,474.0
475,5.111339061885692,-2.0902231506231184,-2.0114243983843427,0.9699297109519663,-5.095446724253832,-1.8092806731484807,475.0
476,5.109778408676937,-2.09296409126263,-2.0060780845493738,0.9673231584157681,-5.0938889983866975,-1.8121023716115936,476.0
477,5.108802208642133,-2.0946785776194132,-2.002733915513294,0.9656927346447421,-5.092914630744786,-1.805510721066526,477.0
478,5.108802214357105,-2.0946785811474458,-2.0027339166961466,0.9656927315877607,-5.092914639463633,-1.7908054467935675,478.0
479,5.108802223958421,-2.0946785870746396,-2.002733918683372,0.965692726451946,-5.092914654111542,-1.7661001725206071,479.0
480,5.1088022374460795,-2.0946785954009948,-2.002733921474971,0.965692719237298,-5.092914674688513,-1.731394898247652,480.0
481,5.108802254820081,-2.0946786061265112,-2.0027339250709426,0.9656927099438167,-5.0929147011945455,-1.6866896239746874,481.0
482,5.108802275537395,-2.094678618808309,-2.0027339299244398,0.9656926969656299,-5.0929147290638195,-1.631984365019335,482.0
483,5.108802299748884,-2.0946786335694263,-2.0027339359095726,0.9656926807488636,-5.092914759564767,-1.5672791136576212,483.0
484,5.108802329846524,-2.094678651572934,-2.0027339377398277,0.9656926773710897,-5.09291479290723,-1.4925738696130493,484.0
485,5.1088023668554605,-2.0946786732783087,-2.002733932986675,0.9656926941684122,-5.092914828196115,-1.4078686347399427,485.0
486,5.108802408224129,-2.0946786976205845,-2.0027339276075415,0.9656927132659118,-5.092914867571631,-1.313163409280019,486.0
487,5.108802455424269,-2.0946787203405917,-2.0027339207875015,0.9656927295232318,-5.0929149132146785,-1.2084581907127152,487.0
488,5.108802510671229,-2.094678735048612,-2.0027339112685207,0.9656927353305188,-5.09291496837939,-1.0937529806865531,488.0
489,5.1088025707370255,-2.0946787510396736,-2.0027339009186926,0.9656927416462767,-5.092915028373675,-0.9690477800334801,489.0
490,5.108802636007731,-2.0946787512952367,-2.002733887543852,0.9656927292021683,-5.092915093699014,-0.8343425851128338,490.0
491,5.108802706170309,-2.0946787495347667,-2.0027338729137942,0.9656927135298168,-5.092915163936055,-0.6896373910404914,491.0
492,5.108802776309947,-2.0946787288544257,-2.00273385591101,0.9656926766046787,-5.092915234294677,-0.5349322027984765,492.0
493,5.108802849177695,-2.0946787021457673,-2.0027338375904513,0.9656926323739872,-5.09291530743017,-0.37029671346555637,493.0
494,5.108802910536417,-2.0946786567656894,-2.0027338192872746,0.9656925694113193,-5.092915369193127,-0.20726117554448048,494.0
495,5.108802963548386,-2.0946786095197805,-2.002733802463775,0.9656925059813529,-5.0929154226171205,-0.05422563762346478,495.0
496,5.108803002658256,-2.0946785547726186,-2.00273378755273,0.9656924368366568,-5.092915462186296,0.08880990029754181,496.0
497,5.10880303465604,-2.094678501283924,-2.002733774260389,0.9656923704940112,-5.092915494627781,0.22184543821852382,497.0
498,5.108803052908595,-2.0946784451611182,-2.002733763459863,0.9656923038745205,-5.092915513333441,0.344880976139463,498.0
499,5.1088030696776325,-2.094678393599828,-2.002733753537168,0.9656922426696812,-5.092915530518755,0.4579165140603892,499.0
500,5.108803072829218,-2.0946783433744467,-2.0027337465788992,0.965692185623596,-5.092915534065121,0.5609520519812882,500.0
501,5.108803073876567,-2.094678297545571,-2.002733740605207,0.9656921339279179,-5.092915535471206,0.6539875899021854,501.0
502,5.108803074811341,-2.094678256642651,-2.002733735273598,0.96569208778879,-5.0929155367261565,0.737023127823069,502.0
503,5.108803068455209,-2.0946782208458155,-2.0027337320808978,0.9656920488096323,-5.092915530644402,0.8100586657439612,503.0
504,5.108803060465524,-2.0946781900130995,-2.0027337298474377,0.9656920157267659,-5.092915522889003,0.8730942036648404,504.0
505,5.108803053743329,-2.094678164071708,-2.002733727968293,0.9656919878921868,-5.092915516363926,0.9261297415857452,505.0
506,5.108803048288622,-2.0946781430216395,-2.0027337264434646,0.965691965305895,-5.092915511069171,0.9691652795066693,506.0
507,5.108803044101405,-2.0946781268628936,-2.002733725272955,0.9656919479678918,-5.0929155070047365,1.0022008174275912,507.0
508,5.108803041181676,-2.0946781155954697,-2.0027337244567636,0.965691935878177,-5.092915504170624,1.0252363553485107,508.0
509,5.10879476356855,-2.0946928784243615,-2.002704893546113,0.9656778618002457,-5.092907242704894,1.0382987335494314,509.0
510,5.107558507776511,-2.0968990884027106,-1.998398226877456,0.9635765099222514,-5.091673391763873,1.0436137601078386,510.0
511,5.106175976980657,-2.0993663461606418,-1.9935819873882177,0.9612265245735344,-5.09029355059815,1.039195975114236,511.0
512,5.106128002805174,-2.0994519676669023,-1.9934148589396545,0.9611449759847627,-5.090245670447219,1.0270514667514508,512.0
513,5.106128005737016,-2.0994519753189005,-1.993414862376397,0.9611449745659121,-5.09024567464565,1.0050595027376314,513.0
514,5.106128010002001,-2.099451986450351,-1.993414867375866,0.9611449725018937,-5.0902456807531555,0.9730675387238151,514.0
515,5.106128015600128,-2.099452001061253,-1.9934148739380613,0.9611449697927076,-5.090245688769737,0.9310755747099948,515.0
516,5.106128022859089,-2.099452019280015,-1.993414881911834,0.9611449668243014,-5.090245701466365,0.8790836172123125,516.0
517,5.106128032058494,-2.099452041216203,-1.9934148911682121,0.9611449639259952,-5.090245721207452,0.8170916696521405,517.0
518,5.106128040714234,-2.0994520684529556,-1.993414900795839,0.9611449683470839,-5.090245740102897,0.745099724938292,518.0
519,5.1061280400045135,-2.099452108656397,-1.9934149059135269,0.9611450139668093,-5.090245740618588,0.6631077939045239,519.0
520,5.106128039201693,-2.0994521538087545,-1.9934149116155466,0.9611450653451801,-5.090245741141635,0.5711158688064397,520.0
521,5.106128037848073,-2.0994522037979197,-1.9934149179740421,0.9611451224696245,-5.090245741140632,0.4691239508544726,521.0
522,5.106128021334202,-2.099452254520444,-1.9934149277466218,0.9611451827700481,-5.090245724187048,0.35713204423115824,522.0
523,5.106128003344012,-2.0994523097705287,-1.9934149383933992,0.9611452484490682,-5.090245705704763,0.2351401451070756,523.0
524,5.106127973483199,-2.099452363438264,-1.9934149512962351,0.9611453146333185,-5.090245675376673,0.10314825222212586,524.0
525,5.106127934899922,-2.0994524173743185,-1.993414966036045,0.9611453828006976,-5.090245636334,-0.03884363816555905,525.0
526,5.106127884184426,-2.099452465567868,-1.9934149825485408,0.9611454468873695,-5.090245585196203,-0.1908355244690415,526.0
527,5.106127823597167,-2.0994525103097192,-1.993415000657292,0.9611455090259748,-5.090245524206965,-0.3528274043590115,527.0
528,5.106127752101763,-2.0994525391242895,-1.993415019003224,0.9611455553963506,-5.0902454524259495,-0.5182246470526432,528.0
529,5.106127682493862,-2.0994525619615434,-1.9934150362072278,0.9611455946792263,-5.090245382581032,-0.6739750530801065,529.0
530,5.1061276122629655,-2.099452563705185,-1.993415050880528,0.9611456103753375,-5.090245312278685,-0.8197254591075406,530.0
531,5.106127546850637,-2.0994525653292,-1.993415064547075,0.9611456249945275,-5.090245246799809,-0.9554758651349342,531.0
532,5.106127486656678,-2.099452549348815,-1.993415074920591,0.9611456188062284,-5.090245186682204,-1.0812262711623202,532.0
533,5.106127431249832,-2.0994525346246458,-1.9934150844672631,0.9611456130935727,-5.090245131345754,-1.1969766771896726,533.0
534,5.106127383211954,-2.099452513242596,-1.993415091658157,0.9611455984563725,-5.09024508343675,-1.302727083217023,534.0
535,5.106127341396467,-2.0994524887237773,-1.9934150971730848,0.9611455790765118,-5.0902450417799505,-1.398477489244343,535.0
536,5.1061273039481145,-2.0994524667656624,-1.9934151021120377,0.9611455617206464,-5.090245004473711,-1.484227895271666,536.0
537,5.10612727343376,-2.0994524437799496,-1.9934151054944462,0.9611455418535872,-5.090244974115258,-1.5599783012989812,537.0
538,5.106127249804934,-2.0994524198343965,-1.9934151073388264,0.9611455195609724,-5.090244950655551,-1.6257287073263056,538.0
539,5.106127229769824,-2.0994523995307306,-1.9934151089026937,0.9611455006588481,-5.090244930763839,-1.6814791133536402,539.0
540,5.106127213328428,-2.099452382868953,-1.9934151101860456,0.9611454851472131,-5.0902449144401185,-1.727229519380988,540.0
541,5.106127200480748,-2.099452369849061,-1.9934151111888858,0.9611454730260693,-5.090244901684395,-1.7629799254083403,541.0
542,5.1061271912267845,-2.099452360471056,-1.9934151119112145,0.9611454642954167,-5.0902448924966635,-1.78873033143569,542.0
543,5.106127185566536,-2.099452354734937,-1.9934151123530317,0.9611454589552553,-5.090244886876928,-1.804480737463037,543.0
544,5.105345698359531,-2.100869422171867,-1.990646778542608,0.9597936509685641,-5.089464975664812,-1.8118785219161408,544.0
545,5.1037734204793415,-2.1037204436873354,-1.9850771328084256,0.9570739359203568,-5.087895868983505,-1.810131160136957,545.0
546,5.103489297756437,-2.1042356543012914,-1.984070642494729,0.9565824540892591,-5.087612321308956,-1.8001104674472617,546.0
547,5.1034893051525225,-2.1042356588641757,-1.9840706440342004,0.9565824501584724,-5.087612332674059,-1.7808552293230864,547.0
548,5.1034893163896875,-2.104235665796745,-1.9840706463731799,0.9565824441862742,-5.087612349941503,-1.751599991198916,548.0
549,5.103489331467929,-2.1042356750989994,-1.9840706495116673,0.9565824361726643,-5.087612373111292,-1.7123447530747296,549.0
550,5.103489350294994,-2.1042356866937633,-1.984070653529103,0.9565824258362858,-5.087612401399286,-1.6630895178346918,550.0
551,5.103489372218829,-2.1042357000355696,-1.9840706589869657,0.9565824111885324,-5.08761242926328,-1.6038343029662343,551.0
552,5.103489397842564,-2.1042357156289593,-1.9840706653659053,0.9565823940688016,-5.087612461829645,-1.5345790880977812,552.0
553,5.103489431568859,-2.104235735439676,-1.9840706621037643,0.9565824061016261,-5.087612494895364,-1.4553238879987833,553.0
554,5.103489470085923,-2.104235758008677,-1.9840706571235436,0.9565824235947769,-5.087612531599208,-1.3660686920444496,554.0
555,5.10348951290775,-2.1042357831882477,-1.9840706515131528,0.956582443397842,-5.08761257232455,-1.2668135063948616,555.0
556,5.103489563748539,-2.104235800268989,-1.9840706431815467,0.9565824526547204,-5.087612622564056,-1.1575583296486542,556.0
557,5.1034896204806985,-2.104235815362825,-1.9840706333670908,0.95658245857313,-5.087612679218491,-1.0383031605645887,557.0
558,5.10348968211847,-2.104235825279843,-1.9840706218928146,0.9565824576892182,-5.0876127408325225,-0.9090479986797116,558.0
559,5.103489748806339,-2.1042358236420915,-1.9840706079314547,0.9565824427758931,-5.087612807592359,-0.7697928410278148,559.0
560,5.1034898185194,-2.1042358150974163,-1.9840705924728095,0.9565824195031449,-5.08761287743373,-0.6205376857328924,560.0
561,5.103489889109175,-2.1042357913756513,-1.9840705749139715,0.956582378993762,-5.087612948270469,-0.4612825371432131,561.0
562,5.1034899564425915,-2.104235755398185,-1.984070556476879,0.9565823253424895,-5.087613015945432,-0.2949281032076783,562.0
563,5.103490015351411,-2.1042357119610324,-1.984070538833975,0.9565822649549852,-5.08761307524803,-0.13644460838753947,563.0
564,5.103490059272902,-2.104235659854511,-1.9840705231858635,0.9565821977574285,-5.087613119619662,0.012038886432559865,564.0
565,5.103490096669466,-2.104235607646052,-1.98407050887061,0.9565821317242295,-5.087613157461751,0.15052238125262044,565.0
566,5.103490119971774,-2.10423555253211,-1.9840704970948553,0.9565820651868095,-5.087613181220937,0.2790058760726631,566.0
567,5.103490137330361,-2.1042354992879844,-1.984070486781437,0.9565820019168545,-5.087613199016618,0.3974893708926919,567.0
568,5.1034901486746485,-2.104235449329093,-1.9840704781239071,0.9565819435196911,-5.0876132107669205,0.5059728657126968,568.0
569,5.10349014976783,-2.1042354015298668,-1.984070471853769,0.9565818895602178,-5.087613212240452,0.6044563605326863,569.0
570,5.10349015075001,-2.1042353585841704,-1.984070466220294,0.9565818410797794,-5.087613213564362,0.6929398553526792,570.0
571,5.103490149788228,-2.1042353205370232,-1.9840704616072276,0.9565817984882892,-5.087613212903808,0.7714233501726625,571.0
572,5.103490141213728,-2.104235287527663,-1.9840704592013547,0.9565817630534705,-5.0876132045842155,0.8399068449926449,572.0
573,5.103490133891282,-2.1042352593383487,-1.9840704571467886,0.9565817327928646,-5.087613197479456,0.898390339812639,573.0
574,5.103490127820889,-2.1042352359690826,-1.984070455443526,0.9565817077064703,-5.0876131915895275,0.9468738346326617,574.0
575,5.103490123002549,-2.104235217419862,-1.9840704540915708,0.9565816877942892,-5.08761318691443,0.9853573294526794,575.0
576,5.1034901194362625,-2.1042352036906875,-1.9840704530909234,0.9565816730563212,-5.087613183454165,1.0138408242726875,576.0
577,5.10349011712203,-2.104235194781558,-1.984070452441584,0.9565816634925667,-5.087613181208732,1.032324319092693,577.0
578,5.103117161402752,-2.1049223268574013,-1.9827270799240226,0.9559251760044618,-5.0872410049546835,1.0417664043219992,578.0
579,5.1015430039953324,-2.107822575557144,-1.9770570078762568,0.9531543094927228,-5.085670137401631,1.0427543593750337,579.0
580,5.1008887215226135,-2.1090280393585847,-1.97470029749829,0.9520026250475622,-5.0850172227876484,1.0347897341474082,580.0
581,5.100888723702912,-2.109028045018877,-1.974700300062669,0.9520026239943769,-5.085017225973701,1.0182902581753628,581.0
582,5.100888727204647,-2.1090280541097584,-1.9747003041812667,0.952002622302877,-5.085017231090758,0.9917907822033274,582.0
583,5.1008887320278165,-2.109028066631229,-1.9747003098540827,0.952002619973063,-5.085017238138816,0.9552913062312878,583.0
584,5.100888738172422,-2.1090280825832886,-1.9747003170811173,0.9520026170049345,-5.085017247117877,0.908791830259237,584.0
585,5.100888746353399,-2.1090281022582347,-1.974700325519076,0.9520026142922857,-5.085017264139391,0.8522923685622719,585.0
586,5.100888756122178,-2.1090281254726726,-1.974700335383352,0.9520026112743254,-5.085017285368862,0.785792909441063,586.0
587,5.100888759797332,-2.1090281587024844,-1.9747003425245695,0.952002636710662,-5.085017294561576,0.7092934605890766,587.0
588,5.100888759057185,-2.1090282004997434,-1.974700347876231,0.9520026841859117,-5.0850172950972405,0.6227940179446048,588.0
589,5.1008887582182325,-2.109028247219369,-1.974700353766794,0.9520027375361975,-5.085017295581089,0.5262945870110128,589.0
590,5.10088875009617,-2.1090282967926703,-1.9747003616039027,0.9520027952888488,-5.08501728798698,0.4197951627883574,590.0
591,5.100888733129702,-2.1090283487780455,-1.9747003716865792,0.9520028571564991,-5.085017270558432,0.30329574675755766,591.0
592,5.100888713484527,-2.1090284045077055,-1.9747003827994178,0.9520029237578199,-5.085017250406315,0.17679633884222332,592.0
593,5.1008886768503805,-2.109028455583172,-1.974700396852617,0.9520029884044565,-5.08501721332956,0.040296936835304914,593.0
594,5.100888636790481,-2.1090285096498276,-1.9747004119936273,0.9520030570881101,-5.085017172800533,-0.10620246459495507,594.0
595,5.100888578976746,-2.109028552215949,-1.9747004293449026,0.9520031163252657,-5.08501711459762,-0.26270185899417353,595.0
596,5.100888514591735,-2.109028591841473,-1.9747004476814376,0.952003173545755,-5.085017049841442,-0.42850994560279865,596.0
597,5.100888443560582,-2.109028615666302,-1.9747004653871199,0.9520032142989836,-5.085016978559906,-0.5897508069397044,597.0
598,5.100888374422215,-2.1090286283524335,-1.9747004812883486,0.9520032421512841,-5.085016909261888,-0.7409916682765871,598.0
599,5.100888307198767,-2.109028629984979,-1.9747004953913485,0.9520032571940458,-5.085016841968858,-0.8822325296134259,599.0
600,5.100888244916229,-2.1090286235734133,-1.9747005074524275,0.9520032622179241,-5.085016779685267,-1.013473390950234,600.0
601,5.10088818759221,-2.1090286083481713,-1.9747005173703127,0.9520032563538368,-5.085016722434899,-1.134714252287039,601.0
602,5.100888135190928,-2.109028593782453,-1.9747005263542792,0.9520032502644917,-5.085016670106129,-1.2459551136238207,602.0
603,5.1008880915188035,-2.1090285682148946,-1.9747005321380078,0.9520032300851269,-5.085016626601902,-1.3471959749605804,603.0
604,5.100888052160364,-2.1090285451727566,-1.9747005373504483,0.9520032118989633,-5.085016587394777,-1.4384368362973314,604.0
605,5.10088801711561,-2.1090285246560385,-1.9747005419916022,0.9520031957060022,-5.085016552484752,-1.5196776976340785,605.0
606,5.100887991278041,-2.109028499842121,-1.9747005441843335,0.9520031728706473,-5.0850165268240435,-1.5909185589708315,606.0
607,5.100887969538823,-2.109028477853849,-1.9747005458883844,0.952003152408502,-5.085016505242516,-1.6521594203075798,607.0
608,5.100887951349392,-2.1090284594560353,-1.9747005473141785,0.9520031352876125,-5.085016487185029,-1.703400281644363,608.0
609,5.1008879367097535,-2.10902844464868,-1.9747005484617184,0.9520031215079796,-5.085016472651582,-1.7446411429811488,609.0
610,5.100887925619903,-2.109028433431782,-1.974700549331005,0.9520031110696039,-5.085016461642176,-1.7758820043179175,610.0
611,5.100887918079843,-2.109028425805341,-1.9747005499220385,0.9520031039724857,-5.08501645415681,-1.797122865654698,611.0
612,5.10079747804713,-2.1091977118705585,-1.9743693386010228,0.9518411215164383,-5.084926209948486,-1.8086536917315177,612.0
613,5.0993981197971125,-2.111817215791096,-1.9692443485137372,0.9493347507304555,-5.083529881346292,-1.812399995735625,613.0
614,5.098322234867049,-2.1138312080595303,-1.9653040310565864,0.9474077424178011,-5.082456326948434,-1.8065207445530607,614.0
615,5.0983221753060155,-2.1138313325182536,-1.965303794931458,0.9474076236576802,-5.082456270381462,-1.7927995792580047,615.0
616,5.098322184312416,-2.1138313380713916,-1.965303796816587,0.947407618903229,-5.082456284321522,-1.7690786501581592,616.0
617,5.098322197115634,-2.113831345965558,-1.9653037994964278,0.9474076121444506,-5.082456304138276,-1.7353577210583122,617.0
618,5.098322213715666,-2.113831356200754,-1.9653038029709793,0.9474076033813446,-5.082456329831722,-1.6916367919584554,618.0
619,5.098322233674238,-2.113831368400836,-1.9653038076297875,0.9474075912356172,-5.082456357636461,-1.6379158761264048,619.0
620,5.098322256989075,-2.113831382563853,-1.965303813474873,0.9474075757001172,-5.082456387532963,-1.5741949702662614,620.0
621,5.098322285559782,-2.1138313996602474,-1.965303816357014,0.9474075692401377,-5.082456420463101,-1.5004740700630494,621.0
622,5.098322321253015,-2.1138314205207536,-1.9653038117407047,0.9474075853135773,-5.082456454488716,-1.4167531805571703,622.0
623,5.098322361201367,-2.113831443935025,-1.9653038065177197,0.9474076035725358,-5.082456492507273,-1.3230322992870658,623.0
624,5.098322406368199,-2.1138314671316705,-1.9653038001421215,0.9474076206900395,-5.082456535945612,-1.219311425047262,624.0
625,5.098322459807034,-2.1138314813424994,-1.965303790858206,0.9474076262206774,-5.082456589301446,-1.1055905601006242,625.0
626,5.098322517947238,-2.11383149680377,-1.965303780756915,0.9474076322400109,-5.082456647368472,-0.9818697043927648,626.0
627,5.098322581122036,-2.113831498853741,-1.9653037679237086,0.9474076221218879,-5.082456710583823,-0.848148854401937,627.0
628,5.098322649108884,-2.1138314972215944,-1.9653037536298719,0.94740760689765,-5.0824567786452715,-0.7044280059274289,628.0
629,5.098322717622553,-2.113831479332161,-1.965303737157437,0.9474075732761053,-5.0824568473623835,-0.5507071626528265,629.0
630,5.098322789305667,-2.1138314553342274,-1.9653037192507292,0.9474075321568782,-5.082456919300022,-0.38698632555899015,630.0
631,5.098322849700915,-2.1138314113702528,-1.965303701141209,0.9474074707934875,-5.082456980101307,-0.222972780971308,631.0
632,5.098322903242849,-2.113831366759545,-1.9653036843692901,0.9474074100518383,-5.082457034048669,-0.0689570624569032,632.0
633,5.098322941656992,-2.1138313132714317,-1.9653036696016817,0.9474073422996272,-5.082457072926996,0.0750586560574973,633.0
634,5.098322974674119,-2.1138312619004975,-1.9653036562217718,0.9474072779925182,-5.082457106386636,0.2090743745718447,634.0
635,5.0983229926195515,-2.1138312069869696,-1.9653036455136284,0.9474072126668579,-5.08245712479035,0.3330900930861741,635.0
636,5.098323009117955,-2.1138311565013956,-1.9653036356689269,0.9474071526087252,-5.082457141710082,0.44710581160048934,636.0
637,5.098323013627308,-2.113831107644447,-1.9653036285155512,0.9474070967440006,-5.082457146617429,0.5511215301147849,637.0
638,5.098323014656497,-2.1138310626755703,-1.9653036225781486,0.9474070459396509,-5.082457148010286,0.6451372486290743,638.0
639,5.098323015576218,-2.1138310224898196,-1.9653036172722746,0.9474070005391143,-5.082457149254992,0.7291529671433609,639.0
640,5.098323010292195,-2.113830987233513,-1.9653036138792341,0.9474069619070735,-5.08245714425091,0.8031686856576381,640.0
641,5.098323002373722,-2.113830956820953,-1.9653036116485958,0.9474069292442622,-5.08245713657106,0.8671844041719128,641.0
642,5.098322995692207,-2.113830931159189,-1.9653036097664076,0.9474069016837614,-5.082457130090893,0.9212001226862236,642.0
643,5.098322990247649,-2.1138309102482222,-1.9653036082326691,0.947406879225571,-5.082457124810407,0.9652158412005427,643.0
644,5.098322986040048,-2.1138308940880504,-1.9653036070473835,0.9474068618696921,-5.082457120729603,0.999231559714888,644.0
645,5.098322983069406,-2.1138308826786743,-1.9653036062105498,0.9474068496161246,-5.082457117848481,1.023247278229188,645.0
646,5.098322981335722,-2.113830876020093,-1.965303605722169,0.9474068424648686,-5.082457116167041,1.0372629967434854,646.0
647,5.09731074647181,-2.1157560074396637,-1.961534410988591,0.9455621695097068,-5.081447150823985,1.0433695214072596,647.0
648,5.095904459164416,-2.1184305804221335,-1.9562979034231425,0.9429993859850566,-5.080044016738774,1.039919740229705,648.0
649,5.0957922718599455,-2.118643952347263,-1.9558801546281321,0.9427949352734217,-5.079932081694887,1.0286350587865136,649.0
650,5.09579227460091,-2.11864395942574,-1.95588015786332,0.9427949339527424,-5.07993208578157,1.0077109575915868,650.0
651,5.0957922786518335,-2.118643969887147,-1.955880162644662,0.9427949320008868,-5.079932091821354,0.9767868563966275,651.0
652,5.095792284012711,-2.1186439837314834,-1.9558801689721577,0.9427949294178551,-5.079932099814237,0.9358627552016712,652.0
653,5.095792290910714,-2.1186440010556056,-1.955880176732237,0.9427949265045475,-5.079932111723077,0.8849386586118154,653.0
654,5.095792299771242,-2.118644022040885,-1.9558801857122252,0.9427949238244351,-5.079932131223559,0.8240145733053559,654.0
655,5.095792309350468,-2.1186440471008443,-1.9558801957548486,0.9427949235033473,-5.079932152423912,0.7530904890822008,655.0
656,5.0957923086658585,-2.118644085643428,-1.9558802007194276,0.9427949673262874,-5.079932152917188,0.672166420190468,656.0
657,5.095792307891587,-2.118644128982628,-1.9558802062672866,0.9427950167095539,-5.079932153427413,0.5812423559245219,657.0
658,5.095792307022675,-2.118644177151691,-1.9558802123687216,0.9427950717957524,-5.079932153911313,0.48031829983572,658.0
659,5.095792292154757,-2.118644226230921,-1.9558802216885198,0.9427951300874077,-5.079932138745468,0.36939425460572217,659.0
660,5.095792274758568,-2.1186442794039912,-1.955880232072791,0.9427951934370575,-5.079932120861297,0.24847021671846858,660.0
661,5.095792247541902,-2.11864433206167,-1.955880244440984,0.9427952581145129,-5.079932093167937,0.11754618547244149,661.0
662,5.095792210181162,-2.118644384014464,-1.9558802588359971,0.9427953239706468,-5.079932055349611,-0.023377842561025815,662.0
663,5.095792162646157,-2.1186444320584465,-1.9558802748446233,0.942795387435347,-5.07993200738157,-0.17430186717219714,663.0
664,5.095792103920884,-2.118644475167985,-1.955880292546738,0.9427954475550029,-5.0799319482553,-0.33522588527199915,664.0
665,5.09579203516828,-2.1186445053369445,-1.9558803106785885,0.9427954950866726,-5.079931879198256,-0.5011727221976576,665.0
666,5.095791966926353,-2.1186445281393977,-1.9558803277635268,0.9427955342250641,-5.0799318107122025,-0.6579869132924614,666.0
667,5.095791898323246,-2.1186445314070443,-1.9558803424285363,0.9427955514443571,-5.079931742023521,-0.8048011043873566,667.0
668,5.095791833996932,-2.1186445329329624,-1.9558803559828688,0.942795565858816,-5.079931677629476,-0.9416152954824302,668.0
669,5.0957917747211505,-2.1186445191146674,-1.9558803665285691,0.9427955620033791,-5.079931618415092,-1.0684294865776223,669.0
670,5.095791720159829,-2.1186445046287945,-1.95588037600989,0.9427955564659011,-5.079931563924649,-1.1852436776729536,670.0
671,5.09579167234586,-2.1186444850361106,-1.9558803834376728,0.9427955438478783,-5.079931516228896,-1.2920578687683888,671.0
672,5.095791631089185,-2.118644460917523,-1.9558803889255838,0.942795524840756,-5.079931475132883,-1.3888720598639162,672.0
673,5.095791594093937,-2.118644439290162,-1.9558803938466387,0.9427955077968886,-5.079931438281701,-1.4756862509595159,673.0
674,5.095791563289685,-2.118644417470788,-1.9558803974574106,0.9427954893148931,-5.079931407628402,-1.5525004420551947,674.0
675,5.095791539859009,-2.118644393814921,-1.9558803993022704,0.9427954673101578,-5.079931384369955,-1.6193146331509234,675.0
676,5.095791519935176,-2.1186443736995995,-1.9558804008710116,0.9427954485988446,-5.079931364592571,-1.6761288242466972,676.0
677,5.095791503518182,-2.1186443571248246,-1.9558804021636318,0.942795433180952,-5.079931348296251,-1.7229430153424916,677.0
678,5.095791490608029,-2.1186443440905944,-1.9558804031801347,0.9427954210564823,-5.079931335480994,-1.7597572064382967,678.0
679,5.095791481204717,-2.1186443345969095,-1.9558804039205204,0.9427954122254353,-5.079931326146802,-1.7865713975340927,679.0
680,5.095791475308247,-2.1186443286437697,-1.955880404384789,0.9427954066878111,-5.0799313202936744,-1.8033855886298715,680.0
681,5.095211912143485,-2.1197641671309553,-1.9536863242752072,0.9417208330980883,-5.07935310237073,-1.8115976652906507,681.0
682,5.093697494007341,-2.1226903656221126,-1.9479530888704806,0.938912927984937,-5.077842199698506,-1.8109566904391532,682.0
683,5.0932949981345805,-2.1234680873417497,-1.9464293208817924,0.9381666465326353,-5.077440639994231,-1.8017896642083537,683.0
684,5.093295004930381,-2.123468091529615,-1.9464293223121625,0.9381666429698718,-5.077440650589627,-1.7836846301596148,684.0
685,5.093295015479723,-2.1234680980305747,-1.9464293245325723,0.9381666374392783,-5.0774406670372025,-1.755579596110866,685.0
686,5.093295029782606,-2.1234681068446286,-1.9464293275430218,0.9381666299408544,-5.077440689336959,-1.717474562062094,686.0
687,5.093295047833702,-2.1234681179670827,-1.946429331348403,0.9381666204573172,-5.077440717442614,-1.669369528230875,687.0
688,5.0932950688606855,-2.123468130717785,-1.9464293366574548,0.9381666064845329,-5.077440744647962,-1.6112645170391175,688.0
689,5.093295093506459,-2.1234681456629114,-1.9464293428802064,0.9381665901070015,-5.077440776535411,-1.5431595058473864,689.0
690,5.093295125444996,-2.12346816443361,-1.9464293409741282,0.9381665979110966,-5.077440808974522,-1.465054507419022,690.0
691,5.093295162555806,-2.123468186096095,-1.9464293361493419,0.9381666145901248,-5.077440844339563,-1.376949513523784,691.0
692,5.093295203866482,-2.123468210307406,-1.9464293306958314,0.9381666335484291,-5.077440883611513,-1.2788445314973638,692.0
693,5.093295252435962,-2.123468228273326,-1.9464293228905145,0.9381666441579317,-5.07744093135034,-1.170739557027753,693.0
694,5.0932953072662155,-2.12346824284978,-1.9464293133215649,0.9381666497890685,-5.0774409861006715,-1.0526345904537142,694.0
695,5.09329536683648,-2.1234682544637855,-1.9464293023897195,0.9381666511355585,-5.077441045630272,-0.924529631502081,695.0
696,5.093295431377932,-2.123468252951581,-1.9464292887590058,0.938166636662249,-5.077441110243704,-0.7864246775455903,696.0
697,5.093295499484845,-2.123468247084553,-1.9464292738280593,0.938166616578824,-5.077441178460864,-0.6383197252672923,697.0
698,5.0932955678725325,-2.1234682242768805,-1.9464292566676036,0.9381665773623418,-5.077441247094983,-0.48021477980035465,698.0
699,5.093295634874805,-2.1234681916921727,-1.946429238542613,0.9381665274095874,-5.07744131442262,-0.3139056593707001,699.0
700,5.09329569277512,-2.1234681492505745,-1.9464292210493603,0.9381664681574824,-5.0774413727212035,-0.15427614376073706,700.0
701,5.093295737690502,-2.1234681000283837,-1.946429205390503,0.9381664038386408,-5.077441418079143,-0.0046466281506359446,701.0
702,5.093295774483194,-2.123468048930236,-1.9464291911822995,0.9381663390143673,-5.077441455322705,0.13498288745958784,702.0
703,5.0932957992397405,-2.123467995999538,-1.946429179245063,0.9381662745078794,-5.0774414805346755,0.2646124030699786,703.0
704,5.093295816339606,-2.1234679437947586,-1.9464291689948996,0.9381662123338648,-5.077441498077356,0.38424191868048485,704.0
705,5.093295829150974,-2.123467895194882,-1.9464291600995316,0.9381661550680573,-5.077441511298259,0.4938714342911019,705.0
706,5.093295830226764,-2.123467848223011,-1.9464291538560379,0.9381661019576872,-5.077441512760029,0.5935009499018272,706.0
707,5.093295831194576,-2.123467805965798,-1.9464291482392104,0.9381660541781018,-5.07744151407508,0.6831304655126204,707.0
708,5.093295831399295,-2.1234677684385908,-1.9464291433874088,0.9381660118762156,-5.0774415145875995,0.7627599811234823,708.0
709,5.0932958228892335,-2.1234677358277336,-1.9464291409799839,0.9381659768352347,-5.077441506337459,0.8323894967344205,709.0
710,5.093295815601364,-2.1234677079003585,-1.9464291389183066,0.9381659468267434,-5.07744149927218,0.8920190123453844,710.0
711,5.093295809535687,-2.1234676846564664,-1.946429137202374,0.9381659218507403,-5.077441493391765,0.9416485279564049,711.0
712,5.0932958046922,-2.1234676660960563,-1.9464291358321897,0.9381659019072266,-5.077441488696212,0.9812780435674204,712.0
713,5.093295801070906,-2.123467652219128,-1.9464291348077536,0.9381658869962028,-5.077441485185521,1.0109075591784265,713.0
714,5.093295798671804,-2.12346764302568,-1.9464291341290663,0.9381658771176691,-5.077441482859693,1.0305370747894225,714.0
715,5.093073354299531,-2.123904296372091,-1.9455730037806003,0.9377462791875948,-5.0772195728691525,1.040843211427394,715.0
716,5.0916283368456465,-2.126740879267544,-1.9400114804415363,0.9350205529865468,-5.0757780266094,1.0430185659974602,716.0
717,5.090832971563401,-2.1283021938547573,-1.9369503084919915,0.9335202593677013,-5.074984572398865,1.0359526976927749,717.0
718,5.090832973546306,-2.1283021989488207,-1.9369503108411572,0.9335202584149189,-5.0749845754149465,1.020684346962218,718.0
719,5.0908329768279135,-2.128302207379239,-1.9369503147289082,0.933520256838112,-5.07498458040641,0.9954159962316502,719.0
720,5.090832981408224,-2.1283022191460113,-1.9369503201552438,0.9335202546372803,-5.074984587373255,0.9601476455010567,720.0
721,5.0908329872872375,-2.1283022342491384,-1.936950327120165,0.9335202518124244,-5.074984596315481,0.9148792947704734,721.0
722,5.090832995044229,-2.1283022529460562,-1.9369503353221122,0.9335202491750925,-5.074984612291874,0.8596109537129132,722.0
723,5.090833004443076,-2.12830227513183,-1.9369503448840066,0.9335202463944843,-5.07498463324039,0.7943426163360151,723.0
724,5.090833009381549,-2.1283023057364883,-1.9369503525942653,0.9335202655330785,-5.07498464520179,0.7190742871404223,724.0
725,5.090833008668239,-2.1283023457736094,-1.9369503577831935,0.9335203111028101,-5.074984645713323,0.6338059661032888,725.0
726,5.090833007859782,-2.1283023905813363,-1.9369503635127623,0.9335203623398118,-5.074984646183802,0.5385376552987637,726.0
727,5.090833001762752,-2.128302438667875,-1.9369503708084026,0.9335204181991748,-5.074984640808094,0.43326935135142264,727.0
728,5.090832985382265,-2.128302488626028,-1.9369503806317334,0.9335204777900825,-5.0749846239703595,0.3180010558355941,728.0
729,5.090832967578746,-2.128302542916382,-1.9369503913092156,0.9335205425437468,-5.074984605654778,0.1927327691771295,729.0
730,5.090832932884686,-2.128302592486751,-1.9369504049241568,0.933520605273839,-5.074984570515453,0.057464488672260144,730.0
731,5.0908328948367165,-2.128302645259712,-1.9369504196521008,0.933520672273805,-5.074984531995147,-0.087803791260776,731.0
732,5.09083283996167,-2.1283026873461295,-1.9369504365173338,0.9335207305736676,-5.074984476723948,-0.24307206495284384,732.0
733,5.090832778813551,-2.1283027280634013,-1.936950454515713,0.9335207885755266,-5.074984415185709,-0.40814427814532783,733.0
734,5.090832708961345,-2.128302751314973,-1.9369504720847703,0.9335208286269936,-5.074984345079941,-0.5706121560658655,734.0
735,5.090832641580025,-2.1283027661359206,-1.9369504880539994,0.9335208586903005,-5.074984277516888,-0.7230800339865006,735.0
736,5.090832575400153,-2.1283027676669883,-1.9369505020634932,0.9335208735427752,-5.074984211266145,-0.86554791190728,736.0
737,5.090832513994413,-2.128302763465964,-1.9369505143394532,0.9335208809904094,-5.074984149841091,-0.9980157898281916,737.0
738,5.0908324574789425,-2.1283027484646246,-1.936950524205914,0.9335208753002626,-5.074984093399847,-1.1204836677492362,738.0
739,5.090832405578186,-2.1283027346882086,-1.9369505332667303,0.9335208700747355,-5.074984041567257,-1.2329515456704228,739.0
740,5.090832362094151,-2.1283027105428323,-1.9369505392375017,0.9335208514978868,-5.074983998244464,-1.3354194235916745,740.0
741,5.090832323162137,-2.128302687813563,-1.9369505444403046,0.9335208336134888,-5.074983959465996,-1.4278873015130606,741.0
742,5.090832288440451,-2.1283026675423673,-1.9369505490804433,0.9335208176632093,-5.074983924881249,-1.5103551794344872,742.0
743,5.090832262090544,-2.128302643957188,-1.9369505515471332,0.933520796318726,-5.074983898703029,-1.5828230573559887,743.0
744,5.090832240446414,-2.1283026221428782,-1.9369505532593878,0.9335207760358757,-5.0749838772200935,-1.6452909352775442,744.0
745,5.090832222267125,-2.1283026038206527,-1.9369505546975385,0.9335207589999491,-5.074983859176196,-1.6977588131991248,745.0
746,5.090832207552678,-2.128302588990513,-1.936950555861587,0.9335207452109469,-5.074983844571335,-1.7402266911207316,746.0
747,5.090832196303072,-2.1283025776524567,-1.9369505567515342,0.9335207346688696,-5.074983833405511,-1.7726945690423352,747.0
748,5.090832188518309,-2.1283025698064844,-1.9369505573673806,0.9335207273737177,-5.074983825678725,-1.795162446963908,748.0
749,5.090808924052951,-2.128348951647053,-1.9368595487190143,0.9334760885553588,-5.0749606190535665,-1.8077146844037972,749.0
750,5.089618721309816,-2.1307224949169186,-1.9322026934530812,0.9311921638334582,-5.073773374301247,-1.8126194120093213,750.0
751,5.088426623486012,-2.133099827222898,-1.927538409938494,0.9289045965030932,-5.072584240203735,-1.8077753541799122,751.0
752,5.088402251996631,-2.1331484418979345,-1.9274430353496683,0.9288578177864747,-5.0725599319427,-1.7952762386381698,752.0
753,5.088402260313486,-2.1331484470203814,-1.927443037110067,0.9288578134565864,-5.072559945005163,-1.7728663152877315,753.0
754,5.088402272341578,-2.133148454428623,-1.9274430396560098,0.928857807194568,-5.072559963896502,-1.7404563919372626,754.0
755,5.088402288080908,-2.133148464122659,-1.9274430429874971,0.9288577990004199,-5.072559988616716,-1.6980464685867913,755.0
756,5.088402307212779,-2.1331484758144383,-1.9274430474065642,0.9288577878089306,-5.072560016369236,-1.6456365547981524,756.0
757,5.088402329552735,-2.133148489337239,-1.9274430530880315,0.9288577730035528,-5.072560045535405,-1.5832266531752246,757.0
758,5.088402356417359,-2.1331485054458867,-1.9274430573230403,0.9288577626911004,-5.072560078228846,-1.5108167550341678,758.0
759,5.088402390718081,-2.1331485254313396,-1.9274430528514803,0.9288577780197587,-5.072560110919164,-1.428406869578077,759.0
760,5.088402429174407,-2.1331485478894243,-1.927443047794103,0.9288577954123636,-5.072560147517869,-1.3359969907320999,760.0
761,5.088402472120072,-2.133148571871574,-1.92744304194717,0.9288578137674064,-5.072560188508389,-1.2335871191136105,761.0
762,5.088402523682324,-2.133148585577132,-1.9274430329058618,0.9288578190202207,-5.072560239987831,-1.1211772583140478,762.0
763,5.0884025798334065,-2.1331486005026754,-1.9274430230593458,0.9288578247425376,-5.072560296063131,-0.9987674055011786,763.0
764,5.088402640843542,-2.1331486047938726,-1.927443010838544,0.9288578174694938,-5.072560357094657,-0.8663575588897408,764.0
765,5.088402706601429,-2.1331486032924225,-1.9274429968849356,0.928857802699511,-5.07256042292709,-0.7239477146608573,765.0
766,5.088402773583639,-2.1331485887121127,-1.9274429809874465,0.9288577729451489,-5.0725604900916474,-0.571537874816403,766.0
767,5.088402842993069,-2.13314856565215,-1.927442963487794,0.9288577331509764,-5.072560559754839,-0.409128041277452,767.0
768,5.088402903854021,-2.133148525342805,-1.9274429455510138,0.9288576756156506,-5.072560621005608,-0.2440176242575447,768.0
769,5.088402958503535,-2.133148483638784,-1.927442928733997,0.9288576177437257,-5.0725606760510304,-0.08869511498076846,769.0
770,5.0884029963369075,-2.1331484312287596,-1.9274429140542755,0.9288575511496523,-5.072560714354504,0.056627394296051486,770.0
771,5.088403030925091,-2.1331483820507553,-1.927442900470668,0.9288574888436827,-5.072560749382985,0.19194990357295327,771.0
772,5.088403048622767,-2.133148328143407,-1.9274428898111489,0.9288574245664916,-5.072560767545318,0.3172724128498776,772.0
773,5.088403064908272,-2.1331482785375533,-1.9274428800021892,0.9288573654182398,-5.072560784258402,0.4325949221268668,773.0
774,5.088403071196341,-2.1331482309544834,-1.9274428725462318,0.9288573105380563,-5.072560790948311,0.537917431403839,774.0
775,5.088403072211786,-2.1331481866482602,-1.9274428666164267,0.9288572603997136,-5.072560792333616,0.6332399406808271,775.0
776,5.088403073120704,-2.1331481469900733,-1.9274428613086947,0.9288572155212326,-5.072560793573592,0.7185624499578687,776.0
777,5.088403069175598,-2.133148112088335,-1.9274428576304536,0.9288571769689666,-5.0725607899156175,0.7938849592349224,777.0
778,5.088403061286297,-2.1331480819222683,-1.9274428553886402,0.9288571445385566,-5.072560782270502,0.8592074685119734,778.0
779,5.088403054604742,-2.133148056374222,-1.9274428534900172,0.9288571170728067,-5.0725607757957505,0.9145299777889976,779.0
780,5.0884030491309336,-2.1331480354441976,-1.9274428519345834,0.9288570945717167,-5.072560770491364,0.9598524870659579,780.0
781,5.0884030448648705,-2.1331480191321925,-1.9274428507223416,0.9288570770352875,-5.072560766357342,0.9951749963429439,781.0
782,5.088403041806554,-2.1331480074382076,-1.9274428498532925,0.9288570644635198,-5.072560763393685,1.0204975056199415,782.0
783,5.088403039955984,-2.1331480003622425,-1.9274428493274356,0.9288570568564132,-5.072560761600393,1.0358200148969363,783.0
784,5.087643748382158,-2.134686250336724,-1.9244227981884603,0.9273748864187524,-5.071803421809706,1.04292640118325,784.0
785,5.08623347232404,-2.137543341306992,-1.9188134763142184,0.9246219682803003,-5.070396771046316,1.040818389778318,785.0
786,5.086005445112662,-2.138005309540803,-1.917906502788468,0.9241768465178797,-5.070169330709698,1.0305712915580356,786.0
787,5.0860054476280645,-2.1380053159691257,-1.9179065057802926,0.9241768453124204,-5.070169334612436,1.0110368028029955,787.0
788,5.086005451431141,-2.1380053256882037,-1.9179065103036772,0.9241768434898685,-5.070169340513045,0.9815023140479513,788.0
789,5.08600545652189,-2.1380053386980373,-1.9179065163586224,0.9241768410502238,-5.070169348411525,0.9419678252929313,789.0
790,5.086005463012272,-2.138005355050466,-1.9179065238844304,0.9241768381591206,-5.070169359295988,0.892433337849458,790.0
791,5.086005471502069,-2.1380053750231975,-1.9179065325559463,0.9241768357038644,-5.0701693784597754,0.8328988577813567,791.0
792,5.086005481417895,-2.1380053983507468,-1.9179065426840158,0.9241768328361994,-5.070169400842502,0.7633643777132658,792.0
793,5.08600548161065,-2.1380054344551125,-1.9179065479675381,0.9241768715857875,-5.070169403093896,0.6838299127197764,793.0
794,5.086005480866801,-2.138005475928269,-1.917906553355866,0.924176918903737,-5.070169403594843,0.5942954517783888,794.0
795,5.086005480028307,-2.138005522107642,-1.9179065592783355,0.9241769718255098,-5.07016940404892,0.49476100086915337,795.0
796,5.086005467636831,-2.138005569737066,-1.9179065679779543,0.9241770282002595,-5.070169391607049,0.3852265591905949,796.0
797,5.086005450852886,-2.1380056208071387,-1.9179065780932025,0.9241770891879524,-5.070169374341003,0.26569212513938517,797.0
798,5.086005426701743,-2.1380056726634376,-1.917906589863283,0.924177152509696,-5.0701693497014855,0.13615769823498228,798.0
799,5.086005390591764,-2.1380057226221907,-1.9179066039093438,0.924177216039411,-5.070169313136828,-0.0033767245465311964,799.0
800,5.086005346647619,-2.1380057708824762,-1.9179066193790297,0.9241772792163742,-5.070169268746318,-0.15291114474967382,800.0
801,5.086005289815509,-2.1380058123593813,-1.917906636673842,0.9241773373158382,-5.070169211515054,-0.31244555830768805,801.0
802,5.086005225265433,-2.13800584401017,-1.9179066543154468,0.9241773858749374,-5.070169146641305,-0.47605130020052555,802.0
