Miguel-LA/TFM_MiguelLerinAlonso/workspace/ros_ur_driver/src/trayectories/data/saved_trajectories/20240528_1749_trajectory.csv
,shoulder_pan_joint,shoulder_lift_joint,elbow_joint,wrist_1_joint,wrist_2_joint,wrist_3_joint,time_from_start
0,1.1717029809951782,-1.040032688771383,2.0073800086975098,-4.029603306447164,-1.1274922529803675,-0.05182487169374639,0.0
1,1.1728958128788598,-1.040183481419822,2.007628418577664,-4.030166460800596,-1.1286487035852035,-0.04682487169374639,1.0
2,1.1764743085299054,-1.040635859365139,2.0083736482181274,-4.031855923860892,-1.1321180553997117,-0.0318248716937464,2.0
3,1.1824384679483144,-1.041389822607334,2.0096156976188997,-4.034671695628051,-1.1379003084238914,-0.006824871693746317,3.0
4,1.1907882911340872,-1.042445371146407,2.0113545667799806,-4.038613776102073,-1.1459954626577435,0.028175128306253856,4.0
5,1.2015843576246086,-1.0437631015467423,2.0135083671006773,-4.043623428781533,-1.1565413425079178,0.07317499172036523,5.0
6,1.2149462450909703,-1.0452652625753225,2.015915513322193,-4.049584764113937,-1.1698099535152995,0.12817459485573646,6.0
7,1.2309751870620664,-1.0468860288292754,2.0184391670204374,-4.056399485875163,-1.186031581228801,0.19317385686626132,7.0
8,1.249785601879392,-1.0485495262263342,2.0209127334115022,-4.063910821265546,-1.2054700997710466,0.26817267484211316,8.0
9,1.2715118646545764,-1.0501664458909115,2.023139098423294,-4.0719292459192165,-1.2284358295619984,0.35317097042577916,9.0
10,1.2962922320907242,-1.0516356826705309,2.024887897992252,-4.080206314655326,-1.2552541090691127,0.448168621267908,10.0
11,1.322522905273492,-1.0527795807978535,2.0258591913437676,-4.08796198146265,-1.284316640003453,0.5466460786450311,11.0
12,1.346633692683354,-1.0534781511762406,2.025981817673804,-4.094170227213906,-1.3115869911747322,0.6354942407519262,12.0
13,1.368370372908395,-1.0538309209482728,2.0254816358319023,-4.099023020661637,-1.336597108445821,0.7143421925254491,13.0
14,1.3875865410799801,-1.053931919577755,2.0245663361858925,-4.102719764319264,-1.3590114190973703,0.7831898726440741,14.0
15,1.4041824050573493,-1.053864204224004,2.023427022430886,-4.105472919477333,-1.3785893354283658,0.8420373210991353,15.0
16,1.4180602300722176,-1.0536998123076773,2.0222278983161233,-4.107458737332979,-1.39510102643393,0.8908846036212125,16.0
17,1.4291612326945662,-1.0534986034661074,2.021108842026238,-4.108841175231726,-1.4083979689729706,0.9297316686502201,17.0
18,1.4374415810369143,-1.0533086265423037,2.020182640057942,-4.109754440376611,-1.4183672721055696,0.9585785556263328,18.0
19,1.4428663097745318,-1.0531681940860005,2.019539225515956,-4.110305542415353,-1.4249189024540425,0.9774252417872006,19.0
20,1.4489291678237315,-1.0530097408801207,2.0188166993278056,-4.110917086005051,-1.4322431358836323,0.986299760612234,20.0
21,1.4566265378749839,-1.0528085557149487,2.017899370755165,-4.111693508598866,-1.4415419526141298,0.9851806100937052,21.0
22,1.461590843136242,-1.0526787930031067,2.017307742274615,-4.112194259317965,-1.4475390968031803,0.9743663813195261,22.0
23,1.4617481515260102,-1.052674661958234,2.017288976279815,-4.112210141307309,-1.4477291497927007,0.9569425878406692,23.0
24,1.4617481351243171,-1.0526746318619085,2.0172889486738272,-4.112210162386184,-1.4477291556698773,0.9296976321110069,24.0
25,1.4617481125306044,-1.0526745903952814,2.0172889106837744,-4.112210192596102,-1.4477291623463866,0.8924526811416638,25.0
26,1.4617480830416223,-1.0526745362342154,2.017288861280761,-4.112210237639798,-1.4477291642684529,0.8452077502804717,26.0
27,1.4617480473109161,-1.0526744706092601,2.0172888014209613,-4.112210292217575,-1.4477291665973493,0.7879628194192783,27.0
28,1.4617480277121764,-1.0526744171176594,2.0172887717094286,-4.112210343036129,-1.447729166110701,0.7207178910718638,28.0
29,1.4617480265989593,-1.052674378241679,2.0172887764175305,-4.1122103886971,-1.4477291624695368,0.6434729649764506,29.0
30,1.4617480252949422,-1.0526743344304401,2.017288781821693,-4.112210439891012,-1.4477291579912976,0.5562280419279414,30.0
31,1.461748021975772,-1.052674286188876,2.0172887882442394,-4.1122104962621515,-1.447729151380219,0.45898312048096485,31.0
32,1.4617480049611635,-1.0526742368879423,2.017288797876647,-4.112210554930543,-1.4477291337974718,0.35173819909363696,32.0
33,1.4617479863634415,-1.0526741829938269,2.017288808410068,-4.112210619052229,-1.4477291146020688,0.23449328519012502,33.0
34,1.4617479555002006,-1.052674130322689,2.0172888211106312,-4.112210684086971,-1.4477290831886476,0.10724837688665659,34.0
35,1.461747915167694,-1.052674077349566,2.017288835645412,-4.112210751231626,-1.4477290423240112,-0.02999652427790812,35.0
36,1.4617478632121728,-1.0526740287135943,2.017288851843695,-4.112210815594142,-1.4477289898601913,-0.17724141677459215,36.0
37,1.4617477994616703,-1.0526739845771989,2.017288869717585,-4.112210877021951,-1.4477289256260928,-0.3344863035402072,37.0
38,1.4617477237473113,-1.0526739529837807,2.0172888882639013,-4.1122109264627875,-1.4477288495306482,-0.49909207817347934,38.0
39,1.4617476477548894,-1.052673929022066,2.017288905880588,-4.112210967337075,-1.4477287732276498,-0.6560625102412628,39.0
40,1.4617475713752166,-1.052673925182066,2.017288920980051,-4.112210985562153,-1.4477286967237732,-0.803032942309042,40.0
41,1.4617474996580246,-1.052673923504172,2.01728893490953,-4.112211000498115,-1.4477286249078576,-0.9400033743767899,41.0
42,1.4617474335027238,-1.0526739376129615,2.017288945742484,-4.112210996597772,-1.4477285588068454,-1.0669738064445429,42.0
43,1.4617473726015844,-1.0526739527189326,2.01728895544234,-4.112210990616051,-1.4477284979753442,-1.1839442385122996,43.0
44,1.4617473191236359,-1.0526739729654744,2.0172889630607664,-4.112210977480188,-1.447728444623366,-1.2909146705800618,44.0
45,1.4617472730111294,-1.052673998185018,2.0172889686303876,-4.1122109573898875,-1.4477283986915392,-1.3878851026478283,45.0
46,1.4617472316539386,-1.052674020803813,2.01728897362564,-4.11221093937138,-1.4477283574963957,-1.474855534715598,46.0
47,1.4617471970961091,-1.0526740435064803,2.0172889773099536,-4.112210920021742,-1.4477283231092746,-1.5518259667833707,47.0
48,1.461747170851456,-1.0526740682812437,2.0172889791378226,-4.112210896820771,-1.447728297064205,-1.6187963988511465,48.0
49,1.461747148525645,-1.0526740893566484,2.0172889806927543,-4.112210877084159,-1.4477282749081755,-1.6757668309189233,49.0
50,1.4617471301186753,-1.0526741067326932,2.0172889819747457,-4.1122108608119055,-1.4477282566411858,-1.7227372629867,50.0
51,1.461747115630548,-1.0526741204093804,2.017288982983802,-4.112210848004014,-1.4477282422632363,-1.7597076950544777,51.0
52,1.461747105061262,-1.052674130386709,2.017288983719922,-4.1122108386604825,-1.447728231774327,-1.7866781271222545,52.0
53,1.4617470984108183,-1.0526741366646797,2.0172889841831063,-4.1122108327813125,-1.4477282251744579,-1.8036485591900309,53.0
54,1.4619254222815206,-1.0516818142054702,2.0153614157260202,-4.111275958102191,-1.4479102484093551,-1.8119262213991996,54.0
55,1.4624605743987606,-1.0487036965240737,2.009576473293585,-4.1084702477917245,-1.4484565029666694,-1.8116027861204118,55.0
56,1.462605421047545,-1.0478965262402236,2.008008448249692,-4.107709694892163,-1.4486043596972717,-1.8028560028793617,56.0
57,1.4626050530314136,-1.0478962556126556,2.0080076889882883,-4.107709205955941,-1.4486039946869076,-1.7852223197388606,57.0
58,1.4626044763146218,-1.047895831513141,2.0080064991524,-4.107708439745698,-1.4486034226804434,-1.7575886365983586,58.0
59,1.46260369089717,-1.0478952539416795,2.0080048787420264,-4.1077073962614365,-1.4486026436778792,-1.7199549534578578,59.0
60,1.4626026967790577,-1.0478945228982715,2.008002827757168,-4.107706075503153,-1.4486016576792151,-1.6723212703173584,60.0
61,1.4626014943406425,-1.0478936384497457,2.0080003462077856,-4.10770447698073,-1.448600467569689,-1.6146876097224236,61.0
62,1.4626000832841273,-1.0478926005437323,2.007997434085908,-4.107702601077679,-1.4485990710908907,-1.547053949981732,62.0
63,1.462599701717605,-1.0478922847186765,2.0079965866305054,-4.107702069110224,-1.4485986940789062,-1.469420302039126,63.0
64,1.4625997431882993,-1.047892262121468,2.007996581633486,-4.1077020869353085,-1.4485987360448673,-1.3817866587148206,64.0
65,1.4625997893847014,-1.0478922369847985,2.0079965760998553,-4.107702106637289,-1.4485987827482814,-1.2841530279292066,65.0
66,1.4625998431682463,-1.0478922177167347,2.007996568311736,-4.107702118463894,-1.4485988367060525,-1.1765194041481999,66.0
67,1.462599903969286,-1.0478922026336854,2.007996558605466,-4.1077021243886485,-1.4485988974230088,-1.0588857883572336,67.0
68,1.4625999700118855,-1.0478921897742715,2.0079965476051713,-4.107702126850044,-1.44859896340627,-0.9312521803695135,68.0
69,1.4626000415545661,-1.0478921914323256,2.0079965336682433,-4.1077021119298465,-1.4485990350468276,-0.793618577702505,69.0
70,1.4626001173287588,-1.0478921966479517,2.007996518460049,-4.107702092219693,-1.448599110957337,-0.6459849764569091,70.0
71,1.462600193089989,-1.0478922205148529,2.0079965008451053,-4.1077020514445595,-1.448599187030163,-0.48835138205880657,71.0
72,1.4626002680599957,-1.047892253676513,2.0079964821811966,-4.107702000315207,-1.4485992623976878,-0.32213737031839773,72.0
73,1.4626003324976558,-1.0478922982639711,2.0079964640614762,-4.1077019382011954,-1.4485993273272988,-0.16203923894073577,73.0
74,1.4626003832202823,-1.0478923492136583,2.007996447750535,-4.107701871402343,-1.4485993785852949,-0.011941107563074427,74.0
75,1.4626004240944266,-1.047892402875653,2.0079964329782385,-4.10770180333608,-1.4485994200086418,0.12815702381459204,75.0
76,1.46260045236235,-1.0478924580069457,2.0079964204341283,-4.107701735909357,-1.4485994488247673,0.2582551551922593,76.0
77,1.4626004712637033,-1.047892512835479,2.0079964097257266,-4.107701670532877,-1.448599468260549,0.37835328656992634,77.0
78,1.4626004861342756,-1.04789256370849,2.0079964003014514,-4.107701610359319,-1.4485994836238771,0.4884514179475957,78.0
79,1.4626004871614045,-1.0478926130613873,2.007996393728862,-4.107701554427513,-1.4485994851133785,0.5885495493252657,79.0
80,1.4626004880859207,-1.0478926574838305,2.0079963878128817,-4.107701504083403,-1.4485994864540759,0.6786476807029365,80.0
81,1.4626004887014918,-1.047892696971039,2.0079963825937095,-4.1077014593700225,-1.44859948743935,0.758745812080622,81.0
82,1.4626004790495788,-1.0478927312921626,2.0079963800113174,-4.107701422364363,-1.4485994780968667,0.8288439434582984,82.0
83,1.4626004707745799,-1.0478927607171327,2.007996377797322,-4.107701390637826,-1.4485994700871554,0.8889420748359673,83.0
84,1.4626004638764956,-1.0478927852459472,2.0079963759517208,-4.107701364190409,-1.4485994634102162,0.9390402062136313,84.0
85,1.462600458355326,-1.047892804878608,2.0079963744745166,-4.107701343022114,-1.4485994580660493,0.9791383375912919,85.0
86,1.4626004542110709,-1.0478928196151152,2.0079963733657094,-4.107701327132943,-1.4485994540546545,1.009236468968954,86.0
87,1.46260045144373,-1.0478928294554688,2.007996372625299,-4.107701316522893,-1.4485994513760316,1.0293346003466206,87.0
88,1.4626493970665286,-1.0476160696994028,2.007458304342496,-4.107440110451073,-1.448649433673355,1.0398886640969047,88.0
89,1.4631437747831078,-1.044820642676322,2.00202361570529,-4.10480188381087,-1.4491542817700807,1.04267847924313,89.0
90,1.463446729746852,-1.0431067658268658,1.9986915286304878,-4.103184307869545,-1.449463657181301,1.0362002371531034,90.0
91,1.4634464304481802,-1.043106533782403,1.9986908931685397,-4.1031839039384215,-1.4494633612022167,1.0217029240208029,91.0
92,1.4634459246983755,-1.0431061416776177,1.9986898193757483,-4.103183221382482,-1.4494628610617948,0.9972056108885002,92.0
93,1.4634452124974382,-1.043105589512509,1.9986883072521144,-4.103182260201723,-1.4494621567600348,0.962708297756202,93.0
94,1.463444293845368,-1.043104877287077,1.9986863567976376,-4.103181020396147,-1.4494612482969371,0.9182109846239037,94.0
95,1.4634431685349854,-1.0431040048527178,1.9986839679056403,-4.103179502625854,-1.4494601339373998,0.8637136756283725,95.0
96,1.4634418366133097,-1.0431029722431557,1.9986811406003013,-4.103177706740944,-1.449458814075347,0.7992163688905487,96.0
97,1.4634409704786848,-1.043102285072081,1.9986793049245057,-4.103176557540776,-1.4494579553905258,0.7247190690000144,97.0
98,1.4634409695334385,-1.0431022436744297,1.9986793104176743,-4.103176604632658,-1.4494579534358087,0.6402217784211793,98.0
99,1.4634409684719776,-1.0431021974057655,1.9986793165853287,-4.103176657183868,-1.449457951215603,0.5457244971012787,99.0
100,1.4634409628786398,-1.043102147363916,1.9986793241311018,-4.103176714780073,-1.449457944568699,0.4412272227323777,100.0
101,1.463440944987175,-1.0431020954925427,1.9986793343036935,-4.103176776639134,-1.44945792616236,0.3267299569407186,101.0
102,1.463440925534136,-1.0431020390909995,1.9986793453647806,-4.103176843899632,-1.4494579061566926,0.2022327007699034,102.0
103,1.4634408887292163,-1.0431019867885774,1.9986793592257746,-4.1031769097257635,-1.4494578688178201,0.06773545026642602,103.0
104,1.4634408468744864,-1.043101931861668,1.9986793743973312,-4.103176979444706,-1.4494578263986864,-0.07676179917791431,104.0
105,1.4634407876383988,-1.0431018868064892,1.9986793916340255,-4.103177041188894,-1.4494577666693143,-0.23125904293386734,105.0
106,1.4634407210985767,-1.0431018426978358,1.9986794101533958,-4.103177103199593,-1.4494576996362618,-0.39571664325553274,106.0
107,1.4634406432072613,-1.043101818182908,1.9986794283177651,-4.103177145147546,-1.44945762142263,-0.5589547170438138,107.0
108,1.4634405684734646,-1.0431018009084985,1.9986794449362535,-4.103177178336756,-1.4494575464383324,-0.7121927908320853,108.0
109,1.4634404945522288,-1.0431017992117138,1.9986794593796453,-4.1031771937759896,-1.4494574724140576,-0.8554308646203514,109.0
110,1.463440425885587,-1.0431018021410448,1.99867947221246,-4.103177203026922,-1.4494574036940746,-0.988668938408608,110.0
111,1.4634403626432766,-1.043101817847353,1.9986794823457545,-4.103177196848758,-1.449457340524975,-1.1119070121968608,111.0
112,1.4634403045326847,-1.0431018322791885,1.9986794916567878,-4.10317719117191,-1.4494572824816538,-1.2251450859851036,112.0
113,1.463440255399799,-1.0431018565890784,1.9986794979602613,-4.103177172691495,-1.449457233519516,-1.3283831597733429,113.0
114,1.463440211699408,-1.0431018804966834,1.9986795032705766,-4.103177153671888,-1.4494571899924893,-1.421621233561578,114.0
115,1.4634401726859856,-1.0431019018401404,1.998679508011344,-4.1031771366921745,-1.4494571511338372,-1.504859307349814,115.0
116,1.463440142530443,-1.0431019260929562,1.9986795106707018,-4.103177114804823,-1.4494571211708607,-1.5780973811380483,116.0
117,1.4634401181046972,-1.0431019491501343,1.9986795123825136,-4.103177093220317,-1.4494570969331857,-1.6413354549262849,117.0
118,1.4634400975414574,-1.0431019685612206,1.99867951382363,-4.103177075049024,-1.449457076528277,-1.694573528714528,118.0
119,1.4634400808407242,-1.043101984326215,1.9986795149940515,-4.103177060290943,-1.4494570599561345,-1.737811602502774,119.0
120,1.463440068002497,-1.0431019964451187,1.9986795158937811,-4.103177048946077,-1.449457047216758,-1.7710496762910157,120.0
121,1.4634400590267767,-1.0431020049179314,1.998679516522818,-4.103177041014424,-1.4494570383101477,-1.794287750079261,121.0
122,1.4634402225407381,-1.0431010409542771,1.998677631845082,-4.10317612060518,-1.4494572055090316,-1.8075267190792421,122.0
123,1.463807013390722,-1.0409937615372609,1.9945773638999489,-4.101183904026377,-1.4498319260538668,-1.8130921011267562,123.0
124,1.4642559213918678,-1.038414186095734,1.989558072300708,-4.09874513276854,-1.4502905414275673,-1.8091164838069307,124.0
125,1.4642743546340236,-1.0383067720317665,1.9893489226099441,-4.098643436240757,-1.4503093801685911,-1.7975795468354918,125.0
126,1.464273928671557,-1.0383064212236046,1.989347967136899,-4.098642831240944,-1.4503089579330373,-1.7762315228851087,126.0
127,1.4642733031765864,-1.0383059060872768,1.9893465640940708,-4.098641942842623,-1.4503083379107682,-1.7448834989347273,127.0
128,1.4642724781491125,-1.0383052266227835,1.9893447134814597,-4.098640771045796,-1.4503075201017839,-1.7035354749843445,128.0
129,1.464271453709165,-1.038304382853577,1.989342415304363,-4.098639315684833,-1.4503065054279491,-1.652187457973779,129.0
130,1.4642702300216812,-1.038303374811851,1.9893396695699441,-4.098637576531994,-1.4503052951563822,-1.5908394547967295,130.0
131,1.464268971713149,-1.0383023330939178,1.9893368372433886,-4.098635784438148,-1.4503040507290592,-1.519491453361251,131.0
132,1.4642690096582123,-1.0383023124103143,1.989336832643418,-4.098635800730585,-1.450304089121654,-1.4381434660886425,132.0
133,1.464269052265167,-1.0383022891993952,1.9893368274912846,-4.0986358189642935,-1.4503041322128851,-1.3467954840742615,133.0
134,1.464269099532244,-1.038302263471391,1.9893368217958904,-4.0986358390981055,-1.45030417998876,-1.2454475098004911,134.0
135,1.4642691561136787,-1.0383022489367293,1.9893368127734736,-4.098635845114984,-1.4503042365126668,-1.1340995468780617,135.0
136,1.4642692179394774,-1.0383022335791416,1.9893368028431975,-4.098635851108159,-1.4503042982494183,-1.0127515912639995,136.0
137,1.4642692850774135,-1.03830222731587,1.9893367907010893,-4.098635845859526,-1.450304365398312,-0.881403642227366,137.0
138,1.4642693575028765,-1.0383022289614807,1.9893367765066998,-4.098635830711444,-1.4503044379241898,-0.7400556962546163,138.0
139,1.4642694318823501,-1.0383022419920926,1.9893367604550511,-4.098635802335869,-1.4503045125148069,-0.5887077540169465,139.0
140,1.4642695083228423,-1.0383022660272967,1.98933674257497,-4.098635761143061,-1.4503045892736082,-0.4273598181927788,140.0
141,1.464269577332932,-1.0383023061938292,1.9893367240319604,-4.098635703079956,-1.4503046587458415,-0.26161111761771894,141.0
142,1.4642696393775467,-1.038302349076722,1.9893367064803331,-4.098635643224494,-1.4503047212700282,-0.10522878861465301,142.0
143,1.4642696820943646,-1.0383024037169273,1.9893366911309844,-4.0986355736257485,-1.4503047645547433,0.04115354038840015,143.0
144,1.4642697213172156,-1.038302455167951,1.9893366768706866,-4.098635508272869,-1.4503048043111573,0.17753586939145055,144.0
145,1.4642697420497581,-1.0383025113900721,1.9893366655592841,-4.098635440919722,-1.4503048256004667,0.30391819839449175,145.0
146,1.4642697601054044,-1.0383025637307166,1.989336655269223,-4.098635378445046,-1.450304844172963,0.42030052739753015,146.0
147,1.4642697686261756,-1.0383026135580402,1.9893366471464318,-4.098635320560695,-1.4503048531754723,0.526682856400561,147.0
148,1.464269769601383,-1.0383026603776773,1.9893366408711874,-4.098635267460463,-1.4503048545949895,0.6230651854035875,148.0
149,1.4642697704754093,-1.0383027023396119,1.9893366352470152,-4.0986352198695615,-1.4503048558672267,0.7094475144066132,149.0
150,1.4642697670776326,-1.038302739349061,1.9893366310913003,-4.098635178660361,-1.4503048528157128,0.7858298434096368,150.0
151,1.4642697580679394,-1.0383027713755668,1.9893366286666838,-4.098635144113172,-1.4503048440984534,0.852212172412663,151.0
152,1.4642697504154887,-1.0383027985775195,1.9893366266073174,-4.098635114770257,-1.450304836694384,0.9085945014156925,152.0
153,1.4642697441202808,-1.0383028209549179,1.9893366249131983,-4.098635090631616,-1.4503048306035042,0.9549768304187283,153.0
154,1.4642697391823156,-1.038302838507764,1.9893366235843306,-4.098635071697251,-1.4503048258258144,0.9913591594217633,154.0
155,1.4642697356015935,-1.0383028512360573,1.9893366226207134,-4.098635057967161,-1.450304822361314,1.0177414884247962,155.0
156,1.4642697333781136,-1.038302859139798,1.9893366220223474,-4.098635049441345,-1.4503048202100035,1.0341238174278298,156.0
157,1.4644662909966093,-1.0371555127281347,1.9871023212658927,-4.097548510989602,-1.4505057152517329,1.041968359598809,157.0
158,1.464975196018528,-1.0341847091695722,1.9813170841021601,-4.094735154203842,-1.4510258512533025,1.0410566955626603,158.0
159,1.4650925350267692,-1.0334985646791637,1.9799808032460953,-4.09408526618834,-1.4511457856641672,1.0318743214063262,159.0
160,1.465092175649039,-1.033498253648805,1.9799799743002073,-4.094084747649288,-1.4511454305053437,1.0136793613747872,160.0
161,1.4650916187563217,-1.0334977716753078,1.9799786897633838,-4.094083944119751,-1.451144880150256,0.9854844013432429,161.0
162,1.4650908643486167,-1.033497118758671,1.9799769496356232,-4.094082855599727,-1.4511441345989033,0.9472894413116941,162.0
163,1.4650899124211085,-1.0334962948952897,1.9799747539142785,-4.094081482105211,-1.451143193810398,0.899094481526608,163.0
164,1.4650887626647215,-1.0334952998537459,1.9799721024292543,-4.094079824662185,-1.4511420551613523,0.8408995333281869,164.0
165,1.4650874153385414,-1.0334941338280232,1.9799689953230624,-4.09407788241041,-1.451140720851157,0.7727045851297705,165.0
166,1.465087107814061,-1.0334938380298935,1.9799682917622323,-4.094077474531498,-1.4511404155532697,0.6945096496997614,166.0
167,1.4650871068426419,-1.0334937954558143,1.979968297449595,-4.094077522992209,-1.451140413540164,0.6063147187358117,167.0
168,1.4650871057554151,-1.0334937480901427,1.9799683038130014,-4.094077576803682,-1.4511404112537654,0.5081197995398179,168.0
169,1.4650870943130685,-1.0334936984825254,1.979968312494798,-4.094077635008172,-1.4511403990433471,0.39992488800585313,169.0
170,1.4650870761052965,-1.0334936457284976,1.9799683229097687,-4.094077697986054,-1.4511403803074923,0.28172998435233937,170.0
171,1.4650870520914434,-1.0334935908437664,1.979968334725636,-4.094077764445985,-1.4511403557426812,0.15353508829706664,171.0
172,1.4650870126286635,-1.0334935390999185,1.97996834911693,-4.094077830217793,-1.4511403157411498,0.015340197191076464,172.0
173,1.4650869667088515,-1.033493487011315,1.9799683648035669,-4.094077897567976,-1.45114026927135,-0.13285469217136978,173.0
174,1.465086904389242,-1.0334934439634849,1.9799683824869254,-4.0940779577136315,-1.4511402064670793,-0.2910495747373423,174.0
175,1.4650868333513947,-1.033493407675712,1.9799684009768839,-4.094078011819951,-1.4511401349985245,-0.4573713168970876,175.0
176,1.4650867583028921,-1.0334933841013445,1.9799684185852868,-4.094078052288826,-1.451140059635623,-0.6169102460604454,176.0
177,1.4650866842906702,-1.0334933750404312,1.9799684340999777,-4.094078076156027,-1.4511399854484917,-0.7664491752238367,177.0
178,1.4650866132980727,-1.0334933734439424,1.979968448056291,-4.094078091027145,-1.4511399143557027,-0.9059881043872573,178.0
179,1.4650865476194013,-1.033493382818611,1.9799684595525378,-4.094078092514724,-1.451139848687706,-1.0355270335507232,179.0
180,1.4650864871440583,-1.0334933978578267,1.9799684693022885,-4.094078086639518,-1.4511397882832244,-1.1550659627142164,180.0
181,1.4650864327177695,-1.0334934145078074,1.979968477670509,-4.094078077829647,-1.4511397339503815,-1.2646048918777355,181.0
182,1.4650863867249244,-1.0334934396781292,1.9799684832942224,-4.094078057833345,-1.4511396881422391,-1.3641438210412649,182.0
183,1.4650863453526681,-1.0334934623197574,1.979968488352954,-4.094078039845931,-1.4511396469361293,-1.453682750204826,183.0
184,1.4650863090558268,-1.0334934830290579,1.979968492680844,-4.094078023109369,-1.4511396107931038,-1.5332216793684086,184.0
185,1.4650862825768418,-1.03349350802427,1.9799684945484382,-4.0940779997196195,-1.4511395845205122,-1.6027606085320016,185.0
186,1.4650862599056498,-1.0334935294250622,1.9799684961474642,-4.094077979693418,-1.4511395620260332,-1.6622995376956082,186.0
187,1.465086241042251,-1.033493547231433,1.9799684974779188,-4.094077963030761,-1.4511395433096665,-1.7118384668592208,187.0
188,1.4650862259866448,-1.0334935614433842,1.9799684985398058,-4.094077949731654,-1.4511395283714128,-1.7513773960228314,188.0
189,1.465086214738832,-1.0334935720609155,1.9799684993331255,-4.094077939796092,-1.451139517211272,-1.7809163251864448,189.0
190,1.4650862072988122,-1.033493579084027,1.9799684998578773,-4.09407793322408,-1.4511395098292441,-1.8004552543500505,190.0
191,1.4651523481298097,-1.0331013245418783,1.9792040181815524,-4.093705846760931,-1.4512071403388276,-1.8106196068166163,191.0
192,1.4656375232386234,-1.0302240332370667,1.9735963856224636,-4.090976537619907,-1.4517032423675647,-1.8128808450338736,192.0
193,1.4658977859041358,-1.0286796968921694,1.970586504358705,-4.089511546537754,-1.451969370611649,-1.8060186419999138,193.0
194,1.4658974990294982,-1.0286794334568288,1.9705858053663294,-4.089511110765985,-1.4519690864247683,-1.7909897763720681,194.0
195,1.4658970212724316,-1.0286789947352446,1.9705846412740637,-4.089510385037688,-1.4519686131438547,-1.7659609107442193,195.0
196,1.465896352632936,-1.0286783807274165,1.970583012081908,-4.089509369352864,-1.451967950768909,-1.730932045116364,196.0
197,1.4658954931110115,-1.0286775914333444,1.9705809177898617,-4.089508063711512,-1.4519670992999303,-1.6859031794885126,197.0
198,1.4658944429589589,-1.0286766269071506,1.9705783584132432,-4.08950646774181,-1.4519660606996154,-1.630874319782277,198.0
199,1.4658932020863578,-1.0286754871294217,1.9705753339465049,-4.089504581576939,-1.4519648342647309,-1.565845462598726,199.0
200,1.4658924908615842,-1.0286748090303377,1.97057355703555,-4.089503481991808,-1.4519641317094645,-1.4908166129689007,200.0
201,1.465892529963959,-1.0286747877084228,1.9705735522666066,-4.089503498758846,-1.4519641712662827,-1.4057877715950324,201.0
202,1.465892573659891,-1.028674763907937,1.9705735469623997,-4.089503517380729,-1.451964215433946,-1.310758940291699,202.0
203,1.4658926234986391,-1.0286747421715607,1.970573540182992,-4.089503532574058,-1.4519642655809752,-1.2057301159060516,203.0
204,1.4658926812815558,-1.0286747277988224,1.9705735308443417,-4.089503538142289,-1.4519643232835275,-1.090701299991221,204.0
205,1.4658927440869534,-1.028674712175958,1.970573520693378,-4.089503544197556,-1.4519643859954663,-0.965672493223307,205.0
206,1.4658928122757358,-1.0286747124420277,1.9705735074104216,-4.0895035313062476,-1.4519644542665715,-0.8306436925506683,206.0
207,1.4658928855427207,-1.0286747140717085,1.9705734929617504,-4.089503515936725,-1.4519645276364863,-0.68561489270976,207.0
208,1.4658929585182217,-1.0286747348021938,1.9705734760703209,-4.089503479014261,-1.4519646008986917,-0.5305860988728526,208.0
209,1.465893034052829,-1.0286747613911609,1.9705734579150325,-4.089503434992325,-1.4519646767793712,-0.36569289617721,209.0
210,1.4658930976969102,-1.0286748053277157,1.9705734397998262,-4.089503373542637,-1.451964740921433,-0.20299292888614465,210.0
211,1.4658931521137228,-1.0286748515814472,1.9705734231741623,-4.089503311175401,-1.4519647958473,-0.050292961595056626,211.0
212,1.4658931925769818,-1.0286749046137873,1.9705734083724897,-4.089503243716585,-1.4519648368677505,0.09240700569604224,212.0
213,1.465893225086586,-1.0286749567312299,1.9705733952358697,-4.089503178761095,-1.451964869916179,0.22510697298715293,213.0
214,1.4658932438551462,-1.0286750111015777,1.9705733844742037,-4.089503113794115,-1.45196488922858,0.3478069402782646,214.0
215,1.4658932610940758,-1.0286750610407578,1.9705733745896012,-4.089503054121915,-1.4519649069670277,0.46050690756939117,215.0
216,1.4658932636929527,-1.028675109811365,1.9705733677023725,-4.089502998474466,-1.4519649100365526,0.5632068748605232,216.0
217,1.4658932646180127,-1.0286751541866894,1.9705733617155317,-4.089502948107832,-1.4519649113881081,0.655906842151663,217.0
218,1.465893265443282,-1.0286751937750278,1.9705733563745171,-4.089502903174491,-1.451964912593865,0.7386068094427967,218.0
219,1.4658932583764392,-1.02867522840301,1.9705733532160097,-4.089502865309208,-1.4519649058504358,0.8113067767339355,219.0
220,1.465893249986347,-1.0286752582167875,1.9705733509446033,-4.08950283313389,-1.451964897736012,0.8740067440250784,220.0
221,1.4658932429343885,-1.028675283275573,1.9705733490354604,-4.089502806090204,-1.451964890915755,0.9267067113162124,221.0
222,1.4658932372205633,-1.0286753035793665,1.9705733474885823,-4.0895027841781495,-1.4519648853896654,0.9694066786073361,222.0
223,1.4658932328448715,-1.0286753191281697,1.9705733463039712,-4.089502767397728,-1.451964881157743,1.0021066458984644,223.0
224,1.465893229807313,-1.0286753299219824,1.9705733454816268,-4.089502755748939,-1.4519648782199877,1.024806613189594,224.0
225,1.4658954335262715,-1.0286620489382494,1.9705474291675107,-4.0894901251172096,-1.4519671326820704,1.037530705701893,225.0
226,1.4662697556508506,-1.0264068635653367,1.9661487711400842,-4.08734745305506,-1.452350057886501,1.0426773950910213,226.0
227,1.466682793810521,-1.0239178401662739,1.9612939732989976,-4.084982562049401,-1.4527725918710805,1.0382162902919971,227.0
228,1.4666935387452325,-1.0238515226835871,1.961164481609498,-4.084919410911155,-1.4527835917758123,1.0262380699055467,228.0
229,1.466693125440496,-1.0238511249714264,1.96116344679225,-4.084918773081514,-1.4527831836073781,1.0043792188751444,229.0
230,1.4666925230568661,-1.0238505453136733,1.9611619385661996,-4.0849178434571956,-1.4527825887098091,0.9725203678447414,230.0
231,1.466691731594343,-1.023849783710327,1.9611599569313474,-4.0849166220381985,-1.4527818070831053,0.9306615168143412,231.0
232,1.466690750941993,-1.023848840074793,1.9611575018226621,-4.084915109207909,-1.452780837772766,0.878802674357621,232.0
233,1.4666895809956908,-1.0238477143257798,1.9611545731789954,-4.084913305325905,-1.4527796798832995,0.8169438455213062,233.0
234,1.4666884482082536,-1.0238466187606698,1.9611517386425452,-4.084911565427692,-1.4527785586295054,0.7450850192507233,234.0
235,1.4666884473211668,-1.0238465798124832,1.9611517438755621,-4.084911609807265,-1.4527785567925373,0.6632262064189975,235.0
236,1.4666884463229821,-1.0238465361230227,1.9611517497626356,-4.084911659540819,-1.4527785547091903,0.5713673994857008,236.0
237,1.466688444938001,-1.023846487767893,1.9611517563544123,-4.084911714573925,-1.452778552111294,0.4695085998502299,237.0
238,1.4666884279460553,-1.0238464385713277,1.961151766133811,-4.084911773369593,-1.4527785346177682,0.35764981167829446,238.0
239,1.4666884094357906,-1.023846384976832,1.9611517767875295,-4.084911837420494,-1.452778515566343,0.2357910309517498,239.0
240,1.4666883787829192,-1.0238463327949594,1.9611517896179818,-4.084911902136339,-1.4527784843736073,0.10393225661230762,240.0
241,1.4666883388388383,-1.0238462804659338,1.9611518042755076,-4.084911968749885,-1.4527784438775344,-0.03792651500451774,241.0
242,1.4666882864562263,-1.0238462335315601,1.9611518206494547,-4.0849120315626575,-1.452778390979054,-0.18978528257930646,242.0
243,1.4666882235827836,-1.0238461901533185,1.961151838601562,-4.084912092294297,-1.4527783276106654,-0.3516440437866409,243.0
244,1.4666881493709703,-1.0238461619612755,1.9611518567700168,-4.084912137941229,-1.452778253036612,-0.517114583391086,244.0
245,1.4666880769924784,-1.0238461395707514,1.9611518738193316,-4.084912176683604,-1.4527781803540771,-0.672988074862537,245.0
246,1.4666880038127372,-1.0238461379609582,1.9611518882963197,-4.084912192058957,-1.45277810706978,-0.8188615663340088,246.0
247,1.4666879356496536,-1.023846136461515,1.9611519017808625,-4.084912206380285,-1.4527780388093081,-0.9547350578054873,247.0
248,1.4666878728532784,-1.0238461518543003,1.9611519120012624,-4.084912200592435,-1.4527779760850226,-1.0806085492769681,248.0
249,1.4666878150504488,-1.0238461662493812,1.9611519213792152,-4.084912195008716,-1.4527779183507334,-1.1964820407484722,249.0
250,1.4666877648393384,-1.0238461869408377,1.9611519284505259,-4.084912180893965,-1.4527778682781376,-1.3023555322199738,250.0
251,1.4666877211584937,-1.0238462108548627,1.9611519338257062,-4.084912161923085,-1.452777824774838,-1.3982290236914772,251.0
252,1.466687682033741,-1.0238462322745536,1.9611519386402272,-4.084912144930943,-1.4527777858091115,-1.4841025151629896,252.0
253,1.466687650048394,-1.0238462545841573,1.9611519419461536,-4.084912125609482,-1.452777754000061,-1.5599760066344988,253.0
254,1.466687625315323,-1.0238462779315372,1.9611519437020677,-4.084912103770476,-1.4527777294621187,-1.625849498106017,254.0
255,1.4666876043368835,-1.0238462977346412,1.9611519451914226,-4.084912085246765,-1.4527777086491866,-1.6817229895775254,255.0
256,1.466687587113076,-1.0238463139934684,1.961151946414216,-4.084912070038347,-1.4527776915612645,-1.7275964810490207,256.0
257,1.4666875736439002,-1.0238463267080207,1.961151947370452,-4.084912058145225,-1.4527776781983524,-1.7634699725205207,257.0
258,1.4666875639293566,-1.0238463358782979,1.9611519480601298,-4.084912049567398,-1.4527776685604505,-1.7893434639920254,258.0
259,1.466687557969445,-1.0238463415042998,1.96115194848325,-4.0849120443048665,-1.4527776626475588,-1.8052169554635238,259.0
260,1.4669023767810978,-1.0225315853589971,1.9585855747365333,-4.083660888625128,-1.4529975194482632,-1.8127225285321344,260.0
261,1.4673841996741468,-1.0195824454411224,1.9528289075646363,-4.080854397529755,-1.4534906432555261,-1.8113302788411387,261.0
262,1.467477148849083,-1.0190123304830607,1.9517159445750918,-4.08031174962633,-1.4535857780955723,-1.8018006056124967,262.0
263,1.4674768076190081,-1.0190119824043502,1.9517150421440752,-4.0803111950323245,-1.453585440287799,-1.7831249248017143,263.0
264,1.4674762836753397,-1.019011447944905,1.9517136565012145,-4.08031034347779,-1.4535849215989236,-1.754449243990928,264.0
265,1.4674755770180778,-1.0190107271047255,1.9517117876465102,-4.0803091949627275,-1.4535842220289457,-1.7157735631801492,265.0
266,1.4674746876687943,-1.019009819888861,1.9517094355816762,-4.080307749453368,-1.453583341747672,-1.6670978831649235,266.0
267,1.4674736159455137,-1.0190087263717293,1.9517066003318986,-4.080306006451767,-1.453582283258772,-1.6084222137213806,267.0
268,1.4674723615701577,-1.019007446488231,1.95170328187506,-4.080303966393206,-1.4535810443733104,-1.539746544277834,268.0
269,1.4674721736623835,-1.0190072073756617,1.951702700994675,-4.080303624531963,-1.4535808595063693,-1.4610708880671675,269.0
270,1.4674722138738492,-1.0190071854448401,1.9517026960640984,-4.080303641732416,-1.4535809001723639,-1.37239523612456,270.0
271,1.4674722586140945,-1.0190071610731575,1.9517026906063308,-4.080303660742172,-1.453580945376581,-1.2737195954497371,271.0
272,1.467472311126484,-1.019007143767468,1.951702682646102,-4.080303670476048,-1.4535809979836145,-1.1650439629967624,272.0
273,1.4674723699149212,-1.0190071291227105,1.9517026730836353,-4.080303676109953,-1.4535810566869491,-1.046368338352933,273.0
274,1.4674724337663894,-1.019007118466574,1.951702662003289,-4.0803036762939735,-1.453581120499022,-0.9176927212023548,274.0
275,1.4674725028531532,-1.0190071199685928,1.9517026482919688,-4.080303661757113,-1.45358118968397,-0.779017108792184,275.0
276,1.4674725753947344,-1.019007127003741,1.9517026331759193,-4.08030364031459,-1.4535812623820283,-0.6303414985011762,276.0
277,1.4674726484858955,-1.019007149892596,1.9517026158638808,-4.08030360082245,-1.4535813357850493,-0.4716658949103675,277.0
278,1.4674727191194714,-1.0190071836401082,1.951702597601957,-4.080303549494526,-1.4535814068328647,-0.3053058347750476,278.0
279,1.4674727804746515,-1.0190072259446818,1.9517025800275158,-4.080303490203695,-1.453581468673946,-0.1462542461722861,279.0
280,1.4674728270836008,-1.0190072758681228,1.9517025643336594,-4.0803034250280295,-1.4535815158246632,0.002797342430469644,280.0
281,1.467472865966388,-1.0190073267836317,1.9517025500203213,-4.080303360164906,-1.4535815552493703,0.1418489310332429,281.0
282,1.4674728910932189,-1.0190073800387842,1.951702538089389,-4.080303295209225,-1.4535815809239636,0.2709005196360319,282.0
283,1.467472909051745,-1.0190074320263278,1.9517025277275664,-4.080303233020472,-1.4535815994091572,0.3899521082388273,283.0
284,1.4674729216093216,-1.0190074806171452,1.9517025188696642,-4.080303175680494,-1.4535816124538052,0.499003696841631,284.0
285,1.4674729225843786,-1.0190075273518093,1.9517025125218308,-4.080303122593914,-1.45358161388371,0.5980552854444353,285.0
286,1.467472923460996,-1.0190075693682557,1.9517025068148532,-4.08030307486682,-1.4535816151692553,0.6871068740472508,286.0
287,1.4674729229402121,-1.0190076066382394,1.9517025020065335,-4.0803030327725525,-1.4535816150096112,0.7661584626500673,287.0
288,1.4674729138284246,-1.0190076390053249,1.9517024995245433,-4.080302997824858,-1.4535816062008349,0.8352100512528854,288.0
289,1.4674729060361993,-1.0190076666850327,1.951702497401993,-4.0803029679382625,-1.453581598667739,0.8942616398557045,289.0
290,1.4674728995635367,-1.0190076896773619,1.9517024956388798,-4.080302943112764,-1.4535815924103237,0.9433132284585064,290.0
291,1.4674728944104363,-1.0190077079823139,1.9517024942352064,-4.080302923348366,-1.4535815874285887,0.9823648170613062,291.0
292,1.4674728905768981,-1.0190077215998887,1.9517024931909739,-4.080302908645068,-1.453581583722534,1.011416405664114,292.0
293,1.4674728880629222,-1.0190077305300864,1.9517024925061823,-4.080302899002869,-1.4535815812921602,1.0304679942669193,293.0
294,1.4675515658355478,-1.018518580243416,1.9507469504110355,-4.07983667729427,-1.4536621417786113,1.040274500472223,294.0
295,1.4680218243453176,-1.015594872729373,1.9450356132115814,-4.07705006436697,-1.454143653219841,1.042049004150566,295.0
296,1.4682519200936301,-1.0141633951135205,1.9422392043500374,-4.075685630667986,-1.4543792596555338,1.0348181341595692,296.0
297,1.4682516395865808,-1.0141630960285324,1.942238442578668,-4.075685167485031,-1.4543789828393405,1.0193297114732216,297.0
298,1.468251177971968,-1.0141626038412548,1.9422371889745378,-4.075684405250995,-1.4543785272985614,0.9938412887868757,298.0
299,1.4682505352497919,-1.0141619185516875,1.9422354435376463,-4.075683343965878,-1.4543778930331959,0.9583528661005284,299.0
300,1.4682497114200523,-1.0141610401598309,1.9422332062679937,-4.075681983629679,-1.4543770800432445,0.9128644434141904,300.0
301,1.4682487062676304,-1.0141599684907772,1.9422304770311527,-4.0756803250145115,-1.45437608645399,0.8573760373372998,301.0
302,1.4682475198901543,-1.0141587036238895,1.9422272558879987,-4.075678367769635,-1.4543749131167287,0.7918876368471437,302.0
303,1.46824688634105,-1.014158009606928,1.9422255394796004,-4.075677344960322,-1.4543742860626032,0.7163992446865048,303.0
304,1.4682468854288215,-1.0141579695111211,1.9422255449019825,-4.075677390687335,-1.4543742841719238,0.630910860107941,304.0
305,1.4682468844048668,-1.0141579247549726,1.9422255509854287,-4.075677441642354,-1.4543742820192058,0.53542248616128,305.0
306,1.468246877513679,-1.0141578767753792,1.942225558664793,-4.075677497295245,-1.4543742741799823,0.4299341190655596,306.0
307,1.4682468602114753,-1.0141578267155822,1.9422255686861298,-4.075677557190253,-1.4543742563614817,0.3144457603579342,307.0
308,1.4682468414119372,-1.0141577723213744,1.9422255795752852,-4.075677622270264,-1.4543742370070578,0.18895741033049893,308.0
309,1.4682468041976824,-1.0141577228489072,1.9422255934197452,-4.075677685233913,-1.454374199264818,0.053469066673602725,309.0
310,1.4682467637948144,-1.0141576699667636,1.9422256083404894,-4.075677752654234,-1.4543741582968726,-0.09201927646196842,310.0
311,1.4682467050530374,-1.0141576281399716,1.942225625399112,-4.075677810973261,-1.4543740990739917,-0.24750761311830113,311.0
312,1.4682466397267058,-1.0141575878197049,1.9422256435509082,-4.075677868813654,-1.454374033273044,-0.41273252807468547,312.0
313,1.468246565506524,-1.0141575646022247,1.94222566118734,-4.075677908943377,-1.4543739587343127,-0.5749748395210594,313.0
314,1.4682464937663806,-1.0141575502551126,1.9422256771643598,-4.075677938565201,-1.4543738867653289,-0.7272171509674485,314.0
315,1.4682464233899328,-1.0141575487432357,1.942225691176927,-4.075677953397092,-1.454373816287097,-0.8694594624138448,315.0
316,1.4682463580865057,-1.0141575533432572,1.9422257033858306,-4.075677960361623,-1.4543737509478563,-1.0017017738602632,316.0
317,1.468246297945618,-1.0141575683432564,1.9422257132066276,-4.075677954585927,-1.4543736908791198,-1.1239440853066938,317.0
318,1.4682462427245395,-1.014157582116182,1.9422257222240302,-4.075677949282708,-1.454373635724291,-1.2361863967531128,318.0
319,1.468246196523988,-1.0141576065286984,1.9422257280644508,-4.075677930248694,-1.4543735897050654,-1.3384287081995527,319.0
320,1.4682461550758443,-1.0141576292297165,1.9422257331983763,-4.075677912266968,-1.4543735484274072,-1.430671019645993,320.0
321,1.4682461181210988,-1.0141576494697135,1.942225737775729,-4.075677896234644,-1.4543735116246648,-1.5129133310924934,321.0
322,1.46824609018859,-1.0141576731762745,1.9422257401240288,-4.075677874594548,-1.4543734838891733,-1.585155642538964,322.0
323,1.4682460671405306,-1.0141576949336442,1.9422257417713458,-4.075677854251315,-1.4543734610251318,-1.6473979539854022,323.0
324,1.4682460477954278,-1.0141577131954211,1.9422257431539984,-4.075677837176475,-1.454373441834482,-1.6996402654318283,324.0
325,1.468246032153282,-1.0141577279616063,1.9422257442719881,-4.075677823370024,-1.4543734263172243,-1.7418825768782438,325.0
326,1.468246020214093,-1.0141577392322003,1.9422257451253166,-4.075677812831969,-1.4543734144733589,-1.7741248883246563,326.0
327,1.4682460119778609,-1.014157747007203,1.9422257457139842,-4.075677805562306,-1.4543734063028855,-1.7963671997710877,327.0
328,1.4682523709644033,-1.0141175649200609,1.9421471851865246,-4.075639440909966,-1.4543799206743906,-1.8086827251869897,328.0
329,1.4686330801049758,-1.0117133416230109,1.9374471374621483,-4.073344444116077,-1.454769923842645,-1.8134898894339804,329.0
330,1.4690092124057201,-1.0093373986000158,1.9328023222149915,-4.071076389717661,-1.455155241368268,-1.8086639795479005,330.0
331,1.4690145158249337,-1.0093022977770414,1.9327335604354314,-4.071042740616568,-1.455160681853019,-1.7963116898470795,331.0
332,1.4690141258042337,-1.009301857264962,1.932732441683135,-4.071042062116762,-1.4551602960183987,-1.7740238047299783,332.0
333,1.4690135607912918,-1.0093012191064585,1.9327308209754985,-4.071041079191568,-1.4551597370697227,-1.7417359196128892,333.0
334,1.4690128207861073,-1.009300383301531,1.9327286983125216,-4.071039791840986,-1.45515900500699,-1.6994480344958052,334.0
335,1.469011905929006,-1.0092993498857874,1.9327260737081227,-4.071038199832603,-1.4551581009475028,-1.6471601590455478,335.0
336,1.469010816310293,-1.0092981188820946,1.9327229471711096,-4.071036303016667,-1.455157025610662,-1.5848722963985453,336.0
337,1.4690098268696563,-1.0092969895638477,1.9327200875567818,-4.0710345715850345,-1.4551560493062579,-1.5125844369326933,337.0
338,1.4690098636737252,-1.0092969694789393,1.9327200830111961,-4.071034587324063,-1.4551560865263107,-1.4302965898700586,338.0
339,1.4690099049471237,-1.009296946970735,1.9327200779290497,-4.0710346049049315,-1.4551561282427006,-1.3380087493435049,339.0
340,1.469009950962557,-1.0092969228459219,1.9327200721474773,-4.071034623370484,-1.4551561746894688,-1.2357209161316807,340.0
341,1.4690100058270927,-1.0092969091576303,1.9327200631646189,-4.071034628596105,-1.4551562294761515,-1.1234330938599557,341.0
342,1.4690100655770113,-1.00929689424976,1.9327200533813642,-4.07103463428962,-1.4551562891363206,-1.0011452795062241,342.0
343,1.4690101304574594,-1.0092968897496606,1.9327200412024195,-4.071034627245506,-1.4551563540458243,-0.8688574714638597,343.0
344,1.4690102003754961,-1.009296891232823,1.9327200272350267,-4.071034612487977,-1.4551564240645225,-0.7265696659756115,344.0
345,1.4690102716202142,-1.0092969055588452,1.9327200113027336,-4.071034582931776,-1.4551564955384761,-0.5742818648178282,345.0
346,1.469010345354267,-1.0092969285989404,1.9327199937242445,-4.071034543037168,-1.455156569590926,-0.41199406993731463,346.0
347,1.4690104101623462,-1.009296968702891,1.9327199756400724,-4.071034485479773,-1.4551566348739515,-0.24680435860403485,347.0
348,1.469010468409422,-1.009297010274981,1.9327199586533257,-4.07103442748625,-1.4551566936022173,-0.09136658838819874,348.0
349,1.4690105085227803,-1.009297062753523,1.9327199437911997,-4.071034360528198,-1.455156734281345,0.054071181827566865,349.0
350,1.4690105453917874,-1.0092971118901108,1.9327199300113824,-4.07103429796321,-1.4551567716792324,0.18950895204328044,350.0
351,1.4690105640555295,-1.0092971658805334,1.932719919173215,-4.0710342333043315,-1.4551567908968686,0.31494672225892834,351.0
352,1.469010581231383,-1.0092972155667912,1.9327199091990668,-4.071034173800108,-1.4551568085824598,0.43038449247449717,352.0
353,1.4690105879431807,-1.0092972631894115,1.9327199015595906,-4.071034118591115,-1.4551568157706685,0.5358222626900173,353.0
354,1.4690105888701213,-1.009297307580429,1.932719895488151,-4.071034068125366,-1.4551568171350482,0.6312600329054681,354.0
355,1.4690105896999366,-1.009297347320138,1.932719890052873,-4.0710340229474316,-1.4551568183564676,0.7166978031208854,355.0
356,1.469010585501805,-1.0092973823039164,1.9327198862387762,-4.071033984098137,-1.45515681449693,0.792135573336267,356.0
357,1.4690105769850348,-1.009297412546815,1.9327198839041642,-4.07103395142776,-1.4551568062667757,0.8575733435516295,357.0
358,1.469010569769771,-1.009297438168086,1.9327198819263194,-4.071033923749969,-1.4551567992943284,0.913011113766973,358.0
359,1.4690105638560145,-1.0092974591677282,1.9327198803052406,-4.071033901064765,-1.455156793579588,0.9584488839822984,359.0
360,1.4690105592437643,-1.0092974755457433,1.9327198790409303,-4.071033883372147,-1.4551567891225545,0.9938866541976175,360.0
361,1.4690105559330213,-1.009297487302132,1.9327198781333896,-4.071033870672117,-1.4551567859232284,1.0193244244129516,361.0
362,1.469010553923785,-1.0092974944368933,1.9327198775826175,-4.071033862964676,-1.4551567839816093,1.0347621946282903,362.0
363,1.469234586376657,-1.007860441581871,1.9299085058131888,-4.069660033766768,-1.4553863958013111,1.0419489669745126,363.0
364,1.4696917365437998,-1.0049277598984698,1.924171155178364,-4.066856364140063,-1.4558549324108871,1.0401217608836044,364.0
365,1.469768963306608,-1.0044310935621936,1.9231993973860824,-4.066381441566472,-1.4559340890679933,1.0302711037522956,365.0
366,1.4697686320842318,-1.004430703412092,1.9231984224050116,-4.066380856143766,-1.4559337624607918,1.011188027010465,366.0
367,1.4697681272932113,-1.0044301088137733,1.9231969365099595,-4.066379963945211,-1.4559332647034107,0.9821049502686459,367.0
368,1.4697674489335455,-1.0044293097672374,1.923194939700926,-4.066378764970809,-1.4559325957958498,0.9430218735268348,368.0
369,1.4697665969773777,-1.004428306248909,1.923192431959344,-4.066377259324166,-1.4559317554923894,0.8939387978840629,369.0
370,1.4697655711908164,-1.0044270980608476,1.9231894131292753,-4.0663754478750525,-1.4559307417301899,0.8348557314367877,370.0
371,1.4697643717865638,-1.0044256853830513,1.9231858833524587,-4.06637332983232,-1.4559295563854613,0.7657726649894903,371.0
372,1.4697642156606936,-1.0044254699323731,1.9231854304677611,-4.066373092448602,-1.4559294012889183,0.6866896125027142,372.0
373,1.4697642147233516,-1.004425428744171,1.923185436081637,-4.066373139445799,-1.4559293993377984,0.5976065641830369,373.0
374,1.4697642136756333,-1.0044253829623053,1.9231854423528605,-4.066373191597402,-1.4559293971251623,0.49852352656890764,374.0
375,1.4697642013004155,-1.0044253354038042,1.9231854511269473,-4.066373247825544,-1.4559293840633392,0.38944049765452265,375.0
376,1.46976418370163,-1.004425284521977,1.923185461386891,-4.066373308775099,-1.455929365935323,0.2703574764697111,376.0
377,1.4697641590305757,-1.0044252324302696,1.9231854732035643,-4.066373372429524,-1.4559293407181038,0.14127446262735496,377.0
378,1.4697641209300867,-1.0044251826083697,1.923185487366629,-4.06637343604849,-1.4559293020783584,0.002191453252274718,378.0
379,1.4697640752125885,-1.004425133808831,1.9231855028990041,-4.066373499938398,-1.455929255821803,-0.14689155377382376,379.0
380,1.4697640150936349,-1.0044250924364013,1.923185520289023,-4.066373558113219,-1.455929195218159,-0.30597455413496655,380.0
381,1.4697639470051267,-1.004425059871642,1.9231855380816474,-4.066373607801102,-1.4559291267220411,-0.4697988922381941,381.0
382,1.4697638772493997,-1.0044250380991038,1.923185554767054,-4.066373645569928,-1.455929056663338,-0.6243785670284263,382.0
383,1.4697638084086584,-1.0044250305080895,1.92318556938367,-4.066373667093646,-1.4559289876610113,-0.7689582418186136,383.0
384,1.4697637427265964,-1.0044250291325678,1.923185582548531,-4.066373680979879,-1.4559289218827982,-0.9035379166087232,384.0
385,1.469763682121016,-1.004425037237434,1.923185593447952,-4.066373683168257,-1.4559288612811967,-1.0281175913987486,385.0
386,1.4697636265147336,-1.0044250511286443,1.923185602588965,-4.066373677860103,-1.4559288057423967,-1.1426972661887256,386.0
387,1.469763575967611,-1.00442506440345,1.9231856108121157,-4.066373672301079,-1.4559287552630198,-1.2472769409786324,387.0
388,1.4697635340458162,-1.004425087374157,1.9231856160397265,-4.066373654133891,-1.4559287135156924,-1.34185661576839,388.0
389,1.469763496556453,-1.0044251079161475,1.923185620714614,-4.066373637887536,-1.4559286761823504,-1.4264362905581325,389.0
390,1.4697634634995214,-1.004425126029422,1.923185624836779,-4.066373623562015,-1.4559286432629934,-1.5010159653478672,390.0
391,1.4697634378082154,-1.0044251455495092,1.923185627315882,-4.066373606259629,-1.45592861773243,-1.5655956401376194,391.0
392,1.4697634178718668,-1.004425164370254,1.923185628750649,-4.066373588669791,-1.4559285979571408,-1.6201753149273774,392.0
393,1.4697634015882237,-1.0044251797426924,1.9231856299225405,-4.066373574302735,-1.4559285818050482,-1.664754989717161,393.0
394,1.4697633889572863,-1.0044251916668232,1.9231856308315536,-4.066373563158459,-1.4559285692761523,-1.6993346645069367,394.0
395,1.4697633799790548,-1.0044252001426475,1.9231856314776914,-4.066373555236966,-1.4559285603704528,-1.7239143392967078,395.0
396,1.4697633746535288,-1.0044252051701656,1.9231856318609541,-4.0663735505382546,-1.45592855508795,-1.7384940140864762,396.0
397,1.4696930918725641,-1.00486538982336,1.92408587536209,-4.066833460813653,-1.4558563022436952,-1.7436027628106843,397.0
398,1.4695710159298245,-1.0056299818053738,1.9256495888309684,-4.067632324277868,-1.455730804284466,-1.7400689142730192,398.0
399,1.469537324673748,-1.0058410216426765,1.9260812072915092,-4.067852831725721,-1.4556961684426288,-1.7271922135896225,399.0
400,1.469477468907907,-1.0062159542678064,1.9268480191149713,-4.068244584474117,-1.4556346345290816,-1.7043155129062426,400.0
401,1.4693914486323019,-1.0067547796807643,1.9279500243013556,-4.068807582523056,-1.4555462025438244,-1.6714388122228583,401.0
402,1.469278745616994,-1.0074567450408474,1.9293856863875551,-4.069541041820373,-1.4554303605439343,-1.6285620493069781,402.0
403,1.4691387826496818,-1.008321011320888,1.9311532930118371,-4.070444088552911,-1.4552865383222962,-1.5756851796922369,403.0
404,1.4689723500807592,-1.0093487264371281,1.9332551869411652,-4.071517918226859,-1.4551155166422394,-1.5128083100775167,404.0
405,1.4687786667286387,-1.010538801223659,1.9356891457621495,-4.0727613966705976,-1.4549165240929656,-1.439931338205137,405.0
406,1.468557572080393,-1.0118910114761401,1.9384547119903566,-4.074174290414198,-1.4546894021713581,-1.3570542634444245,406.0
407,1.4683088479095492,-1.013405080497496,1.9415513215023763,-4.075756311918296,-1.4544339347395838,-1.2641770705897402,407.0
408,1.4680322360465836,-1.0150806554631553,1.9449782544952516,-4.0775070939384985,-1.4541498666852521,-1.1612997467732944,408.0
409,1.4677267569665624,-1.0169164623218634,1.9487329126508803,-4.079425311275625,-1.4538362296679748,-1.0484221822926107,409.0
410,1.4673927234355348,-1.0189129499470226,1.9528162120140984,-4.081511431409316,-1.4534933326029584,-0.9255444380279599,410.0
411,1.4670294801676567,-1.0210692866452122,1.9572264566985154,-4.083764589494419,-1.4531205275418067,-0.7926664545919965,411.0
412,1.4666360802458318,-1.0233843179242215,1.9619612932796928,-4.086183585654697,-1.4527168778451447,-0.6497881425372481,412.0
413,1.4662120429263699,-1.0258575253793525,1.9670196659878956,-4.088767882044372,-1.452281907522817,-0.4969094759117395,413.0
414,1.4657596081833777,-1.0284731214812823,1.972369288983491,-4.0915009853595175,-1.4518179283154973,-0.3349812771396835,414.0
415,1.4653183617416385,-1.0310004367237093,1.9775383817725372,-4.094141865704179,-1.4513655453232315,-0.17826899085292483,415.0
416,1.4649022217343854,-1.0333629389102128,1.9823704105928637,-4.096610549346298,-1.450939011287296,-0.03155635367741849,416.0
417,1.464511846241888,-1.035561455044559,1.9868670616274133,-4.0989078961206005,-1.450538976974388,0.10515657623492235,417.0
418,1.464147910804913,-1.0375967939748165,1.9910299834916487,-4.101034746467955,-1.4501661106946666,0.23186974164009383,418.0
419,1.4638105769267276,-1.039469175441286,1.9948596244305516,-4.1029913290539834,-1.4498205720396957,0.3485831407714011,419.0
420,1.463500131173013,-1.041178968280596,1.9983567365607084,-4.1047780274446115,-1.4495026443276846,0.45529675270559355,420.0
421,1.463217978065402,-1.042727689100864,2.0015244087629585,-4.1063964153134584,-1.4492137181935572,0.5520104498664811,421.0
422,1.4629631865619857,-1.0441143763805092,2.004360683358565,-4.1078454955750345,-1.4489528714947928,0.6387243382036867,422.0
423,1.4627375700840137,-1.0453409357555612,2.00686944077335,-4.109127244827478,-1.4487219000902163,0.7154382467191933,423.0
424,1.4625399105616765,-1.0464061220344198,2.009048145964662,-4.110240372005527,-1.4485195974627167,0.782152306855192,424.0
425,1.4623718789051798,-1.0473116438772234,2.0109002775391285,-4.111186648721203,-1.4483476186720647,0.8388663669911977,425.0
426,1.4622332121058552,-1.0480572389060914,2.012425301431028,-4.111965803024632,-1.4482057031582574,0.8855804524545174,426.0
427,1.4621235250669669,-1.048642523229705,2.013622436238451,-4.112577437021514,-1.4480934694084424,0.9222946152187126,427.0
428,1.4620437139752962,-1.0490683910558287,2.0144935021075425,-4.113022477543063,-1.4480118052648412,0.949008777982891,428.0
429,1.4619937788308432,-1.0493348423844626,2.015038499038303,-4.113300924589278,-1.4479607107274526,0.965722940747067,429.0
430,1.461944098147806,-1.0495994878850745,2.015579813156328,-4.113577495138287,-1.4479098789458977,0.972639337239368,430.0
431,1.4617623344896458,-1.050566479287324,2.0175577576035204,-4.114588089345306,-1.4477239104965052,0.9708286911198405,431.0
432,1.4617622567082968,-1.050566395822118,2.0175575989124446,-4.114588013949545,-1.4477238335643698,0.9600480931105505,432.0
433,1.4617621067775652,-1.0505662349352276,2.017557293020744,-4.114587868617255,-1.4477236852705762,0.9392674951012592,433.0
434,1.461761884697451,-1.0505659966266525,2.01755683992842,-4.114587653348436,-1.4477234656151237,0.9084868970919667,434.0
435,1.4617615904042378,-1.0505656808134909,2.0175562395724613,-4.114587368506484,-1.4477231740858238,0.8677063158725088,435.0
436,1.4617612239258029,-1.0505652875320213,2.0175554919804015,-4.114587013932185,-1.447722810907002,0.8169257394737222,436.0
437,1.4617607944440696,-1.0505648260205436,2.0175546159750963,-4.114586599131453,-1.447722385282995,0.7561451634659491,437.0
438,1.4617607936873644,-1.0505647907700628,2.017554620517502,-4.114586639042761,-1.447722384024395,0.6853646043443038,438.0
439,1.4617607928232785,-1.0505647505407716,2.0175546257029215,-4.11458668458714,-1.447722382584287,0.6045840461613624,439.0
440,1.461760791848485,-1.050564705342807,2.0175546315401993,-4.1145867357246235,-1.447722380936661,0.5138034949568426,440.0
441,1.461760782076587,-1.0505646573425613,2.017554639423355,-4.114586791571296,-1.4477223705892488,0.41302295025653246,441.0
442,1.4617607645138424,-1.0505646062880711,2.0175546491899867,-4.114586852233865,-1.4477223525290175,0.3022424122690383,442.0
443,1.4617607447224235,-1.0505645509773531,2.017554659916889,-4.114586918092124,-1.44772233219978,0.1814618807670639,443.0
444,1.4617607062888491,-1.050564500392117,2.0175546736065493,-4.114586982023696,-1.4477222932541427,0.05068135861573963,444.0
445,1.4617606649164965,-1.050564445938898,2.0175546883429396,-4.114587050843836,-1.4477222513306058,-0.09009915971630277,445.0
446,1.4617606048226812,-1.0505644025354575,2.01755470526605,-4.114587110622076,-1.4477221907657503,-0.24087967736490498,446.0
447,1.4617605383267298,-1.0505643594355176,2.017554723373315,-4.114587171220933,-1.4477221237941365,-0.4016601868107785,447.0
448,1.4617604595255942,-1.0505643345076914,2.017554741547996,-4.114587213593863,-1.447722044671321,-0.5644338246871977,448.0
449,1.4617603836671573,-1.050564317666721,2.0175547581453936,-4.114587246327538,-1.447721968569447,-0.717318109565263,449.0
450,1.46176030885436,-1.050564315878623,2.017554772652978,-4.114587261923351,-1.4477218936537375,-0.860202394443293,450.0
451,1.461760239386075,-1.050564319442851,2.017554785468107,-4.114587270522653,-1.447721824138247,-0.9930866793212991,451.0
452,1.461760175406741,-1.0505643353108212,2.0175547956903275,-4.114587264272639,-1.4477217602319166,-1.1159709641992828,452.0
453,1.4617601166338767,-1.0505643498874941,2.017554805080683,-4.114587258531229,-1.4477217015261157,-1.2288552490772433,453.0
454,1.4617600671265976,-1.0505643749735976,2.0175548113824195,-4.114587239275054,-1.4477216521938632,-1.3317395339552007,454.0
455,1.461760022957893,-1.0505643991524638,2.0175548167788495,-4.114587220071094,-1.4477216081979516,-1.424623818833132,455.0
456,1.4617599835444284,-1.0505644207282112,2.0175548215942913,-4.114587202934645,-1.447721568938677,-1.5075081037110574,456.0
457,1.4617599533203047,-1.0505644455368341,2.0175548242493826,-4.114587180489943,-1.447721538909272,-1.5803923885889701,457.0
458,1.4617599286774219,-1.0505644688294904,2.01755482602928,-4.11458715873877,-1.4477215144535198,-1.643276673466898,458.0
459,1.4617599079533055,-1.0505644884180958,2.0175548275261326,-4.114587140446514,-1.4477214938867757,-1.6961609583448447,459.0
460,1.4617598911479555,-1.0505645043026504,2.0175548287399403,-4.114587125613179,-1.4477214772090397,-1.7390452432227965,460.0
461,1.4617598782613719,-1.0505645164831547,2.017554829670705,-4.1145871142387636,-1.4477214644203122,-1.771929528100753,461.0
462,1.461759869293555,-1.0505645249596087,2.017554830318428,-4.1145871063232695,-1.4477214555205937,-1.7948138129787072,462.0
463,1.4617611589357866,-1.050557348345134,2.017540832681407,-4.114580287922071,-1.4477227720928465,-1.8077108075463848,463.0
464,1.4621577332134055,-1.0483576296930692,2.013253127132945,-4.112493118924151,-1.4481275835223173,-1.8129952333271377,464.0
465,1.4626055826696691,-1.0458729373827191,2.008409899792968,-4.1101355076786845,-1.4485847377094838,-1.8086982502198885,465.0
466,1.4626179633135166,-1.045802706977821,2.008272860605876,-4.110068724751725,-1.4485973826533136,-1.7968530858843053,466.0
467,1.462617510089952,-1.0458023648788766,2.0082719265538613,-4.110068132452058,-1.4485969331185002,-1.7751339207673693,467.0
468,1.4626168481919004,-1.0458018652697594,2.0082705624429518,-4.110067267444087,-1.4485962766075846,-1.7434147556504298,468.0
469,1.462615977619362,-1.04580120815047,2.0082687682731475,-4.110066129727814,-1.4485954131205676,-1.7016955905334872,469.0
470,1.4626148985115621,-1.045800393549722,2.008266544051651,-4.1100647191071715,-1.4485943437137099,-1.6499764341303687,470.0
471,1.4626136110139942,-1.0457994214974866,2.0082638897858587,-4.11006303537709,-1.4485930694912468,-1.5882572924354685,471.0
472,1.4626123475361588,-1.0457984608700996,2.0082612737717938,-4.110061378523092,-1.4485918191560765,-1.516538153081569,472.0
473,1.4626123862077125,-1.045798439780494,2.0082612690597266,-4.110061395102912,-1.4485918582924149,-1.434819027374489,473.0
474,1.4626124296084484,-1.0457984161273928,2.008261263785908,-4.11006141364243,-1.4485919021938756,-1.3430999073919843,474.0
475,1.4626124777571596,-1.045798389978266,2.008261257945255,-4.110061434040869,-1.4485919508671457,-1.241380794732459,475.0
476,1.4626125355006145,-1.0457983756551081,2.0082612486982936,-4.110061439636175,-1.4485920085324286,-1.1296616936982364,476.0
477,1.4626125984119662,-1.045798360049358,2.0082612386232688,-4.110061445734756,-1.4485920713535647,-1.007942599976294,477.0
478,1.4626126667272312,-1.0457983544055083,2.0082612262540853,-4.1100614396429584,-1.4485921396866421,-0.8762235126941621,478.0
479,1.4626127403927311,-1.045798356149604,2.0082612119265,-4.110061424265716,-1.4485922134529212,-0.7345044282288482,479.0
480,1.4626128158133054,-1.0457983702805302,2.0082611957026253,-4.110061394617483,-1.448592289092411,-0.5827853477214285,480.0
481,1.4626128935373661,-1.04579839484482,2.0082611777235,-4.110061352798535,-1.4485923671357868,-0.4210662735936683,481.0
482,1.462612962984024,-1.04579843647771,2.008261159179595,-4.110061293262638,-1.4485924370510994,-0.2555145265802531,482.0
483,1.462613025776912,-1.045798480032677,2.0082611416678384,-4.1100612327734805,-1.4485925003227953,-0.09950191822760736,483.0
484,1.4626130683831724,-1.045798536071875,2.0082611264494923,-4.110061161899235,-1.4485925435006617,0.04651069012500957,484.0
485,1.4626131080652915,-1.0457985882789147,2.0082611122738436,-4.110061095873536,-1.4485925837152864,0.18252329847759355,485.0
486,1.4626131283860548,-1.0457986456505821,2.0082611011555502,-4.110061027556447,-1.4485926045941386,0.308535906830149,486.0
487,1.462613146644616,-1.045798698715553,2.0082610909746634,-4.110060964465426,-1.4485926233682709,0.4245485151826963,487.0
488,1.4626131546782215,-1.045798749353406,2.0082610830576866,-4.11006090596987,-1.448592631882939,0.5305611235352201,488.0
489,1.4626131556637834,-1.0457987967757254,2.0082610768955194,-4.110060852379287,-1.4485926333114074,0.6265737318877245,489.0
490,1.4626131565466964,-1.0457988392588655,2.0082610713751547,-4.11006080437032,-1.448592634591097,0.7125863402402121,490.0
491,1.4626131527047965,-1.0457988766933686,2.0082610673955794,-4.110060762907898,-1.4485926310934447,0.7885989485927118,491.0
492,1.4626131436157817,-1.0457989090668653,2.008261065058379,-4.110060728101053,-1.4485926222954266,0.8546115569451878,492.0
493,1.4626131359036272,-1.0457989365362235,2.008261063075232,-4.110060698566966,-1.4485926148301866,0.9106241652976942,493.0
494,1.4626131295683333,-1.045798959101442,2.0082610614461354,-4.110060674305633,-1.4485926086977257,0.9566367736502225,494.0
495,1.4626131246098997,-1.0457989767625222,2.008261060171093,-4.110060655317059,-1.4485926038980423,0.9926493820027411,495.0
496,1.4626131210283266,-1.0457989895194646,2.008261059250105,-4.110060641601241,-1.448592600431138,1.0186619903552645,496.0
497,1.4626131188236138,-1.0457989973722688,2.0082610586831713,-4.110060633158181,-1.448592598297012,1.0346745987077857,497.0
498,1.4628336491534966,-1.0445559698005065,2.0058362089022346,-4.108879268248487,-1.4488178049184555,1.0422404141097825,498.0
499,1.463354832067212,-1.041618047875133,2.0001050192480525,-4.106087081297705,-1.4493500405645297,1.0409504910876275,499.0
500,1.4634592020136847,-1.0410285091395803,1.9989548621952045,-4.105526679480249,-1.4494566299198417,1.0314925457122215,500.0
501,1.4634588184299724,-1.0410282043805061,1.9989540486211128,-4.105526170008288,-1.4494562505819009,1.012910350999574,501.0
502,1.4634582284208522,-1.041027735615469,1.9989527972224779,-4.105525386364211,-1.4494556671034116,0.9843281562869302,502.0
503,1.4634574319863236,-1.0410271028444686,1.9989511079992988,-4.105524328548019,-1.4494548794843747,0.9457459615742756,503.0
504,1.463456429109677,-1.0410263060549263,1.9989489809424317,-4.1055229966154325,-1.4494538875848273,0.8971637672013888,504.0
505,1.4634552194907524,-1.041025345020898,1.9989464158875943,-4.105521391567249,-1.44945268889081,0.8385815786213257,505.0
506,1.4634538033894562,-1.0410242199380264,1.9989434129770023,-4.10551951253678,-1.4494512855793062,0.7699993900412596,506.0
507,1.463453540402091,-1.0410239792456701,1.9989428610470132,-4.10551920124238,-1.449451024173166,0.69141721490864,507.0
508,1.4634535394099224,-1.0410239357717672,1.9989428666765718,-4.1055192505503095,-1.4494510221169676,0.6028350441279214,508.0
509,1.4634535382999747,-1.0410238874253939,1.9989428729721912,-4.105519305282674,-1.449451019783245,0.5042528845856454,509.0
510,1.4634535260530643,-1.0410238369508082,1.9989428816994022,-4.105519364391576,-1.4494510067903068,0.39567073315888013,510.0
511,1.463453507523436,-1.0410237831259066,1.998942892068822,-4.105519428393949,-1.4494509877304733,0.2770885895352705,511.0
512,1.4634534824169623,-1.0410237275054892,1.998942903926834,-4.105519495625859,-1.4494509620735547,0.14850645336766533,512.0
513,1.4634534422756562,-1.0410236747160657,1.9989429183090526,-4.105519562433619,-1.4494509213916387,0.009924321892524311,513.0
514,1.4634533949329933,-1.0410236221861169,1.9989429340419005,-4.10551963026437,-1.4494508735020613,-0.13865780761383756,514.0
515,1.463453331564279,-1.0410235782566177,1.9989429517668271,-4.105519691331935,-1.449450809647134,-0.2972399303591102,515.0
516,1.4634532589991525,-1.0410235420911538,1.9989429702774353,-4.105519745331435,-1.4494507366577976,-0.4635994169313983,516.0
517,1.4634531830577096,-1.0410235181129945,1.9989429878966831,-4.105519786216335,-1.4494506604024566,-0.6227525752673218,517.0
518,1.463453107950293,-1.0410235096642029,1.998943003393398,-4.105519809452292,-1.4494505851277206,-0.7719057336032287,518.0
519,1.4634530361379898,-1.0410235079801737,1.9989430174022704,-4.105519824464736,-1.449450513215388,-0.911058891939089,519.0
520,1.463452969729837,-1.0410235181259972,1.9989430288781036,-4.105519825161764,-1.449450446824458,-1.0402120502749184,520.0
521,1.4634529085846144,-1.0410235333105633,1.9989430387061562,-4.105519819220571,-1.449450385749874,-1.1593652086107418,521.0
522,1.4634528537548412,-1.0410235506600627,1.998943047047363,-4.105519809686798,-1.4494503310184454,-1.268518366946549,522.0
523,1.463452807282801,-1.0410235761079685,1.9989430527596235,-4.1055197895023445,-1.4494502847304827,-1.3676715252823242,523.0
524,1.4634527654976552,-1.0410235989893473,1.998943057895773,-4.105519771353574,-1.4494502431108494,-1.4568246836181062,524.0
525,1.4634527290982493,-1.0410236202232332,1.998943062205431,-4.1055197540774016,-1.4494502068678279,-1.5359778419538643,525.0
526,1.4634527023882997,-1.041023645469327,1.9989430641466364,-4.105519730511174,-1.449450180363245,-1.6051310002896257,526.0
527,1.4634526795407838,-1.0410236670646698,1.998943065807131,-4.105519710352778,-1.4494501576913985,-1.6642841586253985,527.0
528,1.463452660555702,-1.0410236850092605,1.9989430671869108,-4.1055196936022105,-1.449450138852288,-1.7134373169612003,528.0
529,1.4634526454330536,-1.0410236993031008,1.9989430682859801,-4.105519680259474,-1.449450123845914,-1.7525904752969899,529.0
530,1.4634526341728393,-1.0410237099461908,1.9989430691043393,-4.105519670324568,-1.4494501126722767,-1.781743633632777,530.0
531,1.4634526267750585,-1.0410237169385306,1.9989430696419883,-4.105519663797495,-1.4494501053313757,-1.8008967919685688,531.0
532,1.4635339596842063,-1.0405578786568097,1.9980336166019608,-4.105076218586861,-1.4495331987971811,-1.8107738223358913,532.0
533,1.4640402175465974,-1.0376583049171104,1.9923728322023329,-4.102316063468229,-1.4500504149043656,-1.8126408420419213,533.0
534,1.4642869859139755,-1.0362440430287252,1.989611713397344,-4.100969721251115,-1.4503025288951232,-1.8054940791471352,534.0
535,1.4642866780275279,-1.0362437834828804,1.989611023466674,-4.100969290641762,-1.4503022236937486,-1.7900617577088322,535.0
536,1.4642861706335406,-1.0362433557537545,1.9896098864673801,-4.100968581001577,-1.4503017207247368,-1.7646294362705146,536.0
537,1.4642854637320148,-1.0362427598413482,1.9896083023994633,-4.100967592330557,-1.4503010199880881,-1.7291971148321974,537.0
538,1.4642845573229493,-1.036241995745661,1.989606271262923,-4.100966324628703,-1.450300121483802,-1.6837647933938868,538.0
539,1.4642834516847705,-1.036241063529624,1.9896037930772301,-4.1009647774781275,-1.4502990273508036,-1.628332487314104,539.0
540,1.4642821466940354,-1.0362399631652963,1.989600867833612,-4.100962951063917,-1.4502977366412073,-1.5629001865608054,540.0
541,1.4642814605769012,-1.0362393586624712,1.9895992856335603,-4.100961972634984,-1.4502970584585972,-1.487467894044168,541.0
542,1.46428150042668,-1.036239336923088,1.9895992807494165,-4.100961989697545,-1.4502970987800652,-1.402035609193651,542.0
543,1.4642815449351774,-1.0362393126706044,1.9895992753211154,-4.100962008630548,-1.4502971437755736,-1.3066033349112582,543.0
544,1.4642815958647817,-1.0362392910856764,1.9895992683000379,-4.1009620234391,-1.4502971950005765,-1.2011710674884328,544.0
545,1.4642816546762425,-1.0362392764779838,1.98959925882462,-4.100962029107621,-1.4502972537306165,-1.085738808463785,545.0
546,1.4642817185817363,-1.0362392606041757,1.9895992485278817,-4.100962035270173,-1.450297317541645,-0.9603065581777304,546.0
547,1.4642817879637908,-1.0362392616687792,1.989599235021245,-4.100962021360434,-1.4502973870139972,-0.8248743142317525,547.0
548,1.4642818624811775,-1.0362392633985715,1.9895992204402517,-4.10096200576119,-1.4502974616346977,-0.679442070848447,548.0
549,1.4642819364537123,-1.036239285432503,1.9895992033906036,-4.100961967376721,-1.450297535902586,-0.5240098338774511,549.0
550,1.4642820126838672,-1.0362393134220012,1.9895991851508912,-4.100961921866231,-1.4502976124870348,-0.3588231888956821,550.0
551,1.4642820770751093,-1.036239358034592,1.9895991670856115,-4.100961859788861,-1.45029767737539,-0.19652519630167659,551.0
552,1.464282131459096,-1.0362394056070994,1.98959915057377,-4.100961796208588,-1.4502977322725834,-0.04422720370770157,552.0
553,1.46428217238319,-1.036239459402916,1.989599135867099,-4.10096172807978,-1.4502977737526868,0.0980707888862411,553.0
554,1.4642822045598318,-1.0362395126339736,1.9895991229178829,-4.100961662189888,-1.4502978064696654,0.2303687814801532,554.0
555,1.4642822235334305,-1.0362395677405436,1.9895991122754944,-4.100961596604728,-1.4502978259856871,0.35266677407402336,555.0
556,1.4642822409556058,-1.0362396183411833,1.9895991025032997,-4.100961536382299,-1.4502978439059326,0.46496476666789466,556.0
557,1.464282242958992,-1.0362396678819432,1.9895990958370788,-4.100961480178915,-1.4502978463791545,0.567262759261739,557.0
558,1.464282243893197,-1.0362397127969385,1.989599089963307,-4.100961429384992,-1.4502978477382826,0.6595607518555762,558.0
559,1.4642822447261863,-1.0362397528456295,1.9895990847259235,-4.10096138409432,-1.4502978489501561,0.741858744449412,559.0
560,1.4642822371570974,-1.0362397878352754,1.9895990817491658,-4.100961346044723,-1.4502978417022787,0.8141567370432228,560.0
561,1.4642822287020691,-1.036239817940398,1.9895990795623482,-4.100961313662667,-1.450297833521324,0.876454729637054,561.0
562,1.4642822216042322,-1.036239843213081,1.9895990777265538,-4.1009612864785385,-1.4502978266535664,0.9287527222309067,562.0
563,1.464282215863586,-1.036239863653325,1.9895990762417834,-4.100961264492338,-1.4502978210990058,0.9710507148247757,563.0
564,1.464282211480131,-1.0362398792611305,1.9895990751080395,-4.100961247704069,-1.4502978168576426,1.0033487074186351,564.0
565,1.4642822084538674,-1.036239890036498,1.9895990743253216,-4.100961236113728,-1.4502978139294764,1.0256467000124994,565.0
566,1.4642875390595873,-1.036208865434996,1.9895384472559783,-4.100931644806589,-1.4503032623937337,1.0380013522825702,566.0
567,1.4646913584067842,-1.033858886199187,1.984947120936622,-4.098691144282551,-1.45071600321101,1.0428099746438046,567.0
568,1.4650990599602578,-1.0314856835664175,1.9803103717791415,-4.096428452495956,-1.4511327151585405,1.0380008941961893,568.0
569,1.4651047904299632,-1.0314507016711978,1.9802418847631316,-4.096394959477182,-1.4511385804706252,1.0256579995150399,569.0
570,1.4651043504469121,-1.0314503124376182,1.9802408708631178,-4.09639433404845,-1.4511381456429064,1.0033792987343562,570.0
571,1.4651037129734166,-1.031449748492962,1.980239401864746,-4.0963934278902725,-1.451137515638762,0.9711005979536766,571.0
572,1.4651028780094772,-1.0314490098372295,1.9802374777680165,-4.096392241002649,-1.4511366904581917,0.9288218971729872,572.0
573,1.4651018454267775,-1.0314480963697408,1.9802350984980701,-4.0963907738308665,-1.451135669011886,0.8765432015614764,573.0
574,1.4651006151409478,-1.0314470080242937,1.9802322640056285,-4.096389026667548,-1.451134450583854,0.8142645128247802,574.0
575,1.4650994873045287,-1.0314460031076305,1.9802296668916763,-4.096387433577282,-1.451133333437278,0.7419858273389117,575.0
576,1.465099486398367,-1.0314459633134518,1.980229672072051,-4.096387478760725,-1.4511333315623256,0.659707154688239,576.0
577,1.465099485378901,-1.0314459187015799,1.9802296778985464,-4.0963875293598235,-1.45113332943425,0.5674284884598213,577.0
578,1.4650994833261621,-1.0314458695072797,1.9802296845246723,-4.096387585263076,-1.4511333261790127,0.46514982945940847,578.0
579,1.4650994660291712,-1.0314458192977085,1.9802296942622348,-4.096387645029115,-1.4511333083778788,0.35287118143492485,579.0
580,1.4650994471924461,-1.0314457646164548,1.9802297048671318,-4.096387710117029,-1.4511332889978108,0.23059254125742634,580.0
581,1.4650994152862247,-1.0314457117728202,1.9802297177599582,-4.0963877755507205,-1.4511332565525277,0.09831390731117334,581.0
582,1.4650993746573742,-1.0314456583877565,1.9802297324050027,-4.096387843207163,-1.4511332153697114,-0.0439647241915724,582.0
583,1.4650993207007472,-1.031445611148635,1.9802297488453329,-4.096387906383128,-1.451133160900724,-0.19624335139612567,583.0
584,1.4650992567727898,-1.0314455668830314,1.9802297668354596,-4.096387968038663,-1.451133096476183,-0.35852197227207483,584.0
585,1.4650991811020484,-1.0314455390689738,1.9802297850037873,-4.0963880133029775,-1.451133020451096,-0.523724869365721,585.0
586,1.4650991076545883,-1.0314455171663606,1.9802298019904239,-4.096388051493678,-1.4511329467080811,-0.6791800262557828,586.0
587,1.465099033652852,-1.0314455154660696,1.9802298165149308,-4.096388067008385,-1.4511328726019788,-0.824635183145832,587.0
588,1.4650989647492176,-1.0314455143873777,1.980229829974653,-4.096388080885473,-1.451132803605959,-0.9600903400358433,588.0
589,1.465098901281667,-1.0314455301702783,1.9802298402388772,-4.096388074752479,-1.4511327402126262,-1.0855454969258578,589.0
590,1.4650988428730993,-1.031445544695124,1.9802298496849335,-4.096388069108341,-1.4511326818723607,-1.201000653815834,590.0
591,1.4650987923488223,-1.031445566164818,1.980229856723327,-4.096388054185264,-1.4511326314917354,-1.3064558107058006,591.0
592,1.465098748243601,-1.0314455903252495,1.980229862178391,-4.096388035048932,-1.4511325875633712,-1.4019109675957484,592.0
593,1.4650987087588971,-1.0314456119546018,1.9802298670619696,-4.096388017917342,-1.4511325482369966,-1.4873661244856966,593.0
594,1.4650986767558847,-1.0314456348123227,1.980229870342742,-4.096387998026044,-1.4511325164128968,-1.5628212813756255,594.0
595,1.4650986518323725,-1.0314456583699514,1.9802298721656797,-4.096387976044769,-1.4511324916833832,-1.6282764382655546,595.0
596,1.4650986307165834,-1.031445678328531,1.9802298737101145,-4.096387957421712,-1.4511324707319544,-1.6837315951555092,596.0
597,1.465098613408518,-1.0314456946880615,1.9802298749760454,-4.096387942156873,-1.4511324535586105,-1.729186752045483,597.0
598,1.4650985999081751,-1.031445707448543,1.980229875963475,-4.096387930250253,-1.451132440163351,-1.7646419089354475,598.0
599,1.465098590215556,-1.0314457166099769,1.9802298766724038,-4.096387921701853,-1.4511324305461766,-1.7900970658254092,599.0
600,1.46509858433066,-1.0314457221723623,1.9802298771028315,-4.096387916511672,-1.4511324247070871,-1.8055522227153686,600.0
601,1.4653400190249746,-1.03001822349681,1.9774387718946143,-4.095024818877542,-1.4513793031323503,-1.8127437760340233,601.0
602,1.4658307914577464,-1.0271162185112328,1.9717646327750353,-4.092253719303985,-1.4518811424867406,-1.8109245626092194,602.0
603,1.4659099765615342,-1.0266467483799482,1.970846593774765,-4.0918053176153695,-1.4519621189764842,-1.8010835258857791,603.0
604,1.4659096117913468,-1.0266464063336007,1.9708457058057969,-4.091804771440563,-1.451961757613557,-1.7819714615878928,604.0
605,1.4659090561625572,-1.0266458853184397,1.9708443532250766,-4.091803939490866,-1.4519612071748078,-1.7528593972900155,605.0
606,1.4659083096751657,-1.0266451853344645,1.9708425360326043,-4.091802821766279,-1.4519604676602365,-1.7137473329921327,606.0
607,1.465907372366517,-1.0266443063908393,1.9708402542316354,-4.091801418207216,-1.451959539360414,-1.6646352695976097,607.0
608,1.4659062445396993,-1.0266432485619192,1.9708375078485545,-4.0917997283300185,-1.4519584246336903,-1.60552321354455,608.0
609,1.4659049259181614,-1.0266420117798398,1.9708342968592214,-4.09179775257591,-1.4519571213283924,-1.5364111574915122,609.0
610,1.465904791668583,-1.0266418378431783,1.9708338871431175,-4.091797516768565,-1.4519569893915878,-1.4572991154461454,610.0
611,1.4659048326470492,-1.0266418154857126,1.9708338820959095,-4.091797534265343,-1.4519570308393965,-1.3681870775609764,611.0
612,1.465904878218117,-1.0266417906509415,1.970833876510282,-4.091797553598257,-1.4519570768908827,-1.2690750503486958,612.0
613,1.4659049318798163,-1.0266417736263744,1.9708338683015225,-4.091797562817773,-1.4519571306260923,-1.1599630318698844,613.0
614,1.4659049917126272,-1.0266417587435157,1.9708338586010266,-4.091797568554105,-1.4519571903726338,-1.040851021116383,614.0
615,1.4659050566962883,-1.026641748714749,1.9708338472795552,-4.091797567873335,-1.4519572553246063,-0.9117390176983778,615.0
616,1.4659051269733698,-1.0266417503120047,1.9708338334428546,-4.091797553118702,-1.4519573257002636,-0.7726270187339587,616.0
617,1.4659052004984947,-1.0266417584448497,1.9708338181421645,-4.091797530393835,-1.4519573993907264,-0.6235150221395366,617.0
618,1.465905274819583,-1.0266417818416886,1.970833800739583,-4.0917974903055,-1.4519574740247698,-0.4644030322048812,618.0
619,1.4659053459019717,-1.0266418170905507,1.9708337824529703,-4.091797437446209,-1.451957545529473,-0.2980448049753987,619.0
620,1.4659054079483966,-1.0266418600276022,1.9708337649382028,-4.091797377580919,-1.4519576080608068,-0.13942807323446765,620.0
621,1.4659054543670607,-1.0266419113316654,1.9708337493873778,-4.09179731115903,-1.451957655025554,0.009188658506439764,621.0
622,1.465905493672421,-1.0266419629548862,1.9708337351756975,-4.0917972456883005,-1.451957694871497,0.147805390247323,622.0
623,1.465905518323786,-1.0266420173291637,1.9708337234556486,-4.091797179815723,-1.451957720072127,0.27642212198818294,623.0
624,1.4659055364679316,-1.0266420699909493,1.970833713216412,-4.0917971170740906,-1.4519577387413531,0.39503885372900893,624.0
625,1.465905548487835,-1.026642119356448,1.9708337045857856,-4.0917970591791795,-1.4519577512474746,0.5036555854698116,625.0
626,1.4659055494722657,-1.0266421666478298,1.9708336983605348,-4.091797005657758,-1.4519577526850385,0.6022723172106115,626.0
627,1.4659055503568723,-1.0266422091437362,1.9708336927665353,-4.09179695756355,-1.4519577539768298,0.6908890489513988,627.0
628,1.46590554936091,-1.026642246803687,1.9708336881543973,-4.09179691527045,-1.4519577533395762,0.769505780692191,628.0
629,1.4659055401794139,-1.0266422794843484,1.9708336857654842,-4.091796880102278,-1.451957744459365,0.8381225124329836,629.0
630,1.4659055323360017,-1.0266423074022266,1.9708336837247242,-4.091796850059412,-1.4519577368733299,0.8967392441737738,630.0
631,1.465905525830674,-1.0266423305573196,1.9708336820321133,-4.091796825141849,-1.4519577305814704,0.9453559759145957,631.0
632,1.4659055206634302,-1.0266423489496295,1.9708336806876563,-4.091796805349593,-1.4519577255837866,0.9839727076554237,632.0
633,1.4659055168342705,-1.026642362579157,1.9708336796913533,-4.0917967906826425,-1.4519577218802784,1.0125894393962347,633.0
634,1.4659055143431952,-1.0266423714459019,1.9708336790432042,-4.091796781140998,-1.4519577194709463,1.0312061711370504,634.0
635,1.466001880828126,-1.0260635010640788,1.9697010082257052,-4.091243184946297,-1.4520563033273985,1.0406886391923516,635.0
636,1.4664914811520846,-1.0231224156966858,1.9639462485839463,-4.088430548398092,-1.4525571693428099,1.0420194461868222,636.0
637,1.4667058867772966,-1.0218334994434677,1.9614241746099605,-4.087197845169466,-1.4527765132809491,1.034469105726122,637.0
638,1.466705585393889,-1.0218332036547109,1.961423420689279,-4.087197386509615,-1.4527762156362614,1.0185275717672262,638.0
639,1.466705094955019,-1.0218327223199721,1.96142219384003,-4.087196640136016,-1.4527757312813805,0.9925860378083283,639.0
640,1.4667044154606868,-1.0218320554392517,1.9614204940622144,-4.087195606048667,-1.4527750602163072,0.9566445038494289,640.0
641,1.4667035469108918,-1.0218312030125496,1.9614183213558312,-4.087194284247569,-1.4527742024410408,0.9107029698905276,641.0
642,1.466702489068051,-1.0218301648457755,1.961415675573495,-4.087192675589987,-1.4527731559112236,0.8547614536219699,642.0
643,1.466701242059897,-1.021828941043268,1.9614125567943177,-4.087190779614676,-1.452771921726492,0.7888199419273594,643.0
644,1.466700641025194,-1.0218283306019251,1.9614110575579744,-4.087189890451706,-1.4527713263546596,0.7128784393321985,644.0
645,1.4667006400934868,-1.021828289635965,1.9614110629246626,-4.087189937004093,-1.452771324425414,0.6269369436413106,645.0
646,1.4667006390477408,-1.021828243935769,1.9614110689446806,-4.087189988842026,-1.4527713222263516,0.5309954591376413,646.0
647,1.466700631348488,-1.0218281951312194,1.961411076676211,-4.087190045364315,-1.4527713135996407,0.42505398142361484,647.0
648,1.4667006137362817,-1.0218281440413106,1.961411086652604,-4.087190106243569,-1.4527712954687508,0.30911251201405665,648.0
649,1.4667005942568039,-1.0218280887361808,1.961411097532837,-4.0871901722219235,-1.4527712754332613,0.18317105096883932,649.0
650,1.4667005559789803,-1.0218280384845655,1.9614111114163475,-4.087190235999694,-1.4527712366271144,0.047229596286131416,650.0
651,1.466700514885402,-1.021827984536304,1.961411126321066,-4.087190304469332,-1.4527711949663695,-0.09871185803590647,651.0
652,1.4667004544204982,-1.0218279425398034,1.9614111434659605,-4.087190363035422,-1.4527711340243274,-0.25465330534419467,652.0
653,1.4667003875030364,-1.0218279023520085,1.9614111616351562,-4.087190420753828,-1.4527710666392852,-0.42016404741925095,653.0
654,1.4667003124578528,-1.0218278787516537,1.9614111792626807,-4.087190461259134,-1.452770991276207,-0.5819548262888513,654.0
655,1.4667002396757125,-1.021827865063553,1.9614111951807347,-4.08719049016177,-1.452770918274243,-0.7337456051585414,655.0
656,1.4667001685449206,-1.0218278634646416,1.961411209229678,-4.087190505118572,-1.4527708470418919,-0.8755363840283863,656.0
657,1.4667001025740807,-1.0218278688608575,1.9614112213787882,-4.0871905112285,-1.452770781043018,-1.007327162898371,657.0
658,1.4667000418202378,-1.021827883990937,1.961411231266344,-4.087190505390838,-1.4527707203610734,-1.1291179417684853,658.0
659,1.466699986054773,-1.0218278978787119,1.9614112403420456,-4.087190500032493,-1.452770664661603,-1.2409087206387215,659.0
660,1.4666999396255407,-1.0218279231389331,1.9614112461446878,-4.08719048011603,-1.4527706184190483,-1.3426994995090722,660.0
661,1.4666998978054497,-1.0218279460565463,1.9614112513501558,-4.087190461990507,-1.4527705767686903,-1.434490278379498,661.0
662,1.4666998605413817,-1.0218279664774355,1.961411255988519,-4.087190445839637,-1.4527705396558641,-1.5162810572499894,662.0
663,1.4666998326688991,-1.0218279907497108,1.9614112583059256,-4.087190423606584,-1.4527705119830403,-1.588071836120552,663.0
664,1.4666998094691515,-1.0218280126784822,1.9614112600138998,-4.087190403153727,-1.4527704889660753,-1.6498626149911593,664.0
665,1.4666997900239684,-1.0218280310583785,1.961411261445459,-4.087190386010886,-1.4527704696740935,-1.7016533938618061,665.0
666,1.46669977433335,-1.0218280458894,1.9614112626006053,-4.087190372178062,-1.452770454107096,-1.7434441727324652,666.0
667,1.4666997623972964,-1.0218280571715472,1.9614112634793397,-4.0871903616552565,-1.452770442265082,-1.775234951603136,667.0
668,1.4666997542158073,-1.0218280649048204,1.9614112640816626,-4.087190354442469,-1.4527704341480518,-1.7970257304737618,668.0
669,1.4667116015110024,-1.0217557440276095,1.9612696453634344,-4.087121081815867,-1.4527825597337052,-1.8089464777976547,669.0
670,1.4671211706400915,-1.019256349336451,1.9563756032918755,-4.084727307320319,-1.4532017447633925,-1.8133554435065882,670.0
671,1.467487459443339,-1.0170204002198655,1.9519973564275264,-4.082585790369776,-1.4535766364698384,-1.808158291749591,671.0
672,1.4674891332688367,-1.0170085182515196,1.9519739487461134,-4.082574268569677,-1.4535783574099992,-1.7953784156148154,672.0
673,1.4674887175035574,-1.0170080860785375,1.9519728501436182,-4.08257360186951,-1.4535779458028688,-1.7726205540757607,673.0
674,1.46748811904744,-1.0170074640050322,1.951971268805743,-4.082572642215558,-1.4535773533320273,-1.7398626925366698,674.0
675,1.467487337900485,-1.0170066520310033,1.9519692047324868,-4.08257138960782,-1.453576579997474,-1.6971048309975916,675.0
676,1.467486374224809,-1.0170056501994227,1.9519666579410844,-4.082569843772579,-1.453575627075689,-1.644346974977328,676.0
677,1.4674852280837474,-1.017004458527055,1.9519636284381914,-4.082568004602797,-1.453574495065567,-1.5815891249791698,677.0
678,1.4674842542650097,-1.0170034323858288,1.9519610306224364,-4.0825664318246435,-1.4535735334581001,-1.5088312789206642,678.0
679,1.4674842917933713,-1.017003411897061,1.951961025966181,-4.082566447850571,-1.4535735714179876,-1.4260734446240568,679.0
680,1.467484333852658,-1.0170033889522923,1.9519610207649873,-4.082566465733305,-1.4535736139339672,-1.3333156174592697,680.0
681,1.4674843809313503,-1.0170033649920203,1.9519610147288105,-4.082566483787426,-1.4535736614321049,-1.230557797529261,681.0
682,1.467484436787838,-1.0170033510776944,1.9519610056151309,-4.082566489110609,-1.4535737172099261,-1.1177999879953795,682.0
683,1.4674844975972463,-1.0170033359287665,1.9519609956927488,-4.082566494908662,-1.4535737779283127,-0.9950421868326065,683.0
684,1.467484563626491,-1.0170033322281942,1.9519609832754385,-4.082566486830797,-1.4535738439954564,-0.8622843918095977,684.0
685,1.467484634746178,-1.017003333808295,1.951960969183434,-4.082566471854754,-1.4535739152162168,-0.7195265990312438,685.0
686,1.4674847069333699,-1.0170033494277602,1.951960953079631,-4.082566440833377,-1.4535739876424139,-0.5667688108654816,686.0
687,1.4674847819042356,-1.0170033729798054,1.951960935413283,-4.0825664003414746,-1.4535740629328253,-0.404011028933195,687.0
688,1.4674848468884463,-1.0170034146618012,1.9519609173682952,-4.082566341237973,-1.453574128399803,-0.2391639342193017,688.0
689,1.4674849050127747,-1.0170034575446443,1.9519609005086922,-4.082566282051555,-1.4535741870101353,-0.0841945609298797,689.0
690,1.4674849455502523,-1.0170035107385875,1.951960885759057,-4.082566214488973,-1.4535742281119148,0.06077481235967096,690.0
691,1.4674849820113507,-1.0170035609648445,1.9519608721867008,-4.08256615103235,-1.4535742651036168,0.19574418564936824,691.0
692,1.4674850008627178,-1.0170036156412583,1.9519608614816633,-4.0825660858193435,-1.453574284507147,0.3207135589392079,692.0
693,1.4674850182056058,-1.0170036659424815,1.9519608516332287,-4.0825660258246526,-1.4535743023580143,0.4356829322291478,693.0
694,1.4674850242759416,-1.0170037143019734,1.9519608442356233,-4.082565970112825,-1.453574308903769,0.5406523055192274,694.0
695,1.46748502521111,-1.0170037591901422,1.951960838286773,-4.082565919271861,-1.4535743102744891,0.6356216788093737,695.0
696,1.4674850260478078,-1.017003799351714,1.9519608329643146,-4.0825658737843,-1.4535743115008763,0.7205910520996298,696.0
697,1.4674850213187844,-1.0170038346651904,1.951960829351551,-4.082565834801503,-1.4535743071078258,0.79556042538992,697.0
698,1.4674850127459758,-1.017003865168839,1.951960827107293,-4.082565801960846,-1.4535742988197473,0.8605297986802705,698.0
699,1.4674850054926822,-1.0170038909774053,1.9519608252084668,-4.082565774174978,-1.4535742918073589,0.9154991719706685,699.0
700,1.4674849995589043,-1.0170039120908894,1.9519608236550718,-4.082565751443901,-1.4535742860706606,0.960468545261085,700.0
701,1.467484994944642,-1.0170039285092929,1.951960822447111,-4.082565733767614,-1.4535742816096522,0.9954379185515131,701.0
702,1.4674849916498947,-1.0170039402326154,1.951960821584584,-4.082565721146118,-1.453574278424334,1.0204072918419174,702.0
703,1.4674849896746627,-1.0170039472608572,1.9519608210674912,-4.082565713579413,-1.453574276514706,1.0353766651323049,703.0
704,1.4677375713812044,-1.0154381039625064,1.9488925835107263,-4.0810638606270935,-1.4538329087655328,1.0422119178889102,704.0
705,1.4682009801425424,-1.0125649248561663,1.9432626320511714,-4.0783080814337955,-1.4543074200740214,1.0399073677298734,705.0
706,1.468263839500699,-1.0121738934702338,1.9424963074835881,-4.0779329230364345,-1.4543717920487178,1.029709757164156,706.0
707,1.4682634851147207,-1.0121735088301371,1.9424953458789376,-4.077932345444645,-1.4543714423178655,1.0101396312626951,707.0
708,1.468262949643561,-1.0121729276455222,1.9424938929107385,-4.077931472713319,-1.4543709138805219,0.9805695053611883,708.0
709,1.468262233087221,-1.0121721499163894,1.9424919485789913,-4.077930304842455,-1.4543702067366877,0.9409993794596709,709.0
710,1.4682613354034892,-1.0121711756068672,1.942489512855853,-4.077928841990104,-1.454369320518434,0.8914292570201049,710.0
711,1.4682602563743727,-1.0121700045316944,1.9424865855974351,-4.077927084972241,-1.4543682533260047,0.8318591532450792,711.0
712,1.4682589962092416,-1.0121686368687872,1.942483166941784,-4.077925033004771,-1.454367006984579,0.7622890494700844,712.0
713,1.4682588986232679,-1.0121684969403995,1.9424829089528413,-4.077924915060359,-1.4543669096106369,0.6827189605184167,713.0
714,1.4682588976656965,-1.0121684548607737,1.9424829145095774,-4.077924962895729,-1.45436690761749,0.5931488755987336,714.0
715,1.468258896596069,-1.0121684081121773,1.9424829207127785,-4.077925015954415,-1.4543669053598414,0.4935788007244798,715.0
716,1.4682588832724086,-1.012168359743726,1.942482929556784,-4.077925073050119,-1.454366891379935,0.38400873512116496,716.0
717,1.4682588653588495,-1.0121683078153305,1.9424829397685643,-4.077925134997066,-1.454366872934688,0.26443867715242025,717.0
718,1.4682588394408786,-1.0121682551079634,1.9424829516466402,-4.0779251993211485,-1.4543668464714563,0.1348686263499673,718.0
719,1.468258800681644,-1.0121682042704667,1.942482965794637,-4.0779252639397185,-1.4543668071707772,-0.004701420304638212,719.0
720,1.4682587534099847,-1.0121681552117654,1.9424829813813669,-4.077925328134118,-1.4543667593640937,-0.15427146432564953,720.0
721,1.4682586922784227,-1.0121681129865339,1.9424829988032242,-4.077925387191774,-1.4543666977460479,-0.3138415017272136,721.0
722,1.468258621520612,-1.012168080441249,1.942483016863684,-4.077925437110554,-1.454366626584163,-0.4801571450248331,722.0
723,1.468258549168334,-1.0121680577363648,1.9424830339681822,-4.077925476214437,-1.4543665539216795,-0.6383177253667373,723.0
724,1.468258477085571,-1.0121680517829468,1.942483048860638,-4.077925496352666,-1.4543664816921713,-0.7864783057087665,724.0
725,1.4682584087293709,-1.0121680502821129,1.9424830624489138,-4.077925510769529,-1.4543664132371763,-0.9246388860509268,725.0
726,1.4682583455884703,-1.0121680617322637,1.9424830733458651,-4.0779255095916955,-1.4543663501300201,-1.052799466393255,726.0
727,1.4682582874564618,-1.0121680762317533,1.9424830828682342,-4.077925504038359,-1.4543662920676192,-1.170960046735685,727.0
728,1.4682582358162195,-1.012168094061947,1.9424830906891786,-4.077925493515823,-1.454366240537414,-1.2791206270782125,728.0
729,1.468258191709416,-1.0121681182429993,1.9424830962152895,-4.077925474419913,-1.454366196611771,-1.377281207420888,729.0
730,1.468258152095944,-1.0121681399606308,1.9424831011784276,-4.077925457269373,-1.4543661571610036,-1.465441787763604,730.0
731,1.4682581182205658,-1.0121681608474824,1.9424831051242375,-4.077925439988991,-1.4543661234473066,-1.5436023681064241,731.0
732,1.4682580929814382,-1.0121681847047939,1.942483106994838,-4.077925417747075,-1.4543660984094218,-1.6117629484492766,732.0
733,1.4682580714452025,-1.012168205061943,1.9424831085909984,-4.077925398768324,-1.454366077044904,-1.669923528792176,733.0
734,1.468258053611859,-1.012168221918928,1.9424831099127153,-4.077925383052733,-1.4543660593537524,-1.7180841091351131,734.0
735,1.4682580394814075,-1.0121682352757506,1.942483110959993,-4.0779253706003065,-1.4543660453359686,-1.7562446894780572,735.0
736,1.4682580290538483,-1.012168245132411,1.9424831117328305,-4.077925361411046,-1.4543660349915524,-1.7844052698209987,736.0
737,1.468258022329181,-1.012168251488909,1.942483112231229,-4.0779253554849495,-1.4543660283205035,-1.8025658501639164,737.0
738,1.4683696566119764,-1.011465231748511,1.9411045979314463,-4.07725010148057,-1.454480390876756,-1.8117422090826576,738.0
739,1.4688422386857523,-1.0084890963440065,1.9352688663850437,-4.074391523813999,-1.4549645226467582,-1.8126452091946197,739.0
740,1.4690265879101039,-1.007327156662454,1.932990405674599,-4.073275400287537,-1.4551533819126372,-1.8047862510416672,740.0
741,1.4690263014987321,-1.0073268276226663,1.9329895847806358,-4.0732749082592115,-1.4551530985672967,-1.788417127361182,741.0
742,1.4690258401168632,-1.0073262975704156,1.9329882623974184,-4.073274115647704,-1.4551526421245158,-1.762048003680721,742.0
743,1.4690252037644966,-1.007325566505701,1.9329864385249462,-4.073273022453016,-1.4551520125842947,-1.7256788800002412,743.0
744,1.4690243924416326,-1.0073246344285234,1.9329841131632197,-4.073271628675148,-1.4551512099466335,-1.6793097563197714,744.0
745,1.4690234064337437,-1.007323501420216,1.9329812863483586,-4.073269933805903,-1.4551502364851039,-1.6229406515189817,745.0
746,1.4690222455664192,-1.0073221674310318,1.932977958058117,-4.073267938155539,-1.4551490908111102,-1.556571550359238,746.0
747,1.4690217656392393,-1.0073215797552595,1.9329765182276613,-4.0732670855277595,-1.4551486176864896,-1.480202458740083,747.0
748,1.4690218042682883,-1.007321558656307,1.932976513404101,-4.073267102001447,-1.4551486567536822,-1.3938333731630221,748.0
749,1.4690218473634795,-1.0073215351471159,1.932976508051684,-4.073267120250602,-1.4551487002915404,-1.2974642994688528,749.0
750,1.4690218970511495,-1.0073215154509838,1.932976500880158,-4.0732671330578585,-1.4551487501942209,-1.1910952325152817,750.0
751,1.4690219539088358,-1.0073215012644725,1.932976491541807,-4.073267138445392,-1.455148806969563,-1.074726173788367,751.0
752,1.4690220156750993,-1.0073214869660427,1.9329764812522099,-4.073267143044228,-1.45514886865354,-0.9483571233317413,752.0
753,1.4690220826840032,-1.0073214884190116,1.9329764678877168,-4.073267128890426,-1.4551489357587652,-0.8119880790462682,753.0
754,1.4690221544032065,-1.007321490702388,1.9329764534895197,-4.073267112919174,-1.4551490075883964,-0.6656190354983434,754.0
755,1.469022225447481,-1.0073215129721966,1.9329764366391033,-4.073267074496069,-1.4551490789391286,-0.5092499989040132,755.0
756,1.4690222976476999,-1.0073215416266499,1.9329764187355498,-4.0732670286448185,-1.4551491515098007,-0.3435091042320648,756.0
757,1.4690223590416327,-1.0073215840057876,1.9329764011816752,-4.073266969307692,-1.455149213395222,-0.18215260528003965,757.0
758,1.4690224093958175,-1.007321630597401,1.9329763852537474,-4.073266907273559,-1.4551492642684618,-0.0307961063279032,758.0
759,1.4690224483834187,-1.0073216817104393,1.9329763709760743,-4.073266842254455,-1.455149303805305,0.11056039262439607,759.0
760,1.4690224774705478,-1.0073217331241582,1.9329763586063016,-4.073266778744472,-1.455149333432332,0.24191689157684232,760.0
761,1.469022495527185,-1.0073217854582164,1.9329763482864846,-4.073266716254644,-1.4551493520241916,0.3632733905294262,761.0
762,1.4690225116309867,-1.0073218335959047,1.9329763388934453,-4.073266658869811,-1.4551493686196726,0.474629889482086,762.0
763,1.4690225126157115,-1.0073218808237967,1.9329763325910538,-4.0732666053359985,-1.4551493700683893,0.5759863884348713,763.0
764,1.469022513503282,-1.0073219233921042,1.9329763269104632,-4.073266557083919,-1.4551493713741734,0.6673428873877443,764.0
765,1.4690225142936975,-1.0073219613008288,1.932976321851675,-4.073266514113573,-1.4551493725370248,0.7486993863406878,765.0
766,1.4690225061520286,-1.0073219943583547,1.932976319176751,-4.0732664782912265,-1.4551493647091656,0.8200558852936977,766.0
767,1.469022498166713,-1.007322022761797,1.9329763170730716,-4.073266447697064,-1.4551493569922505,0.8814123842467425,767.0
768,1.4690224914828598,-1.0073220465359904,1.9329763153122514,-4.073266422089196,-1.4551493505330528,0.9327688831998289,768.0
769,1.4690224861004682,-1.007322065680936,1.9329763138942921,-4.073266401467622,-1.4551493453315727,0.9741253821529254,769.0
770,1.4690224820195388,-1.0073220801966345,1.9329763128191955,-4.073266385832344,-1.4551493413878105,1.0054818811060264,770.0
771,1.4690224792400712,-1.007322090083086,1.9329763120869614,-4.073266375183362,-1.455149338701766,1.0268383800591034,771.0
772,1.4690401871449639,-1.0072088126286203,1.9327540309898754,-4.073157409904317,-1.4551674881564864,1.0383951151485002,772.0
773,1.4694449609080724,-1.004619566295666,1.9276734720253519,-4.070666974497231,-1.4555823530707903,1.0424162817500906,773.0
774,1.4697804383862765,-1.0024728700873806,1.9234612213478532,-4.068602147113872,-1.4559261977960671,1.0368667120675128,774.0
775,1.4697806856895488,-1.0024695525412168,1.9234545763170352,-4.0685988202520225,-1.4559264601422583,1.0236969938143599,775.0
776,1.4697802836868812,-1.0024690713326438,1.9234533939066205,-4.068598118331712,-1.4559260637321971,1.0005331196802023,776.0
777,1.4697797081369623,-1.0024683823830984,1.92345170104169,-4.068597113387689,-1.4559254961892507,0.9673692455460212,777.0
778,1.469778959039793,-1.0024674856925808,1.9234494977222443,-4.068595805419955,-1.4559247575134193,0.9242053714118452,778.0
779,1.4697780362553052,-1.0024663811373486,1.923446783849909,-4.068594194971341,-1.4559238464691597,0.8710415024710009,779.0
780,1.4697769397541256,-1.0024650686914436,1.9234435594039994,-4.068592282155551,-1.455922762797551,0.80787763842435,780.0
781,1.469776053325646,-1.0024639977229923,1.9234409547558728,-4.068590747873799,-1.4559218864881307,0.7347137789813618,781.0
782,1.4697760524512415,-1.0024639591949374,1.9234409598701252,-4.068590791731374,-1.4559218846741706,0.6515499307407662,782.0
783,1.4697760514679419,-1.0024639160547306,1.9234409656181461,-4.068590840779005,-1.4559218826111295,0.5583860901367598,783.0
784,1.4697760481801012,-1.002463868856473,1.923440972364736,-4.0685908947956575,-1.4559218782244443,0.4552222566968406,784.0
785,1.4697760314554855,-1.0024638204108245,1.9234409819606737,-4.0685909526551916,-1.4559218609939855,0.3420584331836359,785.0
786,1.469776013253772,-1.0024637676844002,1.9234409924046998,-4.068591015626254,-1.4559218422477178,0.21889461842778984,786.0
787,1.4697759809716278,-1.0024637175829718,1.9234410052804574,-4.068591078286774,-1.4559218094318223,0.08573080965774449,787.0
788,1.4697759417533478,-1.0024636661915025,1.9234410196900669,-4.068591143711481,-1.4559217696591351,-0.05743299714261883,788.0
789,1.4697758882943066,-1.0024636220823955,1.9234410359645102,-4.068591203574867,-1.4559217156986983,-0.21059679908474369,789.0
790,1.4697758267006842,-1.0024635795932884,1.9234410536338562,-4.068591263131679,-1.4559216536090496,-0.3735830489233199,790.0
791,1.4697757551538677,-1.0024635554844767,1.9234410708814684,-4.0685913037822115,-1.4559215817349713,-0.5340819168187338,791.0
792,1.4697756867469167,-1.0024635359745246,1.9234410869125433,-4.068591338647345,-1.4559215130500314,-0.6845807847141809,792.0
793,1.469775618176718,-1.0024635345065382,1.9234411006339525,-4.068591353154241,-1.4559214443795208,-0.8250796526097119,793.0
794,1.469775554487,-1.0024635331430318,1.9234411133787315,-4.068591366628604,-1.4559213805966305,-0.9555785205052618,794.0
795,1.4697754960055534,-1.002463547595547,1.9234411230428217,-4.068591361253763,-1.4559213221844651,-1.076077388400859,795.0
796,1.46977544238039,-1.0024635609927488,1.923441131885604,-4.068591356161583,-1.4559212686242575,-1.1865762562964952,796.0
