Miguel-LA/TFM_MiguelLerinAlonso/workspace/ros_ur_driver/src/trayectories/data/saved_trajectories/20240522_2019_trajectory.csv
,shoulder_pan_joint,shoulder_lift_joint,elbow_joint,wrist_1_joint,wrist_2_joint,wrist_3_joint,time_from_start
0,5.10011625289917,-2.089958969746725,-2.018005673085348,0.9761229753494263,-5.084254209195272,0.26986077427864075,0.0
1,5.100190319930916,-2.0899444713614006,-2.0179661655150407,0.9760696425348285,-5.084328207759841,0.27486077427864075,1.0
2,5.100412521026152,-2.0899009762054273,-2.017847642804119,0.9759096440910354,-5.084550203453547,0.2898607742786407,2.0
3,5.100782856184881,-2.0898284842788057,-2.017650104952583,0.9756429800180471,-5.08492019627639,0.31486077427864073,3.0
4,5.101301325407101,-2.089726995581535,-2.0173735519604317,0.975269650315863,-5.08543818622837,0.3498607742786407,4.0
5,5.101967928692812,-2.089596510113616,-2.0170179838276665,0.9747896549844837,-5.086104173309488,0.39486077427864064,5.0
6,5.102781336754929,-2.0894388610330332,-2.0165808664735723,0.9742027441959381,-5.086916665671274,0.4498607885196318,6.0
7,5.103740784429945,-2.0892551034715816,-2.016060741375501,0.9735087741977966,-5.087874804583974,0.5148608212275243,7.0
8,5.104847474772027,-2.0890435873044892,-2.0154598944554953,0.9727079873668263,-5.08897997438359,0.5898608579009843,8.0
9,5.10604359768516,-2.0888179275399006,-2.014804484924366,0.9718403796636899,-5.09017438094277,0.6710865666792584,9.0
10,5.107114027490264,-2.0886163896102494,-2.0142171183447948,0.9710636517590981,-5.091243278262567,0.7437994805354605,10.0
11,5.108035360420555,-2.0884452265150526,-2.013706886517606,0.9703934678813917,-5.092163311932566,0.8065124270463289,11.0
12,5.108809780634804,-2.088301356523548,-2.0132780145779012,0.9698301493185832,-5.092936640062292,0.8592253735571969,12.0
13,5.1094368391055225,-2.088185416896936,-2.012929630549881,0.9693736294540237,-5.093562841704101,0.9019383270079018,13.0
14,5.109916306737245,-2.088097732832418,-2.012661289418384,0.9690238742540629,-5.094041702092149,0.9346512944835755,14.0
15,5.110249206304765,-2.0880368528371376,-2.0124749772656694,0.9687810354322085,-5.094374180043812,0.9573642619592494,15.0
16,5.110435537808083,-2.088002776911095,-2.012370694091737,0.9686451129884603,-5.09456027555909,0.9700772294349232,16.0
17,5.111323601020479,-2.087841063885324,-2.011872340791018,0.9679968523536121,-5.095447296340835,0.9729502645732357,17.0
18,5.111513412537374,-2.0878065882671097,-2.0117656544992193,0.9678582382521568,-5.0956368955274804,0.9662177847268563,18.0
19,5.111513260270789,-2.0878068163925083,-2.011765354366044,0.9678582197907741,-5.095636767198014,0.9495549045240641,19.0
20,5.111513016623494,-2.087807181424249,-2.011764874112043,0.9678581902500449,-5.095636561853373,0.922892024321272,20.0
21,5.111512680286076,-2.0878076843558135,-2.011764213011943,0.9678581544138471,-5.0956362685301695,0.8862291476205084,21.0
22,5.111512249702958,-2.0878083263674707,-2.0117633702040987,0.9678581179653796,-5.095635874203999,0.8395662769360153,22.0
23,5.1115117268445225,-2.0878091059642454,-2.0117623467798813,0.9678580737058903,-5.095635395372488,0.782903406251519,23.0
24,5.111511496527971,-2.087809468793543,-2.011761900673014,0.9678580796509282,-5.095635179366761,0.7162405431435254,24.0
25,5.111511494458903,-2.087809507475359,-2.011761905249622,0.9678581261073856,-5.095635168155508,0.6395776848075126,25.0
26,5.111511492056275,-2.0878095507848204,-2.011761910797399,0.9678581768991993,-5.095635154950856,0.5529148332655507,26.0
27,5.111511487380188,-2.087809598256575,-2.011761917551996,0.9678582321969691,-5.0956351400031314,0.45625198631276637,27.0
28,5.111511471442698,-2.087809647062289,-2.01176192721685,0.9678582899035791,-5.095635123572199,0.34958914849813927,28.0
29,5.111511454023276,-2.087809700440548,-2.0117619377891995,0.9678583530013751,-5.095635105703359,0.23292631698552832,29.0
30,5.1115114249706455,-2.0878097525364345,-2.0117619505014064,0.9678584171783464,-5.0956350762345135,0.10626349289074626,30.0
31,5.111511387370633,-2.087809805134679,-2.0117619649770537,0.967858483758182,-5.095635038217348,-0.030399325339805914,31.0
32,5.111511338905214,-2.0878098533547393,-2.0117619811201473,0.9678585475273546,-5.095634989349053,-0.17706214121969988,32.0
33,5.111511279573685,-2.087809897195366,-2.01176199893124,0.9678586084828484,-5.095634929628692,-0.33372495208444486,33.0
34,5.111511209050669,-2.087809928658285,-2.0117620174494717,0.9678586576793886,-5.095634858804029,-0.49805256980140994,34.0
35,5.111511138148988,-2.0878099525430187,-2.011762035071871,0.9678586984138062,-5.095634787659352,-0.6550506179714946,35.0
36,5.111511066967538,-2.0878099564063572,-2.0117620501793954,0.9678587166515796,-5.095634716390312,-0.8020486661415789,36.0
37,5.111511000124903,-2.087809958064544,-2.0117620641129825,0.9678587315591285,-5.095634649480735,-0.9390467143116596,37.0
38,5.111510938517976,-2.0878099440184714,-2.011762074954209,0.967858727756685,-5.0956345879331515,-1.0660447624817369,38.0
39,5.111510881811077,-2.0878099289365912,-2.011762084656539,0.9678587218316361,-5.0956345312976055,-1.1830428106518118,39.0
40,5.111510832029213,-2.087809908758131,-2.011762092282594,0.967858708815065,-5.095634481632304,-1.2900408588218837,40.0
41,5.111510789137723,-2.087809883589598,-2.011762097853176,0.9678586888337015,-5.095634438901734,-1.3870389069919447,41.0
42,5.111510750668122,-2.0878098610158147,-2.0117621028494517,0.9678586709123104,-5.095634400576463,-1.47403695516201,42.0
43,5.111510718523599,-2.087809838374687,-2.011762106538752,0.9678586516811554,-5.095634368581906,-1.5510350033320779,43.0
44,5.111510694144867,-2.087809813651004,-2.0117621083664385,0.9678586285893311,-5.095634344375605,-1.6180330515021493,44.0
45,5.111510673404858,-2.08780979261753,-2.0117621099213276,0.9678586089441481,-5.09563432378229,-1.6750310996722224,45.0
46,5.1115106563035715,-2.0878097752742675,-2.0117621112034167,0.9678585927456044,-5.095634306801961,-1.722029147842297,46.0
47,5.111510642841006,-2.0878097616212137,-2.0117621122127094,0.9678585799937023,-5.0956342934346175,-1.7590271960123713,47.0
48,5.111510633017166,-2.0878097516583694,-2.011762112949206,0.9678585706884422,-5.095634283680259,-1.7860252441824458,48.0
49,5.111510626832048,-2.0878097453857336,-2.0117621134129062,0.9678585648298238,-5.095634277538888,-1.8030232923525187,49.0
50,5.110901405871866,-2.0888832145304277,-2.0096753905075873,0.9668448348825582,-5.095026202449247,-1.8113493980328093,50.0
51,5.109248471953663,-2.091795766492685,-2.0040136795613654,0.9640943831581718,-5.093376377766625,-1.810825674636904,51.0
52,5.108797539959261,-2.0925903394513465,-2.002469113806047,0.963344033099843,-5.092926295740957,-1.8017124736724477,52.0
53,5.108797546965678,-2.092590343774293,-2.0024691152724037,0.9633440293617274,-5.092926306361482,-1.7836588554404393,53.0
54,5.108797557852986,-2.0925903504917445,-2.0024691175509832,0.9633440235530487,-5.092926322864777,-1.7556052372084303,54.0
55,5.108797572621189,-2.0925903596037,-2.0024691206417864,0.9633440156738071,-5.092926345250841,-1.7175516189764215,55.0
56,5.10879759126928,-2.092590371109357,-2.0024691245456343,0.9633440057210981,-5.092926373511243,-1.6694980008224336,56.0
57,5.10879761296124,-2.0925903843387132,-2.0024691299481168,0.9633439912734432,-5.092926400616779,-1.6114444055330912,57.0
58,5.108797638389739,-2.092590399846888,-2.002469136281202,0.9633439743371127,-5.092926432391368,-1.5433908102437497,58.0
59,5.108797671441651,-2.0925904193639573,-2.0024691344192505,0.963343982417647,-5.092926465747935,-1.4653372277933168,59.0
60,5.108797709913784,-2.0925904419166694,-2.0024691295268138,0.9633439999601006,-5.092926502428372,-1.3772836499360006,60.0
61,5.108797752743421,-2.0925904671258038,-2.002469123996033,0.9633440199000579,-5.0929265431759765,-1.2792300838700739,61.0
62,5.10879780308032,-2.0925904858868445,-2.0024691160588954,0.9633440312029595,-5.092926592654347,-1.1711765252986321,62.0
63,5.108797859941848,-2.0925905010257573,-2.0024691062922355,0.9633440372127017,-5.092926649437749,-1.053122974615113,63.0
64,5.108797921719207,-2.0925905131733504,-2.0024690951324717,0.9633440388801435,-5.092926711175236,-0.9250694315175954,64.0
65,5.1087979886576775,-2.0925905115297376,-2.0024690811522317,0.9633440239427691,-5.09292677818485,-0.7870158933646126,65.0
66,5.10879805932619,-2.092590505457376,-2.002469065834121,0.963344003285563,-5.0929268489617225,-0.6389623567763355,66.0
67,5.108798130259426,-2.09259048160694,-2.00246904817019,0.9633439625450002,-5.092926920139848,-0.4809088270441828,67.0
68,5.108798199841955,-2.092590447667831,-2.0024690294838186,0.9633439107008264,-5.092926990045212,-0.3146051705900747,68.0
69,5.108798259941283,-2.092590403327403,-2.002469011407464,0.9633438489905581,-5.092927050541153,-0.15491793267437157,69.0
70,5.108798306649659,-2.0925903520101934,-2.002468995186287,0.9633437820367197,-5.092927097689861,-0.005230694758668719,70.0
71,5.108798344844368,-2.092590298657375,-2.00246898045391,0.9633437144534802,-5.092927136333891,0.1344565431570345,71.0
72,5.10879837063484,-2.0925902434546675,-2.0024689680345187,0.9633436472106576,-5.092927162578038,0.2641437810727408,72.0
73,5.108798388390699,-2.092590188963917,-2.002468957359506,0.9633435823406884,-5.09292718077542,0.3838310189884479,73.0
74,5.108798401772257,-2.0925901382574117,-2.002468948071949,0.9633435225898263,-5.092927194565273,0.49351825690415557,74.0
75,5.108798402894281,-2.092590089238841,-2.0024689415235786,0.9633434671374393,-5.092927196072335,0.5932054948198633,75.0
76,5.108798403903748,-2.0925900451375097,-2.002468935632094,0.9633434172476865,-5.0929271974282155,0.6828927327355746,76.0
77,5.108798404173084,-2.0925900059688276,-2.0024689305285728,0.9633433730606181,-5.092927198004706,0.7625799706512846,77.0
78,5.108798395340006,-2.0925899719381564,-2.002468927959506,0.9633433364423281,-5.092927189431078,0.8322672085669971,78.0
79,5.108798387774462,-2.0925899427908288,-2.002468925759096,0.9633433050787004,-5.0929271820877515,0.8919544464827099,79.0
80,5.108798381476449,-2.092589918526846,-2.0024689239273394,0.9633432789697338,-5.092927175974726,0.9416416843984194,80.0
81,5.108798376445966,-2.0925898991462066,-2.0024689224642396,0.9633432581154296,-5.0929271710920005,0.9813289223141275,81.0
82,5.108798372683015,-2.09258988464891,-2.0024689213697977,0.9633432425157878,-5.092927167439576,1.0110161602298369,82.0
83,5.108798370187596,-2.0925898750349567,-2.002468920644013,0.9633432321708089,-5.0929271650174535,1.0307033981455491,83.0
84,5.108559045963644,-2.0930183445501926,-2.0016353103012854,0.9629379118694754,-5.092688307622624,1.0410471502468825,84.0
85,5.106984025826841,-2.0958381986076406,-1.9961491985016253,0.9602704727769746,-5.0911163595353885,1.0432153398558115,85.0
86,5.106123320401051,-2.09737917674664,-1.9931511857898985,0.9588127887386884,-5.090257333266859,1.0361298519988813,86.0
87,5.106123322438548,-2.097379182076625,-1.9931511882015094,0.958812787781152,-5.0902573361303745,1.020788908856641,87.0
88,5.10612332580419,-2.0973791908809627,-1.9931511921851301,0.9588127861994451,-5.090257340860475,0.9954479657144021,88.0
89,5.106123330497975,-2.097379203159653,-1.99315119774076,0.9588127839935677,-5.090257347457159,0.960107022572166,89.0
90,5.106123336519903,-2.097379218912696,-1.9931512048684,0.9588127811635198,-5.090257355920429,0.9147660794299285,90.0
91,5.1061233444923255,-2.0973792383759435,-1.9931512132887081,0.9588127784078795,-5.090257371512859,0.8594251484146693,91.0
92,5.106123354153414,-2.0973792614501714,-1.993151223119206,0.9588127754327496,-5.090257392020446,0.7940842218634478,92.0
93,5.106123359148965,-2.097379293406132,-1.9931512310577397,0.9588127956490411,-5.0902574035909876,0.718743303693503,93.0
94,5.106123358409969,-2.0973793351747343,-1.993151236513362,0.9588128431710379,-5.090257404123457,0.6334023936694309,94.0
95,5.106123357573254,-2.097379381917314,-1.993151242538773,0.9588128966016716,-5.090257404623836,0.5380614938306387,95.0
96,5.106123351144427,-2.0973794320588706,-1.993151250195266,0.9588129548406413,-5.0902573989465125,0.43272060081188785,96.0
97,5.106123334136549,-2.097379484197846,-1.9931512604219626,0.9588130170047614,-5.090257381483971,0.31737971620972283,97.0
98,5.106123315652013,-2.097379540855423,-1.9931512715371533,0.9588130845517859,-5.0902573624898055,0.19203884034778354,98.0
99,5.106123279526756,-2.0973795925392302,-1.9931512856652436,0.9588131498883324,-5.090257325921413,0.056697970602822244,99.0
100,5.106123240033107,-2.0973796476310227,-1.9931513009293123,0.9588132197230237,-5.090257285956866,-0.08864289870966659,100.0
101,5.106123182971777,-2.097379691483745,-1.993151318360852,0.9588132803320771,-5.090257228501732,-0.2439837616757614,101.0
102,5.1061231194333,-2.0973797338712807,-1.9931513369379874,0.9588133405585657,-5.090257164575897,-0.40910861761993894,102.0
103,5.106123047000883,-2.0973797581799176,-1.9931513550109048,0.9588133821488154,-5.090257091891515,-0.5715100791813466,103.0
104,5.106122977095518,-2.0973797735534863,-1.993151371407703,0.9588134131723538,-5.090257021806867,-0.7239115407426949,104.0
105,5.106122908477262,-2.097379775220699,-1.9931513857670846,0.9588134284938691,-5.090256953118681,-0.8663130023040261,105.0
106,5.106122844814821,-2.0973797707814157,-1.9931513983154354,0.958813435961267,-5.090256889438656,-0.9987144638653531,106.0
107,5.106122786223292,-2.097379755210086,-1.9931514083792785,0.9588134298871803,-5.09025683092169,-1.1211159254266667,107.0
108,5.106122732418592,-2.097379740910912,-1.9931514176209142,0.9588134243093326,-5.09025677718546,-1.2335173869879765,108.0
109,5.106122687375253,-2.0973797157016127,-1.9931514236460504,0.9588134047172012,-5.090256732304038,-1.3359188485492823,109.0
110,5.1061226470215555,-2.0973796920623626,-1.9931514289075323,0.958813385976139,-5.090256692103733,-1.4283203101105837,110.0
111,5.106122611035071,-2.0973796709814327,-1.993151433599595,0.9588133692632964,-5.090256656254039,-1.5107217716718866,111.0
112,5.106122583771891,-2.0973796463822016,-1.9931514360387008,0.9588133468757258,-5.090256629162662,-1.5831232332331866,112.0
113,5.106122561346128,-2.0973796236853706,-1.993151437726668,0.9588133256849095,-5.09025660689767,-1.6455246947944857,113.0
114,5.106122542514151,-2.0973796046257682,-1.9931514391441314,0.9588133078899767,-5.0902565882007025,-1.6979261563557924,114.0
115,5.106122527275963,-2.0973795892033937,-1.9931514402910933,0.9588132934909279,-5.09025657307176,-1.7403276179171026,115.0
116,5.106122515631563,-2.097379577418246,-1.9931514411675542,0.9588132824877642,-5.09025656151084,-1.7727290794784099,116.0
117,5.106122507580952,-2.0973795692703256,-1.9931514417735146,0.9588132748804853,-5.0902565535179445,-1.795130541039718,117.0
118,5.106094205023065,-2.0974310409601373,-1.9930512111294534,0.9587644955541605,-5.0902283082078075,-1.8076245760980783,118.0
119,5.104783188232684,-2.0998158705458168,-1.9884076317526396,0.9565048036229906,-5.08891994215723,-1.8124179516202195,119.0
120,5.103504524108425,-2.102141857799355,-1.9838786320646138,0.9543008697185354,-5.0876438643601745,-1.8074576657158063,120.0
121,5.103484608435706,-2.1021780976883866,-1.9838080751038787,0.9542665317345631,-5.08762399152601,-1.794786263505342,121.0
122,5.1034846171065285,-2.102178103034425,-1.983808076928971,0.9542665271375256,-5.0876240047661625,-1.7721814112595307,122.0
123,5.103484629613172,-2.1021781107454585,-1.9838080795614528,0.9542665205068371,-5.087624023863531,-1.7395765590137202,123.0
124,5.103484645955641,-2.1021781208214882,-1.9838080830013247,0.9542665118424981,-5.087624048818117,-1.6969717067679082,124.0
125,5.103484665777598,-2.102178132969454,-1.9838080875502393,0.9542665000793837,-5.087624076601266,-1.6443668652061425,125.0
126,5.103484688908873,-2.1021781470493996,-1.9838080933522568,0.9542664847088236,-5.087624105766591,-1.581762036237985,126.0
127,5.10348471683272,-2.102178163865343,-1.983808097470403,0.9542664746825695,-5.087624138629411,-1.509157211114337,127.0
128,5.103484752483111,-2.1021781847188192,-1.983808092927276,0.9542664908461187,-5.0876241726208935,-1.4265523985754132,128.0
129,5.103484792442769,-2.1021782081485125,-1.9838080877887014,0.954266509187162,-5.087624210671715,-1.3339475928065812,129.0
130,5.1034848371493435,-2.102178232901444,-1.9838080817939596,0.9542665282305607,-5.087624253418362,-1.2313427941691275,130.0
131,5.10348489071763,-2.1021782471539003,-1.9838080725560858,0.9542665338477674,-5.087624306905297,-1.1187380061363943,131.0
132,5.10348494904512,-2.1021782626727346,-1.9838080624970018,0.9542665399656731,-5.087624365159327,-0.9961332262306433,132.0
133,5.1034850124212765,-2.102178266738772,-1.9838080499248782,0.9542665321313781,-5.087624428559879,-0.8635284523946356,133.0
134,5.103485080714297,-2.1021782650974146,-1.983808035604535,0.9542665168724568,-5.087624496926706,-0.7209236807301665,134.0
135,5.103485150170974,-2.102178249408932,-1.9838080192217764,0.9542664855450064,-5.087624566567731,-0.5683189135547362,135.0
136,5.103485222246481,-2.102178225265594,-1.9838080012013204,0.9542664441695051,-5.087624638895807,-0.4057141527008533,136.0
137,5.103485285091053,-2.1021781828172084,-1.983807982713388,0.9542663839649066,-5.087624702131062,-0.2407401472455348,137.0
138,5.103485341410631,-2.1021781390409124,-1.9838079654010898,0.9542663235439448,-5.087624758846447,-0.0856062251611657,138.0
139,5.103485380603477,-2.102178084440424,-1.9838079502227455,0.9542662542796487,-5.087624798506992,0.05952769692319004,139.0
140,5.103485416120257,-2.1021780330309703,-1.983807936217672,0.9542661893353934,-5.087624834462979,0.19466161900753562,140.0
141,5.1034854344532175,-2.1021779769060838,-1.9838079251507028,0.9542661224474949,-5.087624853258335,0.31979554109188046,141.0
142,5.10348545132111,-2.1021779252663886,-1.9838079149681351,0.9542660609048987,-5.087624870551672,0.43492946317621356,142.0
143,5.1034854575569355,-2.1021778756764458,-1.9838079072477486,0.9542660037610564,-5.087624877187718,0.5400633852605472,143.0
144,5.103485458612753,-2.1021778295847264,-1.983807901051165,0.9542659515789276,-5.08762487861156,0.6351973073448715,144.0
145,5.1034854595575885,-2.10217778833794,-1.9838078955059295,0.9542659048819195,-5.087624879885735,0.7203312294291959,145.0
146,5.10348545527982,-2.102177752058951,-1.9838078916839152,0.9542658648121409,-5.087624875893366,0.79546515151352,146.0
147,5.1034854471244415,-2.1021777207154306,-1.9838078893030877,0.9542658310690755,-5.087624867980831,0.8605990735978436,147.0
148,5.103485440221157,-2.1021776941840757,-1.9838078872877867,0.9542658025065764,-5.087624861283106,0.9157329956821736,148.0
149,5.103485434569967,-2.102177672464888,-1.9838078856380115,0.9542657791246432,-5.087624855800191,0.9608669177665099,149.0
150,5.103485430170869,-2.1021776555578646,-1.983807884353765,0.9542657609232774,-5.087624851532086,0.996000839850842,150.0
151,5.103485427023866,-2.102177643463006,-1.9838078834350474,0.9542657479024794,-5.08762484847879,1.0211347619351752,151.0
152,5.103485425128957,-2.102177636180313,-1.9838078828818586,0.9542657400622487,-5.087624846640306,1.036268684019506,152.0
153,5.102623456190975,-2.1037707047775753,-1.9807034635094247,0.9527537964341137,-5.086764683691429,1.043199187178192,153.0
154,5.101100740924059,-2.106584957638576,-1.975219331127394,0.9500828680981477,-5.085245158916756,1.0408398588933445,154.0
155,5.100884021435863,-2.1069855003454045,-1.9744388022240897,0.9497027269719938,-5.085028894093903,1.0303649539023976,155.0
156,5.100884024049273,-2.106985507144809,-1.974438805327687,0.9497027257451033,-5.08502889784442,1.0105152616748685,156.0
157,5.100884027979284,-2.10698551736966,-1.9744388099948338,0.9497027239001223,-5.085028903484395,0.9806655694473424,157.0
158,5.1008840332258965,-2.106985531019957,-1.97443881622553,0.949702721437051,-5.085028911013829,0.9408158772198103,158.0
159,5.100884039932817,-2.1069855481526143,-1.9744388239525634,0.9497027185276501,-5.085028921661159,0.8909661880862475,159.0
160,5.100884048693533,-2.1069855690026826,-1.974438832898362,0.9497027158812619,-5.085028940499623,0.8311165128423486,160.0
161,5.100884058918038,-2.106985593336491,-1.9744388433388718,0.9497027127927012,-5.085028962485718,0.7612668375984513,161.0
162,5.100884058751554,-2.1069856314025692,-1.9744388486860602,0.9497027546744152,-5.085028964006224,0.681417178144641,162.0
163,5.100884057979037,-2.106985674762729,-1.9744388543585025,0.9497028041321569,-5.0850289645289815,0.5915675226118148,163.0
164,5.100884057109859,-2.106985723023537,-1.9744388605963046,0.9497028594144529,-5.085028965018111,0.4917178765928287,164.0
165,5.10088404376704,-2.1069857726839754,-1.974438869762166,0.9497029182383293,-5.085028951582949,0.38186824017320625,165.0
166,5.100884026311962,-2.1069858260611642,-1.9744388803021442,0.9497029819466014,-5.08502893364684,0.2620186112934602,166.0
167,5.100884000702828,-2.1069858799645136,-1.974438892606885,0.9497030478286483,-5.085028907553806,0.13216898939732222,167.0
168,5.100883963169194,-2.106985932183428,-1.9744389071736406,0.9497031141198005,-5.0850288695660835,-0.007680628653722873,168.0
169,5.100883917024866,-2.1069859821493666,-1.9744389232298687,0.9497031795639954,-5.085028822979699,-0.15753024398376825,169.0
170,5.10088385797277,-2.106986025521938,-1.974438941100122,0.9497032401113304,-5.085028763529446,-0.31737985266666896,170.0
171,5.100883789494149,-2.1069860583344426,-1.9744389595478071,0.9497032906009818,-5.085028694729449,-0.4836540592642064,171.0
172,5.100883719937866,-2.106986081589945,-1.9744389769749198,0.9497033305216525,-5.085028624927581,-0.6415447367653735,172.0
173,5.100883650558785,-2.1069860871415336,-1.9744389920615053,0.9497033504360252,-5.085028555445224,-0.7894354142665924,173.0
174,5.100883584928843,-2.106986088701208,-1.9744390058523902,0.9497033651094708,-5.085028489747236,-0.9273260917678506,174.0
175,5.100883524370788,-2.1069860765204194,-1.974439016805132,0.9497033632845835,-5.085028429235762,-1.0552167692691312,175.0
176,5.100883468629848,-2.106986061715342,-1.9744390264190368,0.9497033575514202,-5.085028373566551,-1.173107446770439,176.0
177,5.10088341926353,-2.106986043131756,-1.9744390342214435,0.9497033463014608,-5.0850283243077,-1.2809981242717752,177.0
178,5.100883377035814,-2.1069860184336324,-1.9744390397501927,0.9497033267491544,-5.08502828224259,-1.3788888017731415,178.0
179,5.100883339121857,-2.106985996258543,-1.9744390447141469,0.9497033091942062,-5.085028244474628,-1.4667794792745277,179.0
180,5.100883306881419,-2.1069859747146933,-1.974439048585611,0.9497032912349697,-5.085028212379917,-1.5446701567759182,180.0
181,5.100883282781181,-2.1069859503702535,-1.9744390504072995,0.9497032685147002,-5.085028188454778,-1.6125608342773237,181.0
182,5.100883262230802,-2.1069859296116435,-1.974439051960661,0.9497032491410271,-5.085028168053708,-1.6704515117787382,182.0
183,5.100883245230282,-2.106985912438865,-1.9744390532456917,0.9497032331139479,-5.085028151176704,-1.7183421892801651,183.0
184,5.100883231779623,-2.1069858988519155,-1.974439054262397,0.9497032204334658,-5.0850281378237705,-1.7562328667815947,184.0
185,5.100883221878823,-2.106985888850795,-1.974439055010776,0.9497032110995803,-5.085028127994905,-1.7841235442830234,185.0
186,5.100883215527883,-2.106985882435504,-1.9744390554908293,0.9497032051122918,-5.085028121690107,-1.802014221784446,186.0
187,5.100435875455194,-2.1078258436196644,-1.972800921324584,0.9489047380617172,-5.084581752509666,-1.8110230016519628,187.0
188,5.0988741222271585,-2.1107583470255764,-1.9670818277503446,0.946117120776599,-5.08302338902298,-1.811436143119956,188.0
189,5.098317462241809,-2.1118035953673178,-1.965043344370499,0.9451235155223133,-5.082467938894309,-1.8030484192974052,189.0
190,5.098317468714975,-2.1118035993558113,-1.9650433457407124,0.9451235121130372,-5.082467948851686,-1.785976686184619,190.0
191,5.0983174789798875,-2.1118036056806186,-1.965043347913547,0.9451235067067313,-5.082467964641733,-1.7589049530718284,191.0
192,5.098317493036546,-2.111803614341741,-1.9650433508890028,0.9451234993033957,-5.082467986264451,-1.7218332199590378,192.0
193,5.0983175108849474,-2.1118036253391774,-1.9650433546670798,0.94512348990303,-5.082468013719836,-1.6747614868462446,193.0
194,5.098317531808473,-2.1118036380679843,-1.965043359874203,0.9451234762953591,-5.082468040851231,-1.6176897748089072,194.0
195,5.09831755631631,-2.111803652957999,-1.9650433660652729,0.945123460050869,-5.082468072033184,-1.5506180649583319,195.0
196,5.098317587730332,-2.111803671506664,-1.9650433653445578,0.9451234645818235,-5.082468104745446,-1.4735463662456492,196.0
197,5.098317624853137,-2.111803693184302,-1.9650433605966928,0.9451234813473861,-5.082468140136275,-1.3864746727508925,197.0
198,5.098317666227005,-2.111803717447773,-1.9650433552180653,0.9451235004498053,-5.082468179484348,-1.2894029917950887,198.0
199,5.098317714440119,-2.1118037368408804,-1.9650433477523999,0.9451235128033144,-5.0824682266497145,-1.1823313174906027,199.0
200,5.098317769455155,-2.1118037514709247,-1.9650433382242891,0.9451235185278685,-5.082468281584631,-1.0652596512732793,200.0
201,5.098317829225771,-2.1118037649674806,-1.9650433275622947,0.945123522032394,-5.08246834130086,-0.938187993007599,201.0
202,5.098317894068221,-2.1118037634444042,-1.9650433139074241,0.9451235075249774,-5.08246840621455,-0.80111634034434,202.0
203,5.09831796307571,-2.1118037596418837,-1.96504329909079,0.9451234896231453,-5.0824684753151494,-0.6540446886789258,203.0
204,5.098318031848526,-2.1118037366917104,-1.9650432818227814,0.945123450159273,-5.082468544332574,-0.49697304395636577,204.0
205,5.098318100763636,-2.1118037058315804,-1.9650432634924795,0.9451234017407608,-5.082468613556427,-0.3309275446013979,205.0
206,5.098318159753985,-2.1118036625684002,-1.9650432456023443,0.9451233412825798,-5.082468672947458,-0.17026259114495437,206.0
207,5.0983182071082185,-2.111803613960329,-1.9650432294290705,0.9451232770874964,-5.082468720735685,-0.019597637688496955,207.0
208,5.098318244628958,-2.1118035618265485,-1.9650432148360983,0.9451232108529819,-5.0824687587105455,0.12106731576797701,208.0
209,5.098318271545484,-2.1118035087604046,-1.9650432023219633,0.9451231456577084,-5.0824687860796685,0.2517322692244581,209.0
210,5.098318289006103,-2.111803455433015,-1.965043191735993,0.9451230820325727,-5.082468803986911,0.37239722268093745,210.0
211,5.098318303579488,-2.1118034061426556,-1.9650431822762577,0.945123023532774,-5.08246881897177,0.48306217613743513,211.0
212,5.09831830468129,-2.11180335807875,-1.965043175772259,0.9451229690740297,-5.08246882046359,0.5837271295939386,212.0
213,5.098318305673638,-2.1118033147894884,-1.9650431699143591,0.9451229200251842,-5.082468821807214,0.6743920830504495,213.0
214,5.098318306556535,-2.1118032762748684,-1.9650431647025608,0.9451228763862392,-5.082468823002641,0.7550570365069621,214.0
215,5.098318298197422,-2.1118032427494455,-1.9650431620600588,0.9451228402005207,-5.082468814907763,0.8257219899634717,215.0
216,5.098318290693194,-2.1118032139760086,-1.965043159860585,0.9451228092089424,-5.082468807630034,0.8863869434199867,216.0
217,5.09831828442596,-2.1118031899455807,-1.9650431580236694,0.945122783326009,-5.082468801551963,0.937051896876486,217.0
218,5.0983182793957225,-2.1118031706581615,-1.965043156549314,0.9451227625517215,-5.0824687966735524,0.9777168503329816,218.0
219,5.09831827560248,-2.1118031561137505,-1.9650431554375203,0.9451227468860807,-5.082468792994803,1.0083818037894856,219.0
220,5.098318273046234,-2.111803146312347,-1.9650431546882885,0.9451227363290863,-5.082468790515711,1.0290467572459834,220.0
221,5.098187293372709,-2.1120529992929553,-1.9645554924225306,0.9448848448817747,-5.082338105247841,1.0401261259479309,221.0
222,5.096763816072035,-2.1147684660489006,-1.9592555656497956,0.9422994918712737,-5.080917827131028,1.0433137822253657,222.0
223,5.095787553885273,-2.1166308175008375,-1.9556207185016479,0.9405263803020124,-5.079943759407365,1.0370013901536859,223.0
224,5.095787555748614,-2.116630822322727,-1.9556207207222331,0.9405263794288315,-5.0799437621374794,1.0227259433624383,224.0
225,5.09578755891723,-2.1166308305223662,-1.955620724498346,0.9405263779439845,-5.0799437667800476,0.9984504965711902,225.0
226,5.095787563391124,-2.116630842099757,-1.9556207298299868,0.9405263758474716,-5.0799437733350725,0.9641750497799451,226.0
227,5.095787569170292,-2.116630857054897,-1.955620736717155,0.9405263731392923,-5.079943781802552,0.919899602988703,227.0
228,5.095787576759392,-2.116630875596532,-1.955620744913891,0.9405263704603075,-5.079943796542934,0.8656241662152292,228.0
229,5.0957875860749455,-2.1166308976901336,-1.9556207544608806,0.9405263677045086,-5.079943816834934,0.8013487354528908,229.0
230,5.095787592117356,-2.1166309272747235,-1.9556207628548856,0.94052638252598,-5.079943830750868,0.7270733112752799,230.0
231,5.0957875914041395,-2.1166309673395896,-1.9556207681503393,0.9405264282028961,-5.079943831260744,0.6427978969285887,231.0
232,5.095787590596593,-2.1166310122249365,-1.9556207740148963,0.9405264795846315,-5.07994383174677,0.54852249149767,232.0
233,5.0957875859105055,-2.116631060851214,-1.9556207811828814,0.9405265359366265,-5.079943827971408,0.4442470930222023,233.0
234,5.095787569472176,-2.116631111005667,-1.9556207911526504,0.9405265958690406,-5.079943811082213,0.3299717031933559,234.0
235,5.095787551593166,-2.1166311655470116,-1.9556208019969228,0.940526661038526,-5.079943792696103,0.20569632313081682,235.0
236,5.095787518302879,-2.116631216296208,-1.9556208155672448,0.9405267249228129,-5.0799437589532,0.07142094858009698,236.0
237,5.0957874800532945,-2.116631269372684,-1.9556208304772902,0.9405267924053126,-5.079943720234525,-0.07285442482008095,237.0
238,5.095787426357351,-2.116631313227069,-1.9556208473918324,0.9405268525313017,-5.079943666133824,-0.2271297926681219,238.0
239,5.095787365933253,-2.116631356286715,-1.955620865601685,0.9405269130905112,-5.079943605306182,-0.39138865103465503,239.0
240,5.095787294796982,-2.1166313799806353,-1.9556208835028617,0.9405269539040356,-5.079943533915024,-0.5548515268260679,240.0
241,5.095787226676567,-2.116631397108324,-1.9556208999165126,0.9405269867081654,-5.079943465595909,-0.7083144026175039,241.0
242,5.095787159223202,-2.1166313986739063,-1.9556209141527678,0.9405270018110863,-5.0799433980714035,-0.8517772784089515,242.0
243,5.095787096562922,-2.1166313961502157,-1.9556209268562954,0.9405270113497014,-5.0799433353774965,-0.9852401542004037,243.0
244,5.0957870388952085,-2.1166313808397867,-1.95562093684624,0.9405270054653041,-5.079943277784816,-1.108703029991863,244.0
245,5.0957869858983456,-2.116631366769445,-1.955620946027031,0.9405270000575154,-5.079943224856908,-1.2221659057833387,245.0
246,5.0957869410227,-2.116631343413691,-1.9556209523021173,0.9405269825611227,-5.079943180133013,-1.3256287815748173,246.0
247,5.095786901193465,-2.116631320152365,-1.9556209575398544,0.9405269641736699,-5.079943140459124,-1.4190916573662993,247.0
248,5.095786865625732,-2.116631299379871,-1.9556209622171792,0.9405269477535689,-5.079943105030117,-1.502554533157784,248.0
249,5.095786838022832,-2.1166312759572694,-1.9556209648905554,0.940526926766915,-5.079943077594459,-1.576017408949271,249.0
250,5.095786815766983,-2.1166312535171365,-1.955620966580383,0.9405269058323499,-5.07994305550246,-1.6394802847407637,250.0
251,5.095786797018041,-2.1166312346129508,-1.955620968003939,0.9405268881964939,-5.0799430368915495,-1.6929431605322445,251.0
252,5.095786781776008,-2.1166312192447116,-1.955620969161223,0.9405268738593473,-5.07994302176173,-1.7364060363237175,252.0
253,5.095786770040883,-2.1166312074124187,-1.9556209700522373,0.9405268628209117,-5.079943010113,-1.7698689121151916,253.0
254,5.095786761812667,-2.1166311991160724,-1.9556209706769825,0.940526855081187,-5.079943001945362,-1.7933317879066666,254.0
255,5.095785123396817,-2.11663436043301,-1.9556147869189195,0.9405238316247301,-5.079941367365078,-1.8067997859205418,255.0
256,5.09469630358033,-2.118744475748502,-1.9514932186659502,0.9385117280374657,-5.078855080702675,-1.812507565896961,256.0
257,5.093362099570557,-2.12133015270362,-1.946442769643286,0.9360461566608592,-5.077523981558268,-1.8085454133233427,257.0
258,5.093290276144923,-2.1214693569373537,-1.94617087638766,0.9359134187889085,-5.077452327651183,-1.7968465401018796,258.0
259,5.0932902841883605,-2.1214693618903833,-1.9461708780998697,0.9359134145813042,-5.0774523401159435,-1.7753896170181462,259.0
260,5.093290295980442,-2.121469369151772,-1.9461708806100548,0.9359134084127454,-5.077452358389906,-1.7439326939344102,260.0
261,5.093290311521166,-2.1214693787215206,-1.9461708839182155,0.9359134002832323,-5.077452382473072,-1.7024757708506828,261.0
262,5.093290330558026,-2.1214693903808017,-1.9461708882523305,0.9359133893892971,-5.077452410172897,-1.6510188556572662,262.0
263,5.09329035276871,-2.1214694038502966,-1.9461708939034033,0.9359133747053614,-5.077452438690735,-1.5895619554632316,263.0
264,5.093290379124175,-2.121469419745805,-1.9461708991785351,0.9359133614327853,-5.077452471294443,-1.5181050572178776,264.0
265,5.09329041343653,-2.1214694397502796,-1.9461708947732062,0.9359133768695218,-5.077452504001873,-1.4366481732928953,265.0
266,5.093290451956063,-2.121469462249555,-1.946170889792059,0.9359133943682554,-5.077452540679541,-1.3451912947196258,266.0
267,5.093290494679674,-2.1214694872671074,-1.9461708842140064,0.9359134140295494,-5.077452581300294,-1.2437344236914467,267.0
268,5.093290546321862,-2.1214695013130327,-1.9461708752728235,0.9359134197149399,-5.077452632814021,-1.1322775641454519,268.0
269,5.093290602709975,-2.121469516303236,-1.9461708654624137,0.9359134255373177,-5.077452689126271,-1.0108207118620651,269.0
270,5.09329066397627,-2.1214695222783857,-1.9461708534620672,0.9359134201746352,-5.07745275040028,-0.8793638660772171,270.0
271,5.093290730085176,-2.1214695207629184,-1.9461708394777375,0.935913405361148,-5.077452816583019,-0.7379070232290539,271.0
272,5.093290797954597,-2.1214695079974355,-1.9461708236475697,0.9359133774923796,-5.077452884618511,-0.5864501841609582,272.0
273,5.0932908677930975,-2.121469484779864,-1.946170806032863,0.9359133374284785,-5.077452954709058,-0.4249933515205063,273.0
274,5.093290930717185,-2.121469445739067,-1.9461707877800414,0.9359132808635535,-5.077453018009301,-0.25929669901145247,274.0
275,5.093290987402427,-2.1214694042883884,-1.9461707705113693,0.9359132228132621,-5.07745307508507,-0.10301903578953568,275.0
276,5.093291026348436,-2.121469351273855,-1.9461707554217116,0.9359131552178833,-5.077453114501194,0.043258627432401726,276.0
277,5.093291062258264,-2.121469301507099,-1.946170741392061,0.935913091892396,-5.077453150851766,0.17953629065434562,277.0
278,5.093291081163002,-2.1214692470055527,-1.9461707302859916,0.9359130265893714,-5.0774531702213155,0.3058139538762894,278.0
279,5.093291097783814,-2.1214691963607972,-1.9461707201631242,0.9359129660950033,-5.077453187273218,0.4220916170982557,279.0
280,5.093291105555929,-2.1214691481020846,-1.9461707121990468,0.9359129100492063,-5.0774531954490545,0.5283692803202227,280.0
281,5.093291106595372,-2.1214691027911163,-1.9461707060263547,0.935912858667028,-5.077453196862083,0.6246469435421962,281.0
282,5.09329110752685,-2.1214690621864314,-1.9461707004947906,0.9359128126217215,-5.077453198128344,0.7109246067641697,282.0
283,5.093291104442493,-2.121469026377623,-1.9461706964310204,0.9359127727889633,-5.077453195335809,0.787202269986152,283.0
284,5.0932910963418525,-2.1214689953876285,-1.9461706940466743,0.9359127393929313,-5.077453187482969,0.8534799332081348,284.0
285,5.093291089463441,-2.121468969073417,-1.9461706920220783,0.9359127110357056,-5.0774531808149685,0.9097575964301111,285.0
286,5.093291083807257,-2.12146894743499,-1.946170690357231,0.9359126877172851,-5.077453175331808,0.956035259652078,286.0
287,5.0932910793733,-2.121468930472345,-1.9461706890521349,0.9359126694376714,-5.077453171033485,0.9923129228740424,287.0
288,5.093291076161571,-2.1214689181854824,-1.946170688106791,0.9359126561968644,-5.0774531679200035,1.0185905860960112,288.0
289,5.09329107417207,-2.121468910574402,-1.946170687521199,0.9359126479948643,-5.077453165991361,1.0348682493179773,289.0
290,5.092648789234382,-2.122733418636939,-1.9436989475055906,0.93470505106591,-5.07681242744275,1.0426747366445057,290.0
291,5.091165260103454,-2.1256541521412786,-1.9379897935934385,0.9319157866150523,-5.075332470173998,1.0415004975752418,291.0
292,5.0908282420186985,-2.1263176700520017,-1.9366928235284269,0.9312821377101235,-5.074996264108413,1.0319377612141563,292.0
293,5.090828244428541,-2.1263176762548444,-1.9366928264109153,0.9312821365832424,-5.074996267712632,1.0133170073901947,293.0
294,5.090828248132552,-2.1263176857888313,-1.9366928308414013,0.9312821348511864,-5.0749962732524425,0.9846962535662322,294.0
295,5.0908282531307325,-2.126317698653963,-1.9366928368198848,0.9312821325139558,-5.074996280727846,0.9460754997422764,295.0
296,5.0908282594672585,-2.126317714869312,-1.9366928443239284,0.9312821296310342,-5.074996290524612,0.8974547467239764,296.0
297,5.090828267880276,-2.126317734753583,-1.9366928529786005,0.9312821271963927,-5.07499630908892,0.838834006412988,297.0
298,5.0908282777284555,-2.1263177580298733,-1.9366928631096567,0.9312821243464305,-5.074996330820078,0.7702132661020065,298.0
299,5.090828278957742,-2.126317793268849,-1.9366928690700442,0.931282159237994,-5.074996335149236,0.6915925394508506,299.0
300,5.090828278214373,-2.126317834815174,-1.9366928745830971,0.9312822066915029,-5.074996335661552,0.6029718171669693,300.0
301,5.090828277374623,-2.126317881133358,-1.936692880642745,0.9312822598593743,-5.0749963361217825,0.5043511060519024,301.0
302,5.090828266235704,-2.1263179293129513,-1.9366928892394635,0.9312823167672213,-5.074996325104481,0.3957304030974606,302.0
303,5.090828249378121,-2.1263179806247994,-1.9366928995117554,0.9312823781524795,-5.074996307770813,0.27710970793578976,303.0
304,5.090828226534094,-2.126318033592569,-1.9366929112594782,0.931282442581775,-5.074996284432525,0.1484890202087866,304.0
305,5.090828190226838,-2.1263180838449474,-1.9366929254781096,0.9312825065748284,-5.074996247673596,0.009868337137795918,305.0
306,5.090828147381272,-2.1263181337777226,-1.9366929410214018,0.9312825715057811,-5.074996204374091,-0.13875234395140623,306.0
307,5.090828090192607,-2.126318175535512,-1.9366929584843569,0.9312826300507904,-5.074996146788733,-0.29737301827786006,307.0
308,5.090828024720729,-2.126318209789633,-1.9366929766891494,0.9312826817630967,-5.074996080975007,-0.46373498368907445,308.0
309,5.090827956308911,-2.1263182324896004,-1.93669299398453,0.9312827210043844,-5.074996012314468,-0.622850486784081,309.0
310,5.0908278886778335,-2.1263182403161296,-1.9366930091549133,0.9312827432848698,-5.0749959445586565,-0.7719659898791001,310.0
311,5.090827824054255,-2.1263182417786886,-1.9366930228571824,0.9312827577770804,-5.074995879865763,-0.9110814929741318,311.0
312,5.090827764333593,-2.1263182319127525,-1.9366930340403,0.9312827584949577,-5.074995820174036,-1.0401969960691788,312.0
313,5.090827709364268,-2.1263182173224537,-1.9366930436070247,0.9312827529307042,-5.074995765277016,-1.1593124991642343,313.0
314,5.090827660102234,-2.1263182006319568,-1.936693051703641,0.9312827438594624,-5.074995716109749,-1.2684280022592929,314.0
315,5.090827618370638,-2.126318176292435,-1.9366930572171512,0.9312827246493246,-5.0749956745429925,-1.3675435053543554,315.0
316,5.090827580849439,-2.1263181544085876,-1.9366930621743843,0.9312827073773404,-5.074995637170003,-1.4566590084494206,316.0
317,5.090827548191878,-2.1263181340762665,-1.936693066319533,0.9312826908921181,-5.074995604652095,-1.535774511544494,317.0
318,5.090827524244004,-2.126318109972141,-1.9366930681464583,0.9312826684146218,-5.074995580882849,-1.604890014639569,318.0
319,5.090827503761036,-2.126318089355529,-1.9366930697090543,0.9312826491892895,-5.074995560552663,-1.6640055177346376,319.0
320,5.090827486742974,-2.1263180722264323,-1.9366930710073178,0.9312826332161194,-5.074995543661538,-1.7131210208296945,320.0
321,5.090827473189819,-2.1263180585848493,-1.9366930720412523,0.9312826204951137,-5.074995530209476,-1.7522365239247435,321.0
322,5.09082746310157,-2.126318048430779,-1.9366930728108582,0.9312826110262725,-5.074995520196476,-1.7813520270197964,322.0
323,5.090827456478228,-2.126318041764222,-1.9366930733161354,0.9312826048095961,-5.074995513622535,-1.800467530114861,323.0
324,5.090551534122698,-2.126869876536965,-1.9356136042941525,0.9307548217460289,-5.074720278539054,-1.8104001462856203,324.0
325,5.08910390886761,-2.12976512740222,-1.9299501057909236,0.9279857932103043,-5.073276259084156,-1.8120794618410536,325.0
326,5.088397512920393,-2.131177927544031,-1.9271864839486028,0.9266345868739834,-5.072571624150644,-1.8046506671225986,326.0
327,5.08839751876289,-2.1311779311396006,-1.9271864851993878,0.9266345838386327,-5.072571633272409,-1.7888878388889946,327.0
328,5.088397528311889,-2.1311779370162145,-1.927186487243676,0.9266345788776438,-5.072571648181059,-1.7631250106553922,328.0
329,5.0883975415673905,-2.1311779451738717,-1.9271864900814668,0.9266345719910163,-5.072571668876592,-1.727362182421805,329.0
330,5.088397558529395,-2.1311779556125727,-1.9271864937127612,0.9266345631787506,-5.072571695359009,-1.6815993541882155,330.0
331,5.0883975786188635,-2.1311779678170826,-1.9271864986776648,0.9266345505403866,-5.072571722547263,-1.6258365428416923,331.0
332,5.088397602128672,-2.1311779820480043,-1.9271865047029948,0.9266345350371674,-5.072571753011323,-1.5600737363873343,332.0
333,5.088397631723708,-2.1311779995501405,-1.927186505435634,0.9266345352241465,-5.072571785264586,-1.484310938836238,333.0
334,5.088397667420879,-2.13117802033095,-1.92718650083376,0.9266345512228876,-5.072571819287901,-1.398548148550337,334.0
335,5.0883977072695075,-2.1311780436149603,-1.9271864956225326,0.9266345694309449,-5.07257185718232,-1.3027853692152114,335.0
336,5.088397753170119,-2.131178063953969,-1.9271864887143022,0.9266345832189591,-5.072571901789103,-1.1970225966912968,336.0
337,5.088397806271576,-2.1311780780678213,-1.9271864794319096,0.9266345886573285,-5.0725719548082155,-1.0812598325049747,337.0
338,5.088397863963159,-2.1311780933551807,-1.9271864693404361,0.9266345945148158,-5.072572012426096,-0.9554970767408606,338.0
339,5.088397926652673,-2.13117809195517,-1.927186456016177,0.9266345804447966,-5.072572075186757,-0.8197343274523418,339.0
340,5.088397993959765,-2.1311780904518565,-1.9271864417106432,0.926634565337606,-5.07257214257026,-0.673971578513934,340.0
341,5.088398060657338,-2.131178068893883,-1.9271864248783508,0.9266345276825514,-5.07257220950773,-0.5182088363817975,341.0
342,5.088398129149803,-2.1311780416694095,-1.9271864069198381,0.9266344832646258,-5.072572278288927,-0.35280578936081275,342.0
343,5.088398187196089,-2.131177999346983,-1.9271863891523258,0.9266344238611075,-5.0725723367407705,-0.19083615051992742,343.0
344,5.088398235758715,-2.13117795370418,-1.9271863729329777,0.9266343625933983,-5.0725723857282095,-0.03886651167909182,344.0
345,5.088398272719573,-2.131177902610866,-1.9271863584237843,0.9266342974755477,-5.072572423149033,0.10310312716168661,345.0
346,5.088398301296876,-2.1311778517474105,-1.9271863457020957,0.9266342342875147,-5.07257245217688,0.2350727660023727,346.0
347,5.088398318521143,-2.1311777993829994,-1.9271863351611944,0.9266341716643302,-5.072572469854073,0.35704240484301475,347.0
348,5.088398334333234,-2.1311777513118253,-1.9271863254845094,0.926634114175469,-5.072572486081955,0.46901204368359245,348.0
349,5.088398335829259,-2.1311777041091275,-1.9271863189232448,0.92663406052007,-5.0725724879737015,0.5709816825241008,349.0
350,5.088398336808853,-2.1311776614374,-1.9271863130699298,0.9266340120892971,-5.072572489310698,0.6629513213645712,350.0
351,5.088398337681932,-2.1311776234054367,-1.9271863078530518,0.9266339689244751,-5.07257249050232,0.7449209602050061,351.0
352,5.0883983306759015,-2.1311775901868555,-1.9271863049246352,0.9266339327701578,-5.072572483767562,0.8168905990454036,352.0
353,5.08839832319133,-2.131177561616347,-1.9271863027117309,0.9266339019652943,-5.072572476515002,0.8788602378857766,353.0
354,5.08839831691454,-2.131177537656243,-1.9271863008559187,0.92663387613139,-5.072572470432782,0.9308298767261317,354.0
355,5.088398311845529,-2.1311775183065444,-1.9271862993572009,0.9266338552684462,-5.072572465520903,0.9727995155664816,355.0
356,5.088398307984299,-2.1311775035672498,-1.927186298215579,0.9266338393764635,-5.072572461779365,1.0047691544068251,356.0
357,5.088398305330849,-2.131177493438359,-1.9271862974310523,0.9266338284554416,-5.0725724592081685,1.0267387932471874,357.0
358,5.08835654979423,-2.131262318383535,-1.9270202378221208,0.926552572467978,-5.072530811276234,1.0388594587909354,358.0
359,5.087131958234278,-2.133750282231545,-1.9221499444728136,0.9241696176871514,-5.0713093743040565,1.0433225241370687,359.0
360,5.086011612181136,-2.1360264597804317,-1.9176942397018275,0.9219895155700857,-5.070191914640687,1.0380539762737016,360.0
361,5.086000705365635,-2.136048626458709,-1.9176508578467863,0.9219682878089115,-5.070181036799143,1.0251246320523362,361.0
362,5.086000708302784,-2.1360486339785605,-1.9176508613738226,0.9219682864382621,-5.070181041282631,1.0022367793313895,362.0
363,5.086000712523212,-2.136048644783932,-1.9176508664418668,0.9219682844687582,-5.070181047725013,0.9693489266104636,363.0
364,5.086000718026919,-2.136048658874824,-1.917650873050919,0.9219682819003998,-5.070181056126289,0.9264610738895335,364.0
365,5.0860007251858,-2.136048676418748,-1.917650881004104,0.921968279263222,-5.070181069768597,0.8735732254847897,365.0
366,5.086000734124153,-2.1360486974716895,-1.917650890235621,0.9219682767343764,-5.070181089748912,0.8106853816390223,366.0
367,5.086000741488099,-2.1360487244090316,-1.9176508992432293,0.9219682851207088,-5.070181106695121,0.7377975420664644,367.0
368,5.086000740802124,-2.1360487627140836,-1.9176509043698662,0.9219683288855383,-5.070181107181092,0.654909714473153,368.0
369,5.086000740025595,-2.136048805691596,-1.917650910068399,0.9219683781503554,-5.070181107656368,0.5620218940831364,369.0
370,5.0860007374457465,-2.136048852862783,-1.9176509166659674,0.9219684326256096,-5.070181106191675,0.45913408084366025,370.0
371,5.086000721596077,-2.1360489010015424,-1.9176509263714057,0.9219684902866967,-5.070181089894587,0.34624627786769047,371.0
372,5.086000704340593,-2.1360489534028657,-1.9176509369383898,0.9219685530491115,-5.070181072138002,0.2233584833342771,372.0
373,5.086000674311605,-2.1360490034288757,-1.917650949888142,0.9219686156357043,-5.0701810416445765,0.09047069482404843,373.0
374,5.086000637333452,-2.1360490544807993,-1.9176509644404969,0.9219686807528452,-5.070181004200233,-0.05241709162209856,374.0
375,5.086000587416254,-2.1360490987043113,-1.9176509808045519,0.921968740733216,-5.070180953864639,-0.20530487338988013,375.0
376,5.086000529428343,-2.1360491409229025,-1.9176509985980918,0.9219688000587923,-5.070180895468845,-0.36808173769898633,376.0
377,5.086000462261786,-2.136049165475702,-1.9176510159739282,0.9219688412399264,-5.070180828034762,-0.5288632245033342,377.0
378,5.0860003978848445,-2.136049185429772,-1.9176510321526947,0.921968876663317,-5.070180763431532,-0.679644711307642,378.0
379,5.086000333264981,-2.136049186853359,-1.9176510459211582,0.9219688911796151,-5.070180698741191,-0.8204261981118713,379.0
380,5.086000273235197,-2.1360491881758303,-1.9176510587116091,0.9219689046647861,-5.070180638645934,-0.9512076849160526,380.0
381,5.086000218145192,-2.1360491741719856,-1.917651068428254,0.9219688998312421,-5.07018058362398,-1.0719891717201449,381.0
382,5.086000167629235,-2.1360491607649967,-1.9176510772629687,0.9219688947590927,-5.07018053317519,-1.1827706585241904,382.0
383,5.0860001233539975,-2.136049143464253,-1.9176510842690475,0.9219688840371572,-5.070180489005553,-1.2835521453281904,383.0
384,5.086000085585071,-2.1360491214632313,-1.9176510892835523,0.9219688667003175,-5.070180451387696,-1.3743336321321324,384.0
385,5.086000051976564,-2.1360491018857264,-1.9176510937456803,0.9219688512732089,-5.070180417913617,-1.4551151189360252,385.0
386,5.086000022528479,-2.1360490847317357,-1.9176510976554375,0.9219688377558334,-5.07018038858332,-1.5258966057399048,386.0
387,5.086000001630415,-2.136049063940914,-1.9176510992854088,0.9219688184179917,-5.070180367841404,-1.5866780925437598,387.0
388,5.085999984243719,-2.136049046469699,-1.9176511006184283,0.921968802132883,-5.070180350586083,-1.6374595793475941,388.0
389,5.085999970280849,-2.1360490324389536,-1.917651101688946,0.9219687890546728,-5.070180336728718,-1.6782410661514227,389.0
390,5.0859999597418035,-2.1360490218486783,-1.9176511024969614,0.9219687791833607,-5.070180326269307,-1.7090225529552514,390.0
391,5.085999952626584,-2.136049014698872,-1.917651103042476,0.9219687725189475,-5.07018031920785,-1.729804039759095,391.0
392,5.085999948935191,-2.136049010989535,-1.9176511033254904,0.9219687690614335,-5.0701803155443494,-1.7405855265629286,392.0
393,5.086504233600577,-2.1350579458789283,-1.9196783081385331,0.923005110789493,-5.070682922707854,-1.7423817916215851,393.0
394,5.086645068702394,-2.134781171882371,-1.920244449195816,0.9232945342921415,-5.070823289311062,-1.7353300853573976,394.0
395,5.086785601672736,-2.134505001624915,-1.9208093619540392,0.9235833331407944,-5.070963354773646,-1.7184797074005944,395.0
396,5.087009535128635,-2.134064935781163,-1.921709526989494,0.9240435221205132,-5.071186543275335,-1.691629329443797,396.0
397,5.087316869070091,-2.1334609743511135,-1.9229449443021807,0.9246751012312981,-5.071492854816129,-1.6547789514869906,397.0
398,5.08771121277246,-2.132694748459838,-1.9245122863688453,0.9254763827643371,-5.0718859140993935,-1.607928492332011,398.0
399,5.088190933286292,-2.1317655205276216,-1.9264130578630596,0.9264481298824685,-5.072364081196799,-1.551078008180413,399.0
400,5.088755036637139,-2.130672841404781,-1.9286481750576805,0.9275908073159056,-5.0729263578852715,-1.4842275240288265,400.0
401,5.089408151928367,-2.1294187239381825,-1.9312135326333695,0.928902332525898,-5.073577389718326,-1.4073769218574377,401.0
402,5.090146825306289,-2.1280016666310813,-1.934112192979298,0.9303842589933861,-5.074313710569463,-1.3205263058550076,402.0
403,5.090976285800865,-2.126423891513299,-1.9373396251759702,0.9320342904246118,-5.075140569635587,-1.2236755568509534,403.0
404,5.0918939007550765,-2.124684262165851,-1.9408981467590154,0.9338536016426268,-5.076055324100631,-1.116824749986816,404.0
405,5.092903601208518,-2.1227844069256667,-1.9447844379978076,0.9358405105928239,-5.077061919835796,-0.9999738032306568,405.0
406,5.094006585902407,-2.1207247599245838,-1.9489976147912818,0.937994570291822,-5.078161559656421,-0.8731227029833339,406.0
407,5.095203341210471,-2.1185054750595187,-1.9535373641241085,0.9403156228923101,-5.079354731439401,-0.7362714553202419,407.0
408,5.096496027112336,-2.116127363363275,-1.958402033816717,0.9428028325883162,-5.080643602723265,-0.589420030990349,408.0
409,5.097886854352183,-2.1135912174163836,-1.9635900099036454,0.9454553835557248,-5.082030391729192,-0.4325684032065663,409.0
410,5.099333276861524,-2.1109781215793904,-1.968935430851197,0.9481884799428788,-5.083472685817744,-0.2706981815451768,410.0
411,5.100708173823197,-2.108516220506315,-1.9739715962209434,0.9507634971224271,-5.084843722275618,-0.11796226024110697,411.0
412,5.10200252921236,-2.1062189392516952,-1.9786710397729839,0.9531663867890825,-5.0861345022099345,0.024773841868093678,412.0
413,5.103215257459548,-2.1040858086873655,-1.9830347181725427,0.9553976339671182,-5.08734393582224,0.1575101061966418,413.0
414,5.104343123563442,-2.1021156364774183,-1.9870650600002957,0.957458466844232,-5.0884687769447785,0.28024648064486996,414.0
415,5.105383902588722,-2.1003076335706288,-1.9907636719114519,0.9593496973944288,-5.089506793179775,0.3929829357152771,415.0
416,5.106338693860371,-2.0986621433102957,-1.994129855566355,0.9610709735410503,-5.09045908721291,0.4957194931205904,416.0
417,5.107204309585387,-2.0971780594216867,-1.9971658631366234,0.9626234330466082,-5.091322460728474,0.5884561057643691,417.0
418,5.107979599336873,-2.095855002260234,-1.9998724671791497,0.9640074658266736,-5.092095759641006,0.6711927654547429,418.0
419,5.1086640120206726,-2.0946927681942054,-2.002250082453175,0.9652232816430806,-5.092778430949373,0.7439294641166285,419.0
420,5.109256780132298,-2.093691109815545,-2.004299212318592,0.9662711344293922,-5.093369704750079,0.806666199314256,420.0
421,5.109755063232908,-2.092849112020991,-2.006021718578404,0.9671519634164881,-5.093866731727318,0.8594029345119025,421.0
422,5.110160950850706,-2.092167432158007,-2.0074162641193,0.9678650943851489,-5.094271607827149,0.9021396975071136,422.0
423,5.110472847038076,-2.0916455679916686,-2.0084838705411125,0.9684110424636936,-5.094582732199643,0.9348764757078782,423.0
424,5.110689469284479,-2.0912831160201217,-2.009225358609046,0.9687902215110289,-5.094798818395018,0.9576132539086355,424.0
425,5.110810817589918,-2.091080076243366,-2.009640728323101,0.9690026315271555,-5.094919866413275,0.9703500321093997,425.0
426,5.111277347811532,-2.090301620945464,-2.011233308750275,0.969817066190959,-5.095385245936902,0.9737055954766907,426.0
427,5.111511212235161,-2.0899117283046604,-2.012030967466204,0.9702249876916946,-5.0956185341233144,0.9682545668116778,427.0
428,5.111511564555107,-2.089911844842223,-2.0120307459724955,0.9702248835174776,-5.095618886814757,0.9532590732011013,428.0
429,5.111512151825602,-2.0899120390948425,-2.012030376771939,0.9702247098729118,-5.0956194747044865,0.9282635795905247,429.0
430,5.111512974087719,-2.089912311078809,-2.0120298598445707,0.9702244668025902,-5.095620298145396,0.8932680919107749,430.0
431,5.111514031502286,-2.0899126608579053,-2.0120291951121976,0.9702241544809684,-5.095621358518432,0.8482726284367443,431.0
432,5.111515323921558,-2.0899130883735264,-2.012028382646626,0.9702237727475443,-5.095622654553679,0.7932771649627188,432.0
433,5.111516150813819,-2.0899133768043043,-2.012027864538861,0.9702235451438176,-5.095623483849874,0.7282817098023716,433.0
434,5.111516150031525,-2.089913414062059,-2.01202786933269,0.9702235872320157,-5.095623483292987,0.6532862651266215,434.0
435,5.111516149142457,-2.089913456305663,-2.0120278747502995,0.970223635008366,-5.095623482641183,0.5682908240181042,435.0
436,5.1115161481465625,-2.089913503535506,-2.0120278807913543,0.9702236884745222,-5.09562348189401,0.47329538596255455,436.0
437,5.1115161325840095,-2.089913551829618,-2.0120278900228756,0.970223745769351,-5.0956234659414585,0.36829995940782834,437.0
438,5.111516115414403,-2.0899136046893303,-2.0120279001560375,0.970223808503944,-5.095623448335116,0.2533045383225321,438.0
439,5.111516089381103,-2.089913657812596,-2.0120279121419156,0.9702238732514253,-5.095623421860026,0.1283091245669576,439.0
440,5.111516052237089,-2.0899137098784832,-2.012027926276454,0.970223938963152,-5.0956233842818595,-0.0066862824910535225,440.0
441,5.111516006856778,-2.089913760231654,-2.012027941884424,0.9702240043555448,-5.095623338474447,-0.15168168697592255,441.0
442,5.111515948157485,-2.089913803710951,-2.0120279593608994,0.9702240646222045,-5.0956232793912895,-0.3066770879133762,442.0
443,5.111515879754935,-2.08991383867164,-2.012027977758956,0.9702241172112075,-5.095623210663044,-0.4706749318338136,443.0
444,5.111515808095342,-2.089913862890134,-2.012027995478938,0.9702241583695794,-5.095623138758315,-0.6293535190757142,444.0
445,5.111515737027437,-2.089913870419005,-2.0120280109870925,0.9702241806678497,-5.095623067575007,-0.7780321063175636,445.0
446,5.111515669365923,-2.0899138721340833,-2.01202802506887,0.9702241957729045,-5.095622999845851,-0.9167106935594066,446.0
447,5.111515606873478,-2.089913861030802,-2.012028036485624,0.9702241954742867,-5.095622937389193,-1.0453892808012124,447.0
448,5.11151554935304,-2.0899138457339066,-2.012028046358083,0.9702241894972078,-5.095622879941013,-1.1640678680430039,448.0
449,5.111515498023156,-2.0899138275889144,-2.0120280546050555,0.9702241791155383,-5.095622828710418,-1.272746455284757,449.0
450,5.111515454389368,-2.0899138019608983,-2.012028060337417,0.9702241588303511,-5.0956227852400575,-1.3714250425265104,450.0
451,5.1115154151773865,-2.0899137789300046,-2.0120280654888605,0.9702241406008434,-5.095622746174944,-1.4601036297682382,451.0
452,5.1115153813317065,-2.0899137571723108,-2.0120280696999857,0.9702241227561015,-5.09562271247058,-1.5387822170099705,452.0
453,5.111515356341991,-2.0899137317962495,-2.012028071642881,0.9702240991224931,-5.09562268765732,-1.6074608042516945,453.0
454,5.111515334990925,-2.0899137101150904,-2.012028073302879,0.970224078930075,-5.095622666457014,-1.666139391493437,454.0
455,5.111515317278504,-2.0899136921288335,-2.0120280746799764,0.9702240621788448,-5.095622648869661,-1.7148179787352014,455.0
456,5.1115153032047305,-2.0899136778374783,-2.012028075774178,0.9702240488688052,-5.095622634895263,-1.7534965659769672,456.0
457,5.111515292769605,-2.089913667241024,-2.0120280765854837,0.9702240389999564,-5.09562262453382,-1.782175153218738,457.0
458,5.111515285973125,-2.0899136603394703,-2.012028077113893,0.9702240325722983,-5.095622617785331,-1.800853740460492,458.0
459,5.111145369735442,-2.0905633270352957,-2.0107608701906625,0.96960621281664,-5.095253395410313,-1.8104447298092168,459.0
460,5.109504336576195,-2.0934454389842876,-2.0051391972794774,0.9668654115160641,-5.093615440461095,-1.8116008187454309,460.0
461,5.108802209324928,-2.0946785780409236,-2.002733915654615,0.9656927342795104,-5.092914631786466,-1.803753813662113,461.0
462,5.108802215687786,-2.094678581968916,-2.0027339169715628,0.9656927308759703,-5.092914641493738,-1.7873814569669677,462.0
463,5.108802225936986,-2.0946785882960697,-2.002733919092884,0.965692725393597,-5.09291465713007,-1.7610091002718202,463.0
464,5.108802240072531,-2.0946785970223853,-2.0027339220185785,0.9656927178323904,-5.092914678695465,-1.7246367435766636,464.0
465,5.108802258094417,-2.0946786081478614,-2.002733925748646,0.9656927081923504,-5.09291470618992,-1.6782643868815192,465.0
466,5.10880227931375,-2.094678621110655,-2.0027339308579633,0.9656926944362412,-5.092914733821164,-1.6218920493234732,466.0
467,5.10880230414903,-2.094678636252081,-2.002733936997298,0.9656926778016622,-5.092914765107945,-1.555519715539572,467.0
468,5.1088023357127454,-2.094678655013414,-2.002733936986414,0.9656926800336036,-5.092914798500809,-1.4791473918215972,468.0
469,5.108802373450055,-2.0946786771459722,-2.0027339321397144,0.9656926971615141,-5.092914834484214,-1.3927750745262963,469.0
470,5.108802415544867,-2.094678701933056,-2.0027339266516826,0.9656927166646878,-5.092914874535439,-1.2964027687671877,470.0
471,5.108802464299837,-2.094678722703472,-2.0027339192582563,0.9656927304561755,-5.092914922076922,-1.1900304697311637,471.0
472,5.108802520350137,-2.0946787376253866,-2.002733909600766,0.9656927363482303,-5.092914978046776,-1.0736581789111153,472.0
473,5.1088025812453965,-2.0946787526691604,-2.002733898962818,0.9656927414339517,-5.092915038878564,-0.9472858962456726,473.0
474,5.108802647367633,-2.0946787510102274,-2.0027338851751035,0.9656927266647954,-5.092915105070971,-0.8109136195608337,474.0
475,5.108802718143168,-2.0946787484756357,-2.00273387032192,0.9656927100029534,-5.092915175927417,-0.6645413433631897,475.0
476,5.108802788320865,-2.0946787248028227,-2.002733852935285,0.9656926697082338,-5.092915246346989,-0.5081690742141779,476.0
477,5.108802859668107,-2.0946786943872002,-2.002733834461184,0.9656926216093507,-5.092915317989694,-0.34242276249855763,477.0
478,5.108802920399418,-2.0946786494711476,-2.0027338163451596,0.9656925592904925,-5.0929153791211075,-0.18105430699967598,478.0
479,5.108802970258242,-2.094678600127123,-2.0027337999055734,0.9656924941185945,-5.092915429405776,-0.02968585150083346,479.0
480,5.108803008912284,-2.0946785460180424,-2.002733785168315,0.965692425779781,-5.092915468513772,0.11168260399795754,480.0
481,5.108803037801934,-2.094678491610955,-2.002733772398879,0.9656923590119004,-5.09291549785177,0.24305105949674516,481.0
482,5.108803055807175,-2.094678436248591,-2.002733761744695,0.9656922932950767,-5.092915516303975,0.3644195149954972,482.0
483,5.108803071870483,-2.094678385325881,-2.0027337520471726,0.9656922329454575,-5.092915532777999,0.4757879704942398,483.0
484,5.108803073011639,-2.094678335392247,-2.0027337455384377,0.9656921766195519,-5.092915534310023,0.5771564259929551,484.0
485,5.108803074040221,-2.094678290384569,-2.0027337396717853,0.9656921258501963,-5.0929155356909135,0.6685248814916511,485.0
486,5.108803074956228,-2.0946782503028456,-2.002733734447218,0.9656920806373914,-5.0929155369206685,0.7498933369903475,486.0
487,5.1088030670352245,-2.094678215366004,-2.002733731683951,0.9656920429299086,-5.092915529266056,0.8212617924890454,487.0
488,5.108803059256842,-2.0946781853487124,-2.0027337295095586,0.9656920107219751,-5.092915521715763,0.8826302479877375,488.0
489,5.108803052745946,-2.0946781602227453,-2.002733727689481,0.9656919837623286,-5.092915515395791,0.9339987034864623,489.0
490,5.1088030475025406,-2.0946781399881007,-2.002733726223721,0.9656919620509699,-5.092915510306139,0.9753671589851993,490.0
491,5.108803043526624,-2.094678124644778,-2.0027337251122788,0.9656919455878995,-5.09291550644681,1.0067356144839268,491.0
492,5.108803040818197,-2.094678114192778,-2.002733724355155,0.9656919343731177,-5.092915503817803,1.0281040699826591,492.0
493,5.108718553030124,-2.094828882214107,-2.0024394041281592,0.9655483209868785,-5.09283118042036,1.0397317671247082,493.0
494,5.107271521145975,-2.0974112428446974,-1.997398469058587,0.9630886986990335,-5.09138696339918,1.0435612706591684,494.0
495,5.106128374990674,-2.099451297205124,-1.9934161587932313,0.9611456117261151,-5.090246041290356,1.0377401446498074,495.0
496,5.106128003201338,-2.0994519687008766,-1.9934148594040435,0.9611449757930408,-5.0902456710145305,1.0240798081087368,496.0
497,5.106128006355426,-2.099451976932928,-1.9934148631013051,0.9611449742666355,-5.09024567553122,1.00042076167273,497.0
498,5.1061280108426566,-2.099451988644432,-1.9934148683612936,0.9611449720950623,-5.090245681956985,0.9667617152367265,498.0
499,5.106128016663031,-2.0994520038353874,-1.9934148751840084,0.9611449692783214,-5.090245690291823,0.9231026688007044,499.0
500,5.106128024289632,-2.099452022691176,-1.9934148833512364,0.9611449663736037,-5.09024570453618,0.8694436316238,500.0
501,5.106128033736426,-2.099452045217271,-1.9934148928565363,0.9611449633973566,-5.090245724808143,0.8057846016414406,501.0
502,5.10612804060193,-2.099452074814623,-1.9934149016056462,0.961144975565807,-5.090245740184499,0.7321255772604934,502.0
503,5.106128039877778,-2.0994521158354913,-1.993414906827388,0.9611450221130853,-5.090245740710675,0.6484665638045382,503.0
504,5.106128039058108,-2.0994521618221325,-1.9934149126187277,0.9611450744910247,-5.090245741223664,0.5548075584000853,504.0
505,5.106128035197496,-2.099452211939197,-1.9934149195426012,0.9611451321482138,-5.090245738419477,0.4511485599795257,505.0
506,5.106128018437802,-2.099452263416764,-1.993414929460653,0.9611451933462539,-5.090245721213526,0.33748957093402415,506.0
507,5.1061280002013945,-2.0994523194215384,-1.9934149402532597,0.9611452599215915,-5.090245702475519,0.21383059101365381,507.0
508,5.1061279672397815,-2.099452372166025,-1.993414953681367,0.961145325663999,-5.090245669058882,0.08017161676783316,508.0
509,5.10612792820352,-2.099452426735298,-1.993414968594255,0.9611453946315838,-5.090245629557892,-0.06348735600830943,509.0
510,5.106127874343815,-2.0994524728348596,-1.9934149854897747,0.9611454569799498,-5.090245575290298,-0.21714632362548997,510.0
511,5.106127813133043,-2.099452518037158,-1.9934150037848828,0.9611455197580353,-5.090245513673417,-0.38080528502040756,511.0
512,5.106127740211589,-2.0994525431275664,-1.9934150219548468,0.961145562221493,-5.090245440494483,-0.5448841064873374,512.0
513,5.106127670451103,-2.0994525622605322,-1.993415038723315,0.9611455973706984,-5.090245370526021,-0.6989674300926099,513.0
514,5.1061276010235,-2.099452563984231,-1.9934150532287804,0.9611456128872777,-5.090245301027785,-0.8430507536978566,514.0
515,5.106127536483026,-2.09945256258999,-1.9934150663354393,0.9611456239435107,-5.090245236445245,-0.9771340773030509,515.0
516,5.106127477087422,-2.099452546805819,-1.9934150765693877,0.9611456178196023,-5.090245177125105,-1.1012174009082474,516.0
517,5.106127422478565,-2.0994525322937134,-1.9934150859785638,0.9611456121892217,-5.090245122585632,-1.215300724513413,517.0
518,5.106127375937634,-2.0994525089772447,-1.9934150926175471,0.9611455950850065,-5.090245076190035,-1.3193840481185615,518.0
519,5.106127334850186,-2.099452484885317,-1.993415098036455,0.9611455760425625,-5.09024503525851,-1.4134673717236947,519.0
520,5.106127298129869,-2.099452463354092,-1.993415102879389,0.9611455590241142,-5.090244998677544,-1.4975506953288236,520.0
521,5.106127269245026,-2.099452439535069,-1.9934151058214038,0.9611455379017269,-5.090244969956505,-1.571634018933951,521.0
522,5.106127246215303,-2.0994524161966486,-1.9934151076190203,0.961145516174335,-5.0902449470916125,-1.6357173425390883,522.0
523,5.106127226779294,-2.0994523965001157,-1.993415109136123,0.961145497837433,-5.090244927794713,-1.6898006661442362,523.0
524,5.106127210937,-2.09945238044547,-1.9934151103727111,0.9611454828910206,-5.090244912065808,-1.7338839897494036,524.0
525,5.106127198688423,-2.0994523680327113,-1.993415111328788,0.9611454713350998,-5.0902448999048975,-1.7679673133545615,525.0
526,5.106127190033561,-2.0994523592618384,-1.993415112004353,0.96114546316967,-5.090244891311981,-1.792050636959724,526.0
527,5.106127184972415,-2.0994523541328522,-1.9934151123994064,0.9611454583947315,-5.090244886287059,-1.8061339605648767,527.0
528,5.105072769740536,-2.101364324693955,-1.98967995562564,0.9593215414250926,-5.08919259744633,-1.8122814931749511,528.0
529,5.1036055779469764,-2.104024794627806,-1.9844825651327327,0.9567836022081037,-5.087728365190565,-1.8088726456338189,529.0
530,5.103489298722631,-2.1042356548973675,-1.9840706426958392,0.9565824535757577,-5.087612322793647,-1.797595043567051,530.0
531,5.103489306759056,-2.104235659855298,-1.9840706443685954,0.9565824493046509,-5.087612335142717,-1.7766727230206885,531.0
532,5.1034893186365595,-2.1042356671829134,-1.984070646840859,0.9565824429921324,-5.087612353394132,-1.7457504024743238,532.0
533,5.103489334355141,-2.1042356768802133,-1.9840706501126308,0.9565824346382024,-5.087612377547889,-1.7048280819279573,533.0
534,5.103489353692888,-2.104235688761561,-1.9840706543749973,0.9565824235660839,-5.087612405717825,-1.653905768142645,534.0
535,5.103489376233528,-2.104235702478725,-1.9840706599864109,0.9565824085062316,-5.087612434365743,-1.5929834708520003,535.0
536,5.1034894027673445,-2.1042357185784177,-1.9840706658153162,0.9565823930810331,-5.0876124674360526,-1.5220611746415946,536.0
537,5.103489437690614,-2.1042357390235322,-1.9840706613148746,0.9565824088691501,-5.087612500731835,-1.4411388937788268,537.0
538,5.103489476925009,-2.1042357620301133,-1.9840706562275066,0.9565824267575301,-5.087612538103464,-1.350216617534673,538.0
539,5.103489520466068,-2.1042357876325988,-1.984070650522884,0.956582446893206,-5.087612579512827,-1.2492943494628836,539.0
540,5.10348957287564,-2.104235802697278,-1.98407064160264,0.9565824536067107,-5.087612631677219,-1.1383720922476859,540.0
541,5.103489630401258,-2.1042358180022496,-1.9840706316508185,0.9565824596082404,-5.087612689126993,-1.017449842372896,541.0
542,5.103489692903258,-2.104235825014995,-1.9840706196349693,0.9565824552774711,-5.087612751628949,-0.8865275991353834,542.0
543,5.103489760389477,-2.1042358233576044,-1.9840706055065005,0.9565824401854699,-5.0876128191879975,-0.7456053591052038,543.0
544,5.103489829979425,-2.104235811246263,-1.9840705896221893,0.9565824129265765,-5.087612888933851,-0.5946831224931233,544.0
545,5.103489901308132,-2.1042357872761803,-1.9840705718795437,0.9565823719931416,-5.087612960512101,-0.43376089239521376,545.0
546,5.103489966521356,-2.1042357479664817,-1.9840705534583394,0.9565823150107358,-5.087613026091567,-0.2678130153445194,546.0
547,5.103490024810514,-2.104235704986244,-1.9840705360010187,0.9565822552584452,-5.087613084770364,-0.11099660294658903,547.0
548,5.1034900656947855,-2.104235650889071,-1.984070520727594,0.9565821864179516,-5.087613126118052,0.03581980945132292,548.0
549,5.103490102641164,-2.1042355993091055,-1.9840705065846675,0.9565821211796686,-5.087613163504594,0.1726362218492034,549.0
550,5.103490122967354,-2.1042355433437434,-1.9840704953150643,0.9565820542682808,-5.087613184291946,0.2994526342470446,550.0
551,5.103490140081703,-2.1042354908487724,-1.9840704851467557,0.9565819918885441,-5.0876132018372395,0.416269046644872,551.0
552,5.103490148864601,-2.1042354410234507,-1.9840704770344018,0.9565819341436376,-5.087613211022963,0.5230854590426899,552.0
553,5.103490149939277,-2.1042353940333474,-1.9840704708704011,0.9565818810975647,-5.087613212471551,0.6199018714404839,553.0
554,5.103490150902952,-2.104235351896774,-1.9840704653430632,0.9565818335305268,-5.087613213770517,0.7067182838382979,554.0
555,5.103490148271823,-2.1042353146992987,-1.9840704611817475,0.9565817922216208,-5.087613211432482,0.783534696236087,555.0
556,5.103490139906051,-2.10423528249348,-1.9840704588344404,0.956581757649386,-5.087613203315414,0.8503511086338822,556.0
557,5.103490132792332,-2.1042352551077075,-1.9840704568384397,0.9565817282513639,-5.087613196413176,0.9071675210316917,557.0
558,5.103490126930666,-2.104235232541982,-1.9840704551937427,0.9565817040275535,-5.08761319072577,0.9539839334295247,558.0
559,5.103490122321054,-2.104235214796303,-1.9840704539003533,0.9565816849779563,-5.087613186253195,0.9908003458273551,559.0
560,5.103490118963496,-2.10423520187067,-1.984070452958272,0.9565816711025725,-5.087613182995452,1.017616758225169,560.0
561,5.103490116857992,-2.1042351937650823,-1.9840704523674983,0.9565816624014021,-5.087613180952541,1.0344331706229946,561.0
562,5.102887426029594,-2.105345593892532,-1.9818995796618377,0.9555207906013836,-5.0870117497037715,1.0426251721767106,562.0
563,5.101306377144597,-2.1082585406322556,-1.9762046840815097,0.9527377935801996,-5.085434005121746,1.0419472283749678,563.0
564,5.100888721794302,-2.109028040063919,-1.9747002978178398,0.9520026249163238,-5.085017223184665,1.0327337185315517,564.0
565,5.1008887241948955,-2.1090280462961193,-1.9747003006413197,0.9520026237567262,-5.085017226692633,1.0145671601373187,565.0
566,5.100888727916924,-2.109028055958908,-1.9747003050190184,0.9520026219588141,-5.0850172321316025,0.986400601743096,566.0
567,5.100888732960388,-2.109028069052286,-1.9747003109509356,0.9520026195225877,-5.085017239501576,0.948234043348862,567.0
568,5.100888739335229,-2.1090280855803174,-1.9747003184322978,0.9520026164604751,-5.085017248887531,0.9000674851880444,568.0
569,5.1008887478799005,-2.1090281058857996,-1.9747003270605004,0.9520026138206894,-5.085017267456779,0.8419009436446447,569.0
570,5.100888757893573,-2.1090281296822027,-1.974700337172065,0.9520026107270713,-5.085017289218454,0.7737344021012486,570.0
571,5.100888759679886,-2.1090281653348035,-1.9747003433737622,0.9520026442439553,-5.085017294646574,0.6955678735738786,571.0
572,5.100888758924322,-2.1090282079454754,-1.9747003488216137,0.9520026926678564,-5.085017295182654,0.6074013495952035,572.0
573,5.100888758069717,-2.1090282554801205,-1.9747003548069484,0.9520027469736678,-5.085017295664895,0.5092348372766383,573.0
574,5.100888747368953,-2.1090283051491876,-1.9747003632245823,0.9520028052340925,-5.085017285186064,0.4010683325852125,574.0
575,5.100888730159334,-2.109028357878131,-1.9747003734518782,0.952002867985829,-5.085017267505005,0.28290183576126565,575.0
576,5.100888707563727,-2.1090284127625076,-1.9747003850706912,0.952002934205993,-5.085017244413979,0.15473534648967896,576.0
577,5.100888670482172,-2.1090284644617374,-1.974700399295546,0.9520029996420422,-5.085017206884471,0.016568862100001403,577.0
578,5.100888627409047,-2.1090285165570317,-1.974700414809219,0.9520030667005226,-5.085017163355945,-0.1315976206458893,578.0
579,5.100888568979462,-2.1090285595765828,-1.9747004323453226,0.9520031265686941,-5.085017104533042,-0.2897640965519241,579.0
580,5.100888502444273,-2.1090285959158988,-1.974700450709393,0.9520031805152085,-5.085017037651161,-0.4560847091911112,580.0
581,5.100888432147517,-2.1090286194944023,-1.974700468232013,0.9520032208470856,-5.085016967106611,-0.6156584881058298,581.0
582,5.100888362884926,-2.1090286286326205,-1.9747004837087905,0.9520032447330128,-5.0850168977126575,-0.7652322670205113,582.0
583,5.100888296454924,-2.1090286302458976,-1.9747004976453293,0.9520032595982224,-5.085016831213894,-0.9048060459351699,583.0
584,5.1008882350314355,-2.109028620948015,-1.9747005091626406,0.9520032612067375,-5.0850167698131745,-1.0343798248497909,584.0
585,5.100888178495631,-2.109028605932123,-1.974700518944151,0.9520032554232815,-5.085016713350008,-1.1539536037643872,585.0
586,5.100888127610803,-2.109028589344719,-1.9747005273581548,0.9520032467619808,-5.085016662555146,-1.2635273826789675,586.0
587,5.100888084657806,-2.1090285641981685,-1.9747005330466458,0.9520032269148992,-5.085016619767282,-1.36310116159354,587.0
588,5.100888046018493,-2.109028541577039,-1.9747005381638472,0.9520032090610187,-5.085016581276518,-1.4526749405081039,588.0
589,5.100888012104601,-2.109028520907279,-1.9747005425518225,0.9520031924737481,-5.0850165474995315,-1.5322487194226726,589.0
590,5.100887987407372,-2.1090284959271077,-1.9747005444877397,0.952003169227361,-5.085016522981451,-1.6018224983372222,590.0
591,5.100887966259932,-2.109028474537394,-1.9747005461454035,0.9520031493222307,-5.08501650198741,-1.6613962772517905,591.0
592,5.100887948662281,-2.10902845673814,-1.97470054752481,0.952003132758356,-5.08501648451741,-1.7109700561663868,592.0
593,5.100887934614422,-2.1090284425293433,-1.9747005486259628,0.9520031195357384,-5.08501647057145,-1.750543835080985,593.0
594,5.100887924116351,-2.109028431911004,-1.9747005494488623,0.9520031096543777,-5.08501646014953,-1.7801176139955668,594.0
595,5.1008879171680706,-2.1090284248831224,-1.9747005499935086,0.9520031031142746,-5.085016453251651,-1.7996913929101528,595.0
596,5.100645604590807,-2.10948200778044,-1.9738131205724876,0.9515691033913926,-5.0847746653020485,-1.809959722470093,596.0
597,5.099131042428067,-2.112317167605966,-1.9682662066900576,0.9488563917162913,-5.0832633822751765,-1.8120550509615074,597.0
598,5.0983221707011905,-2.113831329679025,-1.9653037939676228,0.9474076260885526,-5.082456263254139,-1.8049276994069874,598.0
599,5.0983221765437365,-2.113831333281403,-1.9653037951905252,0.947407623004291,-5.0824562722971995,-1.78953968788495,599.0
600,5.098322186183098,-2.1138313392248103,-1.9653037972081393,0.9474076179157023,-5.082456287216955,-1.7641516763629181,600.0
601,5.098322199619275,-2.113831347509246,-1.9653038000204646,0.9474076108227857,-5.0824563080134,-1.7287636648408835,601.0
602,5.098322216852269,-2.1138313581347106,-1.9653038036275012,0.9474076017255417,-5.0824563346865395,-1.6833756533188327,602.0
603,5.098322237306872,-2.113831370607545,-1.9653038085404977,0.9474075888150645,-5.082456362294572,-1.6279876589388431,603.0
604,5.098322261231678,-2.1138313851410984,-1.965303814538504,0.9474075728731207,-5.082456392973231,-1.562599670656505,604.0
605,5.0983222912140125,-2.113831402964798,-1.965303815625736,0.9474075717863606,-5.082456425853161,-1.4872116907575008,605.0
606,5.098322327617983,-2.113831424240687,-1.9653038109175052,0.9474075881798607,-5.082456460556306,-1.4018237188294345,606.0
607,5.098322368274832,-2.113831448087218,-1.9653038055875724,0.9474076068310795,-5.082456499233034,-1.3064357572785341,607.0
608,5.0983224149505,-2.113831469413936,-1.9653037986511204,0.9474076215782624,-5.082456544514583,-1.2010478025693703,608.0
609,5.098322469172964,-2.1138314838331778,-1.9653037892309984,0.9474076271902362,-5.082456598654714,-1.0856598562687882,609.0
610,5.09832252809672,-2.113831499502832,-1.9653037789935353,0.9474076332908231,-5.082456657505363,-0.9602719187050879,610.0
611,5.098322592127434,-2.1138314985895605,-1.9653037656098675,0.9474076196575628,-5.082456721601295,-0.8248839873663355,611.0
612,5.098322660902891,-2.1138314969384497,-1.9653037511502582,0.9474076042565917,-5.08245679045222,-0.6794960565193355,612.0
613,5.098322729268605,-2.1138314754333174,-1.9653037342482114,0.9474075665956387,-5.082456859049791,-0.5241081320555089,613.0
614,5.098322799775206,-2.1138314480742606,-1.965303716157416,0.9474075219259592,-5.082456929837033,-0.3589511443349579,614.0
615,5.0983228593830034,-2.113831404252249,-1.965303698229115,0.947407460877371,-5.082456989849053,-0.19660250824270153,615.0
616,5.098322909832074,-2.1138313575846643,-1.9653036818361849,0.9474073984302198,-5.082457040717516,-0.044253872150484125,616.0
617,5.098322947801546,-2.1138313047157142,-1.96530366723952,0.9474073314622873,-5.082457079145798,0.0980947639417079,617.0
618,5.098322977766278,-2.113831252438402,-1.9653036543766622,0.9474072667363185,-5.082457109557762,0.2304434000338822,618.0
619,5.09832299547048,-2.1138311982630507,-1.9653036438124616,0.9474072022887984,-5.082457127714084,0.35279203612601023,619.0
620,5.0983230117276515,-2.1138311485156516,-1.9653036341117045,0.9474071431088066,-5.0824571443864235,0.4651406722181312,620.0
621,5.098323013806486,-2.1138310998155365,-1.9653036274818723,0.9474070878991572,-5.0824571468599204,0.5674893083102396,621.0
622,5.098323014817426,-2.113831055644047,-1.9653036216497504,0.9474070379956674,-5.082457148228079,0.6598379444023348,622.0
623,5.098323015718897,-2.1138310162556824,-1.9653036164491582,0.9474069934959914,-5.082457149448087,0.7421865804944269,623.0
624,5.098323008886203,-2.113830981833506,-1.9653036134831656,0.9474069561075159,-5.082457142887288,0.8145352165865314,624.0
625,5.0983230011739415,-2.113830952212943,-1.9653036113106168,0.9474069242953018,-5.082457135407435,0.8768838526786189,625.0
626,5.098322994698636,-2.1138309273431766,-1.9653036094865177,0.947406897585398,-5.082457129127264,0.9292324887707424,626.0
627,5.09832298946029,-2.113830907224206,-1.9653036080108692,0.9474068759778052,-5.082457124046775,0.9715811248628745,627.0
628,5.098322985458902,-2.113830891856031,-1.9653036068836736,0.9474068594725236,-5.0824571201659685,1.0039297609549898,628.0
629,5.098322982694469,-2.113830881238652,-1.96530360610493,0.9474068480695534,-5.082457117484844,1.0262783970471097,629.0
630,5.098295143831243,-2.113883818205343,-1.9651999495231007,0.947356111684989,-5.0824293410811885,1.0387227272859307,630.0
631,5.097040917054047,-2.1162691869338968,-1.960529663664394,0.9450704391689808,-5.081177926382672,1.043487622173086,631.0
632,5.095812378952029,-2.1186057055420093,-1.955955029470449,0.942831580907943,-5.079952143067956,1.0385031533538975,632.0
633,5.095792272225899,-2.118643953292331,-1.9558801550600713,0.942794935097094,-5.079932082240511,1.0258414216773142,633.0
634,5.095792275185246,-2.11864396093477,-1.955880158553016,0.9427949336711924,-5.079932086652793,1.0032502380602142,634.0
635,5.095792279454548,-2.118643971960139,-1.9558801635921141,0.9427949316141145,-5.079932093018174,0.9706590544431101,635.0
636,5.095792285033806,-2.1186439863684385,-1.9558801701773667,0.9427949289258606,-5.079932101336655,0.928067870826009,636.0
637,5.09579229228682,-2.1186440043147754,-1.955880178126896,0.9427949260883061,-5.079932114751648,0.8754766944627415,637.0
638,5.0957923013898005,-2.118644025874281,-1.955880187352606,0.9427949233348569,-5.079932134785726,0.8128855267341158,638.0
639,5.095792309242215,-2.118644053195394,-1.9558801965398733,0.942794930432854,-5.079932152501913,0.7402943628252315,639.0
640,5.095792308543501,-2.1186440925319774,-1.9558802016067252,0.942794975158572,-5.079932153005349,0.6577032115112332,640.0
641,5.095792307752713,-2.118644136681297,-1.9558802072424548,0.9427950255137612,-5.079932153504753,0.5651120669574355,641.0
642,5.095792305550895,-2.118644185279956,-1.9558802136923894,0.9427950812963886,-5.079932152508946,0.46252092954247453,642.0
643,5.095792289354824,-2.1186442347901018,-1.955880223359795,0.9427951402852424,-5.079932135868756,0.349929802747458,643.0
644,5.095792271718452,-2.118644288695895,-1.9558802338875663,0.9427952045070087,-5.079932117734959,0.22733868407017654,644.0
645,5.095792241497698,-2.1186443404665773,-1.955880246769791,0.9427952687687391,-5.079932087049675,0.09474757147257955,645.0
646,5.095792203695001,-2.1186443930339287,-1.955880261335115,0.9427953354038063,-5.079932048784043,-0.04784353893795548,646.0
647,5.095792153109641,-2.118644439059091,-1.9558802777193072,0.9427953971982985,-5.079931997779933,-0.20043464486661916,647.0
648,5.095792093776007,-2.1186444826152218,-1.955880295604803,0.9427954579407622,-5.079931938041153,-0.36302574447500674,648.0
649,5.095792023489523,-2.1186445092393003,-1.9558803136024654,0.9427955017847227,-5.079931867477719,-0.5280095233708647,649.0
650,5.095791955517168,-2.1186445300503225,-1.955880330377075,0.9427955386281445,-5.079931799277666,-0.6831566320434752,650.0
651,5.095791887272946,-2.118644531669174,-1.955880344756969,0.9427955539205463,-5.079931730961586,-0.8283037407162507,651.0
652,5.095791823754347,-2.1186445321328424,-1.9558803580078847,0.9427955669798002,-5.079931667384588,-0.9634508493891658,652.0
653,5.095791765300904,-2.1186445166136183,-1.955880368165561,0.9427955610473102,-5.079931609007083,-1.0885979580621845,653.0
654,5.095791711518239,-2.1186445023344778,-1.95588037751157,0.9427955555888583,-5.079931555294286,-1.203745066735371,654.0
655,5.09579166517204,-2.118644480842307,-1.955880384391925,0.9427955405428698,-5.079931509083013,-1.3088921754086262,655.0
656,5.0957916246257815,-2.1186444571390277,-1.9558803897853367,0.9427955218630384,-5.079931468694648,-1.4040392840820022,656.0
657,5.095791588340948,-2.1186444359269743,-1.955880394611893,0.942795505146462,-5.079931432551115,-1.4891863927554359,657.0
658,5.09579155914002,-2.11864441328124,-1.9558803977841426,0.9427954854177668,-5.0799314035092396,-1.5643335014289417,658.0
659,5.095791536293963,-2.1186443902156107,-1.9558803995829712,0.9427954639620721,-5.0799313808311135,-1.629480610102497,659.0
660,5.0957915169547485,-2.1186443706905274,-1.9558804011056805,0.9427954457997992,-5.079931361634052,-1.684627718776098,660.0
661,5.095791501122373,-2.1186443547059906,-1.9558804023522698,0.9427954309309474,-5.0799313459180535,-1.7297748274497193,661.0
662,5.09579148879684,-2.1186443422619985,-1.9558804033227415,0.9427954193555184,-5.079931333683119,-1.7649219361233446,662.0
663,5.095791479978148,-2.1186443333585516,-1.9558804040170965,0.9427954110735122,-5.07993132492925,-1.7900690447969605,663.0
664,5.095791474666297,-2.11864432799565,-1.9558804044353342,0.9427954060849287,-5.079931319656443,-1.805216153470552,664.0
665,5.094965525528131,-2.120240241125213,-1.952753562696171,0.9412640043936369,-5.079107287645775,-1.8121850841876548,665.0
666,5.093506442560592,-2.1230595212076238,-1.947229811116364,0.9385586958430208,-5.077651591930185,-1.8098783104829061,666.0
667,5.093294999006781,-2.1234680878792376,-1.946429321065372,0.9381666460753754,-5.077440641354088,-1.7994659888277598,667.0
668,5.093295006428328,-2.1234680924527147,-1.946429322627448,0.9381666421845585,-5.07744065292509,-1.7796938723568476,668.0
669,5.093295017603416,-2.123468099339286,-1.9464293249795641,0.9381666363259114,-5.077440670348272,-1.7499217558859046,669.0
670,5.093295032532047,-2.123468108538952,-1.94642932812172,0.9381666284994339,-5.077440693623637,-1.7101496394149671,670.0
671,5.0932950510877175,-2.1234681199403087,-1.9464293321700017,0.9381666182949686,-5.077440721652758,-1.660377526972002,671.0
672,5.093295072717984,-2.1234681330568397,-1.946429337631375,0.938166603921293,-5.077440749638651,-1.600605433358072,672.0
673,5.09329509796704,-2.1234681483677944,-1.9464293440064475,0.9381665871428706,-5.077440782306645,-1.530833339744182,673.0
674,5.0932951313392625,-2.1234681678730003,-1.946429340208865,0.9381666005552239,-5.077440814592725,-1.4510612616055443,674.0
675,5.0932951691501565,-2.123468189960904,-1.9464293352788073,0.9381666176164056,-5.077440850608475,-1.3612891874382993,675.0
676,5.093295211162819,-2.1234682145836343,-1.9464293297326265,0.9381666368968654,-5.077440890547766,-1.2615171229897062,676.0
677,5.093295261254018,-2.1234682306175627,-1.9464293213516322,0.9381666450634152,-5.077440940154468,-1.1517450680503025,677.0
678,5.09329531685859,-2.123468245399911,-1.9464293116474392,0.9381666507744608,-5.077440995680902,-1.0319730206918274,678.0
679,5.093295377271468,-2.1234682542192997,-1.9464293001859159,0.9381666487955556,-5.077441056076897,-0.9022009803969875,679.0
680,5.093295442592009,-2.1234682526888093,-1.9464292863906925,0.9381666341473979,-5.07744112147029,-0.7624289440738883,680.0
681,5.093295510585197,-2.123468243382524,-1.9464292710426594,0.9381666102133981,-5.077441189601217,-0.6126569104744815,681.0
682,5.093295579693972,-2.1234682203343653,-1.9464292537012593,0.9381665705834115,-5.077441258959018,-0.4528848834955405,682.0
683,5.093295644779202,-2.1234681844321353,-1.9464292355502277,0.9381665172739545,-5.077441324395144,-0.2865995203963038,683.0
684,5.093295702074837,-2.1234681424337745,-1.946429218239663,0.9381664586406453,-5.077441382084889,-0.12863708720847822,684.0
685,5.093295744007172,-2.123468091255714,-1.9464292029512014,0.938166392709434,-5.0774414244732196,0.01932534597945684,685.0
686,5.093295780360584,-2.1234680407676456,-1.9464291889126324,0.9381663286591182,-5.077441461272118,0.15728777916752895,686.0
687,5.093295802189713,-2.1234679869934636,-1.9464291774767633,0.9381662637819692,-5.07744148356104,0.28525021235575365,687.0
688,5.093295819051285,-2.123467935516178,-1.9464291673694383,0.9381662024743724,-5.077441500859257,0.40321264554409414,688.0
689,5.093295829337817,-2.1234678870368118,-1.9464291590151621,0.9381661458438535,-5.077441511552139,0.5111750787325595,689.0
690,5.093295830395607,-2.1234678408509127,-1.9464291528761397,0.9381660936221695,-5.07744151298945,0.6091375119211119,690.0
691,5.093295831345417,-2.1234677993796716,-1.9464291473637823,0.9381660467312698,-5.077441514280041,0.6970999451097393,691.0
692,5.093295829895705,-2.1234677626767855,-1.9464291429620562,0.9381660056850472,-5.077441513129934,0.7750623782984424,692.0
693,5.093295821589395,-2.1234677308467034,-1.94642914061227,0.9381659714830237,-5.07744150507732,0.8430248114871934,693.0
694,5.093295814505275,-2.1234677037001033,-1.946429138608232,0.9381659423134899,-5.077441498209568,0.9009872446760079,694.0
695,5.093295808643346,-2.1234676812369866,-1.9464291369499382,0.9381659181764439,-5.077441492526679,0.9489496778648318,695.0
696,5.09329580400361,-2.123467663457351,-1.9464291356373926,0.938165899071888,-5.0774414880286525,0.9869121110536816,696.0
697,5.0932958005860645,-2.1234676503611976,-1.9464291346705958,0.9381658849998217,-5.077441484715488,1.0148745442425002,697.0
698,5.093295798390711,-2.123467641948525,-1.9464291340495472,0.9381658759602454,-5.0774414825871865,1.0328369774313164,698.0
699,5.0928816542624125,-2.1242806048159575,-1.9448351969459343,0.9373846765844308,-5.0770283333292365,1.041899694823124,699.0
700,5.091387035171654,-2.127214557354364,-1.93908276817555,0.9345653872976982,-5.075537304621055,1.0424093051614796,700.0
701,5.090832971803762,-2.128302194472242,-1.9369503087767492,0.9335202592522084,-5.074984572764463,1.0341019208018845,701.0
702,5.090832974003171,-2.128302200122503,-1.9369503113824098,0.9335202581953959,-5.074984576109857,1.0171664876491404,702.0
703,5.090832977501283,-2.128302209109119,-1.9369503155266554,0.9335202565145586,-5.074984581430633,0.990231054496392,703.0
704,5.090832982298099,-2.1283022214320892,-1.936950321209486,0.9335202542096973,-5.074984588726791,0.9532956213436183,704.0
705,5.090832988393616,-2.1283022370914146,-1.936950328430902,0.9335202512808113,-5.07498459799833,0.9063601881908617,705.0
706,5.090832996511072,-2.1283022564085075,-1.9369503368144014,0.9335202487411334,-5.074984615561231,0.8494247669372733,706.0
707,5.0908330061499845,-2.12830227916095,-1.9369503466205256,0.9335202458895028,-5.074984637044813,0.7824893471382093,707.0
708,5.090833009268445,-2.1283023120848696,-1.9369503534170343,0.9335202727587242,-5.0749846452829,0.7055539382443957,708.0
709,5.09083300854119,-2.1283023529047576,-1.9369503587074113,0.9335203192193903,-5.0749846458044345,0.6186185347850893,709.0
710,5.0908330077162525,-2.1283023985118223,-1.9369503645234616,0.9335203714185254,-5.0749846462626405,0.5216831437015941,710.0
711,5.090832999130726,-2.1283024466953036,-1.9369503723868078,0.9335204277745012,-5.074984638102843,0.414747759284822,711.0
712,5.090832982512988,-2.1283024973756506,-1.9369503823525536,0.9335204882260082,-5.074984621018557,0.29781238298204227,712.0
713,5.090832962589184,-2.1283025512862124,-1.936950393425988,0.933520552965717,-5.074984600588985,0.17087701468042232,713.0
714,5.090832926723693,-2.1283026010321233,-1.9369504073089958,0.9335206161229912,-5.074984564277947,0.03394165207086996,714.0
715,5.090832886859183,-2.128302653019956,-1.9369504223150793,0.9335206825988571,-5.074984523946269,-0.11299370961974198,715.0
716,5.090832830278841,-2.1283026944333825,-1.93695043944964,0.9335207404789264,-5.074984466974062,-0.26992906435460273,716.0
717,5.0908327668699815,-2.128302732039035,-1.9369504575197312,0.9335207954236644,-5.074984403198783,-0.4359235955113471,717.0
718,5.090832697734528,-2.1283027550520237,-1.9369504749085107,0.9335208350641628,-5.07498433381237,-0.5967243910096974,718.0
719,5.090832630224645,-2.1283027663986265,-1.9369504904577999,0.933520861238742,-5.074984266149348,-0.7475251865081952,719.0
720,5.0908325648191735,-2.128302767911779,-1.93695050430336,0.9335208759174203,-5.074984200673832,-0.8883259820068016,720.0
721,5.090832504252289,-2.128302760880036,-1.9369505160402323,0.9335208800095434,-5.074984140111762,-1.019126777505576,721.0
722,5.090832448506128,-2.1283027460829014,-1.9369505257723847,0.933520874396852,-5.074984084438817,-1.1399275730044474,722.0
723,5.090832397751866,-2.1283027313605034,-1.9369505344722673,0.9335208678781524,-5.074984033761546,-1.2507283685034651,723.0
724,5.090832355311422,-2.1283027065829416,-1.936950540143934,0.9335208483820698,-5.074983991488485,-1.351529164002554,724.0
725,5.090832317081304,-2.128302684263454,-1.9369505452529356,0.9335208308201051,-5.074983953409145,-1.44232995950176,725.0
726,5.090832283061514,-2.1283026644020393,-1.936950549799274,0.9335208151922593,-5.074983919523527,-1.5231307550010276,726.0
727,5.090832258241626,-2.1283026400780085,-1.936950551851619,0.9335207927118818,-5.074983894882777,-1.5939315505003562,727.0
728,5.090832237175115,-2.128302618845858,-1.9369505535181786,0.9335207729703207,-5.074983873973158,-1.6547323459997314,728.0
729,5.090832219573444,-2.128302601105792,-1.9369505549106338,0.9335207564756829,-5.074983856502576,-1.705533141499139,729.0
730,5.090832205436614,-2.128302586857811,-1.936950556028987,0.9335207432279697,-5.074983842471031,-1.7463339369985653,730.0
731,5.0908321947646265,-2.1283025761019143,-1.9369505568732397,0.9335207332271818,-5.074983831878523,-1.7771347324979823,731.0
732,5.09083218755748,-2.128302568838101,-1.936950557443391,0.933520726473319,-5.074983824725051,-1.7979355279973817,732.0
733,5.090715950900945,-2.128534360836994,-1.9364957780734837,0.9332976792336594,-5.074867876967936,-1.809125868283415,733.0
734,5.0893605675863505,-2.1312373151918726,-1.9311926247880753,0.9306967824779654,-5.073515862190261,-1.8124859874364427,734.0
735,5.088402247901032,-2.133148439375407,-1.9274430344827678,0.9288578199187095,-5.072559925510146,-1.806311908501776,735.0
736,5.088402253125343,-2.133148442593121,-1.9274430355885788,0.9288578171988492,-5.072559933715456,-1.792234902729146,736.0
737,5.0884022620608915,-2.133148448096629,-1.927443037479934,0.9288578125468587,-5.0725599477496415,-1.7681578969565275,737.0
738,5.088402274707677,-2.133148455885931,-1.9274430401568337,0.9288578059627384,-5.072559967612701,-1.7340808911838788,738.0
739,5.088402291065702,-2.133148465961028,-1.9274430436192775,0.9288577974464882,-5.072559993304637,-1.6900038854112203,739.0
740,5.088402310688405,-2.1331484779183008,-1.9274430482904807,0.9288577855055267,-5.0725600209068755,-1.6359268928225632,740.0
741,5.0884023336251,-2.1331484918023196,-1.9274430541237102,0.9288577703046701,-5.072560050852126,-1.571849908777448,741.0
742,5.088402361846473,-2.133148508609181,-1.9274430566152825,0.9288577651173182,-5.072560083403065,-1.4977729309093566,742.0
743,5.088402396841069,-2.1331485289989227,-1.9274430520532664,0.9288577807560623,-5.072560116754679,-1.4136959630311066,743.0
744,5.088402435989028,-2.1331485518774245,-1.9274430468907608,0.9288577985279767,-5.0725601539948535,-1.3196190039215572,744.0
745,5.0884024803973205,-2.133148574071716,-1.9274430404957759,0.9288578146106365,-5.072560196772343,-1.2155420518326987,745.0
746,5.088402532724261,-2.133148587980534,-1.9274430313203814,0.9288578199413522,-5.072560249015246,-1.1014651086109701,746.0
747,5.088402589640427,-2.1331486031094933,-1.9274430213395883,0.9288578257420438,-5.072560305857482,-0.9773881750167273,747.0
748,5.0884026514852,-2.1331486045509105,-1.9274430085804022,0.928857815079338,-5.072560367748376,-0.8433112470668718,748.0
749,5.088402718012864,-2.133148603031853,-1.9274429944634777,0.9288578001363172,-5.0725604343514625,-0.6992343204771707,749.0
750,5.088402784857919,-2.133148584966447,-1.927442978144953,0.9288577664813213,-5.07256050140715,-0.5451573993096465,750.0
751,5.088402854732782,-2.1331485612443037,-1.927442960462457,0.9288577258482594,-5.072560571541697,-0.38108492559264867,751.0
752,5.088402913382492,-2.1331485183786834,-1.9274429426585107,0.9288576658715981,-5.072560630600548,-0.2174294987386422,752.0
753,5.088402964991498,-2.133148474651102,-1.9274429262166033,0.928857606323652,-5.072560682619611,-0.06377407188451821,753.0
754,5.088403002390862,-2.133148422842306,-1.92744291170528,0.9288575404935191,-5.072560720483682,0.07988135496976637,754.0
755,5.088403033973526,-2.133148372765182,-1.9274428986345593,0.9288574777718976,-5.072560752511459,0.21353678182416824,755.0
756,5.088403051435781,-2.1331483195749277,-1.9274428881168362,0.9288574143497431,-5.0725607704321884,0.3371922086787242,756.0
757,5.088403067485866,-2.133148270686168,-1.9274428784496722,0.9288573560565281,-5.072560786903672,0.45084763553338053,757.0
758,5.0884030713730235,-2.1331482232454264,-1.9274428715144762,0.9288573018142403,-5.072560791189347,0.5545030623881442,758.0
759,5.088403072370709,-2.1331481797140692,-1.9274428656883753,0.9288572525527596,-5.072560792550424,0.6481584892430089,759.0
760,5.088403073261868,-2.1331481408307478,-1.9274428604843492,0.9288572085511414,-5.072560793766174,0.7318139160979273,760.0
761,5.088403067776499,-2.133148106738643,-1.9274428572328874,0.928857171217713,-5.072560788559823,0.8054693429529363,761.0
762,5.088403060088539,-2.1331480773424385,-1.927442855048287,0.9288571396149529,-5.072560781109816,0.8691247698079703,762.0
763,5.0884030536083245,-2.1331480525642545,-1.927442853206876,0.9288571129768526,-5.0725607748301735,0.9227801966630561,763.0
764,5.0884030483358575,-2.1331480324040917,-1.9274428517086548,0.9288570913034124,-5.072560769720896,0.966435623518163,764.0
765,5.088403044271136,-2.133148016861949,-1.9274428505536263,0.9288570745946334,-5.072560765781985,1.0000910503732603,765.0
766,5.0884030414141606,-2.133148005937826,-1.9274428497417904,0.9288570628505155,-5.0725607630134375,1.0237464772283407,766.0
767,5.088402803460515,-2.1331484783626715,-1.9274419093810808,0.9288565947950185,-5.0725605257182576,1.0374020421490082,767.0
768,5.087395014784659,-2.1351901615193283,-1.9234334696054998,0.9268893480500945,-5.071555327583025,1.0432691723000571,768.0
769,5.086091584830326,-2.1378307931094587,-1.9182491235571224,0.9243449976109052,-5.0702552483674435,1.039511595851898,769.0
770,5.08600544544256,-2.138005310383887,-1.9179065031808502,0.9241768463597818,-5.070169331221547,1.0280093142964717,770.0
771,5.08600544817263,-2.138005317360806,-1.9179065064279985,0.9241768450514483,-5.070169335457347,1.0068077431195428,771.0
772,5.0860054521903715,-2.13800532762848,-1.917906511206707,0.9241768431260218,-5.0701693416910185,0.9756061719426024,772.0
773,5.086005457495785,-2.1380053411869095,-1.9179065175169758,0.9241768405835027,-5.070169349922559,0.9344046007656366,773.0
774,5.086005464328541,-2.1380053581470655,-1.9179065252288738,0.9241768377784543,-5.070169362267167,0.8832030323484387,774.0
775,5.086005473056069,-2.1380053786790727,-1.9179065341432096,0.9241768352544464,-5.070169381967579,0.8220014698585195,775.0
776,5.086005482164706,-2.13800540344895,-1.9179065439235436,0.9241768362571525,-5.070169402698484,0.7507999089012013,776.0
777,5.0860054814929105,-2.138005441044119,-1.9179065488269127,0.9241768790933471,-5.070169403177923,0.6695983626627039,777.0
778,5.086005480732868,-2.1380054833044966,-1.9179065543018612,0.9241769273569278,-5.070169403667372,0.5783968214514199,778.0
779,5.086005479880331,-2.138005530257319,-1.9179065603235255,0.9241769811650767,-5.070169404129054,0.4771952881205942,779.0
780,5.086005464936509,-2.1380055779542837,-1.9179065696052953,0.924177038013666,-5.070169388830516,0.36599376597277516,780.0
781,5.086005447918149,-2.1380056297362704,-1.9179065798619617,0.9241770998506729,-5.0701693713206755,0.24479225113806036,781.0
782,5.08600542086166,-2.1380056807432943,-1.9179065921349507,0.9241771627844189,-5.070169343787846,0.11359074289177933,782.0
783,5.086005384320266,-2.138005731298902,-1.9179066063488484,0.924177227073035,-5.070169306786406,-0.027610762254907422,783.0
784,5.086005337420675,-2.1380057776164345,-1.9179066221869205,0.9241772886490784,-5.070169259454566,-0.17881226377913778,784.0
785,5.086005279994686,-2.1380058195267617,-1.917906639662455,0.9241773473556653,-5.0701692016252595,-0.3400137588491198,785.0
786,5.086005214054166,-2.138005847727732,-1.9179066571490373,0.9241773923022109,-5.07016913538875,-0.5024414316098201,786.0
787,5.086005149281587,-2.138005869205783,-1.9179066735199652,0.9241774294354821,-5.070169070377626,-0.6549091901086684,787.0
788,5.086005084413759,-2.138005872684388,-1.9179066875800101,0.9241774462925529,-5.070169005422226,-0.797376948607629,788.0
789,5.086005023610859,-2.1380058740539796,-1.9179067005140937,0.9241774599610507,-5.0701689445531155,-0.9298447071065877,789.0
790,5.086004967688476,-2.138005862651301,-1.9179067107702563,0.9241774582550497,-5.070168888676103,-1.052312465605629,790.0
791,5.086004916404392,-2.1380058490394456,-1.9179067197671957,0.9241774531332091,-5.0701688374601055,-1.1647802241046803,791.0
792,5.086004870709957,-2.1380058335047676,-1.9179067273424,0.92417744472871,-5.0701687918549245,-1.2672479826037575,792.0
793,5.086004832240116,-2.1380058110728375,-1.9179067325086836,0.9241774271066521,-5.070168753538724,-1.359715741102891,793.0
794,5.086004797930625,-2.138005791066829,-1.9179067371162504,0.9241774113903434,-5.070168719366259,-1.4421834996020082,794.0
795,5.0860047677814855,-2.1380057734867406,-1.9179067411651038,0.9241773975797855,-5.070168689337529,-1.5146512581011362,795.0
796,5.0860047454789274,-2.138005753232547,-1.9179067432214243,0.9241773791894314,-5.070168667184886,-1.5771190166002755,796.0
797,5.086004727515208,-2.138005735157331,-1.9179067446496085,0.9241773623908017,-5.070168649356697,-1.6295867750993691,797.0
798,5.086004712975253,-2.138005720527129,-1.9179067458055903,0.9241773487938774,-5.070168634926441,-1.6720545335984307,798.0
799,5.086004701859059,-2.1380057093419413,-1.9179067466893676,0.9241773383986567,-5.070168623894116,-1.7045222920975043,799.0
800,5.08600469416663,-2.1380057016017684,-1.9179067473009435,0.9241773312051417,-5.070168616259724,-1.7269900505965747,800.0
801,5.0860046898979645,-2.1380056973066086,-1.9179067476403178,0.9241773272133325,-5.070168612023265,-1.739457809095657,801.0
