Miguel-LA/TFM_MiguelLerinAlonso/workspace/ros_ur_driver/src/trayectories/data/saved_trajectories/20240615_2012_trajectory.csv
,shoulder_pan_joint,shoulder_lift_joint,elbow_joint,wrist_1_joint,wrist_2_joint,wrist_3_joint,time_from_start
0,-1.3915500683728435,-2.044364150458563,-1.868670138456111,-2.2848323554611567,-1.7351442915131172,7.861113995313644e-05,0.0
1,-1.3911407997270593,-2.0437649622884924,-1.8686503908110284,-2.2863507084485555,-1.7343941152879827,-0.004921388860046853,1.25
2,-1.389912993789708,-2.0419673977782806,-1.8685911478757806,-2.290905767410752,-1.7321435866125798,-0.0199213888600468,2.5
3,-1.3878666505607882,-2.0389714569279276,-1.8684924096503677,-2.2984975323477457,-1.728392705486908,-0.04492138886004678,3.75
4,-1.3850017700403008,-2.0347771397374332,-1.8683541761347893,-2.3091260032595375,-1.7231414719109677,-0.07992138886004696,5.0
5,-1.3812876753239844,-2.0293901387671522,-1.8681770549156704,-2.322714358082278,-1.7162041981495264,-0.12492135209736607,6.25
6,-1.3766515101262449,-2.0228239697117725,-1.8679624888240514,-2.339080162454107,-1.707139894010333,-0.17992122002536784,7.5
7,-1.3710346933564797,-2.015089501572916,-1.8677116380507477,-2.358076721800198,-1.6955939714158808,-0.24492093428938924,8.75
8,-1.3643710428287232,-2.006195516770029,-1.8674404764159536,-2.379454754283584,-1.6811940075058809,-0.31992045495058297,10.0
9,-1.3565815064353641,-1.9961505543142313,-1.867176263502442,-2.402869896180386,-1.6635108752340928,-0.4049197532544383,11.25
10,-1.3475856314012953,-1.984964321810249,-1.8669529381824055,-2.427911244298822,-1.6421212412757402,-0.4999187551982091,12.5
11,-1.337296436595901,-1.9726461132553201,-1.866822255656207,-2.4540255047012662,-1.6165972893744025,-0.6049174204129519,13.75
12,-1.3256399696520074,-1.9592088281265405,-1.8668514693231095,-2.480518832174862,-1.586617450155314,-0.7199157095517431,15.0
13,-1.3125511886708061,-1.9446706809434082,-1.8671164800857174,-2.5065995385067974,-1.5519225946292552,-0.8449135711528156,16.25
14,-1.2979962613359937,-1.9290586364382458,-1.8677103290606876,-2.5313092754642015,-1.5124574138285114,-0.9799109826112834,17.5
15,-1.281988398770991,-1.9124122145786147,-1.868736522265591,-2.5535723337306346,-1.46843535275698,-1.1249079400201831,18.75
16,-1.2653070318950297,-1.895493483708823,-1.870233588163807,-2.571580870972051,-1.4223452084568706,-1.2736321743711163,20.0
17,-1.2495983725737445,-1.8798272879004652,-1.872058893942341,-2.583883614946,-1.3791492812365025,-1.4127891207804644,21.25
18,-1.2350508979160502,-1.8654437221361173,-1.8741285611897034,-2.59134408111536,-1.3396590742167647,-1.5419465853933008,22.5
19,-1.2217471125779436,-1.8523154270372397,-1.8763596591107752,-2.5948962951170342,-1.3042422318822773,-1.661107180216914,23.75
20,-1.2097156606336028,-1.8404116030027269,-1.878671414931649,-2.5954180172509416,-1.2729766988462945,-1.7702695889642475,25.0
21,-1.198961085400649,-1.829701904659317,-1.880988690381852,-2.593710676923992,-1.2458182401709528,-1.8694325448363163,26.25
22,-1.1894595494666307,-1.8201565400061932,-1.8832401705017532,-2.5905061496381556,-1.222573961772886,-1.9585939042736482,27.5
23,-1.1811686216991286,-1.811751004383861,-1.8853642875883472,-2.5864150303219104,-1.2029218199680085,-2.0377780974493644,28.75
24,-1.1757265151705223,-1.8062200570255635,-1.886787092505796,-2.583497497072924,-1.1901355238130475,-2.113704233467961,30.0
25,-1.1744361651218815,-1.8049088540331344,-1.8871242933137096,-2.5828060330932137,-1.1871041505137163,-2.190969334961019,31.25
26,-1.1744362327722782,-1.8049092347824478,-1.8871240419866442,-2.5828065488621412,-1.187104728476933,-2.2753124066811035,32.5
27,-1.174436296596659,-1.8049096701643343,-1.8871237327330501,-2.5828072318479207,-1.1871052743355086,-2.3696554692598766,33.75
28,-1.1744363067264318,-1.8049097823948728,-1.8871236922420715,-2.582807335554582,-1.1871053549465855,-2.4739985230922343,35.0
29,-1.1744363034917884,-1.8049098195997728,-1.8871237186938545,-2.5828072939567823,-1.1871053194065475,-2.5883415696115,36.25
30,-1.1744363066181398,-1.8049098576375178,-1.887123751271076,-2.5828072367679415,-1.187105296635344,-2.7126846078816103,37.5
31,-1.1744363264261577,-1.8049098937709578,-1.8871237928788032,-2.582807157867621,-1.1871053162744456,-2.847027638038771,38.75
32,-1.1744363518351788,-1.8049099308368641,-1.8871238370717207,-2.5828070756697485,-1.1871053418829216,-2.9913706593959857,40.0
33,-1.1744363941737335,-1.8049099640256068,-1.8871238822361995,-2.5828069980169137,-1.1871053849024402,-3.145713673896566,41.25
34,-1.174436446039448,-1.8049099946397793,-1.8871239278632714,-2.5828069226281687,-1.1871054374086993,-3.310056685177871,42.5
35,-1.174436511389914,-1.8049100193219867,-1.8871239719419581,-2.5828068549161474,-1.1871055032913134,-3.4829249881406117,43.75
36,-1.1744365831236436,-1.8049100331126322,-1.8871240074899762,-2.5828068066881373,-1.187105575397863,-3.6495876212584815,45.0
37,-1.1744366538076618,-1.8049100423455993,-1.8871240383146217,-2.582806767711562,-1.187105646380144,-3.8062502543763483,46.25
38,-1.1744367249958985,-1.804910038843311,-1.8871240570058874,-2.582806753574505,-1.1871057176660769,-3.9529128874942066,47.5
39,-1.1744367916577845,-1.8049100347867684,-1.8871240737589343,-2.5828067418608023,-1.1871057844071453,-4.0895755206120565,48.75
40,-1.1744368531067062,-1.8049100211311289,-1.8871240796324973,-2.5828067505203025,-1.187105845771975,-4.216238153729909,50.0
41,-1.174436909672303,-1.8049100076103506,-1.887124084122178,-2.5828067603563616,-1.1871059022451078,-4.3329007868477625,51.25
42,-1.174436959173334,-1.8049099912145605,-1.8871240836471488,-2.5828067779184813,-1.1871059515929299,-4.439563419965616,52.5
43,-1.1744370019624135,-1.8049099725856765,-1.8871240789361976,-2.5828068018430628,-1.1871059941789837,-4.53622605308347,53.75
44,-1.1744370403248539,-1.8049099558840036,-1.8871240747126006,-2.582806823292586,-1.1871060323594014,-4.622888686201325,55.0
45,-1.174437072160992,-1.8049099394631372,-1.8871240687365929,-2.5828068461171605,-1.1871060640039226,-4.6995513193191805,56.25
46,-1.1744370964662767,-1.8049099225353817,-1.8871240599365895,-2.582806872158816,-1.1871060880933568,-4.766213952437037,57.5
47,-1.1744371171255483,-1.8049099081469437,-1.887124052456666,-2.582806894293987,-1.1871061085691574,-4.822876585554892,58.75
48,-1.1744371341388073,-1.8049098962978247,-1.8871240462968195,-2.582806912522675,-1.1871061254313249,-4.869539218672745,60.0
49,-1.1744371475060527,-1.8049098869880225,-1.8871240414570545,-2.582806926844877,-1.1871061386798587,-4.906201851790598,61.25
50,-1.1744371572272847,-1.8049098802175363,-1.8871240379373706,-2.582806937260595,-1.1871061483147585,-4.932864484908452,62.5
51,-1.1744371633025033,-1.8049098759863664,-1.8871240357377679,-2.5828069437698273,-1.187106154336024,-4.949527118026306,63.75
52,-1.1751376174372843,-1.8066628435431642,-1.8848355321646735,-2.5833475985145267,-1.1878056347886436,-4.9575204510967685,65.0
53,-1.176776863949782,-1.8107652707029027,-1.8794798121939875,-2.5846128712751817,-1.1894426032392174,-4.956384865759633,66.25
54,-1.1771428370605894,-1.8116811763142036,-1.8782841007988078,-2.584895355711746,-1.1898080705300977,-4.946618747997363,67.5
55,-1.1771428309763716,-1.8116811817722471,-1.8782841009620084,-2.584895358245354,-1.189808070072599,-4.927678357867537,68.75
56,-1.1771428216798556,-1.8116811901119858,-1.8782841012113747,-2.5848953621166375,-1.1898080693735535,-4.89873796773771,70.0
57,-1.1771428091710416,-1.8116812013334203,-1.8782841015469063,-2.5848953673255957,-1.1898080684329615,-4.859797577607884,71.25
58,-1.177142793501413,-1.8116812153999273,-1.87828410207602,-2.584895373472663,-1.1898080676896596,-4.810857188027049,72.5
59,-1.177142775224557,-1.8116812319177147,-1.8782841039537406,-2.5848953762613887,-1.1898080718623731,-4.751916803928025,73.75
60,-1.1771427538467956,-1.8116812512379585,-1.8782841061500415,-2.5848953795232577,-1.1898080767430421,-4.682976419828999,75.0
61,-1.1771427205785954,-1.8116812671612483,-1.8782841101065944,-2.584895362023416,-1.1898080484550375,-4.60403604983576,76.25
62,-1.1771426816048896,-1.811681284050612,-1.8782841148199174,-2.5848953386652767,-1.1898080108116484,-4.515095683981955,77.5
63,-1.1771426382181451,-1.8116813028208707,-1.8782841201295435,-2.5848953123886846,-1.189807968678446,-4.416155328195538,78.75
64,-1.177142586980355,-1.8116813175185673,-1.8782841186352315,-2.584895297954816,-1.1898079178321708,-4.307214980903738,80.0
65,-1.1771425296609603,-1.811681331193192,-1.8782841140838127,-2.5848952879671536,-1.1898078605423326,-4.188274641223144,81.25
66,-1.1771424674025446,-1.8116813424082034,-1.878284105608953,-2.584895284301185,-1.1898077982764543,-4.059334308613614,82.5
67,-1.1771424000514477,-1.8116813464813557,-1.8782840886247993,-2.584895296221798,-1.1898077308430257,-3.920393980177412,83.75
68,-1.1771423294686492,-1.8116813469355506,-1.8782840671328505,-2.5848953162100723,-1.1898076601140772,-3.7714536538502816,85.0
69,-1.177142258203204,-1.811681337598582,-1.878284035949969,-2.584895355639793,-1.1898075885461505,-3.6125133344144227,86.25
70,-1.1771421897183127,-1.8116813208151044,-1.8782839984213409,-2.584895408881957,-1.189807519646167,-3.4461321258786413,87.5
71,-1.1771421300508784,-1.8116812982551715,-1.8782839580396238,-2.58489547086873,-1.1898074594906483,-3.287309334109867,88.75
72,-1.1771420850918257,-1.811681269491932,-1.8782839162219036,-2.584895540696599,-1.1898074139765216,-3.138486542341092,90.0
73,-1.1771420472547731,-1.811681239806547,-1.878283875724223,-2.5848956102302245,-1.1898073755850993,-2.999663750572313,91.25
74,-1.17714202319157,-1.8116812074533748,-1.8782838369232615,-2.584895680932851,-1.1898073509548042,-2.8708409588035346,92.5
75,-1.177142005683459,-1.8116811755726756,-1.8782838006164708,-2.584895748768007,-1.1898073329012835,-2.752018167034758,93.75
76,-1.17714199380212,-1.8116811453837978,-1.8782837676959863,-2.5848958116138374,-1.1898073205136264,-2.6431953752659765,95.0
77,-1.177141992794213,-1.8116811156345705,-1.878283738579654,-2.5848958703793885,-1.1898073190298903,-2.5443725834971955,96.25
78,-1.1771419918882973,-1.8116810888957093,-1.878283712409634,-2.5848959231983817,-1.1898073176962956,-2.4555497917284117,97.5
79,-1.1771419926230458,-1.8116810650741657,-1.8782836895739279,-2.5848959697985605,-1.189807318053357,-2.3767269999596286,98.75
80,-1.1771420014168368,-1.8116810437818178,-1.8782836716910132,-2.5848960090442423,-1.1898073265271396,-2.307904208190843,100.0
81,-1.1771420089328841,-1.8116810255832632,-1.8782836564064986,-2.584896042587499,-1.189807333769676,-2.2490814164220567,101.25
82,-1.1771420151711873,-1.8116810104785048,-1.8782836437203811,-2.584896070428331,-1.1898073397809654,-2.2002586246532747,102.5
83,-1.1771420201317466,-1.8116809984675388,-1.878283633632664,-2.584896092566737,-1.1898073445610087,-2.1614358328844947,103.75
84,-1.1771420238145618,-1.8116809895503654,-1.878283626143348,-2.584896109002719,-1.189807348109805,-2.132613041115714,105.0
85,-1.1771420262196328,-1.8116809837269843,-1.878283621252432,-2.5848961197362748,-1.1898073504273547,-2.1137902493469305,106.25
86,-1.177515809441788,-1.8126279129626925,-1.87703993445694,-2.5851955897982775,-1.1901805817567992,-2.1041140799506195,107.5
87,-1.1791338270998055,-1.816726967617421,-1.871656306797026,-2.5864919048259347,-1.1917962108907083,-2.1030753375795577,108.75
88,-1.1798098317924313,-1.8184395493246694,-1.8694070367226794,-2.58703350153923,-1.1924712207270254,-2.111136347109639,110.0
89,-1.1798098305656315,-1.8184395548861696,-1.869407039557437,-2.5870334986599683,-1.19247122613115,-2.127875903902836,111.25
90,-1.179809828605957,-1.8184395637700397,-1.869407044085643,-2.5870334940606714,-1.1924712347636302,-2.154615460696035,112.5
91,-1.179809825913408,-1.8184395759762797,-1.8694070503072973,-2.5870334877413397,-1.1924712466244662,-2.1913550174892342,113.75
92,-1.1798098224879843,-1.8184395915048899,-1.8694070582224,-2.5870334797019727,-1.192471261713658,-2.238094574282435,115.0
93,-1.1798098178802943,-1.8184396108085013,-1.869407066456528,-2.5870334751932376,-1.192471276156268,-2.2948341204326157,116.25
94,-1.1798098123860206,-1.8184396335893012,-1.8694070759139996,-2.5870334707603972,-1.192471292501857,-2.361573664999282,117.5
95,-1.1798098106453003,-1.8184396577324806,-1.8694070942332042,-2.587033440011987,-1.1924712989785466,-2.438313199059891,118.75
96,-1.1798098113798912,-1.8184396838108625,-1.86940711933494,-2.587033390112119,-1.1924712990266197,-2.5250527273148307,120.0
97,-1.179809812166466,-1.81843971287482,-1.8694071474068066,-2.5870333341266942,-1.1924712988078516,-2.6217922443046175,121.25
98,-1.1798098206410352,-1.8184397430837214,-1.8694071791904388,-2.587033272871415,-1.1924713069669441,-2.728531754658547,122.5
99,-1.1798098377303194,-1.818439774212887,-1.8694072147797096,-2.5870332064294024,-1.192471324547181,-2.845271256928352,123.75
100,-1.1798098578914888,-1.8184398073102324,-1.869407253240041,-2.587033135193458,-1.1924713452485223,-2.972010751364893,125.0
101,-1.1798098949309817,-1.8184398363826806,-1.8694072930189862,-2.5870330669756814,-1.1924713828363949,-3.108750240329506,126.25
102,-1.1798099357846583,-1.8184398668121846,-1.8694073353038372,-2.587032994956369,-1.1924714242687524,-3.255489728636143,127.5
103,-1.1798099943052764,-1.8184398889597782,-1.8694073750442644,-2.5870329340049754,-1.1924714832707946,-3.412229209796614,128.75
104,-1.1798100597111647,-1.8184399084451446,-1.869407414342577,-2.58703287625314,-1.1924715491304048,-3.5781519917723923,130.0
105,-1.179810131463931,-1.8184399178719273,-1.8694074458457175,-2.587032836421184,-1.1924716211896627,-3.7391758949878313,131.25
106,-1.1798102014457594,-1.8184399202122647,-1.8694074699129795,-2.587032811065014,-1.1924716913607376,-3.8901997982032652,132.5
107,-1.1798102693831565,-1.8184399161283258,-1.86940748710248,-2.5870327989621407,-1.1924717593801404,-4.031223701418685,133.75
108,-1.179810332327715,-1.8184399071613147,-1.8694074979932866,-2.5870327979526437,-1.1924718223177297,-4.162247604634098,135.0
109,-1.179810390280771,-1.818439893350665,-1.8694075026241284,-2.5870328079584954,-1.1924718801754761,-4.283271507849507,136.25
110,-1.1798104431455192,-1.8184398801352712,-1.869407506248648,-2.5870328183011346,-1.192471932943404,-4.394295411064908,137.5
111,-1.1798104873105877,-1.818439860938108,-1.8694075013527383,-2.587032842999127,-1.1924719768970529,-4.49531931428031,138.75
112,-1.179810527103913,-1.8184398436412073,-1.8694074969414531,-2.5870328652523535,-1.1924720164998863,-4.586343217495704,140.0
113,-1.1798105625254942,-1.818439828244567,-1.8694074930147957,-2.587032885060813,-1.1924720517519038,-4.667367120711097,141.25
114,-1.1798105885109156,-1.81843981077307,-1.8694074841338577,-2.587032911751649,-1.1924720775140898,-4.738391023926489,142.5
115,-1.1798106104841073,-1.818439795484019,-1.8694074761236497,-2.5870329353355985,-1.1924720992902698,-4.799414927141881,143.75
116,-1.1798106288565477,-1.81843978270039,-1.8694074694260732,-2.587032955054842,-1.1924721174979829,-4.850438830357282,145.0
117,-1.1798106436282367,-1.818439772422182,-1.869407464041131,-2.587032970909379,-1.1924721321372291,-4.891462733572685,146.25
118,-1.179810654799174,-1.8184397646493928,-1.8694074599688237,-2.5870329828992085,-1.1924721432080079,-4.922486636788087,147.5
119,-1.1798106623693596,-1.818439759382023,-1.8694074572091521,-2.5870329910243313,-1.1924721507103193,-4.943510540003488,148.75
120,-1.1799398385222222,-1.818771024923606,-1.8689697814666044,-2.5871403322010167,-1.1926011247127741,-4.954904905277006,150.0
121,-1.1814216762934702,-1.8225712706113633,-1.8639488673342839,-2.588371680089992,-1.194080643909093,-4.958166354554072,151.25
122,-1.1824414840317636,-1.8251866272143384,-1.8604934413379135,-2.5892191018228674,-1.195098857788912,-4.95184352992946,152.5
123,-1.1824414794134332,-1.825186631349914,-1.8604934414351122,-2.589219103844926,-1.1950988573448558,-4.9373427729457875,153.75
124,-1.1824414716102134,-1.8251866383374624,-1.860493441599341,-2.589219107261435,-1.1950988565945704,-4.912842015962113,155.0
125,-1.1824414606221043,-1.8251866481769827,-1.8604934418305996,-2.589219112072394,-1.1950988555380557,-4.878341258978439,156.25
126,-1.182441446449106,-1.825186660868476,-1.8604934421288888,-2.589219118277803,-1.1950988541753116,-4.8338405019947634,157.5
127,-1.182441429491577,-1.8251866761324207,-1.8604934433155327,-2.589219122842735,-1.1950988559547437,-4.779339748692849,158.75
128,-1.1824414096623512,-1.8251866940296755,-1.860493445211712,-2.5892191264279587,-1.1950988601255617,-4.714838997432482,160.0
129,-1.1824413827004594,-1.8251867117808702,-1.8604934481504052,-2.5892191203915407,-1.1950988493341819,-4.640338253091484,161.25
130,-1.1824413461354295,-1.8251867276080287,-1.8604934525872692,-2.5892190985381403,-1.1950988140790417,-4.555837518278057,162.5
131,-1.1824413052183544,-1.82518674529287,-1.8604934576052568,-2.58921907385379,-1.1950987744433783,-4.461336792151978,163.75
132,-1.1824412586618407,-1.8251867626050924,-1.8604934604101435,-2.5892190519003746,-1.1950987288476398,-4.356836072766975,165.0
133,-1.1824412041630148,-1.8251867755682663,-1.8604934560553754,-2.589219042461462,-1.1950986743825236,-4.2423353619545106,166.25
134,-1.182441144903095,-1.8251867896650713,-1.8604934513157627,-2.58921903221543,-1.1950986151484488,-4.117834660544358,167.5
135,-1.1824410805528944,-1.825186794894141,-1.8604934363266792,-2.589219041025788,-1.19509855073118,-3.9833339644928802,168.75
136,-1.1824410113694113,-1.8251867990299726,-1.8604934187604751,-2.589219053437817,-1.1950984814620775,-3.8388332692824516,170.0
137,-1.1824409421247712,-1.8251867920096367,-1.8604933903003973,-2.5892190878647883,-1.1950984119535595,-3.6843325798320117,171.25
138,-1.182440870042161,-1.8251867815568188,-1.860493357608359,-2.589219129903583,-1.1950983395459152,-3.519870444622436,172.5
139,-1.182440809462436,-1.8251867586106405,-1.8604933163277135,-2.589219193160929,-1.1950982784651134,-3.3566115022421688,173.75
140,-1.1824407568078588,-1.8251867341389945,-1.8604932760338846,-2.589219257071007,-1.1950982253021838,-3.2033525598619095,175.0
141,-1.182440718241137,-1.8251867038559966,-1.8604932344724863,-2.5892193282540683,-1.1950981861643175,-3.060093617481659,176.25
142,-1.1824406863602976,-1.8251866739522882,-1.8604931953679529,-2.589219396701908,-1.1950981537329974,-2.926834675101421,177.5
143,-1.182440668420623,-1.825186641276746,-1.8604931579132127,-2.5892194664722163,-1.19509813522862,-2.8035757327211868,178.75
144,-1.1824406519363952,-1.8251866112521782,-1.8604931234971684,-2.5892195305820582,-1.1950981182255036,-2.690316790340961,180.0
145,-1.1824406486207968,-1.8251865810912675,-1.8604930930590342,-2.5892195910466436,-1.1950981144175081,-2.587057847960735,181.25
146,-1.1824406476799878,-1.8251865533625558,-1.860493065733318,-2.589219646008932,-1.1950981130286005,-2.4937989055805128,182.5
147,-1.1824406468400603,-1.825186528607151,-1.8604930413376892,-2.5892196950777064,-1.1950981117886228,-2.410539963200294,183.75
148,-1.1824406530031117,-1.8251865064124826,-1.8604930216245663,-2.5892197370150507,-1.1950981176080713,-2.3372810208200736,185.0
149,-1.1824406609854805,-1.8251864870883985,-1.8604930052778383,-2.5892197727506727,-1.195098125296977,-2.274022078439856,186.25
150,-1.1824406677059933,-1.8251864708190755,-1.8604929915152062,-2.589219802837193,-1.1950981317704172,-2.220763136059628,187.5
151,-1.1824406731646497,-1.825186457604513,-1.8604929803366703,-2.5892198272746114,-1.1950981370283924,-2.177504193679396,188.75
152,-1.1824406773614502,-1.8251864474447093,-1.8604929717422332,-2.589219846062927,-1.195098141070902,-2.14424525129917,190.0
153,-1.1824406802963945,-1.8251864403396638,-1.8604929657318936,-2.5892198592021414,-1.1950981438979462,-2.120986308918945,191.25
154,-1.1824477232559025,-1.8252047163769256,-1.860468668534164,-2.589225930775059,-1.195105175142813,-2.107704877481649,192.5
155,-1.1836492538085268,-1.8283240436768908,-1.8563231608731197,-2.59026071123772,-1.196304717189284,-2.1023560470516944,193.75
156,-1.184990819221983,-1.8318069255113323,-1.8516945050116902,-2.59141608916371,-1.197644064090695,-2.106797825236958,195.0
157,-1.1850351626083306,-1.8319220531770837,-1.8515415108268714,-2.591454277200014,-1.1976883388846167,-2.119163995498637,196.25
158,-1.1850351609753387,-1.8319220604890811,-1.8515415145199199,-2.591454273596056,-1.1976883458713,-2.141390715452562,197.5
159,-1.1850351586076495,-1.831922071090812,-1.8515415198745044,-2.5914542683706454,-1.1976883560013545,-2.173617435406485,198.75
160,-1.1850351555052625,-1.8319220849822753,-1.8515415268906241,-2.5914542615237814,-1.1976883692747804,-2.215844155360413,200.0
161,-1.1850351514612507,-1.8319221023681496,-1.8515415349457265,-2.591454255419496,-1.1976883838890962,-2.2680708736174218,201.25
162,-1.1850351463275466,-1.8319221233948926,-1.8515415435943394,-2.591454251749384,-1.1976883985545261,-2.3302975895337807,202.5
163,-1.1850351416926013,-1.8319221472036766,-1.8515415558022843,-2.5914542400380607,-1.1976884121482207,-2.40252430227386,203.75
164,-1.1850351423804504,-1.831922171618871,-1.8515415794755588,-2.591454193131117,-1.1976884121760238,-2.484751001754738,205.0
165,-1.185035143135978,-1.8319221989924914,-1.8515416060670717,-2.591454140349753,-1.197688412072771,-2.576977695311152,206.25
166,-1.1850351447273006,-1.8319222291344854,-1.8515416356668613,-2.5914540817134104,-1.1976884126649385,-2.6792043820382205,207.5
167,-1.1850351609558842,-1.831922258700606,-1.8515416696964269,-2.591454018380861,-1.1976884293627261,-2.791431057708532,208.75
168,-1.1850351786319655,-1.8319222909002795,-1.8515417067609858,-2.5914539493948423,-1.1976884475608698,-2.913657725804135,210.0
169,-1.185035208417652,-1.8319223211126665,-1.851541745653221,-2.59145388078963,-1.1976884778892014,-3.0458843879350415,211.25
170,-1.1850352464729275,-1.8319223510021967,-1.8515417868064028,-2.5914538103977884,-1.197688516514153,-3.1881110478533827,212.5
171,-1.1850352968792957,-1.8319223762679095,-1.8515418273006943,-2.591453745461357,-1.1976885674406794,-3.3403377035207087,213.75
172,-1.1850353567075596,-1.831922398945863,-1.8515418682116034,-2.5914536828301684,-1.1976886277665895,-3.50256435269372,215.0
173,-1.1850354274630979,-1.8319224108181877,-1.851541901970389,-2.5914536382896975,-1.1976886988689124,-3.6678243482986805,216.25
174,-1.1850354961846665,-1.8319224192156247,-1.8515419316928965,-2.5914536012202514,-1.1976887678766193,-3.8233577014817617,217.5
175,-1.1850355654351747,-1.8319224150979943,-1.8515419493365708,-2.591453588717611,-1.197688837212054,-3.9688910546648843,218.75
176,-1.185035629919098,-1.8319224110220529,-1.8515419655292933,-2.5914535775531142,-1.1976889017711492,-4.104424407848039,220.0
177,-1.1850356892942497,-1.8319223969124387,-1.8515419703065623,-2.591453587733337,-1.197688961048048,-4.229957761031214,221.25
178,-1.1850357439395736,-1.8319223839268026,-1.8515419747032675,-2.591453597102604,-1.1976890156029456,-4.345491114214431,222.5
179,-1.18503579122529,-1.8319223672751148,-1.8515419732099982,-2.591453615907657,-1.197689062722852,-4.451024467397689,223.75
180,-1.1850358324773826,-1.8319223493725976,-1.8515419686047068,-2.591453638981894,-1.1976891037757074,-4.546557820580994,225.0
181,-1.185035869411394,-1.8319223333440386,-1.8515419644814708,-2.591453659640826,-1.1976891405313368,-4.632091173764303,226.25
182,-1.1850358993718155,-1.8319223171037173,-1.8515419579686443,-2.5914536827963017,-1.1976891702946955,-4.70762452694761,227.5
183,-1.185035922678802,-1.8319223009030932,-1.8515419494124412,-2.591453707856137,-1.1976891933907048,-4.773157880130924,228.75
184,-1.1850359424292811,-1.8319222871745886,-1.8515419421618626,-2.59145372909199,-1.1976892129624006,-4.828691233314232,230.0
185,-1.1850359586232533,-1.8319222759182048,-1.8515419362169077,-2.591453746503862,-1.1976892290097831,-4.874224586497528,231.25
186,-1.1850359712607177,-1.8319222671339392,-1.851541931577579,-2.5914537600917518,-1.197689241532852,-4.909757939680826,232.5
187,-1.1850359803416743,-1.8319222608217922,-1.851541928243877,-2.5914537698556597,-1.197689250531607,-4.935291292864126,233.75
188,-1.1850359858661232,-1.8319222569817633,-1.851541926215801,-2.591453775795586,-1.1976892560060481,-4.950824646047423,235.0
189,-1.1858614172347746,-1.834091602875587,-1.848642193865789,-2.592190030369391,-1.1985132451020923,-4.957974154471087,236.25
190,-1.187367991947904,-1.8380511039398653,-1.8433495945785343,-2.5935338401607164,-1.2000171881386128,-4.955787165232492,237.5
191,-1.1875949667794283,-1.8386476387008464,-1.8425522203788745,-2.593736297764767,-1.2002437693157078,-4.9452560544788104,238.75
192,-1.187594960490543,-1.8386476443224757,-1.8425522204774287,-2.593736300642008,-1.2002437685826017,-4.925339942054725,240.0
193,-1.1875949510439705,-1.838647652766759,-1.842552220625468,-2.593736304963928,-1.200243767481399,-4.895423829630641,241.25
194,-1.1875949384397106,-1.838647664033696,-1.842552220822992,-2.5937363107305282,-1.200243766012099,-4.855507717206561,242.5
195,-1.1875949227874083,-1.8386476780480185,-1.8425522212914611,-2.5937363171289793,-1.2002437651289424,-4.805591607125768,243.75
196,-1.1875949045253162,-1.8386476945088774,-1.842552222916058,-2.5937363209103768,-1.200243768646057,-4.745675507310476,245.0
197,-1.1875948832152798,-1.8386477137170545,-1.8425522248118003,-2.59373632532289,-1.2002437727501785,-4.6757594074951765,246.25
198,-1.1875948494223563,-1.8386477287481435,-1.8425522289065999,-2.593736305868757,-1.2002437412374467,-4.595843323597417,247.5
199,-1.187594810981754,-1.8386477453531684,-1.8425522336176545,-2.5937362828274857,-1.2002437041342977,-4.505927243482628,248.75
200,-1.1875947682404309,-1.83864776378823,-1.8425522389133153,-2.5937362569609244,-1.2002436626882904,-4.406011172443881,250.0
201,-1.1875947173604147,-1.838647777420897,-1.8425522364656093,-2.5937362447186425,-1.2002436120799034,-4.296095111059845,251.25
202,-1.1875946609799213,-1.8386477907955534,-1.8425522319269616,-2.5937362350282798,-1.2002435557295643,-4.176179057117751,252.5
203,-1.1875945997440294,-1.8386478006639702,-1.8425522224127475,-2.5937362337604606,-1.2002434944764588,-4.046263009978364,253.75
204,-1.18759453357234,-1.8386478045792982,-1.842552205492948,-2.593736245789331,-1.2002434282212775,-3.906346966446398,255.0
205,-1.1875944647839127,-1.838647803662016,-1.842552183006898,-2.593736268163635,-1.2002433592659352,-3.7564309255825763,256.25
206,-1.187594394826534,-1.8386477944083537,-1.8425521519687442,-2.593736307383703,-1.2002432890045027,-3.5965148914565175,257.5
207,-1.1875943291905937,-1.8386477766598825,-1.8425521139448926,-2.593736362125261,-1.2002432229358462,-3.4302445148920606,258.75
208,-1.187594271334468,-1.8386477547161821,-1.8425520742425814,-2.593736422845171,-1.2002431645958498,-3.2724043349739653,260.0
209,-1.187594229239032,-1.8386477257599383,-1.8425520325995242,-2.593736492734576,-1.2002431219371905,-3.124564155055845,261.25
210,-1.1875941925820164,-1.838647696962256,-1.8425519928186278,-2.593736560685022,-1.2002430847314824,-2.9867239751377195,262.5
211,-1.1875941708363884,-1.8386476649409111,-1.8425519545510838,-2.5937366305598024,-1.2002430624175284,-2.858883795219583,263.75
212,-1.1875941538929202,-1.8386476340796012,-1.842551918929484,-2.5937366967036346,-1.2002430449351449,-2.7410436153014377,265.0
213,-1.187594143790158,-1.8386476045550273,-1.8425518867670077,-2.593736758157611,-1.200243034330232,-2.6332034353832885,266.25
214,-1.1875941428137282,-1.8386475758247751,-1.8425518582482099,-2.5937368153122646,-1.200243032884622,-2.535363255465127,267.5
215,-1.187594141937097,-1.8386475500309758,-1.8425518326442414,-2.5937368666252842,-1.2002430315867643,-2.447523075546967,268.75
216,-1.1875941436236197,-1.8386475270278835,-1.8425518105849508,-2.593736911648997,-1.200243032903059,-2.3696828956287987,270.0
217,-1.187594152078696,-1.8386475065666947,-1.8425517931455957,-2.593736949619145,-1.2002430410441045,-2.3018427157106336,271.25
218,-1.1875941592874495,-1.8386474891215934,-1.842551778276893,-2.593736981992293,-1.2002430479851174,-2.2440025357924704,272.5
219,-1.1875941652498803,-1.838647474692582,-1.84255176597884,-2.5937370087684415,-1.2002430537260969,-2.1961623558743177,273.75
220,-1.1875941699659882,-1.8386474632796572,-1.8425517562514404,-2.5937370299475897,-1.2002430582670434,-2.1583221759561675,275.0
221,-1.1875941734357736,-1.8386474548828184,-1.8425517490946945,-2.593737045529738,-1.200243061607957,-2.1304819960380126,276.25
222,-1.1875941756592359,-1.8386474495020662,-1.8425517445086024,-2.5937370555148864,-1.2002430637488375,-2.112641816119857,277.5
223,-1.18806656614496,-1.8399042801898489,-1.8408621360690298,-2.5941731690168477,-1.2007145842123446,-2.103712105987887,278.75
224,-1.1896062304066632,-1.8440006918573482,-1.8353551829383425,-2.5955945830959557,-1.2022514133757078,-2.103580342897484,280.0
225,-1.1901182714241185,-1.8453630264729401,-1.8335237529523105,-2.5960672971393586,-1.2027625146985659,-2.112310392566514,281.25
226,-1.1901182701303787,-1.8453630321964052,-1.833523755819538,-2.596067294450683,-1.20276252007605,-2.129882215266635,282.5
227,-1.190118268100381,-1.8453630411770536,-1.8335237603184842,-2.5960672902319013,-1.2027625285138215,-2.1574540379667635,283.75
228,-1.1901182653341251,-1.8453630534148857,-1.833523766449149,-2.5960672844830137,-1.2027625400118813,-2.195025860666885,285.0
229,-1.190118261831611,-1.8453630689099012,-1.833523774211533,-2.59606727720402,-1.202762554570229,-2.2425976833670034,286.25
230,-1.1901182570976345,-1.8453630881441496,-1.8335237821376218,-2.5960672739353567,-1.2027625678314189,-2.3001695038596894,287.5
231,-1.1901182515137623,-1.8453631107462005,-1.8335237913585556,-2.596067270407985,-1.2027625831529671,-2.3677413242378424,288.75
232,-1.1901182503125636,-1.8453631343283035,-1.833523810542279,-2.596067236931186,-1.202762587756958,-2.4453131325827364,290.0
233,-1.1901182510357784,-1.8453631600056724,-1.8335238356340433,-2.5960671873808487,-1.2027625877637131,-2.5328849361411785,291.25
234,-1.1901182518098854,-1.8453631885924797,-1.8335238636729305,-2.5960671318205963,-1.2027625875017394,-2.630456727768347,292.5
235,-1.1901182613555357,-1.8453632180002315,-1.8335238955082067,-2.5960670711970497,-1.202762596858719,-2.738028512486836,293.75
236,-1.190118278153155,-1.845363248597371,-1.833523930979592,-2.5960670053958745,-1.2027626141527687,-2.8556002892737773,295.0
237,-1.190118299291023,-1.8453632805367848,-1.8335239691388778,-2.596066935635232,-1.2027626358317784,-2.9831720584541377,296.25
238,-1.1901183356557947,-1.845363309107855,-1.8335240087437958,-2.5960668680805594,-1.2027626727466068,-3.1207438225941972,297.5
239,-1.1901183770144217,-1.8453633381237493,-1.8335240503581876,-2.5960667981482293,-1.2027627146735658,-3.2683155856277026,298.75
240,-1.1901184344223177,-1.8453633599081185,-1.8335240898939622,-2.5960667377473206,-1.2027627725642862,-3.425887341651058,300.0
241,-1.1901184993242249,-1.8453633779125551,-1.833524128061861,-2.596066682595888,-1.2027628379037605,-3.592094964035037,301.25
242,-1.1901185689743623,-1.8453633871420698,-1.8335241590744542,-2.5960666434214312,-1.202762907858524,-3.7522798913907796,302.5
243,-1.1901186373244834,-1.84536338842074,-1.8335241818409322,-2.5960666204025484,-1.2027629763804666,-3.9024648187465356,303.75
244,-1.1901187032208096,-1.8453633845400643,-1.833524198749811,-2.596066608349661,-1.2027630423588813,-4.042649746102295,305.0
245,-1.1901187642151894,-1.8453633750204215,-1.833524208558035,-2.596066608947492,-1.2027631033323707,-4.17283467345807,306.25
246,-1.1901188203705426,-1.8453633617111074,-1.8335242131082345,-2.5960666185101573,-1.2027631593942156,-4.293019600813859,307.5
247,-1.190118871202825,-1.8453633483241971,-1.833524215907058,-2.596066629821932,-1.2027632101199675,-4.403204528169661,308.75
248,-1.1901189139379111,-1.845363329807367,-1.8335242111016306,-2.596066653732564,-1.2027632526468068,-4.503389455525453,310.0
249,-1.1901189524073783,-1.8453633131388054,-1.8335242067758535,-2.5960666752565484,-1.2027632909288137,-4.593574382881258,311.25
250,-1.1901189865397737,-1.8453632982623713,-1.8335242028519139,-2.596066694526616,-1.20276332489346,-4.673759310237067,312.5
251,-1.1901190111975049,-1.8453632811415257,-1.8335241937345215,-2.5960667210865855,-1.2027633493258416,-4.743944237592876,313.75
252,-1.1901190323419844,-1.8453632664600708,-1.8335241859161822,-2.596066743862271,-1.2027633702770797,-4.8041291649486855,315.0
253,-1.1901190499732124,-1.8453632542180083,-1.8335241793968926,-2.5960667628536735,-1.2027633877471748,-4.854314092304481,316.25
254,-1.1901190640911892,-1.8453632444153367,-1.8335241741766555,-2.5960667780607922,-1.2027634017361262,-4.8944990196602705,317.5
255,-1.190119074695914,-1.8453632370520552,-1.833524170255472,-2.596066789483627,-1.2027634122439335,-4.924683947016068,318.75
256,-1.1901190817873872,-1.8453632321281639,-1.833524167633342,-2.596066797122177,-1.2027634192705972,-4.944868874371863,320.0
257,-1.1903124604808182,-1.8458840817075735,-1.8328200092883948,-2.5962514623462094,-1.2029564231320486,-4.955613422292882,321.25
258,-1.1917622869025248,-1.8497891626172611,-1.8275406028303987,-2.5976359577020607,-1.2044034395919692,-4.958110791038204,322.5
259,-1.1926090887854495,-1.8520700174696967,-1.8244570439542696,-2.5984446045305516,-1.205248602074457,-4.951212644480445,323.75
260,-1.1926090840292016,-1.8520700217140789,-1.8244570440048682,-2.598444606793123,-1.2052486014252464,-4.93602040665224,325.0
261,-1.1926090761422445,-1.8520700287522445,-1.8244570440887729,-2.59844461054499,-1.205248600348705,-4.910828168824035,326.25
262,-1.1926090651245786,-1.8520700385841935,-1.8244570442059826,-2.5984446157861507,-1.2052485988448334,-4.87563593099583,327.5
263,-1.1926090509762033,-1.852070051209926,-1.8244570443564985,-2.598444622516607,-1.2052485969136313,-4.830443693167631,328.75
264,-1.192609034136384,-1.8520700663324798,-1.8244570454148583,-2.59844462754849,-1.2052485984176071,-4.775251466728362,330.0
265,-1.1926090144356685,-1.8520700840664117,-1.8244570470437005,-2.5984446321115504,-1.2052486018667607,-4.710059244844864,331.25
266,-1.1926089871545802,-1.8520701011108136,-1.8244570499426938,-2.598444625146171,-1.2052485883967092,-4.634867031101455,332.5
267,-1.192608951182387,-1.8520701166348403,-1.8244570543604495,-2.5984446036727187,-1.2052485537559126,-4.549674825804039,333.75
268,-1.1926089109622944,-1.852070133963553,-1.824457059360221,-2.5984445794060638,-1.205248514831363,-4.454482630226638,335.0
269,-1.1926088649199413,-1.8520701503719228,-1.8244570614756301,-2.598444559201124,-1.2052484696806354,-4.349290441414288,336.25
270,-1.192608811415358,-1.8520701630314615,-1.8244570571398615,-2.598444550057736,-1.2052484162106616,-4.234098261038904,337.5
271,-1.1926087532646623,-1.8520701767913277,-1.8244570524236234,-2.5984445401359517,-1.2052483580873015,-4.10890608946145,338.75
272,-1.1926086901185986,-1.8520701810952254,-1.8244570367565789,-2.5984445505652953,-1.20524829486601,-3.973713923759368,340.0
273,-1.192608622280385,-1.8520701850733792,-1.8244570192852552,-2.598444563056867,-1.2052482269411482,-3.828521758413721,341.25
274,-1.1926085547707284,-1.852070177229841,-1.8244569902210137,-2.5984445989326304,-1.205248159152806,-3.673329599266491,342.5
275,-1.1926084850015843,-1.8520701659919196,-1.824456957085094,-2.598444642231008,-1.205248089044326,-3.5083105597741238,343.75
276,-1.192608426132971,-1.852070143644914,-1.824456916396255,-2.598444704324128,-1.2052480296779196,-3.3457498591208625,345.0
277,-1.1926083760191282,-1.8520701191103144,-1.824456876305328,-2.5984447681320306,-1.205247979049766,-3.193189158467593,346.25
278,-1.192608338562685,-1.8520700896799323,-1.8244568353640087,-2.5984448378622274,-1.20524794102666,-3.050628457814316,347.5
279,-1.1926083087019075,-1.8520700601629585,-1.8244567967338248,-2.5984449054813794,-1.205247910614649,-2.9180677571610216,348.75
280,-1.1926082912907168,-1.8520700284578844,-1.8244567598669756,-2.59844497370572,-1.2052478926438952,-2.795507056507718,350.0
281,-1.1926082753001443,-1.852069999339704,-1.8244567260081679,-2.598445036363485,-1.2052478761394154,-2.6829463558544098,351.25
282,-1.1926082730568788,-1.852069969890551,-1.8244566961598583,-2.5984450955466687,-1.2052478734073087,-2.5803856552010944,352.5
283,-1.1926082721429172,-1.8520699430499021,-1.8244566693121682,-2.5984451491477794,-1.2052478720503141,-2.487824954547773,353.75
284,-1.1926082713276975,-1.8520699191090453,-1.8244566453650248,-2.598445196957976,-1.2052478708399255,-2.4052642538944444,355.0
285,-1.1926082779698979,-1.8520698976364995,-1.8244566262135278,-2.5984452376226446,-1.2052478771440596,-2.3327035532411142,356.25
286,-1.1926082856719553,-1.8520698790073866,-1.8244566102100992,-2.598445272319472,-1.2052478845571215,-2.2701428525877865,357.5
287,-1.1926082921428793,-1.852069863356042,-1.8244565967647328,-2.598445301470194,-1.2052478907852446,-2.217582151934468,358.75
288,-1.19260829738267,-1.8520698506824638,-1.8244565858774293,-2.59844532507481,-1.2052478958284285,-2.1750214512811596,360.0
289,-1.192608301391327,-1.8520698409866512,-1.824456577548191,-2.59844534313332,-1.2052478996866733,-2.1424607506278432,361.25
290,-1.1926083041688504,-1.8520698342686042,-1.8244565717770174,-2.598445355645724,-1.205247902359979,-2.1199000499745266,362.5
291,-1.1926337371156435,-1.8521391774407785,-1.8243622933079573,-2.5984704681643764,-1.2052732834472812,-2.107252420398333,363.75
292,-1.1938515842500523,-1.8554600298908668,-1.8198476836037742,-2.5996727115146236,-1.2064886499343677,-2.1024517768020825,365.0
293,-1.1950461827237997,-1.8587174929830237,-1.8154192561352815,-2.6008520016769197,-1.2076808169896687,-2.107452846841451,366.25
294,-1.1950647954885698,-1.858768253453183,-1.8153502563795985,-2.6008703750109894,-1.2076993966144212,-2.120298221928857,367.5
295,-1.1950647938083783,-1.858768260799357,-1.8153502600330818,-2.600870371719001,-1.2076994034010113,-2.1430786246567006,368.75
296,-1.195064791390627,-1.8587682713703089,-1.8153502652903484,-2.6008703669819155,-1.2076994131667371,-2.1758590273845377,370.0
297,-1.1950647882353158,-1.858768285166039,-1.815350272151399,-2.6008703607997345,-1.207699425911598,-2.2186394301123755,371.25
298,-1.1950647841075983,-1.8587683024119528,-1.8153502799292556,-2.6008703557490227,-1.2076994395482008,-2.271419830373274,372.5
299,-1.1950647789134532,-1.8587683231982917,-1.8153502883488881,-2.600870352861307,-1.2076994532408598,-2.334200227877044,373.75
300,-1.1950647746115104,-1.8587683465094804,-1.815350300967677,-2.6008703397697874,-1.2076994649884296,-2.4069806212437537,375.0
301,-1.1950647752879822,-1.8587683704774705,-1.815350324577225,-2.6008702933199883,-1.2076994649859019,-2.4897610021676875,376.25
302,-1.1950647760296191,-1.8587683973283036,-1.8153503510837594,-2.6008702410675024,-1.2076994648408548,-2.5825413763622236,377.5
303,-1.1950647783906025,-1.858768426686182,-1.8153503806521143,-2.6008701831284924,-1.2076994662816383,-2.6853217436447645,378.75
304,-1.1950647943113504,-1.8587684556756783,-1.815350414515511,-2.600870120530559,-1.2076994826747223,-2.7981021005152558,380.0
305,-1.1950648116452776,-1.8587684872346464,-1.8153504513843415,-2.60087005237192,-1.207699500534773,-2.9208824492191043,381.25
306,-1.1950648417180578,-1.8587685164702212,-1.8153504899567041,-2.6008699850686896,-1.2076995311495593,-3.0536627920757797,382.5
307,-1.1950648790081073,-1.858768545768033,-1.8153505308655813,-2.600869915499267,-1.2076995690098646,-3.1964431330893275,383.75
308,-1.1950649292195847,-1.8587685699676713,-1.815350570798848,-2.60086985218439,-1.207699619734209,-3.349223469538025,385.0
309,-1.1950649878143536,-1.8587685922164707,-1.8153506114471571,-2.6008697902260387,-1.2076996788272194,-3.5120037995952678,386.25
310,-1.1950650573487045,-1.8587686030973072,-1.8153506442642877,-2.600869747599694,-1.2076997486963768,-3.676856669118289,387.5
311,-1.195065124473316,-1.8587686106171706,-1.8153506729797453,-2.6008697123907196,-1.2076998160948957,-3.831829741820114,388.75
312,-1.1950651918021535,-1.8587686066848932,-1.81535069038263,-2.60086969991835,-1.2076998835089146,-3.9768028145219407,390.0
313,-1.1950652544584919,-1.8587686021946055,-1.8153507057523046,-2.600869689965663,-1.2076999462307958,-4.111775887223782,391.25
314,-1.19506531214942,-1.8587685885548784,-1.8153507104608688,-2.600869699724217,-1.2077000038250485,-4.23674895992564,392.5
315,-1.1950653652240817,-1.8587685760065704,-1.8153507147926582,-2.6008697087019206,-1.207700056810771,-4.351722032627498,393.75
316,-1.1950654108917598,-1.8587685594691243,-1.8153507128171191,-2.6008697278542385,-1.2077001023070921,-4.456695105329375,395.0
317,-1.1950654509164746,-1.8587685421539741,-1.8153507082829796,-2.600869750256182,-1.2077001421350189,-4.551668178031256,396.25
318,-1.1950654867268689,-1.858768526661992,-1.8153507042262482,-2.6008697702993597,-1.2077001777693455,-4.6366412507331365,397.5
319,-1.1950655154424485,-1.8587685107300285,-1.815350697486927,-2.6008697933575924,-1.2077002062857682,-4.71161432343503,398.75
320,-1.1950655379943103,-1.858768495089628,-1.8153506890864626,-2.6008698176938356,-1.207700228629545,-4.776587396136912,400.0
321,-1.195065557075217,-1.8587684818564407,-1.8153506819789116,-2.60086983828449,-1.2077002475343936,-4.8315604688387905,401.25
322,-1.195065572685169,-1.858768471030468,-1.815350676164273,-2.6008698551295564,-1.207700263000314,-4.8765335415406525,402.5
323,-1.195065584824166,-1.8587684626117074,-1.81535067164255,-2.600869868229033,-1.2077002750273051,-4.911506614242514,403.75
324,-1.1950655934922074,-1.8587684566001588,-1.8153506684137428,-2.600869877582921,-1.2077002836153674,-4.936479686944381,405.0
325,-1.195065598689294,-1.8587684529958224,-1.8153506664778511,-2.600869883191219,-1.207700288764501,-4.951452759646263,406.25
326,-1.1959220600452258,-1.861132825971722,-1.8121186667440827,-2.6017434387940352,-1.2085549191199487,-4.958209713905817,407.5
327,-1.197318989642044,-1.8649892480545456,-1.8068471038485747,-2.6031682510963274,-1.2099488630663224,-4.955534131113559,408.75
328,-1.1974893304769991,-1.865459510002299,-1.8062042800220062,-2.6033419968612823,-1.2101188425760725,-4.944677778175989,410.0
329,-1.1974893241652547,-1.8654595156255762,-1.8062042800592,-2.6033419999706653,-1.210118841591691,-4.924343350869241,411.25
330,-1.1974893147495407,-1.8654595240142509,-1.8062042801146851,-2.6033420046091713,-1.2101188401232137,-4.8940089235625095,412.5
331,-1.1974893022298572,-1.8654595351683225,-1.806204280188461,-2.6033420107768,-1.2101188381706407,-4.853674496255771,413.75
332,-1.1974892867392732,-1.8654595489990737,-1.8062042805419267,-2.6033420175273534,-1.2101188369160945,-4.803340072846866,415.0
333,-1.1974892686615628,-1.8654595652506383,-1.8062042819289608,-2.6033420221319785,-1.2101188397688405,-4.743005662551708,416.25
334,-1.197489247561475,-1.8654595841758759,-1.806204283552235,-2.603342027427513,-1.2101188429946752,-4.6726712523469995,417.5
335,-1.197489214046922,-1.8654595986175733,-1.8062042876942264,-2.603342007431178,-1.2101188107390861,-4.592336858656468,418.75
336,-1.1974891763513775,-1.865459614850328,-1.8062042923756887,-2.6033419848439405,-1.2101187743895696,-4.502002468719743,420.0
337,-1.1974891344605219,-1.8654596328637034,-1.8062042976341508,-2.603341959505855,-1.2101187338223311,-4.401668087494055,421.25
338,-1.1974890844205213,-1.8654596458394144,-1.8062042947931423,-2.603341948397316,-1.2101186840021636,-4.291333716426189,422.5
339,-1.1974890291951223,-1.8654596588756651,-1.8062042902831825,-2.603341939028989,-1.2101186288079555,-4.17099935275176,423.75
340,-1.1974889692142865,-1.8654596680237145,-1.8062042803750438,-2.6033419388901224,-1.210118568805854,-4.040664995803323,425.0
341,-1.1974889044290047,-1.865459671793941,-1.8062042635664015,-2.6033419509700426,-1.2101185039362417,-3.900330642268229,426.25
342,-1.1974888373155523,-1.8654596703020045,-1.8062042407698988,-2.603341974249852,-1.2101184366467757,-3.7499962916889613,427.5
343,-1.19748876884809,-1.8654596611932044,-1.8062042099463214,-2.6033420131308205,-1.210118367874668,-3.5896619477591734,428.75
344,-1.19748870529759,-1.8654596432930948,-1.8062041719143558,-2.603342068061414,-1.2101183038844434,-3.4235002133891657,430.0
345,-1.1974886489720196,-1.8654596219028936,-1.8062041326947726,-2.603342127768617,-1.210118247077323,-3.266085015835266,431.25
346,-1.1974886086200514,-1.8654595932802278,-1.806204091332077,-2.6033421970714126,-1.2101182061594786,-3.1186698182814094,432.5
347,-1.1974885729452711,-1.8654595652546666,-1.806204052049925,-2.6033422637683192,-1.2101181699392245,-2.9812546207276123,433.75
348,-1.197488552440399,-1.8654595338333348,-1.8062040141966667,-2.603342332650434,-1.2101181488664738,-2.8538394231739037,435.0
349,-1.1974885359578398,-1.865459503834995,-1.80620397903988,-2.6033423974772556,-1.210118131848687,-2.7364242256202664,436.25
350,-1.1974885267151816,-1.8654594750133446,-1.8062039473554212,-2.6033424577668227,-1.2101181221065753,-2.6290090280666827,437.5
351,-1.1974885257633285,-1.865459447120209,-1.806203919229382,-2.6033425136963064,-1.210118120689275,-2.531593830513151,438.75
352,-1.1974885249091862,-1.865459422090404,-1.8062038939905705,-2.603342563884439,-1.2101181194174655,-2.444178632959669,440.0
353,-1.1974885269555005,-1.8654593997608326,-1.80620387236614,-2.6033426078087576,-1.2101181210974654,-2.366763435406222,441.25
354,-1.1974885351550641,-1.8654593799422172,-1.8062038551999984,-2.6033426448629045,-1.2101181289862155,-2.2993482378527976,442.5
355,-1.1974885421383499,-1.8654593630633864,-1.8062038405801872,-2.6033426764206427,-1.2101181357047917,-2.241933040299396,443.75
356,-1.1974885479053572,-1.865459349124343,-1.8062038285067046,-2.6033427024819726,-1.2101181412531938,-2.1945178427460093,445.0
357,-1.1974885524560863,-1.8654593381250835,-1.806203818979553,-2.6033427230468944,-1.2101181456314223,-2.1571026451926283,446.25
358,-1.197488555790537,-1.8654593300656077,-1.806203811998734,-2.603342738115407,-1.210118148839477,-2.129687447639236,447.5
359,-1.1974885579087098,-1.865459324945916,-1.8062038075642468,-2.6033427476875115,-1.2101181508773577,-2.1122722500858426,448.75
360,-1.1979842079062621,-1.8668446211117595,-1.8042998697008585,-2.6038647982325425,-1.210612690045161,-2.1036479129200565,450.0
361,-1.1994382432545112,-1.8709085322382657,-1.7987144856616464,-2.6053962717734156,-1.2120634672685062,-2.1038714574648365,451.25
362,-1.1998800792119995,-1.872143432700181,-1.797017260637269,-2.6058616381308055,-1.2125043162957274,-2.1128415075955007,452.5
363,-1.1998800778930292,-1.872143438401308,-1.7970172634543582,-2.6058616356921407,-1.2125043214742879,-2.1306990244294868,453.75
364,-1.1998800758354509,-1.872143447295,-1.797017267848985,-2.6058616318878522,-1.2125043295527813,-2.1585565412634664,455.0
365,-1.1998800730392647,-1.8721434593812567,-1.7970172738211487,-2.60586162671794,-1.2125043405312077,-2.196414058097435,456.25
366,-1.1998800695044702,-1.8721434746600776,-1.7970172813708496,-2.605861620182405,-1.212504354409567,-2.2442715749314193,457.5
367,-1.1998800647232812,-1.8721434936128212,-1.7970172890305371,-2.6058616177503953,-1.212504366629081,-2.302129086747013,458.75
368,-1.1998800591047034,-1.8721435158517692,-1.7970172979822763,-2.6058616150166882,-1.212504380861699,-2.3699865984625372,460.0
369,-1.199880058085702,-1.8721435388682925,-1.797017317335793,-2.6058615810444348,-1.2125043846542622,-2.447844097597909,461.25
370,-1.1998800587942267,-1.8721435639832886,-1.797017342291622,-2.6058615321244885,-1.212504384624895,-2.5357015920452244,462.5
371,-1.1998800595548529,-1.8721435919340972,-1.7970173701692396,-2.6058614772925828,-1.2125043843444583,-2.63355907471149,463.75
372,-1.1998800693106086,-1.8721436205897148,-1.797017401846726,-2.605861417518864,-1.2125043939567066,-2.741416550123155,465.0
373,-1.1998800857527336,-1.872143650506929,-1.7970174370789125,-2.6058613526279606,-1.2125044108977643,-2.859274017638971,466.25
374,-1.1998801068881824,-1.8721436815396366,-1.7970174749213468,-2.605861284089837,-1.2125044325749124,-2.987131477587282,467.5
375,-1.1998801424661645,-1.8721437094827265,-1.7970175142443907,-2.6058612174313094,-1.2125044687026199,-3.1249889325978146,468.75
376,-1.199880183350747,-1.8721437375647547,-1.7970175553965433,-2.6058611488854524,-1.2125045101510599,-3.2728463862996624,470.0
377,-1.1998802394994272,-1.8721437588883663,-1.7970175946402946,-2.60586108921832,-1.2125045667824579,-3.430703833063511,471.25
378,-1.199880302348864,-1.8721437760130168,-1.7970176318122686,-2.6058610359111842,-1.2125046300595497,-3.59493980454371,472.5
379,-1.1998803684940778,-1.8721437848204205,-1.7970176617027072,-2.6058609982298733,-1.2125046965009112,-3.750761515129824,473.75
380,-1.199880433163072,-1.8721437863732233,-1.7970176838560723,-2.6058609754985906,-1.2125047613415616,-3.89658322571593,475.0
381,-1.1998804954921352,-1.8721437827582093,-1.7970177000875736,-2.6058609638079844,-1.2125048237506966,-4.032404936302015,476.25
382,-1.1998805530758043,-1.8721437748335217,-1.7970177104906364,-2.6058609621726836,-1.2125048813317634,-4.158226646888056,477.5
383,-1.199880605906294,-1.872143762371358,-1.7970177148345985,-2.605860971050425,-1.212504934073155,-4.274048357474083,478.75
384,-1.1998806541754228,-1.8721437509851766,-1.7970177188034984,-2.6058609791616667,-1.2125049822608782,-4.379870068060094,480.0
385,-1.1998806943730762,-1.8721437342889509,-1.7970177148825077,-2.605861000337424,-1.212505022270248,-4.475691778646081,481.25
386,-1.1998807301105674,-1.8721437188528203,-1.797017710803121,-2.605861020347917,-1.2125050578304513,-4.561513489232082,482.5
387,-1.1998807616839042,-1.8721437052153198,-1.7970177071990632,-2.6058610380267755,-1.2125050892471583,-4.637335199818071,483.75
388,-1.199880786872155,-1.872143691632104,-1.7970177016156519,-2.6058610575350065,-1.2125051142652983,-4.703156910404065,485.0
389,-1.1998808060167132,-1.8721436783713066,-1.7970176944302125,-2.6058610782329947,-1.2125051332315124,-4.758978620990062,486.25
390,-1.1998808217316812,-1.8721436674860723,-1.7970176885319855,-2.6058610952231085,-1.2125051488000855,-4.804800331576085,487.5
391,-1.1998808340170597,-1.8721436589764018,-1.797017683920969,-2.605861108505349,-1.2125051609710178,-4.840622042162098,488.75
392,-1.1998808428728478,-1.872143652842294,-1.7970176805971647,-2.605861118079715,-1.2125051697443086,-4.866443752748114,490.0
393,-1.199880848299046,-1.8721436490837482,-1.7970176785605736,-2.6058611239462066,-1.2125051751199583,-4.882265463334122,491.25
394,-1.1997331670334237,-1.8717359863641647,-1.79759734797349,-2.6056881177235,-1.2123579524639732,-4.888440907542668,492.5
395,-1.1992756814480148,-1.8704731585615766,-1.7993930157117837,-2.6051521814077643,-1.2119018876014247,-4.885787550472174,493.75
396,-1.1991760937062528,-1.8701982734033198,-1.7997838917443767,-2.605035516473062,-1.211802609153955,-4.873818662817726,495.0
397,-1.1989933004531372,-1.8696937218247633,-1.8005013445181661,-2.6048213780403464,-1.2116203836103683,-4.851849775163274,496.25
398,-1.1987273016886681,-1.868959503825907,-1.8015453740331513,-2.6045097661096164,-1.211355210970664,-4.8198808875088295,497.5
399,-1.1983768643285437,-1.8679954368917004,-1.802914415408356,-2.604102416003383,-1.2110058510528476,-4.777911964701415,498.75
400,-1.1979393658655957,-1.866801133232253,-1.8046051397189742,-2.6036030187581094,-1.210569666253181,-4.72594294948828,500.0
401,-1.1974176829205765,-1.8653770188568346,-1.8066211971735209,-2.6030075263216492,-1.2100495497496182,-4.663973934275168,501.25
402,-1.196809784839596,-1.863722756151105,-1.8089600943181527,-2.6023187490571877,-1.209443460469401,-4.592004856559945,502.5
403,-1.1961142725028047,-1.8618381128092565,-1.8116201125474936,-2.6015386236097626,-1.2087499921130982,-4.510035687655801,503.75
404,-1.195331459709862,-1.8597231164989698,-1.8146016898820228,-2.600666687787728,-1.2079694594672736,-4.418066449256765,505.0
405,-1.194459383957491,-1.8573774214844199,-1.8179024584172239,-2.599705635458946,-1.2070998894597045,-4.3160970988298795,506.25
406,-1.1934961794869898,-1.8548006404487434,-1.8215202966671042,-2.598657956554498,-1.2061394067377995,-4.204127595742726,507.5
407,-1.192442253341479,-1.8519928242341264,-1.8254557421725495,-2.597523066687632,-1.2050884206785513,-4.08215796804598,508.75
408,-1.1912955149705446,-1.8489535406327278,-1.829706414204683,-2.596303757523962,-1.2039448299326236,-3.950188174897395,510.0
409,-1.1900520041762506,-1.8456819117478105,-1.834267934618096,-2.5950052445500935,-1.2027046542327229,-3.8082181348153763,511.25
410,-1.188712006045709,-1.8421779104208986,-1.8391408201803632,-2.5936270406665707,-1.2013681807200172,-3.6562478824400726,512.5
411,-1.1872775404723745,-1.8384519202490917,-1.8443076350449825,-2.5921762047367314,-1.1999374078142293,-3.4947515365427355,513.75
412,-1.185866740658533,-1.8348129510335331,-1.8493386157277567,-2.590774311348268,-1.1985301579982477,-3.337135788643746,515.0
413,-1.1845356839737278,-1.831402499952697,-1.8540400411188462,-2.5894739811102196,-1.1972023779028584,-3.189519821606515,516.25
414,-1.1832864695336265,-1.8282210100435687,-1.8584142822279102,-2.5882724213535786,-1.1959561774339589,-3.0519036766636582,517.5
415,-1.1821212484086785,-1.8252689762879255,-1.8624636766219855,-2.5871668216414245,-1.194793718440228,-2.9242873916877508,518.75
416,-1.181039772467701,-1.8225462829121557,-1.8661880873002759,-2.5861574318833656,-1.19371475194935,-2.80667095826667,520.0
417,-1.1800445434072535,-1.8200535369608046,-1.8695901625395717,-2.585241022624939,-1.1927217919804778,-2.6990544219099792,521.25
418,-1.1791391966089386,-1.8177917180232988,-1.8726735296002672,-2.584413025149466,-1.191818491149659,-2.6014378372117526,522.5
419,-1.1783202084379045,-1.8157598241526087,-1.8754347920795678,-2.5836778005439207,-1.1910013094798244,-2.5138211425604764,523.75
420,-1.1775945334844995,-1.8139597913622236,-1.8778807478847837,-2.5830266881949977,-1.1902772341022758,-2.4362044454856813,525.0
421,-1.1769572431229605,-1.8123902069214517,-1.880006672350346,-2.582465773303694,-1.1896413136125574,-2.368587665677265,526.25
422,-1.1764142030885358,-1.811052751908496,-1.8818181889911665,-2.5819878133967724,-1.1890994408564814,-2.3109708858688336,527.5
423,-1.1759648705839225,-1.8099472664931924,-1.8833147872045441,-2.5815934731322003,-1.1886510705578233,-2.2633540983964675,528.75
424,-1.1756073744052493,-1.8090731995560727,-1.8844947070313718,-2.5812850436807526,-1.1882943229674474,-2.2257372704101703,530.0
425,-1.175344914463763,-1.8084314932362382,-1.8853609587766536,-2.581058606642796,-1.1880324126106914,-2.1981204424238863,531.25
426,-1.1751774907594639,-1.8080221475336882,-1.8859135424403906,-2.5809141620183302,-1.1878653394875545,-2.180503614437594,532.5
427,-1.1750480630079112,-1.8077059979531105,-1.8863401405543592,-2.5808027800180238,-1.1877361820285959,-2.172768035681703,533.75
428,-1.174432066373339,-1.8062032452835741,-1.8883667317455133,-2.5802744945584877,-1.187121467118235,-2.174060943627779,535.0
429,-1.174431824343244,-1.8062031770206393,-1.8883665098340798,-2.580274781844145,-1.1871212243162566,-2.18439789591384,536.25
430,-1.1744313481724777,-1.8062030427199274,-1.8883660732448309,-2.580275347050848,-1.1871207466268843,-2.2047348481999025,537.5
431,-1.1744306378610396,-1.8062028423814387,-1.8883654219777664,-2.580276190178595,-1.1871200340501178,-2.2350718004859593,538.75
432,-1.1744296933215375,-1.8062025761095089,-1.8883645557341255,-2.58027731234562,-1.1871190858124083,-2.2754087308135795,540.0
433,-1.1744285145837283,-1.8062022438683902,-1.8883634746160118,-2.5802787131694256,-1.1871179021783254,-2.3257456530797818,541.25
434,-1.1744271016762964,-1.806201845623809,-1.888362178721534,-2.580280392282754,-1.1871164834019194,-2.3860825753459523,542.5
435,-1.1744270610757161,-1.8062018548946743,-1.8883621609371306,-2.5802804007589897,-1.1871164426723904,-2.456419479106132,543.75
436,-1.1744270618552466,-1.806201879381848,-1.888362184445044,-2.5802803532281637,-1.1871164434960257,-2.5367563819643557,545.0
437,-1.174427062721168,-1.806201906910897,-1.888362210901969,-2.580280299680008,-1.1871164443344489,-2.627093279188764,546.25
438,-1.1744270711682097,-1.8062019356773322,-1.8883622409562468,-2.5802802412353563,-1.187116453007421,-2.727430170255599,547.5
439,-1.174427087524562,-1.806201965601747,-1.8883622746374045,-2.5802801779385782,-1.1871164698551846,-2.837767054239214,548.75
440,-1.174427105363803,-1.806201998237923,-1.8883623113721246,-2.5802801089014076,-1.1871164882340197,-2.958103931502288,550.0
441,-1.1744271409906002,-1.8062020264712164,-1.888362349379213,-2.58028004327234,-1.1871165243826198,-3.0884407990059515,551.25
442,-1.1744271794785122,-1.8062020568150083,-1.8883623902883624,-2.580279972679774,-1.1871165634319927,-3.2287776630280574,552.5
443,-1.1744272346634508,-1.8062020795693565,-1.8883624290946206,-2.5802799120071236,-1.1871166190936,-3.379114526417458,553.75
444,-1.1744272959487254,-1.8062021018352152,-1.8883624693175198,-2.5802798504959186,-1.1871166808607643,-3.539451382072623,555.0
445,-1.1744273695463103,-1.8062021115475932,-1.8883625013356473,-2.5802798098904254,-1.1871167547687604,-3.7025747327212453,556.25
446,-1.1744274402013999,-1.806202117111537,-1.8883625284771814,-2.5802797782541864,-1.1871168256626061,-3.855925117723551,557.5
447,-1.174427510124156,-1.8062021128905568,-1.8883625460335214,-2.5802797659490597,-1.1871168956683826,-3.999275502725837,558.75
448,-1.1744275750781399,-1.806202106263759,-1.8883625597542826,-2.5802797598043536,-1.1871169606568555,-4.132625887728092,560.0
449,-1.1744276348853129,-1.8062020919495632,-1.8883625645328008,-2.580279770190497,-1.1871170203663883,-4.255976272730315,561.25
450,-1.1744276898439288,-1.806202078795823,-1.8883625689239176,-2.580279779734639,-1.1871170752352802,-4.3693266577325165,562.5
451,-1.174427736340345,-1.806202060191849,-1.888362565488727,-2.5802798024135294,-1.1871171215380016,-4.4726770427347065,563.75
452,-1.174427777662499,-1.8062020421524954,-1.8883625609956602,-2.5802798255101624,-1.187117162664292,-4.56602742773688,565.0
453,-1.174427814558089,-1.8062020260455798,-1.8883625569839015,-2.5802798461326097,-1.1871171993850003,-4.6493778127390435,566.25
454,-1.1744278431175512,-1.8062020087888155,-1.888362549297978,-2.5802798714515016,-1.1871172277336377,-4.722728197741212,567.5
455,-1.174427866214811,-1.8062019926479946,-1.888362540992588,-2.5802798961956954,-1.1871172506259755,-4.786078582743363,568.75
456,-1.174427885666117,-1.8062019790550394,-1.8883625339982202,-2.580279917033963,-1.1871172699047068,-4.839428967745563,570.0
457,-1.1744279014714696,-1.8062019680099501,-1.888362528314875,-2.580279933966305,-1.187117285569832,-4.8827793527477725,571.25
458,-1.1744279136308675,-1.8062019595127254,-1.8883625239425554,-2.5802799469927207,-1.18711729762135,-4.916129737749966,572.5
459,-1.1744279221443112,-1.8062019535633644,-1.8883625208812607,-2.58027995611321,-1.1871173060592615,-4.939480122752163,573.75
460,-1.174434380583906,-1.8062180815101572,-1.88834142634364,-2.5802849698111503,-1.1871237554329217,-4.952849948738531,575.0
461,-1.1756867038266718,-1.8093483866935998,-1.8842483479150385,-2.5812568720643605,-1.1883743277961638,-4.9582418942762505,576.25
462,-1.177087712121563,-1.8128503566433538,-1.8796692980320773,-2.582344166779221,-1.1897733786577394,-4.953834652056268,577.5
463,-1.1771336865108106,-1.8129652879138074,-1.879519022755004,-2.582379851293017,-1.1898192924213435,-4.941449763282183,578.75
464,-1.1771336793587688,-1.8129652943407286,-1.8795190229235617,-2.5823798542916796,-1.1898192918374038,-4.919201735887817,580.0
465,-1.1771336689920406,-1.8129653036564095,-1.879519023167882,-2.5823798586381748,-1.1898192909909957,-4.8869537084934525,581.25
466,-1.1771336554106269,-1.8129653158608505,-1.879519023487965,-2.582379864332503,-1.1898192898821196,-4.844705681099072,582.5
467,-1.177133638871342,-1.812965330773454,-1.8795190244154754,-2.582379869396305,-1.1898192906997207,-4.792457655760233,583.75
468,-1.1771336195552498,-1.8129653482668928,-1.8795190263252541,-2.5823798724347706,-1.1898192949870783,-4.730209633238021,585.0
469,-1.1771335952561381,-1.8129653672385875,-1.8795190288588464,-2.5823798713918795,-1.1898192927333584,-4.657961613899962,586.25
470,-1.177133559221133,-1.8129653829037986,-1.8795190331549843,-2.582379849853693,-1.1898192579684275,-4.575713607707864,587.5
471,-1.177133518787492,-1.8129654004635105,-1.8795190380108768,-2.5823798255319965,-1.189819218832581,-4.483465607408273,588.75
472,-1.177133473697693,-1.8129654194759897,-1.8795190428984336,-2.5823797994553317,-1.1898191749698352,-4.381217613881398,590.0
473,-1.177133419605063,-1.8129654323970783,-1.8795190385766483,-2.582379790034338,-1.1898191209098412,-4.268969631382652,591.25
474,-1.1771333606922845,-1.8129654464704807,-1.8795190338661953,-2.5823797797880435,-1.1898190620240658,-4.146721656452368,592.5
475,-1.177133296714305,-1.8129654542099554,-1.8795190214979454,-2.5823797834711177,-1.1898189980036442,-4.014473687446388,593.75
476,-1.1771332277611417,-1.8129654583465822,-1.8795190041260295,-2.582379795693219,-1.1898189289664232,-3.8722257206567443,595.0
477,-1.177133157448108,-1.8129654542948075,-1.8795189784761308,-2.5823798243362113,-1.1898188584378322,-3.7199777581609395,596.25
478,-1.1771330847009944,-1.8129654446663097,-1.8795189467218272,-2.5823798646067844,-1.1898187853821913,-3.557729802174344,597.5
479,-1.1771330206247699,-1.8129654233386623,-1.8795189064242426,-2.582379925215701,-1.1898187208306723,-3.3924816709143966,598.75
480,-1.1771329629955993,-1.812965400551526,-1.8795188667213718,-2.5823799867813664,-1.1898186627169114,-3.236966705620803,600.0
481,-1.1771329233354177,-1.8129653692669585,-1.8795188244253356,-2.5823800596813777,-1.1898186224761529,-3.0914517403272113,601.25
482,-1.1771328867929938,-1.8129653399612213,-1.8795187849931418,-2.5823801277908487,-1.189818585391182,-2.955936775033652,602.5
483,-1.1771328682992954,-1.8129653061214321,-1.8795187467958439,-2.582380199455704,-1.1898185663218797,-2.830421809740124,603.75
484,-1.1771328512790231,-1.8129652749777265,-1.8795187116417855,-2.582380265410893,-1.1898185487718627,-2.714906844446612,605.0
485,-1.1771328445201,-1.8129652444300484,-1.8795186802354829,-2.582380327177019,-1.189818541514664,-2.609391879153125,606.25
486,-1.1771328435460622,-1.8129652155481382,-1.8795186522180662,-2.582380383979505,-1.1898185400811503,-2.513876913859657,607.5
487,-1.177132842674002,-1.812965189690042,-1.8795186271339466,-2.5823804348350183,-1.1898185387977191,-2.428361948566189,608.75
488,-1.17713284673602,-1.8129651665659003,-1.8795186062004638,-2.5823804788873117,-1.1898185425022554,-2.352846983272719,610.0
489,-1.177132855107079,-1.8129651462132057,-1.879518589260155,-2.582380516247142,-1.1898185505689736,-2.287332017979262,611.25
490,-1.1771328622004058,-1.8129651289670836,-1.879518574905561,-2.582380547904484,-1.1898185574044131,-2.2318170526857894,612.5
491,-1.1771328680160005,-1.8129651148275356,-1.8795185631366809,-2.5823805738593384,-1.1898185630085742,-2.186302087392281,613.75
492,-1.1771328725538626,-1.8129651037945587,-1.8795185539535173,-2.582380594111704,-1.1898185673814563,-2.1507871220987815,615.0
493,-1.1771328758139923,-1.8129650958681531,-1.8795185473560703,-2.582380608661582,-1.1898185705230597,-2.125272156805285,616.25
494,-1.1771328777963896,-1.8129650910483186,-1.87951854334434,-2.5823806175089725,-1.1898185724333843,-2.109757191511784,617.5
495,-1.1780006463892156,-1.815160819813723,-1.8766301890964832,-2.5830795246651,-1.1906850529468938,-2.1026556960275,618.75
496,-1.179571332532356,-1.8191351613954267,-1.8714021824442135,-2.5843445606151136,-1.1922534087211847,-2.1049198143106786,620.0
497,-1.1798007703585127,-1.8197157183141883,-1.8706385010823274,-2.584529349453045,-1.1924825101804157,-2.1155521622490228,621.25
498,-1.1798007688854348,-1.8197157249977987,-1.870638504444917,-2.5845293460365166,-1.1924825166145363,-2.1355950679876043,622.5
499,-1.1798007666773942,-1.8197157350160604,-1.8706385094852023,-2.5845293409153802,-1.1924825262588301,-2.165637973726183,623.75
500,-1.1798007637343915,-1.819715748368974,-1.8706385162031833,-2.5845293340896367,-1.1924825391132974,-2.2056808794647726,625.0
501,-1.1798007599600542,-1.8197157651524416,-1.870638524306464,-2.5845293266769653,-1.1924825543470285,-2.2557237829244063,626.25
502,-1.1798007550027196,-1.8197157857164115,-1.870638532728091,-2.58452932275578,-1.1924825689280356,-2.315766677320121,627.5
503,-1.179800749219753,-1.8197158097052615,-1.8706385425523198,-2.5845293181815303,-1.1924825859374744,-2.385809571715833,628.75
504,-1.179800749707344,-1.8197158339603972,-1.8706385653053887,-2.5845292731893093,-1.1924825864836586,-2.465852450209532,630.0
505,-1.1798007504603736,-1.8197158611449828,-1.8706385912690209,-2.584529221287253,-1.1924825864546573,-2.5558953250420826,631.25
506,-1.1798007512712967,-1.8197158913321283,-1.8706386201765233,-2.584529163357216,-1.192482586208116,-2.6559381911308635,632.5
507,-1.1798007649518325,-1.8197159214112832,-1.87063865333053,-2.5845291005494153,-1.1924826000892705,-2.7659810474358126,633.75
508,-1.1798007825248678,-1.8197159535759406,-1.8706386897803964,-2.5845290322155527,-1.1924826181714712,-2.8860238963672957,635.0
509,-1.1798008086541656,-1.81971598533264,-1.870638728482004,-2.5845289621893057,-1.1924826448424448,-3.016066738611345,636.25
510,-1.179800846587648,-1.8197160152678094,-1.8706387690736297,-2.584528892311524,-1.1924826833371787,-3.1561095773341075,637.5
511,-1.1798008935282907,-1.8197160429433374,-1.8706388102831135,-2.584528824204411,-1.1924827308215864,-3.3061524132182045,638.75
512,-1.1798009532810498,-1.8197160657027294,-1.8706388507328622,-2.5845287619512494,-1.1924827910654838,-3.4661952423376308,640.0
513,-1.1798010227291729,-1.8197160808588415,-1.8706388868690156,-2.5845287117380065,-1.1924828609045808,-3.632441999037035,641.25
514,-1.1798010930085323,-1.819716090185884,-1.8706389176502978,-2.58452867270455,-1.1924829314839045,-3.790162375000829,642.5
515,-1.1798011632406267,-1.8197160882033985,-1.870638937527139,-2.5845286558523526,-1.1924830018358414,-3.9378827509645866,643.75
516,-1.1798012295853524,-1.8197160842472635,-1.870638954297718,-2.584528644016485,-1.1924830682606138,-4.07560312692832,645.0
517,-1.1798012908187303,-1.819716071868443,-1.8706389613726957,-2.584528650198817,-1.192483129428949,-4.203323502892032,646.25
518,-1.1798013471888784,-1.8197160584175864,-1.870638965906859,-2.584528659918412,-1.1924831857065055,-4.321043878855717,647.5
519,-1.1798013970337338,-1.81971604293086,-1.8706389664565901,-2.584528675555198,-1.192483235412296,-4.4287642548193835,648.75
520,-1.1798014397538648,-1.8197160243112644,-1.8706389617796695,-2.5845286994363486,-1.192483277928134,-4.526484630783035,650.0
521,-1.1798014781023267,-1.8197160075970689,-1.870638957581345,-2.584528720873675,-1.192483316093209,-4.61420500674669,651.25
522,-1.179801510596486,-1.8197159916182413,-1.8706389522751148,-2.584528742598283,-1.1924833484030664,-4.691925382710323,652.5
523,-1.1798015349805264,-1.819715974594591,-1.8706389434471162,-2.5845287687655345,-1.1924833725686916,-4.759645758673974,653.75
524,-1.1798015557638724,-1.8197159600847554,-1.8706389359227131,-2.584528791068771,-1.1924833931658747,-4.817366134637628,655.0
525,-1.179801572946524,-1.819715948088738,-1.8706389297019026,-2.584528809507994,-1.1924834101946162,-4.865086510601302,656.25
526,-1.1798015865284808,-1.8197159386065347,-1.870638924784688,-2.584528824083203,-1.1924834236549156,-4.90280688656498,657.5
527,-1.1798015965097426,-1.8197159316381462,-1.8706389211710701,-2.5845288347943973,-1.1924834335467722,-4.930527262528647,658.75
528,-1.1798016028903093,-1.8197159271835723,-1.8706389188610482,-2.584528841641576,-1.1924834398701867,-4.948247638492328,660.0
529,-1.1803201597367015,-1.8210441780515072,-1.868881296332408,-2.584961941169323,-1.193001181264691,-4.957076673394302,661.25
530,-1.181928228990041,-1.8251631787652176,-1.8634307960557668,-2.586305001523885,-1.194606722197069,-4.957039592371391,662.5
531,-1.182432508737384,-1.8264548796098288,-1.8617215461331953,-2.586726179675022,-1.1951102115049261,-4.948154084158199,663.75
532,-1.1824325030640805,-1.8264548846986006,-1.861721546234258,-2.586726182174529,-1.1951102109225005,-4.930354149791331,665.0
533,-1.1824324942035163,-1.8264548926462434,-1.8617215463920973,-2.5867261860782573,-1.1951102100128688,-4.902554215424473,666.25
534,-1.182432482155691,-1.8264549034527573,-1.8617215466067136,-2.5867261913862083,-1.1951102087760304,-4.864754281057603,667.5
535,-1.1824324669206052,-1.8264549171181423,-1.8617215468781068,-2.5867261980983813,-1.1951102072119855,-4.8169543466907365,668.75
536,-1.1824324491229201,-1.8264549332112503,-1.8617215484776735,-2.5867262015152397,-1.1951102107008371,-4.759154418938659,670.0
537,-1.1824324282646856,-1.826454952075772,-1.8617215503919176,-2.586726205383027,-1.1951102149538282,-4.691354491368004,671.25
538,-1.1824323969305217,-1.8264549683732416,-1.8617215539876812,-2.5867261911551362,-1.1951101914399445,-4.613554576147324,672.5
539,-1.182432358937359,-1.826454984863253,-1.8617215585463414,-2.586726168449144,-1.1951101547991225,-4.525754665595269,673.75
540,-1.1824323165833552,-1.826455003210629,-1.8617215637005065,-2.5867261428237054,-1.195110113703533,-4.427954766603845,675.0
541,-1.1824322670263463,-1.8264550184623705,-1.8617215632888682,-2.586726126611196,-1.1951100646918476,-4.32015487478214,676.25
542,-1.1824322109577685,-1.8264550318166086,-1.8617215587775895,-2.58672611691883,-1.1951100086545547,-4.202354990832834,677.5
543,-1.1824321500532076,-1.8264550440139136,-1.8617215516388215,-2.5867261109507367,-1.1951099477549507,-4.074555114385371,678.75
544,-1.1824320840790636,-1.826455047926073,-1.8617215349037166,-2.5867261228028946,-1.195109881698793,-3.936755242815887,680.0
545,-1.1824320142858193,-1.8264550497679068,-1.8617215149806585,-2.586726139850459,-1.1951098117828125,-3.7889553725470257,681.25
546,-1.1824319444040665,-1.826455040470812,-1.8617214842682412,-2.5867261787908653,-1.1951097416011363,-3.6311555092787984,682.5
547,-1.1824318754716243,-1.8264550252751794,-1.8617214481515731,-2.5867262290316155,-1.1951096722764065,-3.4648923958241094,683.75
548,-1.182431816117365,-1.82645500264907,-1.8617214078335071,-2.5867262910262925,-1.1951096124316183,-3.304932806230072,685.0
549,-1.1824317696147923,-1.8264549750588834,-1.8617213667150423,-2.5867263589633214,-1.1951095653869128,-3.154973216636073,686.25
550,-1.1824317319371085,-1.8264549453144778,-1.8617213262590901,-2.586726428517723,-1.1951095271517334,-3.0150136270421055,687.5
551,-1.182431706110767,-1.8264549137064188,-1.8617212876874671,-2.586726498223104,-1.1951095007637318,-2.88505403744817,688.75
552,-1.1824316886517507,-1.8264548817519934,-1.8617212513829162,-2.586726566131695,-1.1951094827556268,-2.765094447854242,690.0
553,-1.1824316751385602,-1.826454851867942,-1.8617212183057685,-2.586726628807221,-1.195109468735017,-2.655134858260346,691.25
554,-1.1824316741302974,-1.8264548220148664,-1.8617211891468612,-2.586726687720265,-1.1951094672469027,-2.55517526866645,692.5
555,-1.1824316732229012,-1.826454795148309,-1.8617211629050194,-2.586726740739622,-1.1951094659076595,-2.4652156790725943,693.75
556,-1.1824316727794617,-1.826454771246739,-1.861721139672344,-2.586726787800083,-1.195109465080819,-2.3852560894787205,695.0
557,-1.1824316816072822,-1.8264547497879497,-1.8617211216828227,-2.5867268273198554,-1.1951094735843966,-2.3152964998848597,696.25
558,-1.1824316891732571,-1.8264547313964723,-1.861721106264717,-2.5867268611906846,-1.1951094808724754,-2.2553369102909873,697.5
559,-1.1824316954773864,-1.82645471607231,-1.8617210934180246,-2.5867268894125712,-1.1951094869450558,-2.2053773206970844,698.75
560,-1.18243170051967,-1.8264547038154593,-1.8617210831427486,-2.586726911985515,-1.1951094918021379,-2.1654177311031817,700.0
561,-1.182431704300108,-1.8264546946259201,-1.861721075438889,-2.586726928909516,-1.1951094954437216,-2.1354581415092815,701.25
562,-1.1824317068187002,-1.8264546885036923,-1.8617210703064468,-2.586726940184574,-1.1951094978698067,-2.1154985519153766,702.5
563,-1.1826583815702145,-1.827042449915499,-1.8609387428457713,-2.5869231246295814,-1.1953357956952673,-2.104935584566323,703.75
564,-1.184185151116174,-1.8310013651158363,-1.855669357908929,-2.588244495205565,-1.1968600269038605,-2.1027207866008886,705.0
565,-1.1850262754362548,-1.833182405967714,-1.8527663597630857,-2.5889724602782227,-1.1976997554844975,-2.109853722314613,706.25
566,-1.185026274292629,-1.8331824110926616,-1.852766362317821,-2.588972457785017,-1.197699760335115,-2.125375573005407,707.5
567,-1.1850262724122191,-1.8331824195193722,-1.8527663665184528,-2.5889724536855563,-1.197699768310758,-2.1508974236961973,708.75
568,-1.1850262697950251,-1.8331824312478462,-1.8527663723649805,-2.58897244797984,-1.1976997794114261,-2.186419274386999,710.0
569,-1.1850262664410465,-1.8331824462780835,-1.8527663798574046,-2.588972440667869,-1.1976997936371199,-2.2319411250777965,711.25
570,-1.1850262619669287,-1.8331824649847586,-1.8527663878515768,-2.5889724360968254,-1.1976998076488292,-2.287462973563458,712.5
571,-1.1850262565457996,-1.8331824871986642,-1.852766396864209,-2.5889724323034673,-1.197699822954493,-2.3529848213136204,713.75
572,-1.1850262539921892,-1.833182511147681,-1.8527664132986734,-2.5889724071382463,-1.1976998311334732,-2.4285066604686913,715.0
573,-1.1850262547071106,-1.8331825366521686,-1.852766437811188,-2.588972358344469,-1.1976998311587719,-2.5140284917781552,716.25
574,-1.1850262554785342,-1.8331825651204725,-1.8527664652569114,-2.5889723035550123,-1.1976998309590523,-2.6095503131683557,717.5
575,-1.1850262619961602,-1.8331825951832252,-1.8527664961944312,-2.5889722433711535,-1.1976998369710317,-2.7150721278613457,718.75
576,-1.1850262787010493,-1.8331826257638943,-1.85276653108135,-2.5889721781731434,-1.1976998541603212,-2.8305939341991735,720.0
577,-1.1850262968536107,-1.83318265899068,-1.85276656899133,-2.5889721073198864,-1.1976998728517296,-2.9561157321143603,721.25
578,-1.1850263327414159,-1.833182687785537,-1.8527666081025038,-2.5889720400265084,-1.1976999092825678,-3.09163752404866,722.5
579,-1.1850263716775344,-1.8331827185312979,-1.8527666500547695,-2.5889719679945173,-1.197699948801161,-3.237159315753987,723.75
580,-1.1850264282639018,-1.8331827409460641,-1.8527666894299257,-2.5889719071122643,-1.1977000058713294,-3.3926811008184274,725.0
581,-1.1850264911750776,-1.8331827619320964,-1.8527667293911814,-2.5889718471631764,-1.1977000692568796,-3.557933309154918,726.25
582,-1.1850265625821486,-1.833182771453207,-1.8527667608832368,-2.588971807242968,-1.1977001409723598,-3.7201713650471477,727.5
583,-1.1850266316031788,-1.8331827754893055,-1.8527667863126327,-2.5889717788194897,-1.1977002102083891,-3.8724094209393485,728.75
584,-1.185026699284433,-1.8331827714974995,-1.8527668035396587,-2.5889717665838745,-1.197700277972606,-4.014647476831533,730.0
585,-1.185026762077895,-1.8331827639562681,-1.852766815801123,-2.5889717627803477,-1.1977003407813118,-4.146885532723687,731.25
586,-1.185026819893428,-1.833182750199479,-1.8527668204835672,-2.588971772679714,-1.1977003985012897,-4.269123588615824,732.5
587,-1.1850268729792144,-1.8331827375681047,-1.8527668247829454,-2.58897178176924,-1.1977004514993383,-4.381361644507955,733.75
588,-1.1850269173639207,-1.8331827187935106,-1.852766820412862,-2.588971805524361,-1.197700495678575,-4.483599700400058,735.0
589,-1.1850269571924217,-1.8331827014619595,-1.8527668160218225,-2.58897182779338,-1.19770053531491,-4.57583775629215,736.25
590,-1.185026992702912,-1.8331826860094134,-1.8527668121068348,-2.588971847648102,-1.1977005706540678,-4.658075812184229,737.5
591,-1.185027019511316,-1.8331826689739739,-1.8527668039442542,-2.5889718731989375,-1.1977005972467576,-4.730313868076301,738.75
592,-1.185027041645988,-1.833182653536641,-1.8527667958744565,-2.588971896993546,-1.1977006191812578,-4.792551923968381,740.0
593,-1.185027060224208,-1.8331826405796785,-1.852766789101259,-2.5889719169649945,-1.197700637591468,-4.844789979860481,741.25
594,-1.1850270752459746,-1.8331826301030851,-1.8527667836246615,-2.588971933113283,-1.1977006524773877,-4.887028035752591,742.5
595,-1.1850270867112882,-1.8331826221068603,-1.852766779444667,-2.58897194543841,-1.1977006638390164,-4.919266091644691,743.75
596,-1.1850270946201487,-1.8331826165910037,-1.852766776561275,-2.588971953940377,-1.197700671676354,-4.941504147536797,745.0
597,-1.1850696521768014,-1.8332943148189822,-1.8526172382789152,-2.5890100958085718,-1.1977431545195893,-4.9538778397149725,746.25
598,-1.1863888912553942,-1.8367572892556105,-1.8479812856331133,-2.5901924291360263,-1.199060078547635,-4.958348528082885,747.5
599,-1.1875783579348644,-1.839879624594225,-1.843801357209302,-2.5912584593884427,-1.2002474593880377,-4.953028467909306,748.75
600,-1.1875861626985296,-1.8399001266853787,-1.8437739157296984,-2.5912654598731466,-1.200255254115299,-4.939794749181541,750.0
601,-1.1875861553649223,-1.839900133251649,-1.8437739158210746,-2.5912654632476775,-1.2002552532122523,-4.916587439008401,751.25
602,-1.1875861448712732,-1.8399001426473167,-1.8437739159518247,-2.5912654680762897,-1.2002552519200838,-4.883380128835258,752.5
603,-1.1875861312175822,-1.8399001548723817,-1.8437739161219484,-2.5912654743589827,-1.2002552502387933,-4.840172818662118,753.75
604,-1.1875861147183286,-1.839900169713423,-1.84377391696157,-2.5912654797823027,-1.2002552509051607,-4.786965515394782,755.0
605,-1.187586095439374,-1.8399001871257434,-1.8437739186026572,-2.591265483861738,-1.2002552544923542,-4.723758218629575,756.25
606,-1.1875860703902548,-1.839900205287659,-1.8437739210719561,-2.5912654814831786,-1.2002552482343471,-4.6505509266908485,757.5
607,-1.1875860348264442,-1.8399002207015391,-1.8437739253612224,-2.5912654602563086,-1.2002552139684315,-4.5673436464631205,758.75
608,-1.1875859949691117,-1.8399002379551914,-1.8437739302123595,-2.59126543627736,-1.2002551754201036,-4.474136373434627,760.0
609,-1.187585950132573,-1.839900255859016,-1.8437739341489314,-2.5912654124671595,-1.200255131719341,-4.37092910725401,761.25
610,-1.187585896908014,-1.8399002685007901,-1.8437739298383868,-2.5912654033224656,-1.2002550785291437,-4.257721850984845,762.5
611,-1.1875858389806777,-1.8399002822605548,-1.8437739251431036,-2.5912653933850605,-1.2002550206293574,-4.134514603268142,763.75
612,-1.187585776074095,-1.8399002887224696,-1.8437739117748693,-2.5912653993595773,-1.200254957669855,-4.00130736122172,765.0
613,-1.187585708347111,-1.8399002926973895,-1.8437738944744706,-2.591265411687257,-1.200254889857645,-3.8581001207640084,766.25
614,-1.187585639831407,-1.839900287374685,-1.843773867879234,-2.59126544256766,-1.2002548211058865,-3.704892885174831,767.5
615,-1.1875855684355918,-1.8399002778362057,-1.8437738362810712,-2.5912654826110573,-1.200254749400013,-3.5416856559437737,768.75
616,-1.187585507335923,-1.8399002557424353,-1.8437737956811637,-2.5912655443304953,-1.2002546878096376,-3.377181834305916,770.0
617,-1.1875854529148864,-1.839900232567238,-1.8437737561160936,-2.5912656061933226,-1.2002546328949868,-3.2226330160345387,771.25
618,-1.1875854144746159,-1.8399002022067488,-1.843773714552475,-2.5912656774588805,-1.200254593879829,-3.078084197763209,772.5
619,-1.1875853806039123,-1.8399001731160458,-1.8437736756529037,-2.591265744862405,-1.2002545594647518,-2.9435353794919026,773.75
620,-1.1875853626963215,-1.8399001403411341,-1.843773638156803,-2.591265814774993,-1.2002545409880807,-2.8189865612206346,775.0
621,-1.1875853462265284,-1.8399001101977217,-1.8437736036712482,-2.5912658790743133,-1.2002545239948985,-2.7044377429493753,776.25
622,-1.187585341053618,-1.8399000803430692,-1.843773572997553,-2.5912659394426223,-1.2002545183279452,-2.599888924678126,777.5
623,-1.1875853401101746,-1.8399000524565476,-1.8437735455613065,-2.5912659946740066,-1.2002545169315222,-2.5053401064069027,778.75
624,-1.1875853392665152,-1.8399000275194615,-1.8437735210268624,-2.591266044063818,-1.2002545156827926,-2.42079128813568,780.0
625,-1.1875853441400341,-1.8399000052021552,-1.8437735008290888,-2.5912660865898713,-1.2002545202060917,-2.3462424698644546,781.25
626,-1.18758535218484,-1.8398999856540317,-1.8437734843176834,-2.5912661227154365,-1.2002545279523815,-2.2816936515932293,782.5
627,-1.1875853589833325,-1.839899969134334,-1.8437734703642485,-2.5912661532443746,-1.2002545344986046,-2.227144833321988,783.75
628,-1.187585364535512,-1.8398999556430629,-1.8437734589687835,-2.591266178176687,-1.2002545398447615,-2.1825960150507253,785.0
629,-1.1875853688413776,-1.8398999451802156,-1.843773450131291,-2.5912661975123714,-1.200254543990851,-2.1480471967794728,786.25
630,-1.18758537190093,-1.8398999377457925,-1.8437734438517708,-2.5912662112514293,-1.2002545469368735,-2.123498378508222,787.5
631,-1.1875853737141686,-1.8398999333397934,-1.8437734401302233,-2.59126621939386,-1.2002545486828293,-2.108949560236975,788.75
632,-1.1885473694036544,-1.8424563263876095,-1.840331601310964,-2.592158441105002,-1.2012147655284635,-2.102556646196109,790.0
633,-1.1899750921835484,-1.8462503433320887,-1.835223476842408,-2.5934826060936453,-1.2026398495725477,-2.105711211047063,791.25
634,-1.1901095535261537,-1.8466076653648253,-1.834742398238296,-2.5936073135621527,-1.2027740665402578,-2.116975865670886,792.5
635,-1.19010955198603,-1.8466076721836524,-1.8347424016095313,-2.5936073104017114,-1.2027740728851914,-2.1378350731472393,793.75
636,-1.190109549707564,-1.846607682271456,-1.8347424065969524,-2.5936073057261395,-1.2027740822719153,-2.168694280623589,795.0
637,-1.1901095466907552,-1.846607695628237,-1.834742413200559,-2.5936072995354373,-1.2027740947004293,-2.209553488099957,796.25
638,-1.1901095427981154,-1.8466077123862499,-1.8347424210160286,-2.5936072933564263,-1.2027741089610273,-2.2604126946308605,797.5
639,-1.1901095377545687,-1.8466077328101005,-1.834742429234427,-2.593607290243841,-1.2027741226334314,-2.321271898724465,798.75
640,-1.1901095322587254,-1.846607756420119,-1.8347424394235736,-2.593607284494026,-1.202774137624878,-2.3921311018763483,800.0
641,-1.1901095329266886,-1.846607780232768,-1.834742462486826,-2.5936072387440086,-1.2027741376332246,-2.472990289442256,801.25
642,-1.1901095336663234,-1.8466078069825145,-1.8347424884307952,-2.5936071872137134,-1.2027741375496204,-2.5638494726910266,802.5
643,-1.1901095344661266,-1.8466078366610963,-1.8347425172853995,-2.5936071297745125,-1.2027741372762646,-2.66470864802447,803.75
644,-1.1901095491039673,-1.8466078659413063,-1.834742550466156,-2.59360706764463,-1.202774152245992,-2.7755678125994807,805.0
645,-1.190109566371429,-1.8466078975443492,-1.8347425867814833,-2.5936069999977533,-1.2027741700280954,-2.8964269699319702,806.25
646,-1.1901095933372412,-1.8466079281739862,-1.8347426251725918,-2.5936069314236527,-1.2027741975355957,-3.027286120789688,807.5
647,-1.190109630570189,-1.846607957583588,-1.8347426655742072,-2.593606862248687,-1.2027742353313589,-3.1681452686174687,808.75
648,-1.1901096778663538,-1.8466079839119083,-1.8347427061190764,-2.593606796154649,-1.2027742831610806,-3.3190044131427197,810.0
649,-1.1901097364707796,-1.846608006291523,-1.8347427463500638,-2.593606734482086,-1.2027743422579706,-3.4798635510368787,811.25
650,-1.1901098050799706,-1.8466080200406143,-1.8347427812850072,-2.593606686861838,-1.2027744112412497,-3.645849427280112,812.5
651,-1.190109873299381,-1.8466080291706564,-1.8347428115851805,-2.593606648476819,-1.2027744797587947,-3.802746816141123,813.75
652,-1.190109941882511,-1.8466080262723872,-1.8347428302482045,-2.5936066337295918,-1.2027745484453276,-3.949644205002233,815.0
653,-1.190110006232332,-1.8466080225135322,-1.834742846743704,-2.5936066219448053,-1.2027746128752712,-4.0865415938635,816.25
654,-1.1901100655655659,-1.8466080096992172,-1.8347428528201744,-2.5936066295345714,-1.2027746721304111,-4.2134389827249015,817.5
655,-1.19011012018392,-1.8466079967374394,-1.8347428572748883,-2.5936066388226497,-1.2027747266579265,-4.330336371586437,818.75
656,-1.1901101680946846,-1.846607981159948,-1.8347428570719506,-2.5936066552765964,-1.2027747744206096,-4.437233760448077,820.0
657,-1.190110209426768,-1.8466079632026444,-1.8347428524822311,-2.5936066783922183,-1.202774815551486,-4.534131149309828,821.25
658,-1.1901102464933009,-1.8466079470985735,-1.8347428483661736,-2.593606699122264,-1.2027748524375772,-4.621028538171629,822.5
659,-1.1901102774039694,-1.846607931354597,-1.834742842672619,-2.593606720978657,-1.2027748831601475,-4.697925927033531,823.75
660,-1.1901103009063552,-1.8466079149814458,-1.834742834042577,-2.5936067462882075,-1.2027749064479496,-4.7648233158954625,825.0
661,-1.1901103208955421,-1.846607901055797,-1.8347428267025767,-2.593606767814419,-1.2027749262546292,-4.821720704757453,826.25
662,-1.1901103373715303,-1.8466078895776525,-1.8347428206526148,-2.593606785557292,-1.2027749425801866,-4.868618093619457,827.5
663,-1.190110350334319,-1.84660788054701,-1.8347428158926955,-2.593606799516826,-1.202774955424621,-4.905515482481478,828.75
664,-1.1901103597839082,-1.8466078739638694,-1.8347428124228184,-2.5936068096930205,-1.2027749647879327,-4.932412871343476,830.0
665,-1.190110365720298,-1.8466078698282302,-1.8347428102429837,-2.593606816085876,-1.2027749706701214,-4.949310260205464,831.25
666,-1.1907070862936309,-1.8482131877469827,-1.8325692830990663,-2.594179200377351,-1.2033705303107776,-4.957526950189955,832.5
667,-1.192218170982262,-1.852278384591734,-1.8270652020453377,-2.595628657859772,-1.2048786756527488,-4.956741113156955,833.75
668,-1.1926004540799275,-1.8533068323890072,-1.8256727367176717,-2.5959953541895993,-1.2052602175493152,-4.947316418581594,835.0
669,-1.192600448291337,-1.8533068375629684,-1.825672736760776,-2.5959953569579195,-1.2052602167208613,-4.928840501503538,836.25
670,-1.1926004393697003,-1.8533068455373116,-1.8256727368272099,-2.5959953612245794,-1.205260215444011,-4.900364584425459,837.5
671,-1.1926004273150173,-1.8533068563120363,-1.8256727369169738,-2.5959953669895786,-1.2052602137187645,-4.86188866734736,838.75
672,-1.1926004121514229,-1.853306869871012,-1.82567273707773,-2.595995374079131,-1.205260211757331,-4.813412750977799,840.0
673,-1.1926003944676813,-1.8533068858207478,-1.825672738472184,-2.5959953782537504,-1.2052602147365241,-4.75493685048103,841.25
674,-1.192600373759832,-1.8533069044980575,-1.825672740105105,-2.595995383142274,-1.2052602182251908,-4.686460949984286,842.5
675,-1.1926003422579652,-1.8533069200651848,-1.8256727437524316,-2.5959953677836376,-1.2052601925555768,-4.607985063075685,843.75
676,-1.1926003048966385,-1.8533069362298156,-1.8256727482943367,-2.595995345461363,-1.205260156552567,-4.5195091805881615,845.0
677,-1.1926002632834967,-1.8533069542013592,-1.825672753422598,-2.595995320302257,-1.2052601162318033,-4.421033309041537,846.25
678,-1.1926002143159384,-1.8533069685873576,-1.8256727523543141,-2.595995305745828,-1.2052600677310328,-4.312557445470069,847.5
679,-1.1926001592866506,-1.8533069816248628,-1.8256727478643322,-2.595995296360091,-1.205260012733898,-4.194081589657724,848.75
680,-1.192600099513069,-1.8533069927783261,-1.8256727400284924,-2.595995292145773,-1.2052599529589747,-4.065605741177716,850.0
681,-1.192600034814012,-1.8533069965415367,-1.8256727233826475,-2.5959953040734356,-1.2052598881769305,-3.927129897218388,851.25
682,-1.1925999667524727,-1.8533069973958542,-1.8256727028271587,-2.595995322761078,-1.2052598199781817,-3.778654054946726,852.5
683,-1.1925998982624149,-1.8533069882157065,-1.8256726722966978,-2.5959953614218065,-1.2052597511871594,-3.6201782195574412,853.75
684,-1.1925998317316893,-1.8533069724187023,-1.8256726358926199,-2.5959954125841955,-1.2052596842515988,-3.4538179109730907,855.0
685,-1.192599774053395,-1.853306950384916,-1.8256725961542433,-2.5959954734330477,-1.2052596260859851,-3.294541042401788,856.25
686,-1.192599729892159,-1.8533069228445258,-1.8256725552638158,-2.595995541127765,-1.2052595813772433,-3.145264173830354,857.5
687,-1.1925996932992993,-1.853306893939318,-1.8256725154136468,-2.59599560925656,-1.2052595442312635,-3.00598730525878,858.75
688,-1.1925996692917473,-1.8533068627865616,-1.8256724773148796,-2.595995678063676,-1.2052595196616105,-2.876710436687061,860.0
689,-1.1925996523475104,-1.853306831783454,-1.8256724415829395,-2.5959957444604176,-1.2052595021732946,-2.7574335681152204,861.25
690,-1.192599640190809,-1.85330680258158,-1.8256724091223162,-2.59599580586117,-1.2052594895125117,-2.6481566995432546,862.5
691,-1.1925996392106817,-1.853306773666626,-1.8256723804559987,-2.595995863348722,-1.2052594880576406,-2.5488798309711966,863.75
692,-1.1925996383292807,-1.8533067476642335,-1.825672354677188,-2.595995915045645,-1.2052594867493167,-2.4596029623990536,865.0
693,-1.1925996385708688,-1.8533067245148291,-1.8256723320494022,-2.5959959607631595,-1.2052594866130868,-2.3803260938268362,866.25
694,-1.192599647099719,-1.8533067038017468,-1.8256723144158005,-2.5959959991808343,-1.2052594948222153,-2.3110492252545507,867.5
695,-1.1925996543974442,-1.8533066860785627,-1.8256722993275798,-2.595996032052982,-1.2052595018463694,-2.2517723566822325,868.75
696,-1.1925996604640443,-1.8533066713452806,-1.825672286784737,-2.595996059379603,-1.20525950768555,-2.2024954881098884,870.0
697,-1.192599665299519,-1.8533066596018968,-1.8256722767872755,-2.5959960811606972,-1.2052595123397565,-2.1632186195375254,871.25
698,-1.1925996689038683,-1.8533066508484113,-1.8256722693351954,-2.5959960973962635,-1.2052595158089892,-2.13394175096518,872.5
699,-1.1925996712770923,-1.853306645084824,-1.8256722644284968,-2.595996108086304,-1.2052595180932477,-2.1146648823928436,873.75
700,-1.1928814134619725,-1.8540739792973129,-1.824627545064135,-2.5962754514658624,-1.2055406843376921,-2.1046224275432626,875.0
701,-1.194349280446502,-1.8580717959641366,-1.8191845833160534,-2.597730799030475,-1.207005551122131,-2.1030179341248143,876.25
702,-1.1950562461119938,-1.8599972604366715,-1.816563100126696,-2.598431734029097,-1.2077110745121011,-2.1106001327921775,877.5
703,-1.1950562449240947,-1.859997265634407,-1.8165631026776643,-2.598431731731909,-1.2077110792668038,-2.1266606260021668,878.75
704,-1.1950562429965548,-1.859997274068491,-1.816563106816982,-2.5984317280043867,-1.2077110869820031,-2.1527211192121674,880.0
705,-1.1950562403293743,-1.859997285738924,-1.81656311254465,-2.59843172284653,-1.2077110976576984,-2.188781612422186,881.25
706,-1.1950562369225535,-1.8599973006457053,-1.8165631198606678,-2.598431716258338,-1.2077111112938899,-2.234842105632194,882.5
707,-1.195056232365009,-1.859997319178761,-1.8165631275721732,-2.598431712716255,-1.2077111242370195,-2.2909025939050327,883.75
708,-1.1950562268839777,-1.859997341122549,-1.8165631363385524,-2.5984317097458063,-1.2077111385066894,-2.3569630809459623,885.0
709,-1.1950562246714085,-1.8599973645270667,-1.8165631532320872,-2.598431683113781,-1.207711145219929,-2.433023558410114,886.25
710,-1.1950562253742147,-1.859997389552657,-1.816563177666898,-2.5984316348200536,-1.2077111452138873,-2.519084028869345,887.5
711,-1.1950562261318352,-1.8599974174657845,-1.8165632050143485,-2.598431580601704,-1.207711144976503,-2.615144488547217,888.75
712,-1.1950562333031305,-1.8599974467467595,-1.8165632358965798,-2.5984315211586795,-1.2077111517234504,-2.721204941517416,890.0
713,-1.1950562496868218,-1.8599974767215866,-1.8165632706021837,-2.5984314567388953,-1.2077111685953958,-2.837265386230782,891.25
714,-1.1950562679719785,-1.8599975090666192,-1.8165633082455368,-2.5984313870346165,-1.2077111874214208,-2.9633258227873593,892.5
715,-1.1950563035061934,-1.8599975371334951,-1.816563347084361,-2.598431320735635,-1.2077112234983758,-3.099386253333243,893.75
716,-1.1950563417104363,-1.8599975672226687,-1.8165633887559245,-2.5984312496276547,-1.2077112622850155,-3.245446683816997,895.0
717,-1.195056397885195,-1.8599975886872855,-1.8165634276000748,-2.5984311902185255,-1.2077113189370543,-3.401507107137167,896.25
718,-1.195056460038742,-1.8599976085351295,-1.8165634667370747,-2.598431132218445,-1.2077113815545357,-3.567090631719949,897.5
719,-1.1950565294997841,-1.8599976178573843,-1.8165634978138057,-2.598431092884951,-1.2077114513227196,-3.728783471019786,898.75
720,-1.1950565969086235,-1.8599976211559213,-1.8165635223123284,-2.5984310661062917,-1.2077115189351677,-3.8804763103196844,900.0
721,-1.1950566627128962,-1.8599976173439594,-1.81656353930367,-2.5984310539019724,-1.2077115848226503,-4.022169149619786,901.25
722,-1.1950567237270657,-1.8599976095004411,-1.816563550815262,-2.59843105112628,-1.207711645843163,-4.153861988919984,902.5
723,-1.1950567799028164,-1.8599975962017783,-1.8165635554301456,-2.5984310606151717,-1.20771170192489,-4.27555482822034,903.75
724,-1.195056831462377,-1.8599975839959249,-1.816563559665799,-2.598431069324324,-1.2077117533981534,-4.38724766752081,905.0
725,-1.1950568743186876,-1.859997565406606,-1.8165635548722956,-2.598431093298432,-1.2077117960439772,-4.488940506821374,906.25
726,-1.1950569129604007,-1.8599975486447127,-1.816563550549506,-2.5984311149162496,-1.2077118344958921,-4.5806333461220525,907.5
727,-1.1950569473878583,-1.8599975337108694,-1.816563546698156,-2.5984311341764337,-1.207711868754251,-4.662326185422785,908.75
728,-1.1950569730545098,-1.8599975170139291,-1.8165635383489414,-2.5984311595615996,-1.2077118942034137,-4.73401902472358,910.0
729,-1.1950569944675076,-1.8599975021139188,-1.8165635304281094,-2.5984311826626363,-1.2077119154190235,-4.795711864024426,911.25
730,-1.1950570124096012,-1.8599974896291025,-1.8165635237911888,-2.598431202019149,-1.207711933195725,-4.847404703325294,912.5
731,-1.1950570268807899,-1.8599974795594796,-1.8165635184381819,-2.598431217631138,-1.2077119475335167,-4.889097542626199,913.75
732,-1.1950570378810734,-1.8599974719050492,-1.8165635143690904,-2.5984312294986016,-1.207711958432399,-4.920790381927087,915.0
733,-1.1950570454104519,-1.8599974666658114,-1.8165635115839138,-2.59843123762154,-1.207711965892371,-4.942483221227958,916.25
734,-1.1951245497231102,-1.8601835844073582,-1.816308718453232,-2.598500379142002,-1.207779325387803,-4.954401575817374,917.5
735,-1.1964203462392502,-1.8637565251012833,-1.8114175053146957,-2.59982759886978,-1.2090723425913603,-4.958424751706975,918.75
736,-1.1974795185586813,-1.8666770248258295,-1.8074194614907204,-2.6009124588533377,-1.2101292446066232,-4.95272244388345,920.0
737,-1.197480861341446,-1.8666807427646064,-1.8074143769611075,-2.600913840624649,-1.2101305880418807,-4.939106409418333,921.25
738,-1.1974808540071773,-1.8666807493092517,-1.807414376981045,-2.6009138442556137,-1.2101305868490564,-4.915495377242592,922.5
739,-1.1974808435666198,-1.8666807586257552,-1.8074143770094264,-2.600913849424403,-1.2101305851510344,-4.881884345066804,923.75
740,-1.1974808300197732,-1.8666807707141184,-1.8074143770462519,-2.6009138561310188,-1.2101305829478146,-4.838273312891026,925.0
741,-1.1974808137013069,-1.86668078535376,-1.8074143777435463,-2.600913862014684,-1.2101305832122873,-4.784662290504633,926.25
742,-1.1974807946281174,-1.8666808025335448,-1.8074143791342296,-2.600913866956207,-1.210130586094551,-4.721051275908199,927.5
743,-1.1974807695709493,-1.866680820128957,-1.807414381483382,-2.6009138643695384,-1.2101305780615461,-4.6474402668433115,928.75
744,-1.1974807346902634,-1.8666808352012467,-1.8074143857424694,-2.600913843574142,-1.2101305444931683,-4.56382926885173,930.0
745,-1.1974806956184847,-1.8666808520620939,-1.807414390561925,-2.600913820074194,-1.2101305067430386,-4.470218278701441,931.25
746,-1.197480651504415,-1.8666808692354981,-1.807414394077559,-2.600913797536923,-1.2101304637326913,-4.366607295459309,932.5
747,-1.1974805993662847,-1.866680881558295,-1.807414389794255,-2.600913788695311,-1.2101304116304696,-4.25299632165534,933.75
748,-1.197480542637658,-1.866680894967055,-1.8074143851299058,-2.6009137790905625,-1.2101303549304134,-4.129385356858637,935.0
749,-1.197480481032395,-1.866680900794073,-1.807414371412564,-2.600913786065209,-1.2101302932675835,-3.995774397669397,936.25
750,-1.1974804147356448,-1.8666809046208437,-1.807414354229615,-2.600913798441235,-1.2101302268847582,-3.8521634398687583,937.5
751,-1.1974803478914273,-1.866680898839363,-1.8074143273750958,-2.6009138300606973,-1.2101301597958103,-3.6985524871923356,938.75
752,-1.1974802780260372,-1.8666808894529412,-1.807414296001416,-2.6009138697484393,-1.210130089619805,-3.534941540788218,940.0
753,-1.1974802189899392,-1.8666808673637274,-1.807414255493518,-2.6009139314011662,-1.2101300300872038,-3.370810046835317,941.25
754,-1.1974801666084587,-1.8666808443605607,-1.8074142161864082,-2.600913992864326,-1.21012997720894,-3.2166715963079584,942.5
755,-1.1974801291890358,-1.8666808148082823,-1.8074141751359003,-2.6009140628265732,-1.2101299392178606,-3.072533145780466,943.75
756,-1.1974800968564545,-1.8666807862267023,-1.8074141366536955,-2.600914129328675,-1.2101299063409938,-2.9383946952525357,945.0
757,-1.1974800794305567,-1.8666807543595763,-1.8074140996371568,-2.6009141978652024,-1.210129888349731,-2.8142562447244543,946.25
758,-1.1974800634084068,-1.8666807250595214,-1.8074140656024849,-2.600914260880755,-1.2101298718077589,-2.7001177941963093,947.5
759,-1.1974800589387165,-1.8666806959268,-1.8074140353865116,-2.6009143200838674,-1.2101298668467493,-2.5959793436681196,948.75
760,-1.1974800580190286,-1.8666806688536475,-1.8074140083293835,-2.6009143741273264,-1.2101298654776818,-2.5018408931399483,950.0
761,-1.1974800571970359,-1.8666806446563857,-1.8074139841464358,-2.6009144224299363,-1.2101298642540457,-2.4177024426117257,951.25
762,-1.1974800623226016,-1.8666806229973831,-1.8074139643537888,-2.600914463899973,-1.2101298690331581,-2.3435639920835167,952.5
763,-1.1974800701235764,-1.8666806040654924,-1.807413948103395,-2.600914499148098,-1.2101298765387003,-2.279425541555299,953.75
764,-1.1974800767082798,-1.8666805880853257,-1.8074139343866436,-2.6009145289005917,-1.2101298828740332,-2.2252870910271114,955.0
765,-1.1974800820767122,-1.866680575056883,-1.8074139232035331,-2.6009145531574553,-1.2101298880391569,-2.1811486404989844,956.25
766,-1.1974800862288735,-1.866680564980162,-1.8074139145540662,-2.6009145719186875,-1.210129892034071,-2.147010189970832,957.5
767,-1.1974800891647637,-1.8666805578551628,-1.807413908438243,-2.600914585184289,-1.2101298948587753,-2.1228717394426813,958.75
768,-1.1974800908843826,-1.8666805536818858,-1.8074139048560633,-2.6009145929542594,-1.2101298965132705,-2.108733288914506,960.0
769,-1.1984438357901603,-1.8693709199738706,-1.8037109352792209,-2.6019338074654996,-1.2110914749294714,-2.10261169503133,961.25
770,-1.1997683757014719,-1.8730684797944588,-1.798621691098108,-2.603334579309652,-1.2124130386242367,-2.1061055631437675,962.5
771,-1.1998716934972509,-1.8733569056461918,-1.7982247144635206,-2.603443842768979,-1.2125161283182455,-2.1175781314715376,963.75
772,-1.1998716919321304,-1.8733569124163256,-1.7982247177645583,-2.603443839914072,-1.2125161344063549,-2.138708879891456,965.0
773,-1.1998716896263262,-1.8733569223903848,-1.7982247226277928,-2.603443835708097,-1.212516143375626,-2.1698396283113928,966.25
774,-1.1998716865798378,-1.8733569355683688,-1.7982247290532236,-2.603443830151054,-1.2125161552260582,-2.210970376731305,967.5
775,-1.1998716826421747,-1.8733569520912714,-1.7982247366094217,-2.6034438248516487,-1.2125161686066819,-2.26210112329415,968.75
776,-1.1998716775663163,-1.8733569721905212,-1.7982247445882291,-2.6034438224504486,-1.2125161812999816,-2.323231865681649,970.0
777,-1.1998716722294784,-1.8733569953171987,-1.7982247548233465,-2.6034438164234928,-1.2125161947707046,-2.39436260665751,971.25
778,-1.1998716728846848,-1.8733570186104613,-1.7982247777605505,-2.603443771263949,-1.2125161947522838,-2.4754933324410433,972.5
779,-1.1998716736096982,-1.8733570447660326,-1.798224803556367,-2.603443720405151,-1.2125161946365524,-2.5666240534842912,973.75
