Miguel-LA/TFM_MiguelLerinAlonso/workspace/ros_ur_driver/src/trayectories/data/saved_trajectories/20240523_1852_trajectory.csv
,shoulder_pan_joint,shoulder_lift_joint,elbow_joint,wrist_1_joint,wrist_2_joint,wrist_3_joint,time_from_start
0,5.086024761199951,-2.1519535223590296,-1.9194954077350062,0.9395579099655151,-5.070125166569845,-1.8126266638385218,0.0
1,5.086066375953158,-2.1518419896032293,-1.9196598942970131,0.9396108380079823,-5.070166581830547,-1.8076266638385217,0.25
2,5.086191220212779,-2.1515073913358296,-1.9201533539830338,0.9397696221353841,-5.070290827612653,-1.7926266638385218,0.5
3,5.086399293978813,-2.1509497275568292,-1.9209757867930684,0.9400342623477203,-5.070497903916162,-1.7676266638385216,0.75
4,5.086690597251261,-2.1501689982662286,-1.9221271927271166,0.9404047586449908,-5.070787810741075,-1.7326266638385222,1.0
5,5.087065130030123,-2.149165203464028,-1.9236075717851788,0.9408811110271958,-5.071160548087392,-1.6876266638385224,1.25
6,5.087524065156934,-2.1479381226552294,-1.925415605286152,0.9414619951425132,-5.071617250343001,-1.632626635135855,1.5
7,5.088071421744749,-2.1464870005363736,-1.9275467737556382,0.9421428723980974,-5.072161804844055,-1.567626493470685,1.75
8,5.088702986854852,-2.144812629347334,-1.9300058135827696,0.9429284997723955,-5.072790136778067,-1.4926263518055154,2.0
9,5.089423385725807,-2.1429140773404307,-1.9327877095871435,0.9438138035360293,-5.073506971712796,-1.4076261030786128,2.25
10,5.090229739881868,-2.1407919246689406,-1.9358955823351462,0.9448019410033316,-5.0743093687366745,-1.3126258278998768,2.5
11,5.091127833697919,-2.1384449323176886,-1.9393233240959507,0.9458865826088921,-5.075203386777758,-1.2076254052521922,2.75
12,5.092115068625279,-2.1358736152926214,-1.943073772757598,0.9470705820547025,-5.076186397365045,-1.092624907887194,3.0
13,5.093193523820155,-2.133077502321464,-1.9471447911754383,0.9483516690121715,-5.077260636860334,-0.9676243035080517,3.25
14,5.094367338400788,-2.1300555639815926,-1.951532316320863,0.9497253026063524,-5.078430728663702,-0.8326235232854344,3.5
15,5.095636406460073,-2.1268077196067736,-1.9562366641038769,0.9511915410654084,-5.079696721396259,-0.6876225940117211,3.75
16,5.097002616333752,-2.123333400821547,-1.961256161656219,0.9527482243397916,-5.081060834865692,-0.5326215017513891,4.0
17,5.098459759568806,-2.1196532827418086,-1.9665580430866685,0.9543832067475149,-5.08251727633329,-0.36857396430342254,4.25
18,5.09988176345334,-2.1160871343856567,-1.9716807684325668,0.9559533582015786,-5.083940229292151,-0.20974903321058094,4.5
19,5.10122432102514,-2.112742519799829,-1.9764718903223804,0.9574130303795991,-5.085285191791975,-0.06092395303483433,4.75
20,5.102485286556869,-2.1096199712052557,-1.9809335038990972,0.9587645603740035,-5.086549711972243,0.07790124569846155,5.0
21,5.103662457301798,-2.106720102384344,-1.9850676510754672,0.9600104310384787,-5.087731250531482,0.2067265363512535,5.25
22,5.104757151749909,-2.104042366865057,-1.988873377905411,0.9611489198926383,-5.088831290397776,0.32555193227613116,5.5
23,5.105764593580819,-2.1015882868601152,-1.9923548145081273,0.9621856617539393,-5.089844309412765,0.43437737954910116,5.75
24,5.106682708333015,-2.099358583680842,-1.9955136685390424,0.9631231829959975,-5.090767942978209,0.5332028628080514,6.0
25,5.10751438770207,-2.0973521609501358,-1.998347686249021,0.9639578483934773,-5.091605411822496,0.6220284088944864,6.25
26,5.10825288331381,-2.095571460053402,-2.0008622905207445,0.9646979948958733,-5.092349102420526,0.7008539596114328,6.5
27,5.108902611248233,-2.0940148167441426,-2.0030540232714307,0.965338089790943,-5.093003923850638,0.7696795537096646,6.75
28,5.1094583966543805,-2.0926841731068455,-2.0049269478697296,0.9658846073102376,-5.093564114776089,0.8285051522258304,7.0
29,5.109919836459422,-2.0915796786824323,-2.0064813831197346,0.9663380499579144,-5.094029224070956,0.8773307517368111,7.25
30,5.110289770936728,-2.0907002308346003,-2.0077151478733644,0.9666948269837299,-5.094402363857304,0.9161563763066343,7.5
31,5.1105644244027415,-2.0900472952084197,-2.0086311418847846,0.966959711855905,-5.094679397067007,0.9449820008764576,7.75
32,5.110743796857464,-2.0896208718038913,-2.0092293651539954,0.9671327045744397,-5.094860323700066,0.9638076254462803,8.0
33,5.1108359865845765,-2.0894017479304368,-2.009536745631254,0.9672215715599098,-5.094953313233689,0.9726514618388997,8.25
34,5.111503906993771,-2.087817227809219,-2.011757511197275,0.9678620310655913,-5.095627107559738,0.9724476009354973,8.5
35,5.1115066009290215,-2.0878112675366935,-2.0117655882456336,0.9678641354087514,-5.095629836391378,0.9633606957059673,8.75
36,5.111507054035206,-2.0878110967956833,-2.0117652469501377,0.9678635644355755,-5.095630317010521,0.9442816825198874,9.0
37,5.111507744630711,-2.0878108365631425,-2.0117647267693437,0.9678626941947331,-5.095631049539518,0.9152026693338084,9.25
38,5.111508674930351,-2.0878104890379783,-2.0117640255214244,0.9678615328447278,-5.095632052530627,0.8761236731681918,9.5
39,5.11150984489796,-2.0878100541840987,-2.0117631432420384,0.9678600802516693,-5.095633325679911,0.8270446880711108,9.75
40,5.111511253250206,-2.0878095307273523,-2.011762081195409,0.9678583316881347,-5.095634858237429,0.7679657029740302,10.0
41,5.111511489437042,-2.0878094733551698,-2.0117619061395278,0.9678580757176061,-5.0956351213854045,0.6988867339895943,10.25
42,5.11151148969612,-2.087809513899646,-2.0117619100250774,0.9678581252000187,-5.095635129860446,0.6198077678503344,10.5
43,5.111511489829528,-2.0878095600615523,-2.011761913989333,0.9678581830717499,-5.095635138079949,0.5307288074977679,10.75
44,5.111511483803141,-2.087809609032794,-2.011761920192341,0.9678582434423746,-5.095635137043226,0.4316498521613846,11.0
45,5.111511467478921,-2.087809659170571,-2.011761929880148,0.9678583034187935,-5.095635120024069,0.3225709043230043,11.25
46,5.111511449646751,-2.0878097138863296,-2.0117619404736056,0.9678583688214121,-5.095635101349374,0.2034919642452727,11.5
47,5.111511416213545,-2.087809764802516,-2.011761953867743,0.967858432724491,-5.095635067423688,0.07441303269285361,11.75
48,5.111511377943844,-2.0878098183253475,-2.0117619686045325,0.9678585004614205,-5.0956350286930645,-0.06466589462062859,12.0
49,5.111511325012552,-2.08780986362041,-2.011761985290322,0.9678585618017217,-5.095634975364211,-0.21374482085467433,12.25
50,5.111511264766121,-2.087809908136803,-2.0117620033764028,0.9678586236957181,-5.095634914723903,-0.3728237404323739,12.5
51,5.11151119161541,-2.0878099345317085,-2.0117620217829635,0.9678586676962456,-5.095634841308981,-0.5366595666421969,12.75
52,5.111511121024004,-2.0878099550653646,-2.0117620389111233,0.9678587045956538,-5.095634770500917,-0.6912566457949675,13.0
53,5.111511050473733,-2.087809956815524,-2.011762053617589,0.9678587203301023,-5.09563469987999,-0.83585372494774,13.25
54,5.111510984850688,-2.087809956341215,-2.011762067026856,0.9678587325977794,-5.0956346342075625,-0.9704508041005168,13.5
55,5.111510924460674,-2.0878099402797625,-2.0117620773593603,0.9678587262879016,-5.095634573893537,-1.0950478832532933,13.75
56,5.11151086891748,-2.087809925507385,-2.011762086862583,0.9678587204844422,-5.0956345184202325,-1.2096449624060719,14.0
57,5.111510821327711,-2.087809902478538,-2.011762093672464,0.96785870382968,-5.095634470970953,-1.314242041558848,14.25
58,5.111510779497903,-2.0878098779329965,-2.011762099105156,0.9678586843429093,-5.09563442929808,-1.4088391207116278,14.5
59,5.111510742089985,-2.0878098559822034,-2.011762103963545,0.9678586669161122,-5.095634392030509,-1.4934361998644066,14.75
60,5.111510712338397,-2.0878098321019674,-2.01176210700246,0.9678586458224596,-5.095634362440452,-1.5680332790171863,15.0
61,5.111510688833312,-2.087809808264292,-2.011762108764649,0.9678586235581632,-5.095634339101618,-1.6326303581699666,15.25
62,5.1115106689669485,-2.0878097881168265,-2.0117621102540393,0.9678586047405073,-5.095634319375771,-1.687227437322746,15.5
63,5.111510652739308,-2.0878097716595714,-2.011762111470631,0.9678585893694915,-5.095634303262908,-1.7318245164755233,15.75
64,5.11151064015039,-2.0878097588925257,-2.011762112414426,0.9678585774451176,-5.095634290763031,-1.7664215956283007,16.0
65,5.111510631200194,-2.0878097498156887,-2.011762113085425,0.9678585689673854,-5.095634281876141,-1.7910186747810772,16.25
66,5.111510625888721,-2.087809744429061,-2.0117621134836274,0.9678585639362951,-5.095634276602236,-1.8056157539338549,16.5
67,5.11051070345854,-2.089571650771516,-2.0083371384421835,0.9661947136847211,-5.094636234891045,-1.8121355163456025,16.75
68,5.108960678463402,-2.0923028743888765,-2.0030279131719535,0.9636154988731972,-5.093089125898256,-1.8092128528072884,17.0
69,5.108797541287445,-2.0925903402708332,-2.0024691140840196,0.9633440323912204,-5.092926297754255,-1.798290107767481,17.25
70,5.108797549225652,-2.092590345168693,-2.0024691157453884,0.9633440281559693,-5.092926309787217,-1.7778355205181786,17.5
71,5.108797561044751,-2.0925903524610576,-2.0024691182189804,0.9633440218501548,-5.092926327702945,-1.747380933268874,17.75
72,5.1087975767447436,-2.0925903621479263,-2.002469121504795,0.9633440134737774,-5.092926351501443,-1.7069263460195725,18.0
73,5.108797596136586,-2.0925903740777985,-2.0024691257578593,0.9633440024792911,-5.092926379593262,-1.6564717643567528,18.25
74,5.108797618725678,-2.092590387854292,-2.0024691313837764,0.9633439874341128,-5.0929264078198235,-1.5960172000501118,18.5
75,5.108797645127537,-2.0925904039435346,-2.0024691377613233,0.9633439704397002,-5.092926440654895,-1.5255626360517462,18.75
76,5.10879768028031,-2.0925904245435305,-2.00246913329668,0.9633439864409252,-5.092926474176448,-1.4451080882348752,19.0
77,5.108797719798577,-2.0925904477347688,-2.002469128250347,0.9633440045621091,-5.092926511832648,-1.3546535444175598,19.25
78,5.108797763676954,-2.092590473561181,-2.0024691225841376,0.9633440249903221,-5.092926553578009,-1.254199009334327,19.5
79,5.1087978162929915,-2.092590489404598,-2.002469113789505,0.9633440325992597,-5.092926605847296,-1.1437444845590217,19.75
80,5.1087978743115485,-2.0925905048515903,-2.002469103823982,0.9633440387317238,-5.09292666379045,-1.0232899672032145,20.0
81,5.1087979373486005,-2.0925905127895934,-2.0024690918682335,0.9633440353924685,-5.09292672682124,-0.8928354566217809,20.25
82,5.108798005451235,-2.0925905111173484,-2.0024690776448946,0.9633440201951016,-5.092926794996256,-0.7523809495060709,20.5
83,5.108798075947631,-2.0925904998686193,-2.0024690616950194,0.963343993739026,-5.092926865640548,-0.6019264454948144,20.75
84,5.108798147958399,-2.0925904756558764,-2.0024690437627553,0.9633439523795794,-5.09292693789992,-0.4414719480643088,21.0
85,5.10879821461495,-2.0925904367685253,-2.002469025040478,0.9633438955318476,-5.092927004915699,-0.27535250762267394,21.25
86,5.108798273810657,-2.092590393094777,-2.002469007235907,0.9633438347494203,-5.092927064502055,-0.11806623872420774,21.5
87,5.108798316069527,-2.0925903388519163,-2.002468991552879,0.9633437653688297,-5.092927107220545,0.029220030174250365,21.75
88,5.108798353607739,-2.092590286416137,-2.0024689770737214,0.9633436989472225,-5.092927145200353,0.16650629907269246,22.0
89,5.108798375033302,-2.09259022995628,-2.0024689653901175,0.9633436311411429,-5.092927167085872,0.29379256797111436,22.25
90,5.108798392432972,-2.0925901765586348,-2.0024689549292476,0.963343567572488,-5.09292718491821,0.41107883686952135,22.5
91,5.108798402051921,-2.092590126039629,-2.0024689464397807,0.9633435087684272,-5.092927194940906,0.5183651057679113,22.75
92,5.108798403146919,-2.092590078201671,-2.002468940049128,0.9633434546516116,-5.092927196411669,0.615651374666285,23.0
93,5.108798404129363,-2.092590035280954,-2.002468934315359,0.9633434060974304,-5.092927197731253,0.7029376435646262,23.25
94,5.108798401936658,-2.092589997352685,-2.0024689298781166,0.9633433637893225,-5.092927195833971,0.7802239124629666,23.5
95,5.108798393407912,-2.092589964494489,-2.0024689273975635,0.9633433284326608,-5.092927187555734,0.847510181361307,23.75
96,5.108798386146698,-2.0925899365196377,-2.0024689252856667,0.9633432983306613,-5.0929271805077985,0.904796450259654,24.0
97,5.108798380153014,-2.0925899134281307,-2.002468923542423,0.9633432734833225,-5.092927174690164,0.9520827191580057,24.25
98,5.108798375426863,-2.092589895219967,-2.0024689221678362,0.9633432538906465,-5.09292717010283,0.9893689880563568,24.5
99,5.108798371968242,-2.0925898818951456,-2.0024689211619076,0.9633432395526329,-5.092927166745798,1.0166552569547054,24.75
100,5.108798369777153,-2.092589873453668,-2.0024689205246364,0.9633432304692818,-5.092927164619066,1.033941525853057,25.0
101,5.108246008966352,-2.093578792962687,-2.0005449398998274,0.9624077551301127,-5.0923758811975555,1.042479069000221,25.25
102,5.106613987100115,-2.0965007023216313,-1.9948602787077205,0.9596437786547674,-5.0907470426077595,1.0422481750871022,25.5
103,5.106123320769088,-2.0973791777094046,-1.9931511862255118,0.9588127885657272,-5.0902573337841,1.0333587909782862,25.75
104,5.106123323125469,-2.0973791838735707,-1.9931511890145575,0.9588127874583293,-5.090257337095777,1.0156168788186841,26.0
105,5.106123326809993,-2.0973791935120896,-1.9931511933756125,0.958812785726761,-5.090257342274039,0.9878749666590833,26.25
106,5.10612333182266,-2.0973792066249617,-1.9931511993086777,0.9588127833710222,-5.090257349318884,0.9501330544994783,26.5
107,5.106123338163472,-2.097379223212186,-1.993151206813752,0.9588127803911127,-5.090257358230314,0.9023911423398764,26.75
108,5.106123346677039,-2.0973792435938448,-1.9931512155117326,0.958812777735097,-5.090257376150351,0.8446492462907109,27.0
109,5.106123356693128,-2.0973792675159415,-1.9931512257034547,0.9588127746506451,-5.090257397411495,0.7769073507221463,27.25
110,5.106123358979433,-2.0973793029881582,-1.9931512323093,0.9588128065509387,-5.090257403713139,0.6991654675029818,27.5
111,5.106123358219102,-2.097379345935771,-1.9931512379150085,0.9588128554265597,-5.090257404255965,0.6114235890030909,27.75
112,5.106123357358625,-2.0973793938747396,-1.9931512440753476,0.9588129102850298,-5.090257404746088,0.5136817226524781,28.0
113,5.106123347195458,-2.0973794441649467,-1.9931512525697328,0.9588129692745564,-5.090257394892371,0.4059398634300395,28.25
114,5.106123329833002,-2.097379497388791,-1.9931512630097874,0.9588130327309743,-5.090257377061773,0.28819801215215823,28.5
115,5.106123307721126,-2.0973795532093353,-1.993151274768385,0.9588131000331545,-5.090257354452202,0.160456168552525,28.75
116,5.106123270292337,-2.0973796054208194,-1.9931512892342824,0.95881316621715,-5.090257316576863,0.02271433006936152,29.0
117,5.106123227463654,-2.097379658707696,-1.99315130495234,0.9588132346709033,-5.090257273289309,-0.1250275070699775,29.25
118,5.106123168465241,-2.0973797021703473,-1.9931513227326811,0.9588132952198635,-5.09025721389879,-0.2827693373079908,29.5
119,5.10612310163563,-2.097379739844256,-1.99315134137876,0.9588133507778793,-5.090257146716315,-0.44901295727520607,29.75
120,5.1061230302740634,-2.0973797637935125,-1.9931513591844814,0.9588133917532516,-5.090257075106509,-0.609013449819231,30.0
121,5.1061229601809055,-2.0973797739644584,-1.993151374947336,0.9588134169491551,-5.090257004875017,-0.7590139423632491,30.25
122,5.106122892719591,-2.0973797756035624,-1.9931513890646082,0.95881343201234,-5.090256937344952,-0.899014434907256,30.5
123,5.106122830310497,-2.0973797669267347,-1.9931514008067386,0.958813434457628,-5.09025687495279,-1.0290149274512552,30.75
124,5.106122772868271,-2.097379751660846,-1.9931514106731718,0.9588134285026864,-5.090256817583663,-1.1490154199952485,31.0
125,5.1061227209604105,-2.0973797353758465,-1.9931514192670756,0.9588134203148178,-5.090256765761533,-1.2590159125392384,31.25
126,5.106122677288056,-2.0973797097925186,-1.9931514249612619,0.9588134000325057,-5.090256722255184,-1.3590164050832243,31.5
127,5.106122637982912,-2.097379686767513,-1.9931514300860267,0.9588133817784122,-5.0902566830994465,-1.4490168976272049,31.75
128,5.106122603216385,-2.097379666061727,-1.9931514345751313,0.9588133652494458,-5.090256648467755,-1.5290173901711839,32.0
129,5.10612257805969,-2.097379640600956,-1.9931514364686533,0.9588133414780862,-5.0902566234914115,-1.5990178827151613,32.25
130,5.106122556496785,-2.097379618777412,-1.9931514380916737,0.9588133211026114,-5.090256602083093,-1.6590183752591414,32.5
131,5.106122538527665,-2.097379600591097,-1.99315143944419,0.9588133041230193,-5.0902565842427965,-1.7090188678031295,32.75
132,5.106122524152335,-2.0973795860420097,-1.9931514405262052,0.9588132905393121,-5.090256569970525,-1.7490193603471171,33.0
133,5.106122513370793,-2.097379575130149,-1.9931514413377198,0.9588132803514897,-5.090256559266277,-1.7790198528911039,33.25
134,5.1061225061830395,-2.0973795678555156,-1.9931514418787342,0.9588132735595525,-5.090256552130053,-1.7990203454350915,33.5
135,5.105917958672746,-2.097751643815039,-1.9924269539549981,0.958460714574644,-5.090052418211761,-1.809606996695352,33.75
136,5.104381157349845,-2.100547194120556,-1.9869836489652015,0.955811855336538,-5.088518724200637,-1.8121062771476162,34.0
137,5.103484604411652,-2.102178095207336,-1.983808074256869,0.9542665338680089,-5.087623985381369,-1.8052769816776968,34.25
138,5.10348461016762,-2.1021780987562066,-1.9838080754684233,0.9542665308163489,-5.087623994170604,-1.7902711604145654,34.5
139,5.10348461975941,-2.1021781046700725,-1.9838080774873674,0.9542665257310379,-5.0876240088170555,-1.7652653391514348,34.75
140,5.1034846331870245,-2.102178112948935,-1.9838080803137013,0.9542665186120765,-5.0876240293207236,-1.7302595178883025,35.0
141,5.103484650450461,-2.102178123592793,-1.9838080839474248,0.954266509459464,-5.087624055681609,-1.6852536966251679,35.25
142,5.103484670994286,-2.102178136144838,-1.983808088858741,0.9542664966129335,-5.087624083178785,-1.630247891634974,35.5
143,5.103484695012673,-2.1021781507647668,-1.9838080948832728,0.9542664806528941,-5.087624113462635,-1.5652420936494957,35.75
144,5.1034847249985615,-2.102178168641901,-1.9838080964297848,0.9542664783848843,-5.087624146415274,-1.490236303453135,36.0
145,5.103484761685157,-2.102178190101499,-1.9838080917546081,0.9542664950182389,-5.087624181394744,-1.4052305218968906,36.25
146,5.1034848026779365,-2.102178214161815,-1.9838080864624517,0.9542665139336458,-5.087624220407211,-1.3102247501815456,36.5
147,5.103484849576947,-2.10217823620795,-1.983808079650814,0.9542665295337276,-5.087624265827092,-1.2052189853398207,36.75
148,5.103484904287583,-2.1021782507643527,-1.983808070215903,0.9542665352708541,-5.087624320455856,-1.0902132289803679,37.0
149,5.1034849637577056,-2.102178266587228,-1.9838080599596637,0.9542665415089423,-5.087624379854141,-0.9652074817162752,37.25
150,5.103485028381344,-2.1021782663552164,-1.9838080465781909,0.9542665285654998,-5.087624444537195,-0.8302017404032155,37.5
151,5.103485097824181,-2.1021782646861773,-1.983808032016783,0.9542665130494659,-5.087624514055083,-0.6851959997844614,37.75
152,5.103485167071721,-2.1021782437476397,-1.983808014996222,0.9542664758430031,-5.087624583527708,-0.5301902651832908,38.0
153,5.103485238786101,-2.1021782168779115,-1.9838079966967235,0.9542664314640266,-5.08762465551607,-0.3653136743690295,38.25
154,5.103485299275208,-2.1021781723837183,-1.9838079784300027,0.9542663694149514,-5.08762471641019,-0.20258072130197585,38.5
155,5.103485351067063,-2.102178125588308,-1.983807961661412,0.9542663064784354,-5.087624768618111,-0.049847768234933,38.75
156,5.103485389611534,-2.1021780718910836,-1.9838079467341616,0.9542662383599865,-5.087624807622545,0.09288518483210392,39.0
157,5.103485420655595,-2.102178019146397,-1.983807933479846,0.9542661727881896,-5.087624839112707,0.2256181378991305,39.25
158,5.103485438636798,-2.1021779640983906,-1.9838079226252199,0.9542661071836819,-5.087624857547433,0.34835109096614897,39.5
159,5.103485455152932,-2.102177913535575,-1.983807912654996,0.9542660469244768,-5.08762487448014,0.46108404403316017,39.75
160,5.1034854578205575,-2.1021778641679867,-1.9838079057005484,0.9542659907319078,-5.087624877543232,0.563816997100168,40.0
161,5.103485458849729,-2.102177819239521,-1.9838078996603512,0.9542659398667392,-5.087624878931139,0.6565499501671379,40.25
162,5.103485459767918,-2.102177779155987,-1.983807894271504,0.9542658944866924,-5.087624880169379,0.7392829032341239,40.5
163,5.103485453207517,-2.102177744094478,-1.9838078910789407,0.9542658562379372,-5.08762487388277,0.8120158563011257,40.75
164,5.103485445352762,-2.1021777139063436,-1.983807888785875,0.9542658237387099,-5.087624866261907,0.8747488093681322,41.0
165,5.103485438750102,-2.1021776885303756,-1.9838078868583353,0.9542657964200484,-5.087624859855853,0.9274817624351488,41.25
166,5.103485433399534,-2.102177667966573,-1.9838078852963221,0.9542657742819534,-5.087624854664611,0.9702147155021734,41.5
167,5.1034854293010605,-2.102177652214936,-1.9838078840998383,0.954265757324426,-5.087624850688178,1.0029476685691991,41.75
168,5.103485426454682,-2.1021776412754636,-1.983807883268883,0.9542657455474659,-5.087624847926555,1.0256806216362204,42.0
169,5.103469906038774,-2.102206316682853,-1.9837519910487795,0.9542385180574289,-5.087609360072756,1.0384657277618543,42.25
170,5.102228189435117,-2.1045012285455247,-1.9792798915777812,0.9520604764107666,-5.0863702450848916,1.0435443773440631,42.5
171,5.1009180401627665,-2.106922622637081,-1.9745613249965497,0.9497624002062077,-5.085062841056192,1.038875438728374,42.75
172,5.1008840219432265,-2.1069855016654335,-1.9744388028266184,0.9497027267338065,-5.085028894822025,1.026511356195798,43.0
173,5.10088402487275,-2.106985509287277,-1.9744388063056193,0.9497027253585144,-5.085028899026194,1.0042606949509567,43.25
174,5.100884029118873,-2.1069855203345673,-1.9744388113481695,0.9497027233651318,-5.085028905119822,0.9720100337061113,43.5
175,5.100884034681597,-2.1069855348073028,-1.974438817954269,0.949702720753659,-5.08502891310291,0.9297593724612689,43.75
176,5.100884041902703,-2.1069855528408468,-1.9744388259640666,0.9497027179325978,-5.085028925897073,0.8775087183881068,44.0
177,5.100884051014871,-2.10698557452735,-1.9744388352687405,0.9497027151800453,-5.085028945491274,0.8152580741268924,44.25
178,5.100884059278757,-2.106985601696392,-1.974438844783244,0.9497027208422357,-5.085028963627753,0.743007433134345,44.5
179,5.100884058574705,-2.106985641367469,-1.9744388499952548,0.9497027660233768,-5.085028964133182,0.6607568053507944,44.75
180,5.100884057778291,-2.1069856859090765,-1.9744388557991894,0.9497028169001918,-5.0850289646419515,0.5685061838612306,45.0
181,5.100884056056473,-2.1069857350997876,-1.9744388623416502,0.9497028733778379,-5.085028964204558,0.4662555695200371,45.25
182,5.1008840397092765,-2.106985785093641,-1.9744388722122954,0.9497029330505076,-5.0850289474155055,0.3540049662013605,45.5
183,5.100884021903993,-2.1069858395396737,-1.9744388829639021,0.9497029980333203,-5.085028929115589,0.23175437065041005,45.75
184,5.10088399193595,-2.1069858921614983,-1.974438896009286,0.9497030633125884,-5.085028898680833,0.09950378127203979,46.0
185,5.100883953757942,-2.1069859452768798,-1.9744389108261595,0.9497031307416626,-5.08502886004103,-0.042746805739635255,46.25
186,5.100883903183647,-2.106985992315461,-1.9744389274184788,0.9497031937556817,-5.085028809045154,-0.19499738849323642,46.5
187,5.100883843244578,-2.1069860363394985,-1.974438945557142,0.9497032552124514,-5.085028748701953,-0.35724796487502614,46.75
188,5.100883772392024,-2.1069860640523794,-1.974438963832695,0.9497033004164633,-5.085028677566941,-0.5224753736420615,47.0
189,5.1008837036137935,-2.106986085880702,-1.9744389809129954,0.9497033385740604,-5.085028608555244,-0.6779650821259263,47.25
190,5.100883634367047,-2.1069860875263244,-1.9744389954638928,0.9497033540561507,-5.085028539236699,-0.8234547906098649,47.5
191,5.100883569890135,-2.106986088610592,-1.9744390089541888,0.9497033679664161,-5.085028474696532,-0.958944499093911,47.75
192,5.100883510556232,-2.106986072851202,-1.9744390191877959,0.9497033618637054,-5.085028415438982,-1.0844342075779634,48.0
193,5.100883455950514,-2.1069860583476467,-1.974439028605901,0.9497033562473032,-5.085028360903535,-1.1999239160620179,48.25
194,5.100883408731264,-2.106986036971649,-1.974439035600402,0.9497033414248031,-5.0850283138159895,-1.3054136245460832,48.5
195,5.100883367539267,-2.106986012879298,-1.9744390409935457,0.9497033223520562,-5.08502827278261,-1.4009033330301532,48.75
196,5.1008833306610315,-2.1069859913099807,-1.9744390458218963,0.9497033052766682,-5.085028236046382,-1.48639304151423,49.0
197,5.10088330077119,-2.1069859685425505,-1.9744390490474708,0.9497032854746094,-5.08502820631408,-1.5618827499983121,49.25
198,5.100883277523263,-2.1069859450590576,-1.974439050804735,0.9497032635578474,-5.08502818323506,-1.6273724584823825,49.5
199,5.100883257825194,-2.106985925161395,-1.9744390522936708,0.949703244987681,-5.085028163680108,-1.6828621669664516,49.75
200,5.100883241676985,-2.1069859088495626,-1.9744390535142777,0.9497032297641096,-5.085028147649224,-1.7283518754505067,50.0
201,5.100883229078635,-2.1069858961235597,-1.9744390544665587,0.9497032178871349,-5.085028135142407,-1.7638415839345694,50.25
202,5.100883220030145,-2.1069858869833857,-1.9744390551505135,0.949703209356757,-5.085028126159658,-1.7893312924186329,50.5
203,5.100883214531516,-2.1069858814290408,-1.9744390555661424,0.949703204172976,-5.085028120700979,-1.8048210009026977,50.75
204,5.10008537820952,-2.1084839712339947,-1.9715174121160246,0.9482791260768695,-5.084232015960802,-1.812033981018741,51.0
205,5.0985679898478775,-2.111333173082627,-1.9659607782131454,0.9455706953547892,-5.082717921337594,-1.8100478238091982,51.25
206,5.098317463450094,-2.111803596111812,-1.9650433446262638,0.9451235148859363,-5.0824679407529585,-1.7998618009673282,51.5
207,5.0983174708336465,-2.111803600661247,-1.965043346189184,0.9451235109971794,-5.082467952110742,-1.780389098837182,51.75
208,5.0983174820089445,-2.111803607546997,-1.9650433485547254,0.9451235051113929,-5.082467969301195,-1.7509163967070407,52.0
209,5.098317496975989,-2.111803616769061,-1.9650433517228882,0.9451234972285765,-5.082467992324317,-1.7114436945768974,52.25
210,5.098317515628223,-2.1118036282374906,-1.965043355786814,0.9451234870200874,-5.082468020264685,-1.6619709958451794,52.5
211,5.098317537359394,-2.1118036414405097,-1.9650433612764542,0.9451234726160511,-5.082468047913812,-1.6024983169772238,52.75
212,5.09831756274454,-2.1118036568635428,-1.9650433676891461,0.9451234557900562,-5.082468080211987,-1.5330256381092657,53.0
213,5.098317596254465,-2.1118036764842807,-1.9650433642543534,0.94512346843153,-5.082468112871883,-1.45355297430616,53.25
214,5.098317634398294,-2.1118036987800135,-1.9650433593574936,0.9451234857463802,-5.0824681492159085,-1.3640803145725702,53.5
215,5.098317676795184,-2.1118037236460827,-1.9650433538436392,0.9451235053318261,-5.082468189534465,-1.264607664904623,53.75
216,5.09831772722022,-2.1118037402394556,-1.9650433455390397,0.9451235141330072,-5.082468239410072,-1.1551350243952174,54.0
217,5.09831778336409,-2.1118037551697357,-1.9650433358152815,0.9451235199755168,-5.082468295476412,-1.0356623915145269,54.25
218,5.098317844362697,-2.1118037646119348,-1.965043324374676,0.9451235186457756,-5.082468356454416,-0.9061897657784255,54.5
219,5.098317910340937,-2.1118037630621336,-1.9650433104806657,0.9451235038840424,-5.082468422505147,-0.7667171441690777,54.75
220,5.098317979188426,-2.1118037542649093,-1.9650432950450853,0.9451234803771928,-5.0824684914851765,-0.6172445250749496,55.0
221,5.098318049012489,-2.1118037309639255,-1.965043277513118,0.9451234403100829,-5.082468561557578,-0.4577719126486155,55.25
222,5.098318115261982,-2.1118036951985766,-1.965043259095535,0.9451233868816591,-5.082468628153251,-0.2914401351606266,55.5
223,5.098318173370782,-2.111803652581921,-1.9650432414727463,0.9451233273269612,-5.082468686656744,-0.13317615072159433,55.75
224,5.098318216360164,-2.1118036011050667,-1.965043225830705,0.9451232607552454,-5.08246873009961,0.015087833717465794,56.0
225,5.098318253240473,-2.111803549861144,-1.965043211486814,0.9451231956512682,-5.082468767426287,0.15335181815653212,56.25
226,5.0983182758697305,-2.111803495553497,-1.9650431997002733,0.9451231299004915,-5.0824687905145245,0.2816158025956126,56.5
227,5.098318292982922,-2.111803443287207,-1.9650431893249385,0.9451230675413562,-5.082468808065452,0.3998797870346948,56.75
228,5.098318303854013,-2.1118033941670937,-1.965043180655727,0.945123009963879,-5.082468819343471,0.5081437714737813,57.0
229,5.098318304929534,-2.1118033472495643,-1.9650431743068555,0.9451229568040351,-5.0824688207997095,0.6064077559128842,57.25
230,5.098318305895605,-2.1118033051066796,-1.9650431686040815,0.9451229090540894,-5.082468822107751,0.6946717403519875,57.5
231,5.098318304727061,-2.1118032677860152,-1.9650431639738821,0.9451228671671558,-5.082468821240319,0.7729357247910953,57.75
232,5.0983182962828355,-2.1118032354083507,-1.965043161498897,0.9451228322935015,-5.082468813050964,0.8411997092302017,58.0
233,5.098318289075604,-2.1118032077736952,-1.9650431593864732,0.9451228025284933,-5.082468806061269,0.8994636936693019,58.25
234,5.098318283105371,-2.1118031848820498,-1.9650431576366065,0.9451227778721296,-5.082468800271233,0.9477276781083971,58.5
235,5.0983182783721315,-2.111803166733412,-1.9650431562493011,0.9451227583244124,-5.082468795680858,0.9859916625474887,58.75
236,5.098318274875889,-2.1118031533277817,-1.9650431552245573,0.9451227438853418,-5.0824687922901415,1.014255646986581,59.0
237,5.098318272616641,-2.1118031446651595,-1.9650431545623754,0.9451227345549177,-5.0824687900990835,1.0325196314256786,59.25
238,5.0979297288296745,-2.1125443361395493,-1.9635965220499074,0.9444170497928631,-5.082081119568332,1.04180182677657,59.5
239,5.096396017337845,-2.1154700906404376,-1.9578861674860712,0.9416314871923571,-5.080550855041694,1.0425916207654216,59.75
240,5.095787554213581,-2.1166308183504223,-1.9556207188929002,0.9405263801481637,-5.079943759888392,1.03448615150572,60.0
241,5.095787556390315,-2.116630823983299,-1.9556207214869628,0.9405263791281238,-5.079943763077682,1.0178097356970643,60.25
242,5.095787559872324,-2.1166308329939265,-1.9556207256365534,0.9405263774964177,-5.079943768179426,0.991133319888412,60.5
243,5.095787564659609,-2.1166308453823035,-1.9556207313416711,0.9405263752530455,-5.079943775193624,0.9544569040797624,60.75
244,5.095787570752172,-2.1166308611484315,-1.9556207386023168,0.940526372398007,-5.079943784120277,0.9077804882711085,61.0
245,5.095787578863813,-2.116630880587566,-1.9556207470705944,0.9405263698377614,-5.079943801126978,0.8511040863287256,61.25
246,5.095787588527344,-2.1166309035064605,-1.9556207569742061,0.9405263669790214,-5.079943822176973,0.7844276865489792,61.5
247,5.095787591953835,-2.116630936460486,-1.9556207640689864,0.9405263929984293,-5.0799438308677685,0.7077512972953043,61.75
248,5.0957875912203,-2.1166309776667815,-1.9556207695153047,0.9405264399766604,-5.07994383139217,0.6210749139312126,62.0
249,5.095787590388915,-2.116631023717648,-1.9556207755092458,0.9405264927629914,-5.07994383186214,0.5243985425565947,62.25
250,5.09578758209494,-2.116631072492764,-1.9556207834970043,0.9405265498477775,-5.07994382405119,0.41772217787667265,62.5
251,5.095787565310729,-2.116631123700517,-1.955620793676717,0.9405266110376748,-5.07994380680279,0.30104582135718266,62.75
252,5.095787545596118,-2.116631178423089,-1.9556208049281754,0.9405266767698578,-5.079943786581381,0.17436947290939533,63.0
253,5.095787509361117,-2.1166312287041276,-1.9556208190528042,0.9405267406985693,-5.079943749901721,0.03769313028648323,63.25
254,5.095787469472582,-2.1166312816531425,-1.9556208342870767,0.9405268083611733,-5.079943709543943,-0.10898321161434024,63.5
255,5.095787412296688,-2.1166313235239036,-1.9556208516655298,0.9405268669359877,-5.079943651976997,-0.2656595465168303,63.75
256,5.095787348456659,-2.116631362107783,-1.9556208699996054,0.9405269231174838,-5.079943587766968,-0.43154783295936,64.0
257,5.095787278365247,-2.116631385453684,-1.9556208876378438,0.9405269633315316,-5.079943517424413,-0.5926097397333723,64.25
258,5.0957872100523005,-2.11663139749417,-1.9556209034251197,0.9405269904303666,-5.079943448954109,-0.7436716465074007,64.5
259,5.095787143727822,-2.116631399033553,-1.9556209174231165,0.9405270052805266,-5.079943382559682,-0.8847335532814511,64.75
260,5.0957870822909825,-2.116631392361102,-1.955620929328665,0.940527009893397,-5.079943321124128,-1.0157954600554921,65.0
261,5.095787025744726,-2.1166313773484147,-1.955620939124334,0.9405270041234317,-5.079943264651444,-1.1368573668295547,65.25
262,5.095786974138631,-2.1166313627542714,-1.9556209479472098,0.9405269978493297,-5.0799432131197815,-1.2479192736036249,65.5
263,5.095786931071068,-2.116631337601674,-1.955620953610806,0.9405269779668803,-5.079943170220195,-1.3489811803776968,65.75
264,5.095786892265005,-2.1166313149379095,-1.9556209587139888,0.9405269600517823,-5.079943131565489,-1.4400430871517749,66.0
265,5.095786857720447,-2.116631294762976,-1.9556209632567614,0.940526944104037,-5.079943097155666,-1.5211049939258483,66.25
266,5.095786832359353,-2.116631270246896,-1.9556209653205685,0.9405269214396652,-5.079943071972675,-1.592166900699938,66.5
267,5.095786810945501,-2.116631248655733,-1.9556209669464655,0.9405269012971103,-5.079943050716475,-1.6532288074740196,66.75
268,5.095786793038558,-2.116631230600517,-1.9556209683060897,0.9405268844532639,-5.079943032941364,-1.704290714248089,67.0
269,5.095786778638523,-2.1166312160812475,-1.955620969399443,0.9405268709081276,-5.079943018647343,-1.7453526210221542,67.25
270,5.095786767745395,-2.116631205097925,-1.9556209702265273,0.9405268606617022,-5.079943007834412,-1.7764145277962242,67.5
271,5.095786760359177,-2.116631197650548,-1.9556209707873418,0.9405268537139879,-5.079943000502572,-1.797476434570295,67.75
272,5.0956866962771,-2.1168251090071717,-1.9552422075458848,0.940341942004247,-5.079843169240129,-1.808867100963992,68.0
273,5.094312379069468,-2.119488517403722,-1.950039925765003,0.9378022473230511,-5.078472049414708,-1.812461116685419,68.25
274,5.093290272539327,-2.1214693547170804,-1.946170875620135,0.9359134206750335,-5.077452322063658,-1.806464943347303,68.5
275,5.093290277734157,-2.1214693579159802,-1.946170876725961,0.9359134179575642,-5.077452330113988,-1.7926070512461607,68.75
276,5.0932902866776315,-2.1214693634232393,-1.946170878629762,0.9359134132791407,-5.07745234397352,-1.7687491591450228,69.0
277,5.09329029936975,-2.1214693712388586,-1.9461708813315384,0.9359134066397629,-5.077452363642254,-1.7348912670438794,69.25
278,5.093290315810513,-2.121469381362837,-1.9461708848312904,0.9359133980394307,-5.077452389120191,-1.691033374942748,69.5
279,5.093290335561052,-2.1214693934148476,-1.9461708895252525,0.9359133860816946,-5.077452416596629,-1.6371754962276728,69.75
280,5.093290358639452,-2.1214694074105624,-1.9461708953970986,0.9359133708240936,-5.077452446228589,-1.5733176270162375,70.0
281,5.093290386978195,-2.1214694243247836,-1.9461708981701655,0.9359133649662188,-5.077452478781098,-1.4994597636596236,70.25
282,5.093290422301917,-2.121469444918896,-1.9461708936349882,0.9359133808579584,-5.0774525124525915,-1.4156019107172302,70.5
283,5.093290461829719,-2.121469468031246,-1.946170888502941,0.9359133989120862,-5.077452550067216,-1.321744066223041,70.75
284,5.093290506577958,-2.1214694907476415,-1.94617088218715,0.935913415612291,-5.077452593132564,-1.2178862287602144,71.0
285,5.0932905594365625,-2.1214695047994026,-1.9461708729912328,0.9359134210687328,-5.077452645908116,-1.1040284004258902,71.25
286,5.093290616939905,-2.121469520086134,-1.9461708629866445,0.9359134270067896,-5.07745270333829,-0.9801705814836852,71.5
287,5.093290679422479,-2.1214695219243236,-1.9461708501946369,0.9359134167135973,-5.077452765863738,-0.84631276823528,71.75
288,5.0932907466534605,-2.1214695203830884,-1.946170835972989,0.9359134016484785,-5.077452833169811,-0.7024549564495279,72.0
289,5.09329081432801,-2.1214695025541492,-1.9461708195178602,0.9359133680995272,-5.07745290105102,-0.5485971499498743,72.25
290,5.093290885205051,-2.1214694789913198,-1.946170801641209,0.9359133274398496,-5.077452972183849,-0.3847393496178981,72.5
291,5.093290944658029,-2.1214694355449235,-1.946170783533084,0.935913266586997,-5.077453032046188,-0.2208626643630351,72.75
292,5.093290997298448,-2.121469391533694,-1.946170766771275,0.9359132064463266,-5.077453085094656,-0.06698597015851253,73.0
293,5.093291035210658,-2.121469338991869,-1.9461707519593205,0.935913139589725,-5.077453123472187,0.07689072404601921,73.25
294,5.093291067576983,-2.1214692884030906,-1.9461707385605198,0.9359130760380758,-5.0774531562829175,0.21076741825055129,73.5
295,5.093291085284005,-2.121469234448572,-1.9461707277761053,0.9359130115902553,-5.077453174449204,0.33464411245509473,73.75
296,5.093291101561621,-2.12146918484956,-1.946170717862259,0.9359129523450095,-5.077453191149009,0.44852080665965405,74.0
297,5.093291105815346,-2.1214691367937304,-1.946170710658515,0.9359128972256472,-5.0774531958017075,0.5523975008642206,74.25
298,5.093291106828866,-2.1214690926127258,-1.9461707046397556,0.9359128471248352,-5.077453197179498,0.6462741950687863,74.5
299,5.093291107734424,-2.121469053138004,-1.9461706992621262,0.9359128023608958,-5.07745319841052,0.7301508892733556,74.75
300,5.093291102386056,-2.121469018510472,-1.9461706958257277,0.9359127643110133,-5.077453193342279,0.8040275834779302,75.0
301,5.09329109457887,-2.1214689886431186,-1.946170693527757,0.9359127321247833,-5.077453185773916,0.867904277682509,75.25
302,5.093291087993911,-2.121468963451549,-1.9461706915895352,0.935912704977359,-5.077453179390391,0.9217809718870776,75.5
303,5.09329108263118,-2.1214689429357625,-1.946170690011063,0.9359126828687403,-5.077453174191707,0.9656576660916334,75.75
304,5.093291078490676,-2.1214689270957585,-1.9461706887923422,0.9359126657989285,-5.077453170177861,0.9995343602961935,76.0
305,5.093291075572401,-2.121468915931536,-1.9461706879333738,0.9359126537679234,-5.077453167348855,1.0234110545007549,76.25
306,5.093291073876353,-2.121468909443096,-1.946170687434157,0.9359126467757253,-5.07745316570469,1.037287748705317,76.5
307,5.092287235867654,-2.1234452348929667,-1.9423075604090259,0.9340252747750685,-5.076451744552371,1.0433045962575243,76.75
308,5.090929651985233,-2.126118012205965,-1.937083088224961,0.9314728064648253,-5.075097429418012,1.039739919952804,77.0
309,5.090828242479232,-2.1263176712374006,-1.9366928240792871,0.93128213749477,-5.0749962647972,1.0283792278105226,77.25
310,5.090828245199801,-2.126317678240041,-1.9366928273334447,0.9312821362225883,-5.0749962688661485,1.0073575049691563,77.5
311,5.090828249214539,-2.1263176885738253,-1.9366928321356003,0.9312821343452318,-5.0749962748706885,0.9763357821277859,77.75
312,5.090828254523446,-2.1263177022387545,-1.9366928384857536,0.9312821318627005,-5.0749962828108215,0.9353140592864256,78.0
313,5.090828261356275,-2.1263177193340264,-1.936692846267205,0.9312821290843721,-5.074996294692948,0.8842923404951413,78.25
314,5.090828270113871,-2.1263177400327105,-1.9366928552763525,0.9312821265500135,-5.074996314017607,0.8232706311667521,78.5
315,5.0908282794653354,-2.1263177648405804,-1.936692865289356,0.931282126793179,-5.074996334787978,0.7522489230807825,78.75
316,5.090828278787319,-2.126317802813607,-1.9366928703394062,0.9312821701313023,-5.074996335270528,0.6712272300931699,79.0
317,5.090828278020519,-2.126317845507579,-1.9366928759819475,0.9312822189651357,-5.074996335767796,0.5802055418783578,79.25
318,5.090828277160324,-2.1263178929534017,-1.9366928821891203,0.9312822734274048,-5.07499633623923,0.4791838617458901,79.5
319,5.090828262318103,-2.1263179412383524,-1.9366928916266049,0.9312823310342885,-5.074996321077864,0.36816219258643623,79.75
320,5.090828245118811,-2.1263179935883167,-1.9366929021073032,0.9312823936602684,-5.074996303388973,0.24714053076238057,80.0
321,5.090828218055767,-2.126318045327311,-1.9366929145797485,0.9312824575252157,-5.074996275848704,0.11611887556613561,80.25
322,5.090828181119665,-2.1263180964500443,-1.9366929290446846,0.9312825226264825,-5.074996238453197,-0.024902776449513823,80.5
323,5.090828133979352,-2.1263181435634824,-1.9366929451137727,0.931282585225554,-5.0749961908792045,-0.1759244249684446,80.75
324,5.0908280759250495,-2.1263181859533424,-1.936692962841052,0.9312826446567355,-5.074996132422211,-0.3369460669997276,81.0
325,5.09082800790304,-2.1263182153699693,-1.9366929809408777,0.9312826914097897,-5.074996064096175,-0.5028503749007034,81.25
326,5.09082794052352,-2.1263182377274075,-1.9366929979752772,0.9312827300589462,-5.074995996471687,-0.6595649089785828,81.5
327,5.090827872738144,-2.1263182406768757,-1.93669301253464,0.9312827468594382,-5.074995928601869,-0.8062794430564112,81.75
328,5.090827809229891,-2.1263182421141935,-1.9366930260004218,0.9312827611015293,-5.074995865025497,-0.9429939771341772,82.0
329,5.090827750714643,-2.126318228297926,-1.9366930364105093,0.9312827571163843,-5.074995806573001,-1.0697085112118663,82.25
330,5.090827696853315,-2.12631821400172,-1.936693045784399,0.9312827516642861,-5.074995752782519,-1.1864230452894855,82.5
331,5.090827649698513,-2.1263181945640937,-1.9366930530781636,0.9312827390703591,-5.074995705747122,-1.2931375793670548,82.75
332,5.090827608977819,-2.126318170814171,-1.9366930584581143,0.9312827203255665,-5.074995665187276,-1.3898521134445658,83.0
333,5.090827572467525,-2.1263181495199244,-1.9366930632817871,0.9312827035189273,-5.074995628821199,-1.4765666475220294,83.25
334,5.0908275421259805,-2.1263181279707912,-1.9366930667822855,0.9312826851986615,-5.0749955986314434,-1.5532811815994465,83.5
335,5.090827519010021,-2.1263181047040076,-1.9366930685457464,0.9312826635019997,-5.074995575687905,-1.6199957156768474,83.75
336,5.090827499358966,-2.1263180849247374,-1.936693070044877,0.9312826450575017,-5.074995556183428,-1.6767102497542294,84.0
337,5.090827483172817,-2.1263180686329815,-1.9366930712796755,0.931282629865166,-5.074995540118011,-1.7234247838315961,84.25
338,5.0908274704515755,-2.1263180558287393,-1.9366930722501456,0.9312826179249949,-5.074995527491657,-1.7601393179089564,84.5
339,5.090827461195239,-2.12631804651201,-1.9366930729562872,0.9312826092369885,-5.074995518304363,-1.7868538519863246,84.75
340,5.09082745540381,-2.1263180406827944,-1.9366930733980998,0.9312826038011467,-5.074995512556132,-1.8035683860637006,85.0
341,5.090251476307393,-2.127469991242541,-1.9344396989275143,0.9301808692792837,-5.074420968096475,-1.8117148914226553,85.25
342,5.088780644523331,-2.1304116576208334,-1.9286854069139443,0.9273674496910239,-5.072953800139781,-1.8109948365202384,85.5
343,5.088397513985032,-2.131177928199228,-1.9271864841765252,0.9266345863208718,-5.072571625812842,-1.801778312798243,85.75
344,5.088397520717448,-2.131177932342469,-1.9271864856178276,0.9266345828231813,-5.07257163632402,-1.783614515546951,86.0
345,5.088397531156367,-2.131177938766754,-1.9271864878526337,0.9266345773998526,-5.0725716526220825,-1.7554507182956671,86.25
346,5.088397545301789,-2.131177947472083,-1.927186490880942,0.9266345700508853,-5.072571674707029,-1.7172869210443915,86.5
347,5.088397563144171,-2.131177958449964,-1.9271864947116546,0.9266345607449596,-5.072571702495122,-1.6691231241300564,86.75
348,5.088397583937371,-2.131177971036473,-1.927186500040745,0.92663454703317,-5.072571729438995,-1.6109593486580271,87.0
349,5.088397608305511,-2.1311779857869597,-1.9271865062860574,0.9266345309639356,-5.0725717610152845,-1.5427955731859808,87.25
350,5.0883976399147794,-2.131178004318505,-1.9271865043796876,0.9266345388952173,-5.072571793071575,-1.4646318104991964,87.5
351,5.088397676610273,-2.131178025688737,-1.9271864996420325,0.9266345553746913,-5.072571828038217,-1.376468052307383,87.75
352,5.0883977174560355,-2.1311780495709463,-1.9271864942870542,0.9266345741011337,-5.072571866865445,-1.2783043059514778,88.0
353,5.088397765501082,-2.1311780672314105,-1.9271864865588122,0.9266345844817533,-5.072571914100363,-1.1701405672208463,88.25
354,5.088397819704417,-2.131178081638196,-1.9271864770836475,0.9266345900335267,-5.072571968223805,-1.0519768363798625,88.5
355,5.088397878593478,-2.1311780930284496,-1.9271864662308547,0.9266345912311906,-5.072572027073019,-0.9238131131587174,88.75
356,5.088397942391658,-2.1311780916036445,-1.9271864526709874,0.9266345769121844,-5.072572090943609,-0.7856493949233382,89.0
357,5.088398009681039,-2.131178085776244,-1.9271864377968217,0.9266345569206611,-5.0725721583447605,-0.6374856784288068,89.25
358,5.088398077276728,-2.1311780633898643,-1.927186420666643,0.926634518150286,-5.072572226187972,-0.4793219687258382,89.5
359,5.088398143413467,-2.131178031269555,-1.9271864025538434,0.9266344686674506,-5.072572292652248,-0.31300512899685995,89.75
360,5.088398200599299,-2.1311779895745,-1.9271863850497066,0.9266344101445038,-5.072572350237626,-0.15343645917367008,90.0
361,5.088398244870402,-2.1311779411085237,-1.9271863693561349,0.9266343465403777,-5.072572394953287,-0.003867789350530195,90.25
362,5.0883982812061825,-2.131177890879294,-1.9271863550923158,0.9266342825237897,-5.072572431741255,0.13570088047253856,90.5
363,5.088398305561196,-2.1311778387832265,-1.9271863430924197,0.9266342187835025,-5.072572456553333,0.26526955029552907,90.75
364,5.0883983224464036,-2.1311777874496083,-1.9271863327590133,0.9266341573930528,-5.07257247388255,0.3848382201184508,91.0
365,5.088398335013641,-2.131177739638014,-1.9271863237967672,0.9266341008439892,-5.072572486860506,0.4944068899413303,91.25
366,5.088398336074173,-2.1311776934405144,-1.9271863174598236,0.9266340484116043,-5.072572488307973,0.5939755597641494,91.5
367,5.088398337028192,-2.1311776518827807,-1.9271863117593144,0.9266340012451695,-5.072572489610064,0.6835442295869281,91.75
368,5.088398337171066,-2.1311776149805493,-1.9271863068450092,0.9266339595028407,-5.072572490061387,0.7631128994096611,92.0
369,5.088398328768699,-2.13117758290658,-1.9271863043607476,0.9266339249205287,-5.07257248191948,0.8326815692323519,92.25
370,5.088398321574113,-2.131177555443015,-1.9271863022335805,0.9266338953091772,-5.072572474947915,0.89225023905504,92.5
371,5.088398315587306,-2.131177532589856,-1.9271863004635055,0.9266338706687851,-5.0725724691466905,0.9418189088777069,92.75
372,5.088398310808279,-2.1311775143471006,-1.9271862990505249,0.9266338509993536,-5.072572464515806,0.9813875787003647,93.0
373,5.088398307237034,-2.1311775007147493,-1.9271862979946404,0.926633836300883,-5.072572461055264,1.0109562485230237,93.25
374,5.088398304873568,-2.131177491692802,-1.9271862972958516,0.9266338265733736,-5.0725724587650625,1.0305249183456975,93.5
375,5.088176520443564,-2.1316280774084744,-1.9263042480302073,0.926202249777971,-5.072351245691313,1.0407886737836844,93.75
376,5.086769773032074,-2.1344861235928585,-1.9207095057722765,0.9234648352035949,-5.07094812212471,1.0429233427357432,94.0
377,5.086000703991786,-2.1360486229413063,-1.9176508561970187,0.9219682884500315,-5.070181034701996,1.035830403162176,94.25
378,5.086000705953768,-2.13604862796448,-1.9176508585530383,0.9219682875344536,-5.070181037696915,1.0205415814235446,94.5
379,5.086000709199029,-2.1360486362731743,-1.9176508624500657,0.921968286020021,-5.070181042650726,0.9952527596849163,94.75
380,5.086000713727568,-2.1360486478673897,-1.917650867888101,0.921968283906734,-5.070181049563433,0.9599639379463016,95.0
381,5.086000719539386,-2.136048662747125,-1.9176508748671444,0.9219682811945924,-5.0701810584350335,0.9146751162076757,95.25
382,5.086000727202211,-2.1360486811680994,-1.9176508830866499,0.9219682786927375,-5.070181074275974,0.8593863009161506,95.5
383,5.086000736481818,-2.1360487030248128,-1.9176508926706135,0.9219682760673442,-5.070181095019109,0.7940974880526911,95.75
384,5.086000741330948,-2.136048733184376,-1.917650900417696,0.9219682951468391,-5.070181106806452,0.718808683364609,96.0
385,5.086000740625103,-2.1360487725989903,-1.9176509056928335,0.9219683401793819,-5.0701811073065,0.6335198867536094,96.25
386,5.086000739825197,-2.1360488167090717,-1.9176509115189035,0.9219683908108579,-5.070181107764672,0.5382311004447838,96.5
387,5.086000733768373,-2.1360488640317383,-1.917650918917783,0.9219684460038959,-5.070181102410492,0.43294232099929714,96.75
388,5.086000717581405,-2.136048913194152,-1.9176509288298413,0.9219685048906406,-5.070181085765043,0.3176535499807386,97.0
389,5.0860006999884915,-2.136048966619004,-1.9176509396035757,0.9219685688782427,-5.070181067658952,0.1923647878142782,97.25
390,5.08600066566934,-2.136049015360373,-1.9176509532891886,0.9219686308545065,-5.070181032893299,0.05707603184180299,97.5
391,5.086000628069848,-2.1360490672700942,-1.9176509680861011,0.921968697065652,-5.070180994819872,-0.0882127235402986,97.75
392,5.086000573809032,-2.136049108611163,-1.9176509849799195,0.921968754654327,-5.070180940161701,-0.24350147266400113,98.0
393,5.086000513779728,-2.1360491484466926,-1.9176510028858993,0.9219688116927003,-5.070180879742724,-0.40759712643864277,98.25
394,5.086000446494323,-2.1360491706875626,-1.9176510199796168,0.9219688502830807,-5.070180812209143,-0.5659776442251502,98.5
395,5.086000381951084,-2.136049185780795,-1.9176510355476788,0.9219688802426995,-5.070180747480394,-0.7143581620116063,98.75
396,5.086000318433285,-2.136049187180105,-1.917651049081324,0.9219688945114272,-5.070180683893318,-0.8527386797980335,99.0
397,5.086000259581568,-2.1360491851692474,-1.9176510611814568,0.9219689039917365,-5.070180625005262,-0.9811191975844579,99.25
398,5.0860002056004845,-2.1360491708426057,-1.9176510706221945,0.9219688985716681,-5.0701805710959515,-1.0994997153708428,99.5
399,5.08600015617936,-2.136049157726188,-1.9176510792654322,0.9219688936094463,-5.0701805217405385,-1.2078802331572198,99.75
400,5.086000113906261,-2.1360491379607907,-1.917651085523405,0.92196887970042,-5.0701804795956065,-1.3062607509435846,100.0
401,5.086000077136237,-2.1360491165416473,-1.917651090405286,0.9219688628221009,-5.0701804429726565,-1.394641268729941,100.25
402,5.086000044526635,-2.136049097546021,-1.917651094734791,0.9219688478535131,-5.070180410493487,-1.4730217865162878,100.5
403,5.086000017132055,-2.136049079517911,-1.9176510980969144,0.9219688329374784,-5.070180383225914,-1.541402304302639,100.75
404,5.085999997143583,-2.1360490594322723,-1.9176510996294094,0.9219688142154375,-5.070180363388476,-1.5997828220889865,101.0
405,5.085999980578937,-2.136049042787103,-1.9176511008994033,0.9219687987002954,-5.0701803469489946,-1.648163339875367,101.25
406,5.085999967438117,-2.136049029582404,-1.9176511019068947,0.9219687863920515,-5.070180333907467,-1.6865438576617526,101.5
407,5.085999957721121,-2.1360490198181745,-1.9176511026518843,0.9219687772907057,-5.070180324263894,-1.7149243754481271,101.75
408,5.0859999514279535,-2.1360490134944143,-1.9176511031343737,0.9219687713962591,-5.070180318018276,-1.733304893234506,102.0
409,5.086013031408399,-2.1360232990301258,-1.9177036959036617,0.921995654918241,-5.070193354500331,-1.7417321028801833,102.25
410,5.086593411206683,-2.1348826873815643,-1.920036796905128,0.9231883767883441,-5.070771803663029,-1.7414487916168806,102.5
411,5.086671202008045,-2.134729815665162,-1.9203494995462145,0.9233482389037015,-5.070849335679655,-1.7321966137143063,102.75
412,5.086831759176573,-2.1344142945852265,-1.9209949053375044,0.9236781879918132,-5.071009358726391,-1.7129452667400469,103.0
413,5.087075716830659,-2.1339348779189944,-1.921975563406026,0.924179527210991,-5.071252504812233,-1.6836939197657785,103.25
414,5.0874030966066695,-2.1332915754442254,-1.923291453804981,0.9248522464442862,-5.071578795666033,-1.644442572291112,103.5
415,5.087818694341216,-2.132486554578178,-1.9249381549655689,0.9256941030862318,-5.071993047624591,-1.595191119122033,103.75
416,5.088318674912776,-2.131518082521506,-1.9269192018265628,0.9267068900434827,-5.072491409174219,-1.5359396659529723,104.0
417,5.088903703480369,-2.1303864484841806,-1.9292340045273366,0.9278903080927533,-5.073074547837616,-1.4666881949579933,104.25
418,5.089577746322053,-2.129093377199014,-1.9318790453735946,0.9292425727839797,-5.073746443987831,-1.3874366099381112,104.5
419,5.090337544759432,-2.127637445610264,-1.9348572268976991,0.9307651567699368,-5.074503827561682,-1.2981850079409056,104.75
420,5.091188391965754,-2.126020907692478,-1.9381639529463426,0.9324557304993252,-5.07535201200512,-1.1989332702379314,105.0
421,5.092128444003957,-2.124242944922786,-1.9418008930835646,0.9343151405860031,-5.076289146154716,-1.0896814516021542,105.25
422,5.093159039357742,-2.1223041131425258,-1.9457669140832663,0.9363428128304042,-5.07731657354773,-0.9704295324441987,105.5
423,5.0942848306576085,-2.1202062671618322,-1.95005823563068,0.9385368329597521,-5.07843896383492,-0.8411774191364119,105.75
424,5.095504900931441,-2.1179489679080943,-1.9546757537900792,0.9408976559256175,-5.079655396179951,-0.7019251517721781,106.0
425,5.096821268228988,-2.1155329639647156,-1.9596179437510188,0.9434245105142893,-5.080967895631362,-0.5526727056025008,106.25
426,5.098236149825357,-2.1129590457664595,-1.9648831959917326,0.9461165832289087,-5.082378686931914,-0.3934200525437117,106.5
427,5.099671335432614,-2.1103722276046524,-1.97017487144611,0.9488222111676426,-5.083809793543802,-0.23311451286618315,106.75
428,5.101027216998142,-2.107949968060229,-1.9751299530400022,0.9513557807832465,-5.085161884143564,-0.08277951245977225,107.0
429,5.1023014335045325,-2.1056919076117966,-1.9797491698668255,0.9537176564330025,-5.08643259080903,0.05755564908100482,107.25
430,5.103493011460156,-2.103597639823785,-1.9840333505470764,0.955908258008511,-5.087620936356056,0.18789095820873652,107.5
431,5.104601029518248,-2.1016667740478234,-1.987983291588621,0.9579279892218481,-5.088725995899731,0.3082264001014641,107.75
432,5.105621623108455,-2.0998979452842814,-1.9916017722918393,0.9597782545799922,-5.089743891945984,0.41856191674195153,108.0
433,5.106554100762446,-2.0982909103823264,-1.9948892877212665,0.9614593042405123,-5.090673930722307,0.5188975051297838,108.25
434,5.107399002573933,-2.096845809508299,-1.9978455533154789,0.9629709953324261,-5.091516653771826,0.6092331733144389,108.5
435,5.108151793874554,-2.0955611466845543,-2.0004736133066388,0.964314864298331,-5.092267512006463,0.6895688639873631,108.75
436,5.1088149532207865,-2.094437708053799,-2.0027718684855382,0.9654901046283376,-5.092928991641361,0.7599046117608371,109.0
437,5.109385035774006,-2.093474383686713,-2.004742577035212,0.9664978555179398,-5.093497637071753,0.8202403779410038,109.25
438,5.1098606333162095,-2.092670719903734,-2.0063866619792816,0.9673385826083263,-5.0939720356786795,0.8705761441212038,109.5
439,5.110244527542304,-2.092027591780817,-2.007702343322178,0.9680113883638396,-5.094354977700784,0.9109119484238533,109.75
440,5.11053354875163,-2.0915440019885487,-2.0086916497376213,0.9685172957146837,-5.094643283701405,0.9412477576071516,110.0
441,5.1107272960199905,-2.091219824391072,-2.009354837799186,0.9688564340343188,-5.0948365515249066,0.961583566790457,110.25
442,5.110825769347386,-2.0910550589883865,-2.0096919075068724,0.9690288033227448,-5.094934781171289,0.971919375973755,110.5
443,5.111452367440913,-2.090009668621119,-2.011830593112029,0.970122514418136,-5.095559834032322,0.9731218187019423,110.75
444,5.1115112753926795,-2.089911749195397,-2.0120309277608355,0.9702249690172335,-5.095618597347428,0.9655664471532187,111.0
445,5.111511684123524,-2.0899118843921043,-2.0120306708031706,0.9702248481634009,-5.095619006509251,0.9481699845251836,111.25
446,5.1115123278049195,-2.089912097303868,-2.012030266138658,0.9702246578392196,-5.095619650869361,0.9207735218971416,111.5
447,5.111513206531331,-2.089912387968157,-2.0120297137213763,0.9702243981472413,-5.095620531239346,0.8833770724356227,111.75
448,5.1115143203698,-2.0899127564115525,-2.01202901351872,0.970224069160061,-5.09562164819415,0.8359806399441225,112.0
449,5.111515669212974,-2.0899132025914726,-2.012028165582865,0.9702236707610781,-5.095623000811163,0.7785842074526486,112.25
450,5.111516150635508,-2.089913385296569,-2.012027865631532,0.9702235547370985,-5.095623483722941,0.7111877877882428,112.5
451,5.111516149828169,-2.0899134237471255,-2.0120278705788346,0.9702235981727447,-5.095623483148225,0.6337913740950355,112.75
452,5.11151614891291,-2.089913467191849,-2.0120278761427253,0.9702236473319829,-5.095623482468964,0.5463949655585378,113.0
453,5.111516144632495,-2.089913514734741,-2.012027882912196,0.9702237017438834,-5.095623478293705,0.44899856120301834,113.25
454,5.111516128597969,-2.0899135641018427,-2.0120278923753263,0.9702237603344466,-5.095623461854922,0.3416021656884998,113.5
455,5.111516111069692,-2.0899136180650415,-2.0120279027202184,0.9702238243782683,-5.095623443879395,0.22420577756025217,113.75
456,5.111516080713946,-2.089913669961616,-2.0120279154400547,0.9702238885845738,-5.095623413091552,0.09680939713771677,114.0
457,5.11151604290931,-2.089913722953511,-2.0120279298259938,0.9702239554649552,-5.095623374845072,-0.04058697800785727,114.25
458,5.111515993108744,-2.0899137704149933,-2.0120279459776125,0.9702240184706734,-5.095623324636507,-0.18798335142584965,114.5
459,5.111515933500165,-2.089913814567811,-2.0120279637248046,0.9702240796708986,-5.09562326463812,-0.34537971945872126,114.75
460,5.111515862137715,-2.0899138446256575,-2.0120279821153435,0.9702241273298275,-5.095623192985558,-0.5096854209016308,115.0
461,5.111515791562402,-2.089913868477703,-2.012027999567202,0.9702241678654302,-5.09562312216882,-0.6659630391260599,115.25
462,5.111515720337029,-2.089913870842071,-2.012028014460718,0.970224184393891,-5.095623050867912,-0.8122406573504592,115.5
463,5.111515653846951,-2.089913872527457,-2.0120280282986927,0.9702241992374281,-5.0956229843113645,-0.9485182755748307,115.75
464,5.111515592620855,-2.0899138572404805,-2.0120280389318594,0.970224193993265,-5.095622923154473,-1.074795893799172,116.0
465,5.111515536264103,-2.089913842253056,-2.012028048604588,0.9702241881371063,-5.095622866868519,-1.1910735120234777,116.25
466,5.111515487143437,-2.089913821198784,-2.0120280560343717,0.9702241740575976,-5.095622817871449,-1.2973511302477734,116.5
467,5.111515444571312,-2.089913796194329,-2.012028061627257,0.970224154265973,-5.095622775458776,-1.39362874847206,116.75
468,5.111515406420994,-2.0899137737869964,-2.0120280666392243,0.9702241365300281,-5.095622737451348,-1.4799063666963395,117.0
469,5.111515374999817,-2.089913750742529,-2.012028070192276,0.970224116767822,-5.095622706183401,-1.5561839849206074,117.25
470,5.11151535088373,-2.0899137262536027,-2.0120280720672485,0.970224093960433,-5.0956226822376,-1.6224616031448666,117.5
471,5.111515330406291,-2.089913705459578,-2.012028073659323,0.9702240745942334,-5.095622661904753,-1.6787392213691548,117.75
472,5.111515313567498,-2.089913688360455,-2.012028074968498,0.9702240586692223,-5.095622645184859,-1.7250168395934589,118.0
473,5.111515300367353,-2.089913674956234,-2.012028075994777,0.9702240461854019,-5.09562263207792,-1.7612944578177605,118.25
474,5.111515290805854,-2.089913665246914,-2.01202807673816,0.9702240371427723,-5.095622622583936,-1.7875720760420595,118.5
475,5.111515284883003,-2.0899136592324954,-2.0120280771986474,0.9702240315413334,-5.095622616702906,-1.803849694266363,118.75
476,5.110793614825239,-2.09118110583434,-2.009555867673939,0.9690187233153335,-5.0949023002820795,-1.8116339614050625,119.0
477,5.109156509174671,-2.09405632229501,-2.003947646168704,0.9662844802612023,-5.0932682657215205,-1.810390672847257,119.25
478,5.108802210498097,-2.094678578765159,-2.002733915897431,0.9656927336519731,-5.092914633576273,-1.8007351134429133,119.5
479,5.1088022177940555,-2.0946785832691823,-2.002733917407507,0.9656927297493115,-5.092914644707093,-1.7819617877303107,119.75
480,5.108802228976354,-2.094678590172367,-2.002733919721955,0.9656927237678167,-5.092914661766975,-1.7531884620177056,120.0
481,5.108802244044997,-2.0946785994747135,-2.0027339228407772,0.9656927157074886,-5.092914684755919,-1.714415136305092,120.25
482,5.108802262943412,-2.0946786111300835,-2.00273392681118,0.9656927054010342,-5.092914713198276,-1.6656418123192573,120.5
483,5.108802284935276,-2.094678624537954,-2.0027339322476165,0.9656926906709637,-5.092914740903003,-1.606868509517887,120.75
484,5.1088023106689535,-2.094678640227109,-2.0027339386090377,0.9656926734346413,-5.092914773321561,-1.5380952067165214,121.0
485,5.108802344374781,-2.0946786600936123,-2.002733935873927,0.9656926839650595,-5.0929148067602625,-1.4593219179399561,121.25
486,5.108802383159325,-2.094678682855507,-2.002733930880219,0.9656927016291528,-5.092914843728883,-1.3705486334861277,121.5
487,5.108802426301663,-2.094678708269628,-2.002733925247183,0.9656927216587124,-5.0929148847677785,-1.2717753599082178,121.75
488,5.108802477317841,-2.0946787261691653,-2.0027339170152754,0.9656927318245463,-5.092914935075385,-1.1630020946681519,122.0
489,5.108802534525143,-2.094678741399138,-2.0027339071582966,0.9656927378386941,-5.092914992204905,-1.0442288371757356,122.25
490,5.108802596678821,-2.0946787522819537,-2.0027338957446617,0.9656927379867226,-5.092915054328367,-0.9154555870264566,122.5
491,5.108802663965203,-2.0946787505937654,-2.0027338817142413,0.9656927229573325,-5.092915121686156,-0.7766823413789787,122.75
492,5.10880273458321,-2.09467874292997,-2.002733866248874,0.9656927005633893,-5.0929151924241225,-0.6279090977582289,123.0
493,5.108802805838426,-2.094678718893682,-2.0027338485952786,0.9656926596499773,-5.092915263924919,-0.4691358609107614,123.25
494,5.108802874592834,-2.094678683349074,-2.00273383000917,0.9656926062944837,-5.092915333012747,-0.3027664443961091,123.5
495,5.108802934420536,-2.0946786391013203,-2.0027338121626874,0.9656925449028548,-5.0929153932345965,-0.14379895791471323,123.75
496,5.108802979788393,-2.0946785867865336,-2.002733796272105,0.9656924772696663,-5.09291543904785,0.005168528566643172,124.0
497,5.108803017785943,-2.0946785335964306,-2.002733781785138,0.9656924100915028,-5.092915477491644,0.14413601504799814,124.25
498,5.108803042260271,-2.094678477902498,-2.0027337697607623,0.9656923427395421,-5.09291550242078,0.2731035015292998,124.5
499,5.108803059909324,-2.09467842363534,-2.002733759317342,0.9656922783227592,-5.092915520507956,0.3920709880105945,124.75
500,5.108803072154741,-2.094678372887599,-2.0027337504258713,0.9656922189148845,-5.092915533159621,0.5010384744918585,125.0
501,5.108803073268868,-2.0946783241366713,-2.002733744071299,0.9656921639230899,-5.092915534655358,0.6000059609731093,125.25
502,5.108803074270421,-2.0946782803117,-2.0027337383588084,0.9656921144878444,-5.092915535999961,0.6889734474543479,125.5
503,5.108803073793584,-2.0946782414469567,-2.002733733573203,0.9656920709142314,-5.092915535826237,0.7679409339355905,125.75
504,5.108803065052031,-2.0946782077127337,-2.0027337311295637,0.9656920347181075,-5.0929155273410185,0.8369084204168205,126.0
505,5.108803057577969,-2.0946781788698337,-2.0027337290402416,0.9656920037702718,-5.092915520086121,0.8958759068980552,126.25
506,5.108803051371394,-2.094678154918258,-2.002733727305234,0.9656919780707225,-5.092915514061545,0.9448433933793228,126.5
507,5.108803046432309,-2.0946781358580044,-2.002733725924544,0.9656919576194616,-5.09291550926729,0.9838108798606024,126.75
508,5.108803042760712,-2.0946781216890735,-2.0027337248981727,0.965691942416489,-5.092915505703357,1.0127783663418655,127.0
509,5.108803040356604,-2.094678112411465,-2.00273372422612,0.965691932461805,-5.092915503369746,1.0317458528231334,127.25
510,5.1084791712782085,-2.0952560799809463,-2.001605485271325,0.9651414265575424,-5.092592264333262,1.0415480990090589,127.5
511,5.106872524941769,-2.098123289120891,-1.9960085101671872,0.9624104968483804,-5.090988743376578,1.0429975141886916,127.75
512,5.10612800169598,-2.099451964771948,-1.9934148576394435,0.9611449765215517,-5.090245668858841,1.0353716117122413,128.0
513,5.106128003837008,-2.099451970359953,-1.9934148601491846,0.9611449754854111,-5.0902456719248175,1.0193115962587735,128.25
514,5.106128007311181,-2.0994519794274105,-1.9934148642216523,0.9611449738041031,-5.090245676899871,0.9932515808053093,128.5
515,5.106128012118495,-2.0994519919743193,-1.9934148698568463,0.961144971477627,-5.090245683783998,0.9571915653518406,128.75
516,5.106128018258951,-2.099452008000681,-1.9934148770547668,0.9611449685059834,-5.0902456925772,0.9111315498983608,129.0
517,5.106128026422403,-2.0994520277768163,-1.9934148854972158,0.9611449657016664,-5.090245709112913,0.8550715476544605,129.25
518,5.106128036225494,-2.099452051152507,-1.9934148953610182,0.961144962613167,-5.090245730149454,0.7890115486546434,129.5
519,5.10612804043596,-2.0994520842162983,-1.9934149028024302,0.9611449862340938,-5.090245740305094,0.7129515592241747,129.75
520,5.106128039691026,-2.0994521264144437,-1.9934149081740333,0.9611450341172542,-5.090245740846372,0.626891576750762,130.0
521,5.106128038847016,-2.099452173603143,-1.9934149140935724,0.9611450879369512,-5.090245741344262,0.5308316053760926,130.25
522,5.106128031308062,-2.0994522238856312,-1.99341492184429,0.9611451463504848,-5.09024573442648,0.4247716407516897,130.5
523,5.106128014193943,-2.0994522764502803,-1.993414931972204,0.9611452088400179,-5.090245716853773,0.30871168440254837,130.75
524,5.106127995086594,-2.0994523332385677,-1.9934149430432297,0.9611452764650878,-5.090245697237416,0.18265173630151482,131.0
525,5.106127958115173,-2.099452384921446,-1.9934149571671822,0.9611453417850839,-5.0902456598255785,0.04659179435779496,131.25
526,5.10612791835712,-2.099452440332376,-1.9934149723347558,0.9611454118396845,-5.090245619595632,-0.09946814733333982,131.5
527,5.106127859988494,-2.0994524834358277,-1.9934149897803966,0.9611454717028405,-5.0902455608397315,-0.2555280819267163,131.75
528,5.1061277954155715,-2.09945252454106,-1.9934150082509774,0.9611455305335572,-5.090245495890177,-0.4211089324054721,132.0
529,5.1061277233049065,-2.0994525488198406,-1.9934150261517682,0.961145571926187,-5.090245423529089,-0.5827912869933103,132.25
530,5.106127653342176,-2.0994525626853004,-1.993415042297873,0.9611456011944233,-5.090245353399688,-0.7344736415810971,132.5
531,5.106127585071497,-2.099452564380277,-1.99341505656162,0.9611456164524371,-5.090245285059554,-0.8761559961688722,132.75
532,5.106127521785654,-2.0994525586842157,-1.993415068867818,0.9611456224281567,-5.090245221766546,-1.0078383507566233,133.0
533,5.106127463539332,-2.099452543205463,-1.9934150789037408,0.9611456164227427,-5.090245163594229,-1.129520705344341,133.25
534,5.106127410080319,-2.0994525289970603,-1.9934150881145627,0.9611456109088207,-5.090245110203152,-1.2412030599320423,133.5
535,5.106127365674272,-2.099452502959247,-1.9934150939711532,0.9611455903283354,-5.090245065965622,-1.342885414519719,133.75
536,5.106127325635358,-2.0994524794821356,-1.993415099251771,0.9611455717718462,-5.0902450260786525,-1.4345677691074017,134.0
537,5.1061272899635775,-2.099452458565727,-1.9934151039564172,0.9611455552393536,-5.090244990542244,-1.516250123695059,134.25
538,5.106127263387824,-2.099452433599355,-1.9934151062785954,0.9611455323757492,-5.090244964141224,-1.587932478282736,134.5
539,5.10612724122094,-2.0994524111353403,-1.993415108008862,0.9611455114624037,-5.090244942132995,-1.6496148328704088,134.75
540,5.106127222647771,-2.0994523923132133,-1.9934151094586137,0.9611454939395474,-5.090244923692761,-1.701297187458099,135.0
541,5.106127207668318,-2.0994523771329736,-1.993415110627852,0.9611454798071817,-5.0902449088205195,-1.742979542045802,135.25
542,5.10612719628258,-2.09945236559462,-1.9934151115165788,0.9611454690653072,-5.090244897516274,-1.7746618966334955,135.5
543,5.106127188490558,-2.0994523576981527,-1.9934151121247938,0.9611454617139239,-5.090244889780021,-1.7963442512212007,135.75
544,5.106062843200747,-2.099569023283421,-1.9931871905755996,0.9610341611251814,-5.09018067427369,-1.808230497619932,136.0
545,5.104666039457321,-2.10210185080562,-1.9882391527497252,0.9586179827661804,-5.088786687400677,-1.8123736437842561,136.25
546,5.103492408759001,-2.104230006842346,-1.9840816715131695,0.9565878413015957,-5.087615424649936,-1.8068179789329224,136.5
547,5.1034893003017485,-2.1042356558715762,-1.9840706430245274,0.9565824527365063,-5.087612325220178,-1.7934839111241225,136.75
548,5.103489309260405,-2.1042356613984605,-1.9840706448892427,0.9565824479752627,-5.087612338986383,-1.7701606215602959,137.0
549,5.103489322060139,-2.10423566929503,-1.9840706475534662,0.9565824411726078,-5.0876123586549316,-1.736837331996467,137.25
550,5.1034893387009514,-2.104235679561284,-1.9840706510171975,0.9565824323285412,-5.087612384225824,-1.6935140424326431,137.5
551,5.103489358767302,-2.1042356918496083,-1.9840706556382548,0.9565824201757666,-5.087612412167127,-1.6401907652134877,137.75
552,5.103489382196275,-2.1042357061073704,-1.9840706614708163,0.9565824045224001,-5.087612441944069,-1.5768674989053857,138.0
553,5.103489410758617,-2.104235723256745,-1.9840706647855084,0.9565823966937287,-5.087612475054917,-1.503544237621802,138.25
554,5.103489446718061,-2.1042357443084674,-1.9840706601515385,0.9565824129502802,-5.087612509338586,-1.4202209877415768,138.5
555,5.103489486985508,-2.104235767945766,-1.9840706549094091,0.9565824314100342,-5.087612547671418,-1.3268977455510447,138.75
556,5.103489532343929,-2.104235791913709,-1.984070648614264,0.9565824493791034,-5.087612591207404,-1.223574510415149,139.0
557,5.103489586253012,-2.104235806256363,-1.9840706392884737,0.95658245500202,-5.087612645034163,-1.1102512850421604,139.25
558,5.103489644921398,-2.1042358218654194,-1.9840706291388122,0.9565824611232704,-5.087612703629483,-0.9869280684995784,139.5
559,5.103489708669623,-2.1042358246278114,-1.984070616334209,0.9565824517517202,-5.0876127674123275,-0.8536048577850153,139.75
560,5.103489777305639,-2.104235822942136,-1.9840706019650665,0.9565824364023826,-5.0876128361224175,-0.7102816488005669,140.0
561,5.103489846700873,-2.1042358056270034,-1.984070585462818,0.956582403330633,-5.087612905713803,-0.5569584447625525,140.25
562,5.103489919093805,-2.1042357812992876,-1.984070567455448,0.9565823617864689,-5.087612978359995,-0.3936352469634376,140.5
563,5.10348998085549,-2.104235737397029,-1.9840705491653372,0.9565823003167979,-5.087613040521519,-0.2292496286872441,140.75
564,5.103490035813395,-2.1042356926057764,-1.984070532166062,0.956582239181186,-5.087613095880669,-0.07483418530677186,141.0
565,5.103490074811845,-2.1042356381609606,-1.9840705172376207,0.9565821703194521,-5.0876131353437275,0.06958125807365374,141.25
566,5.1034901089824505,-2.1042355862397435,-1.9840705036240396,0.956582105241561,-5.087613169954899,0.20399670145406895,141.5
567,5.103490127210108,-2.1042355303299143,-1.9840704927942796,0.9565820388039593,-5.087613188641533,0.3284121448344638,141.75
568,5.103490143972699,-2.1042354789138926,-1.9840704828349613,0.9565819777063345,-5.087613205826211,0.4428275882148196,142.0
569,5.103490149132753,-2.104235429298508,-1.984070475496364,0.9565819209076136,-5.087613211384413,0.5472430315951728,142.25
570,5.103490150180779,-2.104235383473723,-1.984070469485224,0.9565818691770401,-5.087613212797079,0.6416584749755025,142.5
571,5.103490151117803,-2.1042353425024665,-1.984070464110749,0.9565818229255021,-5.08761321406012,0.7260739183558449,142.75
572,5.103490146149008,-2.104235306527072,-1.9840704605861186,0.9565817834489159,-5.087613209372776,0.8004893617361768,143.0
573,5.10349013808385,-2.1042352754785307,-1.984070458323159,0.9565817501189935,-5.087613201547384,0.8649048051165146,143.25
574,5.103490131270745,-2.104235249250037,-1.9840704564115048,0.9565817219632835,-5.087613194936823,0.9193202484968667,143.5
575,5.103490125709694,-2.1042352278415906,-1.984070454851156,0.9565816989817857,-5.087613189541095,0.9637356918772353,143.75
576,5.1034901214006965,-2.1042352112531892,-1.9840704536421145,0.956581681174501,-5.087613185360198,0.9981511352576014,144.0
577,5.1034901183437515,-2.1042351994848336,-1.9840704527843809,0.9565816685414299,-5.087613182394133,1.0225665786379576,144.25
578,5.103490116538861,-2.104235192536524,-1.9840704522779553,0.9565816610825719,-5.087613180642899,1.0369820220183188,144.5
579,5.102511966276704,-2.10603734563015,-1.9805471840676694,0.9548598980415498,-5.086637074619159,1.043374184563753,144.75
580,5.101035194437151,-2.108758172392688,-1.9752278907525587,0.9522604514555248,-5.085163389254295,1.0402975315354388,145.0
581,5.100888722250129,-2.109028041247295,-1.9747002983539645,0.9520026246961383,-5.085017223850761,1.029284236043302,145.25
582,5.100888724967994,-2.1090280483031685,-1.9747003015506077,0.9520026233832835,-5.085017227822356,1.0087167086316042,145.5
583,5.100888729007297,-2.1090280587896313,-1.9747003063014694,0.952002621432114,-5.085017233724955,0.9781491812199237,145.75
584,5.1008887343680325,-2.1090280727066832,-1.9747003126065497,0.9520026188426304,-5.085017241558555,0.9375816538082247,146.0
585,5.100888741252768,-2.1090280901371408,-1.9747003203685822,0.9520026158680716,-5.085017253054719,0.887014130675773,146.25
586,5.100888750150142,-2.1090281112807823,-1.974700329352936,0.9520026131193222,-5.085017272390459,0.8264466201149087,146.5
587,5.10088876019595,-2.109028136191906,-1.9747003396423473,0.9520026111421116,-5.085017294273085,0.7558791100493615,146.75
588,5.10088875950656,-2.109028175122798,-1.9747003446270033,0.9520026553616094,-5.085017294772015,0.6753116159652404,147.0
589,5.100888758727076,-2.1090282189166616,-1.9747003502030531,0.9520027052018549,-5.085017295293957,0.5847441260298847,147.25
590,5.100888757851568,-2.109028267613915,-1.9747003563347776,0.9520027608358846,-5.085017295787993,0.4841766446938691,147.5
591,5.100888743370033,-2.1090283174023527,-1.9747003656009863,0.9520028198168077,-5.085017281079081,0.37360917379831593,147.75
592,5.100888725810215,-2.109028371202192,-1.9747003760365733,0.9520028838417943,-5.085017263034274,0.25304171030306694,148.0
593,5.100888698905392,-2.1090284248339928,-1.9747003883921082,0.9520029494849739,-5.085017235651032,0.12247425354922128,148.25
594,5.100888661179469,-2.1090284774315795,-1.974700402864186,0.9520030160579501,-5.085017197469464,-0.018093199801141307,148.5
595,5.100888613717286,-2.1090285266377693,-1.9747004189184423,0.9520030807293844,-5.085017149572018,-0.168660649970785,148.75
596,5.100888554400741,-2.1090285703103606,-1.9747004367207392,0.9520031415063586,-5.085017089856189,-0.32922809357590777,149.0
597,5.100888485164368,-2.109028601711817,-1.9747004550166949,0.9520031904293371,-5.085017020310344,-0.49531013100604915,149.25
598,5.100888415925306,-2.109028624935557,-1.974700472275664,0.9520032301543744,-5.0850169508272165,-0.6524829409032962,149.5
599,5.100888346501104,-2.1090286290305067,-1.974700487146001,0.9520032483992631,-5.085016881311876,-0.7996557508005203,149.75
600,5.100888281213839,-2.1090286306160335,-1.9747005008427987,0.952003263008758,-5.085016815957034,-0.9368285606976859,150.0
601,5.100888221026041,-2.1090286172281862,-1.9747005115857772,0.9520032597740252,-5.085016755825775,-1.0640013705948494,150.25
602,5.100888165625442,-2.1090286025138054,-1.9747005211708788,0.9520032541066961,-5.085016700496354,-1.1811741804919884,150.5
603,5.100888116904406,-2.1090285830767286,-1.9747005287760593,0.9520032418149276,-5.085016651889909,-1.2883469903891043,150.75
604,5.100888074987111,-2.1090285585365236,-1.9747005343273867,0.9520032224464081,-5.085016610133765,-1.3855198002862132,151.0
605,5.100888037383499,-2.1090285365217394,-1.974700539307423,0.9520032050710887,-5.085016572674721,-1.4726926101833042,151.25
606,5.100888005851043,-2.109028514582077,-1.974700543042014,0.9520031865875559,-5.085016541291335,-1.5498654200804083,151.5
607,5.100887982006107,-2.1090284904639636,-1.9747005449111237,0.9520031641433941,-5.085016517619366,-1.6170382299775148,151.75
608,5.100887961710961,-2.109028469936308,-1.974700546501979,0.9520031450404891,-5.085016497471436,-1.6742110398746206,152.0
609,5.100887944965604,-2.109028452999112,-1.974700547814577,0.9520031292788396,-5.085016480847547,-1.7213838497717502,152.25
610,5.100887931770036,-2.109028439652373,-1.974700548848922,0.9520031168584473,-5.085016467747698,-1.758556659668884,152.5
611,5.10088792212426,-2.1090284298960915,-1.9747005496050138,0.9520031077793125,-5.085016458171889,-1.7857294695660084,152.75
612,5.100887916028273,-2.109028423730267,-1.9747005500828525,0.9520031020414348,-5.085016452120121,-1.8029022794631369,153.0
613,5.100341625137799,-2.1100510361264067,-1.9726998312717963,0.9510246502800989,-5.084471343970102,-1.8113742263440538,153.25
614,5.098779452214426,-2.112975322581592,-1.96697854506673,0.9482266623109901,-5.0829125534644515,-1.811070276350663,153.5
615,5.098322171757602,-2.113831330330384,-1.9653037941887401,0.9474076255308761,-5.082456264889247,-1.802145337414103,153.75
616,5.098322178511752,-2.113831334494836,-1.9653037956024502,0.9474076219653818,-5.082456275343284,-1.7843563568746013,154.0
617,5.098322189062717,-2.113831341000317,-1.9653037978108723,0.94740761639556,-5.082456291674014,-1.7565673763351048,154.25
618,5.098322203410499,-2.1138313498468264,-1.9653038008140054,0.9474076088214107,-5.082456313881436,-1.718778395795606,154.5
619,5.098322221555096,-2.113831361034365,-1.9653038046118496,0.947407599242934,-5.082456341965551,-1.6709894152560978,154.75
620,5.0983222427173605,-2.113831373894243,-1.9653038098969198,0.947407585209865,-5.082456369232413,-1.613200457438428,155.0
621,5.098322267520656,-2.1138313889614513,-1.9653038161151657,0.9474075686825522,-5.0824564010375575,-1.545411500138626,155.25
622,5.098322299565567,-2.11383140784577,-1.9653038145456052,0.9474075755472474,-5.082456433814524,-1.4676225551487652,155.5
623,5.098322336992583,-2.1138314297242338,-1.96530380970113,0.947407592420239,-5.082456469488494,-1.379833614819301,155.75
624,5.098322378670335,-2.1138314541894783,-1.9653038042205835,0.9474076116199908,-5.082456509117535,-1.2820446867189657,156.0
625,5.098322427540408,-2.113831472761933,-1.9653037964638789,0.9474076228812518,-5.082456557084937,-1.1742557658048578,156.25
626,5.09832248289168,-2.1138314874814097,-1.9653037868474972,0.9474076286105839,-5.082456612356409,-1.0564668528409884,156.5
627,5.0983225430279155,-2.1138314997681764,-1.965303775932847,0.9474076306519112,-5.082456672447909,-0.9286779475879694,156.75
628,5.098322608208669,-2.1138314982035067,-1.9653037622288774,0.947407616056527,-5.082456737700175,-0.7908890474970008,157.0
629,5.09832267716944,-2.1138314928749784,-1.965303747262768,0.9474075964810204,-5.082456806765618,-0.6431001488577107,157.25
630,5.09832274625533,-2.1138314697465352,-1.9653037300048641,0.9474075568516285,-5.082456876096829,-0.485311257078864,157.5
631,5.098322814421795,-2.113831437306491,-1.965303711752147,0.9474075069253449,-5.082456944582947,-0.31905948790889627,157.75
632,5.098322873148055,-2.1138313941325633,-1.9653036940889836,0.9474074467796016,-5.08245700370745,-0.15911182083411146,158.0
633,5.098322919191757,-2.1138313445521777,-1.9653036782380282,0.9474073819222579,-5.082457050190298,-0.009164153759351746,158.25
634,5.098322956520805,-2.113831292574961,-1.9653036638875596,0.9474073160838609,-5.0824570879704165,0.13078351331536864,158.5
635,5.098322982149007,-2.113831239027127,-1.9653036517614622,0.9474072507821372,-5.082457114052415,0.260731180390057,158.75
636,5.098322999505782,-2.113831185914914,-1.9653036414045713,0.9474071875993342,-5.082457131852438,0.3806788474647348,159.0
637,5.09832301296507,-2.1138311365799587,-1.9653036323360096,0.947407129434384,-5.082457145721186,0.4906265145393883,159.25
638,5.098323014059196,-2.113831088773757,-1.9653036260239873,0.9474070754245202,-5.082457147201927,0.5905741816140281,159.5
639,5.098323015043853,-2.1138310457506813,-1.9653036203434926,0.9474070268184691,-5.082457148534514,0.6805218486886659,159.75
640,5.098323015573901,-2.1138310075190163,-1.965303615367094,0.9474069836935186,-5.082457149373451,0.7604695157632939,160.0
641,5.098323006921671,-2.113830974288309,-1.9653036129297559,0.9474069480040426,-5.082457140981957,0.8304171828378909,160.25
642,5.0983229995064,-2.1138309458083966,-1.9653036108408692,0.9474069174168775,-5.082457133790145,0.890364849912528,160.5
643,5.098322993328084,-2.1138309220792815,-1.9653036091004314,0.9474068919320224,-5.082457127798013,0.9403125169871942,160.75
644,5.098322988386728,-2.113830903100963,-1.9653036077084454,0.9474068715494788,-5.082457123005565,0.9802601840618832,161.0
645,5.098322984682327,-2.113830888873439,-1.9653036066649119,0.9474068562692465,-5.082457119412798,1.0102078511365624,161.25
646,5.098322982214886,-2.1138308793967107,-1.9653036059698308,0.9474068460913255,-5.082457117019712,1.0301555182112179,161.5
647,5.098125896300765,-2.114205703041185,-1.9645697336390575,0.9470476787034444,-5.0822604730220595,1.0406972741613252,161.75
648,5.096655129921132,-2.117002902813993,-1.9590931314995113,0.9443673903619291,-5.0807930042310705,1.0431695828384746,162.0
649,5.095792270853022,-2.1186439497469083,-1.955880153439651,0.9427949357585875,-5.079932080193599,1.0363217530162032,162.25
650,5.0957922728169285,-2.118643954818648,-1.9558801557576684,0.9427949348123186,-5.079932083121714,1.021329600381614,162.5
651,5.0957922760907906,-2.1186439632733185,-1.9558801596218398,0.9427949332348735,-5.07993208800293,0.9963374477470419,162.75
652,5.09579228067461,-2.1186439751109187,-1.9558801650321649,0.9427949310262522,-5.079932094837245,0.9613452951124233,163.0
653,5.0957922865683845,-2.118643990331449,-1.9558801719886438,0.9427949281864549,-5.0799321036246585,0.9163531424778288,163.25
654,5.095792294339743,-2.118644009176921,-1.9558801802074979,0.9427949254673422,-5.079932119269776,0.8613610009118374,163.5
655,5.09579230379191,-2.1186440315634396,-1.955880189787102,0.9427949226082721,-5.079932140072352,0.796368864165747,163.75
656,5.0957923090821735,-2.118644062205498,-1.9558801977004434,0.942794940677347,-5.079932152617225,0.7213767351805179,164.0
657,5.095792308363149,-2.118644102685617,-1.9558802029145914,0.9427949867032657,-5.079932153135298,0.636384614849169,164.25
658,5.095792307548498,-2.118644148002177,-1.9558802086764375,0.942795038460333,-5.079932153618481,0.5413925043518497,164.5
659,5.0957923017934945,-2.1186441967660405,-1.955880215935175,0.9427950949814817,-5.0799321486485125,0.43640040073234904,164.75
660,5.095792285251904,-2.11864424733184,-1.9558802258088717,0.9427951552277564,-5.079932131652239,0.3214083055977897,165.0
661,5.09579226726975,-2.1186443022930423,-1.9558802365431858,0.9427952207060314,-5.079932113160087,0.1964162195758319,165.25
662,5.0957922326632294,-2.118644352751551,-1.9558802501736754,0.942795284341413,-5.079932078106962,0.06142413950263376,165.5
663,5.095792194224017,-2.1186444062039995,-1.955880264984285,0.9427953520983148,-5.07993203919711,-0.08356793986031558,165.75
664,5.095792139196723,-2.1186444492724004,-1.9558802819132122,0.9427954114415651,-5.07993198377201,-0.2385600132155176,166.0
665,5.095792077705411,-2.118644491123531,-1.9558803000290539,0.9427954706905978,-5.0799319218875585,-0.40342597572066646,166.25
666,5.09579200688204,-2.1186445147885475,-1.955880317760287,0.942795511309514,-5.079931850810826,-0.5661721153757645,166.5
667,5.095791938703025,-2.118644530449178,-1.955880333920021,0.9427955423959158,-5.0799317824458186,-0.7189182550309391,166.75
668,5.095791871587672,-2.1186445320412526,-1.9558803480620452,0.9427955574353553,-5.079931715259797,-0.861664394686257,167.0
669,5.095791809293763,-2.1186445282935984,-1.955880360520755,0.9427955655121832,-5.079931652942791,-0.9944105343417291,167.25
670,5.09579175196176,-2.1186445130721143,-1.9558803704835532,0.9427955596935086,-5.079931595685268,-1.1171566739973402,167.5
671,5.095791699300534,-2.118644499090713,-1.955880379634685,0.9427955543488722,-5.079931543092454,-1.229902813653062,167.75
672,5.09579165504826,-2.1186444749239604,-1.955880385738578,0.9427955358788017,-5.079931498998656,-1.332648953308881,168.0
673,5.095791615525155,-2.1186444518188168,-1.9558803909958886,0.9427955176703415,-5.079931459629462,-1.4253950929647923,168.25
674,5.0957915802634774,-2.118644431204899,-1.9558803956863464,0.9427955014251375,-5.0799314245051015,-1.5081412326207828,168.5
675,5.09579155333484,-2.118644407420267,-1.9558803982412247,0.942795479965878,-5.079931397746731,-1.5808873722768382,168.75
676,5.095791531330765,-2.1186443852047114,-1.955880399973758,0.9427954593009238,-5.0799313759043985,-1.6436335119329364,169.0
677,5.095791512833531,-2.118644366529703,-1.9558804014301714,0.9427954419293908,-5.079931357543129,-1.6963796515890583,169.25
678,5.0957914978431385,-2.1186443513952398,-1.955880402610466,0.9427954278512796,-5.079931342662922,-1.7391257912452152,169.5
679,5.0957914863595875,-2.118644339801322,-1.955880403514643,0.9427954170665912,-5.079931331263781,-1.771871930901376,169.75
680,5.095791478382877,-2.1186443317479484,-1.955880404142703,0.9427954095753256,-5.079931323345704,-1.7946180705575057,170.0
681,5.095776392553876,-2.1186734677728967,-1.9558233100516451,0.9427674428342564,-5.0799162725550815,-1.807417509249234,170.25
682,5.094586206956333,-2.1209731699257715,-1.95131755136116,0.9405607046032692,-5.078728849513086,-1.8125430115814014,170.5
683,5.093329487731334,-2.1234014397808965,-1.9465598987003145,0.9382305996568817,-5.077475048244009,-1.8079247246128065,170.75
684,5.093295000446254,-2.1234680887663027,-1.9464293213683501,0.9381666453207179,-5.0774406435983845,-1.7956310168197034,171.0
685,5.093295008769015,-2.1234680938951467,-1.9464293231201126,0.9381666409574312,-5.077440656574476,-1.7734579313313197,171.25
686,5.093295020845316,-2.1234681013370853,-1.9464293256619145,0.938166634626314,-5.077440675402749,-1.7412848458429053,171.5
687,5.09329503667516,-2.1234681110921176,-1.9464293289937564,0.9381666263273667,-5.077440700083204,-1.699111760354496,171.75
688,5.093295055950953,-2.1234681228893604,-1.9464293333979081,0.9381666150632672,-5.077440727944959,-1.646938684381957,172.0
689,5.09329507845008,-2.1234681365327654,-1.9464293390786578,0.9381666001122193,-5.07744075705501,-1.5847656217505552,172.25
690,5.093295105420905,-2.1234681527492647,-1.946429343573891,0.9381665889284295,-5.077440789888284,-1.5125925622327754,172.5
691,5.0932951400340265,-2.1234681729465206,-1.9464293390800083,0.9381666044556345,-5.077440822880259,-1.4304195158688733,172.75
692,5.09329517885313,-2.123468195647611,-1.9464293339978973,0.9381666220692961,-5.077440859832596,-1.3382464757808656,173.0
693,5.093295222105175,-2.1234682202100346,-1.9464293281836913,0.9381666410434106,-5.07744090106746,-1.2360734429245157,173.25
694,5.093295274180695,-2.123468234054057,-1.9464293190957334,0.9381666463907928,-5.077440953060728,-1.1239004211697845,173.5
695,5.093295330900473,-2.123468249132942,-1.946429309196756,0.9381666522169356,-5.077441009705003,-1.001727407152527,173.75
696,5.093295392528399,-2.1234682538618386,-1.9464292969637491,0.9381666453742519,-5.077441071350843,-0.8695543993942365,174.0
697,5.093295458970999,-2.123468252305012,-1.9464292829315952,0.9381666304742713,-5.077441137867552,-0.7273813941336797,174.25
698,5.09329552678341,-2.1234682379803296,-1.9464292669780585,0.9381666009246368,-5.077441205857801,-0.5752083931026405,174.5
699,5.093295596930713,-2.123468214585818,-1.9464292493760582,0.9381665606991119,-5.077441276257865,-0.4130353984170656,174.75
700,5.093295658866596,-2.123468174105912,-1.9464292312940463,0.9381665028576648,-5.077441338579439,-0.24776097769789884,175.0
701,5.09329571462012,-2.12346813206882,-1.9464292142995685,0.938166444485864,-5.077441394726049,-0.09219951352752236,175.25
702,5.0932957529758935,-2.123468078799841,-1.9464291994877585,0.9381663769076307,-5.077441433551847,0.053361950642981305,175.5
703,5.093295788420742,-2.12346802902924,-1.9464291857302864,0.9381663138450628,-5.077441469435511,0.18892341481360247,175.75
704,5.0932958063685225,-2.1234679742358313,-1.9464291749718632,0.9381662485880887,-5.077441487848063,0.3144848789844067,176.0
705,5.093295822886899,-2.1234679238062992,-1.9464291650702574,0.9381661885283263,-5.077441504794196,0.4300463431553111,176.25
706,5.09329582960164,-2.1234678755176253,-1.9464291574840338,0.938166132819287,-5.077441511910617,0.5356078073263262,176.5
707,5.093295830633504,-2.123467830463701,-1.9464291514954717,0.9381660818775077,-5.077441513312701,0.6311692714974204,176.75
708,5.093295831557389,-2.1234677901244337,-1.9464291461335759,0.9381660362665135,-5.077441514568065,0.7167307356685981,177.0
709,5.093295827789892,-2.12346775460723,-1.9464291423663391,0.9381659970141574,-5.077441511088438,0.7922921998398511,177.25
710,5.093295819777024,-2.1234677239016375,-1.946429140099566,0.9381659640204192,-5.077441503320305,0.8578536640111517,177.5
711,5.093295812986349,-2.1234676978795273,-1.9464291381785397,0.9381659360591701,-5.077441496737035,0.9134151281824876,177.75
712,5.093295807417865,-2.1234676765409,-1.946429136603259,0.9381659131304094,-5.077441491338627,0.958976592353854,178.0
713,5.093295803071573,-2.123467659885754,-1.9464291353737266,0.9381658952341385,-5.077441487125082,0.9945380565252251,178.25
714,5.093295799947473,-2.1234676479140897,-1.9464291344899431,0.9381658823703576,-5.0774414840964,1.020099520696565,178.5
715,5.093295798045564,-2.1234676406259068,-1.9464291339519078,0.9381658745390665,-5.07744148225258,1.0356609848679168,178.75
716,5.0925490979456205,-2.1249334156364115,-1.9435552681892316,0.9367573778634477,-5.076696575868456,1.0429337633296711,179.0
717,5.091089045541044,-2.1277995149421316,-1.9379358773493884,0.9340032913176363,-5.075240030900783,1.0410441758067772,179.25
718,5.0908329722133585,-2.1283021955244927,-1.9369503092620026,0.9335202590553977,-5.074984573387478,1.0309480276697627,179.5
719,5.090832974724583,-2.1283022019758024,-1.9369503122370724,0.9335202578487588,-5.074984577207155,1.0116116254995464,179.75
720,5.090832978534509,-2.1283022117634665,-1.9369503167507278,0.9335202560180954,-5.074984583002214,0.982275223329319,180.0
721,5.090832983643139,-2.128302224887485,-1.936950322802968,0.9335202535634075,-5.074984590772654,0.9429388211590735,180.25
722,5.09083299014935,-2.1283022413918014,-1.9369503303423192,0.9335202506232213,-5.074984601381978,0.8936024207405558,180.5
723,5.090832998693978,-2.128302261561209,-1.9369503390351754,0.9335202480953302,-5.0749846204265765,0.834266031923981,180.75
724,5.090833008678638,-2.1283022851297804,-1.9369503491930447,0.9335202451414117,-5.074984642680773,0.764929643107438,181.0
725,5.090833009101464,-2.128302321457257,-1.936950354631723,0.9335202834262537,-5.074984645402646,0.6855932691192675,181.25
726,5.090833008351307,-2.1283023634229297,-1.9369503600515654,0.9335203312492352,-5.074984645913816,0.5962568992490084,181.5
727,5.090833007505379,-2.1283024101632724,-1.9369503660083778,0.9335203847569474,-5.07498464637847,0.4969205396282199,181.75
728,5.090832995270627,-2.1283024584682457,-1.9369503747016805,0.9335204418175733,-5.074984634135351,0.3875841890063965,182.0
729,5.090832978311184,-2.1283025101887034,-1.9369503848725436,0.9335205035085044,-5.074984616695901,0.2682478460412533,182.25
730,5.090832954216923,-2.128302562898651,-1.9369503966667656,0.9335205677088461,-5.0749845921127115,0.13891151027073975,182.5
731,5.090832917722594,-2.1283026135167487,-1.9369504107932247,0.9335206319733211,-5.074984555165113,-0.0004248212830130875,182.75
732,5.090832873603315,-2.1283026627224584,-1.936950426329433,0.93352069615923,-5.074984510598592,-0.14976115040295573,183.0
733,5.090832816157345,-2.1283027047694754,-1.9369504437261327,0.9335207549248152,-5.074984452754768,-0.3090974728422194,183.25
734,5.090832749878555,-2.128302737694938,-1.9369504617933744,0.9335208051661135,-5.07498438614568,-0.47544362020654507,183.5
735,5.090832681775384,-2.128302760364314,-1.9369504789225132,0.9335208442147257,-5.074984317795296,-0.6338434466874594,183.75
736,5.090832614097231,-2.128302766771733,-1.936950493871783,0.9335208648581514,-5.074984250004662,-0.7822432731684928,184.0
737,5.090832549807068,-2.128302768259084,-1.9369505074812428,0.9335208792865242,-5.074984185645651,-0.9206430996496844,184.25
738,5.09083249044683,-2.128302757215546,-1.9369505184503868,0.9335208786195686,-5.074984126324435,-1.049042926130987,184.5
739,5.0908324358086485,-2.128302742712512,-1.9369505279891064,0.933520873118431,-5.0749840717580135,-1.1674427526124578,184.75
740,5.090832387177959,-2.1283027251872495,-1.9369505358853456,0.9335208630207629,-5.074984023229342,-1.275842579094004,185.0
741,5.090832345748401,-2.1283027009998636,-1.9369505414219192,0.9335208439890565,-5.074983981963181,-1.3742424055756706,185.25
742,5.090832308529169,-2.128302679270552,-1.9369505463958259,0.9335208268914671,-5.0749839448907395,-1.462642232057405,185.5
743,5.0908322765669975,-2.1283026585474656,-1.9369505504019096,0.9335208098847021,-5.074983913071669,-1.5410420585392224,185.75
744,5.090832252867541,-2.1283026346616687,-1.9369505522767598,0.9335207876757928,-5.074983889548715,-1.6094418850211003,186.0
745,5.090832232632927,-2.1283026142679566,-1.9369505538775085,0.9335207687138083,-5.074983869464798,-1.6678417115030182,186.25
746,5.090832215863154,-2.12830259736633,-1.9369505552041517,0.9335207529987467,-5.074983852819919,-1.716241537984954,186.5
747,5.0908322025582216,-2.1283025839567875,-1.9369505562566944,0.9335207405306101,-5.074983839614076,-1.754641364466909,186.75
748,5.090832192718132,-2.128302574039329,-1.936950557035136,0.9335207313093988,-5.0749838298472705,-1.7830411909488468,187.0
749,5.090832186342884,-2.1283025676139546,-1.936950557539477,0.9335207253351128,-5.074983823519501,-1.801441017430782,187.25
750,5.090474228205279,-2.1290164118071635,-1.9355500010361584,0.9328338287237848,-5.074626755022848,-1.8108412338667474,187.5
751,5.089006879744079,-2.131942653833424,-1.929808762574948,0.9300180764858315,-5.073163053505752,-1.811805667565393,187.75
752,5.088402248816815,-2.1331484399394487,-1.927443034676608,0.9288578194419383,-5.072559926948475,-1.8038443149274892,188.0
753,5.0884022549321815,-2.1331484437059745,-1.927443035971026,0.9288578162581794,-5.07255993655328,-1.7873663401373874,188.25
754,5.088402264758787,-2.133148449758294,-1.927443038050988,0.9288578111422907,-5.07255995198696,-1.7608883653472904,188.5
755,5.0884022782966305,-2.1331484580964086,-1.9274430409164944,0.9288578040942721,-5.072559973249515,-1.72441039055717,188.75
756,5.08840229554571,-2.133148468720317,-1.927443044567545,0.9288577951141234,-5.072560000340945,-1.6779324157670472,189.0
757,5.088402315868889,-2.133148481054146,-1.9274430496079744,0.9288577820722599,-5.072560027670312,-1.621454459377616,189.25
758,5.0884023396650235,-2.133148495458401,-1.9274430556597755,0.9288577663018263,-5.072560058737614,-1.5549765063150645,189.5
759,5.088402369868868,-2.133148513283462,-1.9274430555694555,0.9288577687024486,-5.072560091048812,-1.4784985633110823,189.75
760,5.088402405862798,-2.133148534255469,-1.9274430508771627,0.9288577847877852,-5.072560125352843,-1.3920206264153818,190.0
761,5.0884024460067945,-2.1331485577399456,-1.9274430455628115,0.928857803108054,-5.0725601635162825,-1.295542701397312,190.25
762,5.088402492542407,-2.1331485772999543,-1.927443038366166,0.9288578158478962,-5.072560208897926,-1.1890647831019745,190.5
763,5.0884025459711495,-2.133148591501701,-1.9274430289974251,0.9288578212913837,-5.072560262244616,-1.0725868730109693,190.75
764,5.088402604018249,-2.133148605634639,-1.9274430186528095,0.9288578257405923,-5.072560320227626,-0.9461089711036605,191.0
765,5.088402667037053,-2.133148604195838,-1.9274430052803293,0.928857811586314,-5.072560383317855,-0.8096310752166077,191.25
766,5.0884027344298115,-2.1331486017202286,-1.9274429908589865,0.9288577953930208,-5.072560450794661,-0.663153180021691,191.5
767,5.088402801304098,-2.133148579502517,-1.9274429739985082,0.9288577570523135,-5.072560517913458,-0.5066752918112869,191.75
768,5.088402869141323,-2.133148550713458,-1.927442956088542,0.9288577111137257,-5.072560586050752,-0.34087951275323125,192.0
769,5.088402926930588,-2.133148508476716,-1.9274429385457923,0.928857652016974,-5.072560644243157,-0.1796250549161778,192.25
770,5.088402974208465,-2.13314846188297,-1.9274429226403291,0.9288575901000016,-5.072560691951104,-0.028370597079035404,192.5
771,5.088403010982759,-2.1331484109400756,-1.9274429083715372,0.9288575253701126,-5.072560729182339,0.11288386075819676,192.75
772,5.088403038294985,-2.1331483596019623,-1.9274428960316938,0.9288574620765462,-5.072560756946379,0.2441383185954395,193.0
773,5.0884030554181825,-2.133148307444484,-1.927442885718187,0.928857399885834,-5.0725607745191486,0.3653927764327441,193.25
774,5.088403070543647,-2.133148259433078,-1.927442876357716,0.9288573427653458,-5.072560790057883,0.47664723427006006,193.5
775,5.088403071622283,-2.1331482123696643,-1.9274428700588988,0.9288572895068795,-5.072560791529395,0.5779016921074055,193.75
776,5.088403072594391,-2.1331481699542865,-1.9274428643821557,0.9288572415082754,-5.07256079285558,0.6691561499447916,194.0
777,5.088403073459974,-2.1331481321869434,-1.9274428593274886,0.9288571987695341,-5.072560794036436,0.7504106077821745,194.25
778,5.088403065820467,-2.1331480992594254,-1.927442856677064,0.9288571631770861,-5.072560786664332,0.8216650656195695,194.5
779,5.088403058422482,-2.1331480709719934,-1.9274428545748625,0.9288571327663256,-5.072560779495326,0.8829195234569616,194.75
780,5.088403052232245,-2.1331480473025826,-1.92744285281585,0.9288571073202246,-5.0725607734966855,0.9341739812942986,195.0
781,5.088403047249754,-2.133148028251192,-1.9274428514000284,0.9288570868387842,-5.07256076866841,0.9754284391316286,195.25
782,5.088403043475008,-2.133148013817821,-1.9274428503273993,0.928857071322005,-5.072560765010498,1.0066828969689698,195.5
783,5.08840304090801,-2.13314800400247,-1.9274428495979625,0.9288570607698867,-5.072560762522952,1.0279373548063229,195.75
784,5.088322091295315,-2.1333119923324726,-1.9271208806370272,0.9286990407669088,-5.072480021030761,1.0394746594597755,196.0
785,5.087027129444367,-2.1359354634204353,-1.9219702192032138,0.9261712205966547,-5.0711883878968935,1.043274647331566,196.25
786,5.0860060364283735,-2.1380041075396647,-1.9179088571894722,0.9241780029397471,-5.07016992001563,1.0374360051766436,196.5
787,5.0860054459805735,-2.1380053117588242,-1.9179065038207637,0.9241768461019494,-5.0701693320562935,1.0238311346417992,196.75
788,5.086005449019808,-2.138005319525843,-1.9179065074356347,0.9241768446454537,-5.070169336771776,1.0002285944471139,197.0
789,5.086005453346717,-2.138005330583617,-1.917906512582066,0.9241768425718653,-5.07016934348513,0.9666260542524244,197.25
790,5.086005458961297,-2.138005344932147,-1.9179065192600577,0.924176839881184,-5.070169352196353,0.9230235140577735,197.5
791,5.086005466293904,-2.1380053627706928,-1.917906527236304,0.9241768372100699,-5.070169366703527,0.8694209787085115,197.75
792,5.086005475363817,-2.1380053841081814,-1.9179065365003534,0.9241768345870438,-5.070169387176795,0.8058184472007651,198.0
793,5.086005482010957,-2.138005412053074,-1.917906545045741,0.9241768460607505,-5.070169402808211,0.7322159211274397,198.25
794,5.086005481319297,-2.1380054507598576,-1.9179065500940928,0.9241768901635267,-5.070169403301825,0.6486134058710016,198.5
795,5.086005480535862,-2.1380054941544815,-1.9179065556933637,0.9241769397910597,-5.0701694037740594,0.5550108987408092,198.75
796,5.086005476928889,-2.1380055414608514,-1.9179065623781213,0.9241769944314107,-5.070169401161356,0.4514083986759455,199.0
797,5.086005460978879,-2.1380055899975563,-1.9179065719903499,0.9241770523963354,-5.070169384761192,0.33780590803767335,199.25
798,5.086005443622899,-2.1380056428048486,-1.917906582450698,0.9241771154565126,-5.070169366900159,0.21420342654460248,199.5
799,5.08600541232426,-2.1380056925549358,-1.917906595455817,0.9241771778046539,-5.070169335142918,0.08060095083574456,199.75
800,5.086005375161533,-2.1380057439701456,-1.9179066099114377,0.9241772431862536,-5.070169297512415,-0.063001523247213,200.0
801,5.086005323957851,-2.138005787441799,-1.9179066262838491,0.9241773024121208,-5.070169245897185,-0.21660399220407808,200.25
