Miguel-LA/TFM_MiguelLerinAlonso/workspace/ros_ur_driver/src/trayectories/data/saved_trajectories/20240527_1311_trajectory.csv
,shoulder_pan_joint,shoulder_lift_joint,elbow_joint,wrist_1_joint,wrist_2_joint,wrist_3_joint,time_from_start
0,1.291182279586792,-0.9044607321368616,1.9423885345458984,-4.129050079976217,-1.2364681402789515,-0.03682452837099248,0.0
1,1.2918830231187226,-0.9051518609897461,1.9428431919012155,-4.12915749289605,-1.2372310094663352,-0.0318245283709925,1.0
2,1.2939852537145147,-0.907225247548399,1.944207163967166,-4.12947973165555,-1.2395196170284868,-0.016824528370992547,2.0
3,1.2974889713741682,-0.9106808918128206,1.9464804507437505,-4.130016796254717,-1.2433339629654059,0.008175471629007561,3.0
4,1.3023942359588472,-0.9155187904529296,1.9496629814929125,-4.13076858398192,-1.2486742037150727,0.04317547006540168,4.0
5,1.3087427375929717,-0.9217367708453232,1.953705748475355,-4.131663824630832,-1.2556490754978737,0.08817538561166105,5.0
6,1.31660745721774,-0.9293310448932518,1.9585229875601848,-4.13257778291512,-1.2644489050213252,0.14317518040652355,6.0
7,1.3260520082899316,-0.9382983431897132,1.9640399593573314,-4.133401214875888,-1.2752393531548476,0.2081748116937684,7.0
8,1.3371532699119704,-0.9486366870320331,1.9701674402949556,-4.133971998774196,-1.2882067353664883,0.28317421602377246,8.0
9,1.3500008310702905,-0.9603435648250723,1.9768012463822537,-4.134103276710376,-1.3035690519838292,0.3681733610377417,9.0
10,1.3646947499131308,-0.9734149158983991,1.9838196191785187,-4.133551350620744,-1.3215509768136524,0.4631721809952768,10.0
11,1.3800449607087732,-0.9867307827767033,1.9905411273962144,-4.1321901547221325,-1.3407540128224147,0.5600574904773084,11.0
12,1.394136589979052,-0.9986687973765518,1.9961922736591253,-4.130235876696195,-1.3587005507534018,0.6470411500092959,12.0
13,1.406850323368547,-1.0092177360604593,2.0008862603046302,-4.1279098099623734,-1.3751212378176518,0.7240234926318421,13.0
14,1.4180934438233044,-1.0183795798759498,2.0047303704334016,-4.125410364024551,-1.3897928703226672,0.7910054204453603,14.0
15,1.4277897057889137,-1.0261601474999507,2.0078230688633547,-4.122931767163802,-1.4025499606798482,0.8479871552866396,15.0
16,1.4358714243825779,-1.0325625515701693,2.0102473516671995,-4.120636917702947,-1.4132400783993337,0.8949687321025708,16.0
17,1.4422881636093108,-1.0375938374103344,2.012075301414861,-4.11866979897029,-1.4217628721592428,0.9319501792669951,17.0
18,1.4470005338171381,-1.0412599660931472,2.013364207053121,-4.117145052323327,-1.4280412522547077,0.9589315222935904,18.0
19,1.449991210391298,-1.0435755843539138,2.0141616244307285,-4.116146573225126,-1.432033228158962,0.9759136892257383,19.0
20,1.4545092474575718,-1.047072244283468,2.0153633977848973,-4.114633857456183,-1.4380649875307838,0.9829226070210865,20.0
21,1.459861574176508,-1.0512145821045396,2.016787082727176,-4.112841813207527,-1.4452105626777336,0.9799372610099566,21.0
22,1.461748135898996,-1.0526746464184809,2.017288891437807,-4.1122101679590015,-1.4477292053959956,0.9680508976534477,22.0
23,1.4617481255742768,-1.0526746262689795,2.0172888798190156,-4.112210182037382,-1.4477292021688353,0.947753089349022,23.0
24,1.4617481101629397,-1.0526745961925434,2.0172888624760636,-4.112210203051673,-1.447729197351769,0.917455281044598,24.0
25,1.4617480894578505,-1.0526745557715558,2.017288839082844,-4.112210232794231,-1.447729189308522,0.8771574853152656,25.0
26,1.461748063421339,-1.0526745049300674,2.0172888095800485,-4.112210271591004,-1.447729177741531,0.8268597001916822,26.0
27,1.4617480322083545,-1.0526744439804825,2.0172887742116283,-4.112210318101193,-1.4477291638748382,0.766561915068097,27.0
28,1.4617480267376033,-1.0526744041809513,2.0172887727421145,-4.1122103603250935,-1.4477291600534343,0.6962641303978976,28.0
29,1.4617480257743365,-1.0526743640635972,2.017288777861507,-4.112210406504016,-1.4477291577988665,0.615966345797675,29.0
30,1.4617480246600998,-1.052674319011081,2.017288783672687,-4.112210458198541,-1.4477291550205655,0.5256685728454621,30.0
31,1.4617480166307126,-1.0526742707833476,2.0172887913031188,-4.11221051446657,-1.4477291457726746,0.42537080510438935,31.0
32,1.461747999139618,-1.0526742200597647,2.0172888011927945,-4.11221057488021,-1.447729127750876,0.31507304392422136,32.0
33,1.4617479800642723,-1.0526741647392925,2.0172888119805132,-4.1122106407627514,-1.447729108107427,0.19477528571282865,33.0
34,1.4617479429316946,-1.0526741138145208,2.017288825640426,-4.112210705010283,-1.4477290704589234,0.06447752860966689,34.0
35,1.4617479017014934,-1.0526740596626682,2.017288840498235,-4.112210773650371,-1.4477290286810027,-0.0758202215123783,35.0
36,1.4617478433965607,-1.0526740149946034,2.0172888573994148,-4.1122108346879696,-1.4477289698942957,-0.22611796387633618,36.0
37,1.4617477782961235,-1.0526739701839538,2.0172888756182994,-4.1122108971224405,-1.4477289043023867,-0.38641570067035264,37.0
38,1.4617476991450635,-1.052673945226271,2.017288893967236,-4.112210939695678,-1.4477288248278477,-0.5499106370142334,38.0
39,1.4617476233789892,-1.052673926398741,2.0172889108794605,-4.112210974731743,-1.4477287487991326,-0.7037125566733142,39.0
40,1.4617475480848565,-1.0526739246371655,2.0172889255036894,-4.112210990412648,-1.4477286734013524,-0.8475144763323901,40.0
41,1.4617474781006092,-1.0526739265508616,2.017288938639278,-4.112211000978182,-1.4477286033537349,-0.9813163959914375,41.0
42,1.4617474136426274,-1.052673942539078,2.0172889489056463,-4.112210994647111,-1.4477285389694585,-1.1051183156504878,42.0
43,1.4617473543911867,-1.0526739572358552,2.0172889583427485,-4.112210988827421,-1.4477284797857695,-1.2189202353095427,43.0
44,1.4617473039981712,-1.0526739812377923,2.01728896488767,-4.112210970890323,-1.4477284295571664,-1.3227221549686052,44.0
45,1.4617472593923926,-1.0526740056332855,2.0172889702753016,-4.112210951456474,-1.4477283851261638,-1.4165240746276697,45.0
46,1.4617472195419299,-1.052674027428031,2.0172889750885665,-4.112210934094417,-1.4477283454318448,-1.5003259942867382,46.0
47,1.4617471883563289,-1.0526740517567703,2.017288977918656,-4.112210912295543,-1.447728314435958,-1.5741279139458093,47.0
48,1.4617471633533659,-1.0526740753593873,2.0172889796600444,-4.112210890192259,-1.4477282896231354,-1.6379298336048826,48.0
49,1.4617471422692443,-1.0526740952626452,2.0172889811284946,-4.112210871553333,-1.447728268699353,-1.6917317532639566,49.0
50,1.4617471251039649,-1.0526741114665439,2.0172889823240063,-4.112210856378767,-1.4477282516646106,-1.7355336729230317,50.0
51,1.4617471118575271,-1.0526741239710844,2.017288983246582,-4.112210844668562,-1.4477282385189083,-1.7693355925821064,51.0
52,1.4617471025299311,-1.0526741327762668,2.017288983896222,-4.112210836422718,-1.4477282292622462,-1.7931375122411795,52.0
53,1.4617470971211775,-1.0526741378820912,2.017288984272926,-4.112210831641235,-1.4477282238946243,-1.8069394319002539,53.0
54,1.4620931951468423,-1.0507482174684477,2.0135479256304327,-4.110396414112596,-1.4480815016805242,-1.8129055803626153,54.0
55,1.462575029218362,-1.0480665121907442,2.0083387292014936,-4.107869926431807,-1.4485733334227477,-1.8094439702531442,55.0
56,1.4626053270284878,-1.047896457101546,2.008008254277104,-4.107709569981001,-1.4486042664461138,-1.7983510311553286,56.0
57,1.462604892885293,-1.0478961378462013,2.0080073585876406,-4.107708993190162,-1.4486038358487785,-1.7775488356061264,57.0
58,1.462604250041438,-1.0478956651189097,2.008006032323692,-4.107708139125302,-1.4486031982553431,-1.746746640056922,58.0
59,1.4626033984969231,-1.0478950389196715,2.008004275485259,-4.107707007786422,-1.4486023536658077,-1.705944444507718,59.0
60,1.462602338355172,-1.0478942592666636,2.008002088075068,-4.107705599040274,-1.448601302864649,-1.6551422555185322,60.0
61,1.4626010698255452,-1.0478933261966454,2.00799947009851,-4.107703912616966,-1.448600047440285,-1.5943400833691368,61.0
62,1.462599676107513,-1.047892298674174,2.0079965897170124,-4.1077020580995125,-1.4485986681621277,-1.523537912094705,62.0
63,1.46259971434554,-1.0478922778374393,2.007996585108597,-4.107702074539433,-1.4485987068580637,-1.442735755934689,63.0
64,1.4625997573135932,-1.0478922544355267,2.0079965799414894,-4.1077020929595065,-1.4485987503251883,-1.35193360430988,64.0
65,1.4625998050092106,-1.0478922284830945,2.0079965742282755,-4.107702113300876,-1.448598798544272,-1.2511314611155653,65.0
66,1.4625998618738336,-1.04789221307649,2.007996565325641,-4.1077021202863335,-1.448598855386456,-1.1403293286350173,66.0
67,1.4625999243122678,-1.0478921975869633,2.007996555357784,-4.107702126371652,-1.4485989177364207,-1.01952720355591,67.0
68,1.4625999921176955,-1.0478921902865932,2.0079965432988347,-4.107702122239875,-1.4485989855423158,-0.8887250852223361,68.0
69,1.462600065307393,-1.047892191982793,2.0079965290410358,-4.107702106976281,-1.448599058832193,-0.7479229702671355,69.0
70,1.4626001408136364,-1.0478922040463439,2.007996512999674,-4.107702079579997,-1.4485991345388038,-0.597120858700402,70.0
71,1.462600218097704,-1.0478922283929792,2.007996495030658,-4.107702037985259,-1.4485992121407336,-0.43631875361854583,71.0
72,1.4626002889127543,-1.0478922681055223,2.007996476317451,-4.107701980214408,-1.448599283409648,-0.2703277960702385,72.0
73,1.4626003520751247,-1.0478923118105448,2.0079964585563355,-4.107701919329696,-1.4485993470542322,-0.1133981771012801,73.0
74,1.4626003964870655,-1.0478923666310775,2.007996442955798,-4.107701849309639,-1.4485993920303364,0.033531441867682206,74.0
75,1.4626004364367846,-1.0478924190794303,2.007996428517594,-4.107701782782789,-1.4485994325168372,0.17046106083664606,75.0
76,1.4626004585215997,-1.0478924758735308,2.0079964169446587,-4.1077017146055885,-1.4485994551581673,0.29739067980561246,76.0
77,1.4626004769242842,-1.0478925292555379,2.007996406518771,-4.107701650953915,-1.4485994740811807,0.41432029877457605,77.0
78,1.4626004864708282,-1.047892579879631,2.007996398147854,-4.107701592032511,-1.4485994841119323,0.5212499177435455,78.0
79,1.4626004874654441,-1.0478926276703084,2.007996391783313,-4.107701537871174,-1.4485994855542847,0.618179536712514,79.0
80,1.462600488357448,-1.0478926705305314,2.0079963860753804,-4.107701489297531,-1.4485994868478336,0.7051091556814819,80.0
81,1.4626004854942503,-1.047892708375632,2.007996381735605,-4.107701447073383,-1.448599484334929,0.782038774650462,81.0
82,1.462600476278614,-1.047892741145403,2.0079963792699393,-4.10770141174042,-1.4485994754147362,0.8489683936194359,82.0
83,1.4626004684398923,-1.0478927690190205,2.0079963771726708,-4.107701381686579,-1.4485994678273153,0.9058980125884013,83.0
84,1.4626004619780852,-1.0478927919964824,2.007996375443796,-4.107701356911859,-1.448599461572667,0.9528276315573627,84.0
85,1.4626004568931927,-1.0478928100777907,2.0079963740833184,-4.107701337416261,-1.4485994566507903,0.9897572505263224,85.0
86,1.4626004531852144,-1.0478928232629456,2.0079963730912382,-4.107701323199785,-1.4485994530616857,1.0166868694952842,86.0
87,1.4626004508541506,-1.047892831551947,2.0079963724675554,-4.107701314262432,-1.4485994508053535,1.0336164884642491,87.0
88,1.462775962038557,-1.0469004238339168,2.0060669914691354,-4.106764708403617,-1.4487786791219517,1.041852062546342,88.0
89,1.463303106271292,-1.0439195654998366,2.000271786484417,-4.103951465334902,-1.4493169884597603,1.0414782173741037,89.0
90,1.4634466572575446,-1.0431067096263409,1.998691374723368,-4.103184210038548,-1.4494635854959887,1.0326890281579972,90.0
91,1.463446292544575,-1.0431064268665664,1.9986906003757483,-4.103183717824805,-1.449463224828131,1.0150232026169945,91.0
92,1.463445721380473,-1.043105984046469,1.9986893876972855,-4.103182946986246,-1.4494626599989358,0.9873573770759954,92.0
93,1.463444943765238,-1.0431053811660482,1.9986877366879803,-4.103181897522869,-1.4494618910084025,0.9496915515349975,93.0
94,1.4634439596988704,-1.0431046182253043,1.998685647347832,-4.103180569434674,-1.4494609178565316,0.9020257259939979,94.0
95,1.4634427688639642,-1.043103694996571,1.9986831195134014,-4.103178963732938,-1.449459737885121,0.8443599066158558,95.0
96,1.4634413715099384,-1.043102611658748,1.9986801533130836,-4.103177079622892,-1.4494583531831626,0.7766940874693324,96.0
97,1.4634409701912896,-1.043102272485425,1.998679306594664,-4.103176571858722,-1.449457954796208,0.6990282802900931,97.0
98,1.4634409692104,-1.0431022295367154,1.9986793122949273,-4.103176620711291,-1.449457952766638,0.6113624777633877,98.0
99,1.463440968111667,-1.0431021817275874,1.9986793186788143,-4.103176674980526,-1.4494579504587812,0.5136966876546015,99.0
100,1.46344095737882,-1.043102131418719,1.9986793272581438,-4.103176733795478,-1.4494579389105682,0.40603090458805524,100.0
101,1.463440938992565,-1.0431020781119553,1.9986793377122563,-4.103176797365996,-1.449457919997453,0.2883651294982187,101.0
102,1.4634409156569228,-1.0431020221263685,1.9986793494649429,-4.10317686487148,-1.449457896108648,0.160699362171556,102.0
103,1.4634408757809843,-1.04310196979633,1.9986793639192757,-4.1031769312940645,-1.4494578556949822,0.02303360009972418,103.0
104,1.4634408302462987,-1.0431019162723454,1.9986793796170907,-4.103177000101005,-1.449457809604528,-0.12463216058001444,104.0
105,1.4634407672433625,-1.0431018727021257,1.9986793973861445,-4.103177060856348,-1.4494577461175997,-0.28229791439342855,105.0
106,1.4634406959021906,-1.0431018347677148,1.9986794160292307,-4.103177116768973,-1.4494576743356125,-0.4485211121527716,106.0
107,1.4634406195227752,-1.0431018107286285,1.9986794338410188,-4.1031771579026985,-1.4494575976401367,-0.6085906735323473,107.0
108,1.4634405444928928,-1.0431018003580501,1.9986794496217928,-4.103177183345353,-1.4494575224243342,-0.7586602349119154,108.0
109,1.4634404722068393,-1.0431017986987976,1.9986794637456846,-4.103177198443061,-1.4494574500375208,-0.8987297962914745,109.0
110,1.4634404052917858,-1.043101807255542,1.9986794755121984,-4.103177201015106,-1.449457383124113,-1.028799357671024,110.0
111,1.4634403436754666,-1.0431018225580315,1.998679485384958,-4.103177194995785,-1.4494573215791229,-1.1488689190505714,111.0
112,1.4634402879483008,-1.0431018387824464,1.9986794940050814,-4.103177186857494,-1.4494572659388947,-1.2589384804301111,112.0
113,1.4634402410460134,-1.0431018644417462,1.998679499704483,-4.103177166444335,-1.4494572192226733,-1.3590080418096482,113.0
114,1.4634401988306944,-1.0431018875368974,1.9986795048343353,-4.103177148071071,-1.449457177174827,-1.4490776031891814,114.0
115,1.4634401614374952,-1.0431019082452613,1.9986795093456529,-4.103177131512578,-1.4494571399323342,-1.529147164568713,115.0
116,1.4634401343730827,-1.0431019337932619,1.9986795112423883,-4.1031771075963395,-1.4494571130763096,-1.5992167259482466,116.0
117,1.4634401111711768,-1.0431019556951715,1.9986795128684303,-4.103177087093314,-1.4494570900530515,-1.6592862873277758,117.0
118,1.4634400918317771,-1.0431019739509888,1.998679514223776,-4.103177070003502,-1.4494570708625596,-1.7093558487073193,118.0
119,1.4634400763548836,-1.0431019885607147,1.9986795153084287,-4.103177056326902,-1.4494570555048336,-1.7494254100868618,119.0
120,1.4634400647404964,-1.04310199952435,1.9986795161223887,-4.103177046063517,-1.449457043979874,-1.7794949714664035,120.0
121,1.463440056988616,-1.0431020068418944,1.9986795166656566,-4.103177039213345,-1.4494570362876804,-1.7995645328459449,121.0
122,1.4634906140433208,-1.0428115293313338,1.998114309375832,-4.102902415807604,-1.4495086864520925,-1.8101114835679282,122.0
123,1.4639798420243157,-1.0400008014176174,1.9926452965788337,-4.100245160574962,-1.4500084912149986,-1.8128921025841978,123.0
124,1.4642745309144287,-1.0383069172102968,1.9893493180231288,-4.098643686614018,-1.4503095549066496,-1.8064142179759137,124.0
125,1.4642742412623442,-1.0383066786627175,1.9893486683068256,-4.098643275217544,-1.4503092677888452,-1.7918976816168306,125.0
126,1.464273752077756,-1.0383062757869723,1.9893475710207398,-4.098642580422563,-1.4503087828843253,-1.7673811452577441,126.0
127,1.4642730633606644,-1.0383057085830614,1.9893460261648703,-4.098641602229074,-1.45030810019309,-1.7328646088986615,127.0
128,1.4642721751110692,-1.038304977050985,1.9893440337392179,-4.098640340637077,-1.4503072197151392,-1.6883480725395734,128.0
129,1.464271087570187,-1.0383040812378685,1.98934159375441,-4.098638795313699,-1.4503061433031412,-1.63383154970236,129.0
130,1.4642698006814776,-1.038303021132627,1.9893387062078192,-4.09863696633679,-1.4503048705232562,-1.5693150341166127,130.0
131,1.4642689832312548,-1.0383023268154745,1.989336835847082,-4.098635789383667,-1.450304062383012,-1.4947985253117715,131.0
132,1.4642690226542818,-1.0383023053262426,1.989336831067942,-4.0986358063106945,-1.450304102271002,-1.4102820256304596,132.0
133,1.4642690667370397,-1.0383022813221912,1.9893368257475124,-4.09863582512871,-1.4503041468405375,-1.315765535326075,133.0
134,1.464269116806209,-1.0383022587003357,1.989336819086641,-4.098635841306105,-1.4503041972588397,-1.211249051999783,134.0
135,1.4642691751520325,-1.0383022442077632,1.9893368097157136,-4.098635846959858,-1.4503042555249077,-1.0967325772404029,135.0
136,1.4642692385918856,-1.0383022284489773,1.9893367995260092,-4.098635853110438,-1.4503043188714495,-0.9722161121224501,136.0
137,1.4642693074709556,-1.0383022278246958,1.9893367863122757,-4.098635841175781,-1.4503043878228767,-0.837699652746075,137.0
138,1.464269381519944,-1.038302229507171,1.9893367717996757,-4.09863582568822,-1.4503044619745804,-0.6931831944927398,138.0
139,1.464269455589871,-1.038302249446456,1.9893367549096626,-4.0986357895601895,-1.4503045363210474,-0.5386667419312818,139.0
140,1.4642695326662363,-1.038302275321892,1.989336736667589,-4.0986357461706495,-1.4503046137338957,-0.37419271655713576,140.0
141,1.4642695974212403,-1.0383023200781092,1.9893367183492363,-4.098635683700434,-1.4503046789894216,-0.21097889996276567,141.0
142,1.4642696536458808,-1.038302366399298,1.989336701474025,-4.098635621026439,-1.4503047357192649,-0.057765083368408424,142.0
143,1.4642696948334324,-1.0383024204275455,1.9893366864994269,-4.0986355523999904,-1.4503047774671054,0.08544873322594078,143.0
144,1.4642697288231297,-1.0383024730480317,1.989336673097243,-4.098635486685422,-1.4503048119952209,0.2186625498202896,144.0
145,1.4642697479386184,-1.0383025284610063,1.9893366622031756,-4.098635420543569,-1.4503048316578977,0.34187636641462676,145.0
146,1.464269765502699,-1.038302579376674,1.98933665219326,-4.098635359769767,-1.4503048497247573,0.4550901830089577,146.0
147,1.464269768946122,-1.0383026289186408,1.989336645087648,-4.098635303139555,-1.4503048536411878,0.558303999603285,147.0
148,1.46426976988927,-1.0383026741991086,1.989336639018696,-4.098635251784961,-1.4503048550140392,0.6515178161976062,148.0
149,1.4642697707312369,-1.0383027146218755,1.9893366336008194,-4.098635205939699,-1.4503048562396106,0.7347316327919283,149.0
150,1.464269764076008,-1.038302750018852,1.9893366302835271,-4.098635167150791,-1.450304849911514,0.8079454493862501,150.0
151,1.4642697554963586,-1.0383027805166924,1.989336627974641,-4.098635134252583,-1.4503048416103406,0.8711592659805748,151.0
152,1.4642697482739524,-1.038302806189979,1.9893366260310033,-4.098635106558649,-1.450304834622357,0.9243730825749042,152.0
153,1.4642697424087885,-1.038302827038712,1.9893366244526145,-4.09863508406899,-1.450304828947563,0.9675868991692381,153.0
154,1.4642697379008673,-1.0383028430628924,1.9893366232394767,-4.098635066783605,-1.450304824585959,1.0008007157635697,154.0
155,1.464269734750189,-1.0383028542625203,1.9893366223915898,-4.098635054702496,-1.4503048215375445,1.0240145323578989,155.0
156,1.4642698837762371,-1.0383019802755264,1.9893349075289748,-4.098634214126874,-1.4503049739498874,1.0372290820508623,156.0
157,1.464629510972085,-1.0362027666262945,1.9852469836732323,-4.096646264859894,-1.4506725369486662,1.0427613912728704,157.0
158,1.4650736334427947,-1.0336098069630628,1.9801975160470722,-4.094190696659261,-1.4511264623952647,1.0387506904079233,158.0
159,1.465092442534194,-1.0334984846296882,1.9799805899013792,-4.094085132732624,-1.4511456942574066,1.0271915084028937,159.0
160,1.465092020573595,-1.033498119435784,1.979979616600938,-4.094084523893983,-1.4511452772504045,1.0058280359626504,160.0
161,1.4650914010980087,-1.033497583298741,1.9799781877095604,-4.0940836300648575,-1.451144665047138,0.9744645635223995,161.0
162,1.465090584107435,-1.0334968762185586,1.9799763032272466,-4.094082451245245,-1.4511438576476068,0.9331010910821533,162.0
163,1.4650895695020065,-1.033495998120463,1.9799739630990474,-4.094080987766688,-1.451142854204102,0.881737622637701,163.0
164,1.4650883571453857,-1.03349494890237,1.9799711672498908,-4.094079240081657,-1.451141653559578,0.8203741620305757,164.0
165,1.4650871084140447,-1.0334938643410179,1.979968288249403,-4.094077444576619,-1.451140416794777,0.749010703202089,165.0
166,1.4650871075183423,-1.0334938250617092,1.9799682934936298,-4.094077489295611,-1.4511404149413574,0.6676472586819182,166.0
167,1.4650871065101359,-1.0334937809699964,1.979968299395712,-4.0940775394493425,-1.4511404128409158,0.5762838194015468,167.0
168,1.465087105387827,-1.0334937320759494,1.9799683059644502,-4.094077594997182,-1.4511404104807406,0.47492038779686024,168.0
169,1.465087088710519,-1.0334936822503782,1.9799683156994203,-4.09407765438627,-1.4511403932774725,0.3635569675645502,169.0
170,1.4650870700149552,-1.0334936280822093,1.9799683263936079,-4.0940777190520325,-1.4511403740418825,0.24219355461703956,170.0
171,1.465087039896668,-1.0334935748539045,1.9799683391728338,-4.094077784770748,-1.45114034338142,0.11083014820692444,171.0
172,1.4650869995290916,-1.0334935219236543,1.9799683538940642,-4.0940778520506615,-1.4511403024627443,-0.030533255198391902,172.0
173,1.4650869473891626,-1.0334934736660668,1.9799683702855824,-4.094077916213719,-1.4511402498014123,-0.18189665487810888,173.0
174,1.4650868838213431,-1.0334934297560225,1.9799683883231198,-4.094077977564039,-1.4511401857392205,-0.34326004812415706,174.0
175,1.4650868090630684,-1.0334934000462215,1.9799684066755827,-4.094078024917098,-1.4511401106084474,-0.5090037072297567,175.0
176,1.4650867355050616,-1.0334933769400492,1.979968423934271,-4.094078064582242,-1.451140036742286,-0.6653741239844306,176.0
177,1.4650866612459494,-1.0334933745222004,1.9799684386303023,-4.094078080983302,-1.451139962371248,-0.8117445407391238,177.0
178,1.4650865918653817,-1.033493372961961,1.9799684522697059,-4.09407809551674,-1.4511398928927637,-0.9481149574938531,178.0
179,1.4650865279101817,-1.033493387719968,1.979968462730032,-4.094078090599966,-1.4511398290015802,-1.0744853742486207,179.0
180,1.4650864690378052,-1.033493402360551,1.9799684722213522,-4.094078084880487,-1.451139770198187,-1.1908557910034263,180.0
181,1.4650864176448013,-1.033493422756731,1.979968479513536,-4.094078071276375,-1.4511397189379447,-1.297226207758244,181.0
182,1.4650863731159953,-1.0334934471258335,1.9799684849582353,-4.094078051916592,-1.4511396745879621,-1.3935966245130809,182.0
183,1.4650863332077781,-1.033493468966242,1.9799684898379522,-4.0940780345656975,-1.451139634840012,-1.4799670412679466,183.0
184,1.4650863002538168,-1.0334934913378395,1.9799684933016604,-4.094078015334267,-1.451139602059702,-1.5563374580228277,184.0
185,1.4650862749813356,-1.0334935151941553,1.979968495084158,-4.094077993010262,-1.45113957698421,-1.6227078747777242,185.0
186,1.4650862535166476,-1.0334935354560508,1.9799684965980875,-4.094077974049804,-1.4511395556868305,-1.6790782915326303,186.0
187,1.4650862358597525,-1.0334935521235256,1.9799684978434458,-4.094077958452892,-1.4511395381675638,-1.725448708287538,187.0
188,1.4650862220106506,-1.03349356519658,1.9799684988202366,-4.094077946219527,-1.4511395244264098,-1.7618191250424484,188.0
189,1.4650862119693417,-1.033493574675215,1.97996849952846,-4.094077937349711,-1.4511395144633688,-1.7881895417973532,189.0
190,1.4650862057358258,-1.0334935805594299,1.9799684999681162,-4.094077931843442,-1.4511395082784404,-1.8045599585522587,190.0
191,1.4652829950330797,-1.0323265452585864,1.9776940299686434,-4.092970915750597,-1.4513407295688663,-1.8124173805860802,191.0
192,1.4657837897008938,-1.0293564483338138,1.9719055103579084,-4.090153558446893,-1.451852803744367,-1.8115124218286573,192.0
193,1.465897715666425,-1.0286796323932812,1.9705863332190583,-4.08951143984442,-1.4519693010320027,-1.8023390099370056,193.0
194,1.465897368310453,-1.0286793134182768,1.9705854868592054,-4.089510912199565,-1.451968956930443,-1.784141631900457,194.0
195,1.465896830072052,-1.0286788191570286,1.9705841753994622,-4.089510094598183,-1.4519684237348507,-1.7559442538639036,195.0
196,1.465896100951222,-1.0286781496095365,1.970582398839829,-4.089508987040274,-1.4519677014452257,-1.717746875827342,196.0
197,1.46589518095392,-1.0286773047770787,1.9705801571806676,-4.0895075895170585,-1.4519667901079079,-1.6695494979436898,197.0
198,1.4658940704389192,-1.0286762847366133,1.9705774504437479,-4.089505901499787,-1.4519656925138957,-1.611352128351443,198.0
199,1.4658927691051566,-1.0286750894235412,1.9705742786107356,-4.089503923432073,-1.4519644063213228,-1.5431547587591863,199.0
200,1.4658925027535088,-1.0286748025458567,1.9705735555852057,-4.089503487091047,-1.4519641437395958,-1.464957401729975,200.0
201,1.4658925433124277,-1.0286747804325855,1.9705735506413582,-4.089503504470059,-1.451964184765929,-1.376760049115126,201.0
202,1.4658925884637934,-1.0286747558469902,1.9705735451677542,-4.0895035236787285,-1.4519642303942186,-1.2785627083645856,202.0
203,1.46589264126358,-1.0286747377527856,1.970573537311905,-4.089503534285901,-1.451964283321348,-1.1703653752774328,203.0
204,1.465892700637864,-1.0286747229839341,1.970573527715866,-4.089503540008492,-1.451964342611032,-1.052168050082468,204.0
205,1.4658927651279352,-1.028674711393275,1.9705735167082012,-4.089503541196792,-1.4519644070526243,-0.9239707325267534,205.0
206,1.4658928349437117,-1.0286747129462386,1.9705735029401716,-4.08950352655107,-1.4519644769663798,-0.785773419984022,206.0
207,1.4658929085428147,-1.0286747191196002,1.9705734878324115,-4.089503505980457,-1.4519645507126215,-0.6375761092490925,207.0
208,1.4658929824373275,-1.0286747423081564,1.970573470440775,-4.089503466107763,-1.4519646249186278,-0.4793788052788178,208.0
209,1.4658930546418962,-1.02867477560478,1.9705734520547051,-4.0895034151131515,-1.451964697529537,-0.31305892699140436,209.0
210,1.4658931170465364,-1.0286748186856867,1.970573434292281,-4.089503354860169,-1.4519647604224593,-0.1535274721090337,210.0
211,1.465893165241443,-1.028674868787025,1.9705734183719743,-4.089503289289363,-1.451964809155793,-0.003996017226640322,211.0
212,1.4658932048062552,-1.0286749206418322,1.9705734038989555,-4.0895032233284025,-1.4519648492654247,0.13553543765576737,212.0
213,1.4658932311989767,-1.0286749744381194,1.970573391731099,-4.089503157603182,-1.4519648762056834,0.26506689253817284,213.0
214,1.4658932494828716,-1.0286750274044458,1.9705733812473314,-4.089503094313859,-1.4519648950193753,0.3845983474205933,214.0
215,1.4658932630036272,-1.0286750767442805,1.9705733721635736,-4.089503036006081,-1.4519649090294162,0.4941298023030223,215.0
216,1.4658932639968592,-1.028675124389829,1.9705733657355387,-4.0895029819277,-1.4519649104805743,0.593661257185459,216.0
217,1.4658932648903005,-1.0286751672483905,1.9705733599533275,-4.089502933282611,-1.4519649117859332,0.6831927120679007,217.0
218,1.4658932648774403,-1.028675205302023,1.970573354975992,-4.089502890240016,-1.451964912137838,0.7627241669503401,218.0
219,1.4658932555732043,-1.0286752383641669,1.9705733524571043,-4.089502854559031,-1.451964903139305,0.8322556218327801,219.0
220,1.4658932476071014,-1.0286752666713197,1.9705733503004823,-4.089502824009677,-1.4519648954349396,0.8917870767152177,220.0
221,1.4658932409791319,-1.0286752902234795,1.9705733485061225,-4.089502798591955,-1.4519648890247412,0.9413185315976462,221.0
222,1.465893235689296,-1.0286753090206484,1.9705733470740294,-4.0895027783058655,-1.45196488390871,0.9808499864800755,222.0
223,1.4658932317375937,-1.028675323062827,1.9705733460042028,-4.089502763151407,-1.451964880086846,1.0103814413625056,223.0
224,1.4658932291240243,-1.028675332350015,1.970573345296643,-4.089502753128582,-1.4519648775591494,1.0299128962449369,224.0
225,1.4659574626714034,-1.0282883402541618,1.969818522191023,-4.089135059489521,-1.4520305874612995,1.0400623453876712,225.0
226,1.466434347885971,-1.0254151937404596,1.964214552595256,-4.0864052563668505,-1.4525184331900791,1.0423068425516038,226.0
227,1.4666937123885198,-1.0238516897759062,1.9611649163711953,-4.084919678884943,-1.4527837632611655,1.0354217119318199,227.0
228,1.4666934282527948,-1.0238514163596515,1.961164204962583,-4.084919240394474,-1.452783482656508,1.020394348492718,228.0
229,1.4666929550381762,-1.0238509609978041,1.9611630201451682,-4.084918510109327,-1.4527830153227157,0.9953669850536153,229.0
230,1.4666922927446644,-1.0238503236903638,1.9611613619189519,-4.084917488029502,-1.4527823612597888,0.960339621614519,230.0
231,1.4666914413722592,-1.023849504437331,1.961159230283933,-4.0849161741549995,-1.4527815204677268,0.9153122581754183,231.0
232,1.4666904007124473,-1.0238485030759368,1.96115662511786,-4.084914569206395,-1.452780491152497,0.8602849103422225,232.0
233,1.4666891708395435,-1.023847319664181,1.9611535464641792,-4.084912672926544,-1.4527792739540006,0.7952575690972127,233.0
234,1.4666884479389073,-1.0238466069348355,1.961151740231446,-4.084911578902658,-1.452778558071747,0.720230235489001,234.0
235,1.4666884470174841,-1.02384656647908,1.9611517456670173,-4.084911625000033,-1.4527785561636755,0.6352029102485806,235.0
236,1.4666884459829777,-1.0238465212941934,1.9611517517673964,-4.0849116764023,-1.452778553993245,0.5401755950105631,236.0
237,1.4666884397184865,-1.0238464726558987,1.9611517593584071,-4.084911732634532,-1.4527785467377061,0.43514828667589606,237.0
238,1.4666884222452943,-1.0238464220658063,1.9611517694148222,-4.084911793095554,-1.4527785287492094,0.32012098681593354,238.0
239,1.4666884032539702,-1.0238463670778257,1.9611517803455716,-4.084911858811552,-1.4527785092043388,0.19509369607901786,239.0
240,1.4666883664313326,-1.0238463166136909,1.961151794150424,-4.084911922734656,-1.4527784718513297,0.060066411391312864,240.0
241,1.4666883255950742,-1.0238462631158345,1.961151809135311,-4.084911990836157,-1.4527784304507552,-0.0849608725166941,241.0
242,1.4666882669551065,-1.023846220077164,1.9611518262175665,-4.084912050399466,-1.452778371324422,-0.23998815041157975,242.0
243,1.4666882014301597,-1.0238461782810035,1.9611518444788265,-4.084912109831908,-1.4527783053165628,-0.40488059617993544,243.0
244,1.4666881259602462,-1.023846154622384,1.9611518622972928,-4.0849121505818315,-1.4527782295266125,-0.5675855752426785,244.0
245,1.4666880532624424,-1.0238461390487432,1.9611518785137934,-4.084912181669379,-1.452778156590137,-0.7202905543054332,245.0
246,1.4666879816722354,-1.0238461374739143,1.9611518926763232,-4.0849121967107624,-1.4527780848976448,-0.8629955333682138,246.0
247,1.466687915209168,-1.0238461413060866,1.9611519051294213,-4.084912204683986,-1.4527780183906884,-0.9957005124309917,247.0
248,1.4666878539984898,-1.0238461565498531,1.9611519150602716,-4.084912198771074,-1.4527779572525912,-1.1184054914937858,248.0
249,1.466687797776254,-1.023846170551306,1.961151924181787,-4.08491219334004,-1.452777901097022,-1.2311104705565863,249.0
250,1.4666877505059106,-1.0238461947879836,1.9611519302143372,-4.084912174668862,-1.4527778540029694,-1.333815449619393,250.0
251,1.4666877082686693,-1.0238462179116756,1.9611519354118716,-4.084912156324948,-1.4527778119374055,-1.4265204286821982,251.0
252,1.4666876705875198,-1.0238462385410345,1.9611519400487492,-4.084912139959773,-1.4527777744094148,-1.509225407745009,252.0
253,1.4666876418053325,-1.0238462623653943,1.9611519425313664,-4.084912118330958,-1.4527777458220321,-1.5819303868078232,253.0
254,1.466687618261921,-1.0238462845897662,1.961151944202821,-4.084912097542407,-1.4527777224643639,-1.6446353658706432,254.0
255,1.4666875984731413,-1.0238463032698615,1.961151945607715,-4.0849120800691505,-1.4527777028317057,-1.697340344933446,255.0
256,1.4666875824389938,-1.0238463184056807,1.9611519467460496,-4.084912065911189,-1.4527776869240578,-1.7400453239962432,256.0
257,1.466687570159478,-1.0238463299972251,1.9611519476178263,-4.084912055068521,-1.4527776747414198,-1.7727503030590486,257.0
258,1.466687561634594,-1.0238463380444942,1.961151948223045,-4.084912047541149,-1.452777666283792,-1.7954552821218512,258.0
259,1.4666900293426801,-1.023831210346033,1.961122410891737,-4.084897643177267,-1.4527801920140533,-1.8081878331785162,259.0
260,1.4670616977358495,-1.0215565024684992,1.9566822386447709,-4.082732978023862,-1.453160576783305,-1.81336321656714,260.0
261,1.4674667178409342,-1.019077100478956,1.9518424589658503,-4.0803734714027,-1.4535750981011155,-1.808926555148261,261.0
262,1.4674770605046856,-1.0190122403655533,1.9517157109358843,-4.080311606042054,-1.4535856906372084,-1.7969654756336573,262.0
263,1.4674766613815817,-1.0190118332318754,1.9517146553985953,-4.080310957355737,-1.4535852955170332,-1.7751212824141724,263.0
264,1.467476079544885,-1.0190112397174635,1.9517131166494628,-4.080310011708891,-1.453584719515756,-1.743277089194688,264.0
265,1.4674753149945943,-1.0190104598223169,1.9517110946884857,-4.080308769101515,-1.4535839626333766,-1.7014328959752105,265.0
266,1.4674743678600604,-1.0190094935767096,1.951708589525928,-4.080307229331107,-1.4535830258881575,-1.6495887071530104,266.0
267,1.4674732382632432,-1.0190083410091633,1.951705601171394,-4.08030539220664,-1.453581910240383,-1.5877445253007667,267.0
268,1.4674721487985023,-1.019007220938784,1.9517027040459782,-4.080303613884661,-1.4535808343575949,-1.515900345953758,268.0
269,1.4674721859129243,-1.0190072006930535,1.9517026994912852,-4.080303629777934,-1.4535808718972778,-1.4340561798047502,269.0
270,1.4674722275591365,-1.019007177989953,1.9517026943946594,-4.080303647547181,-1.4535809139995726,-1.3422120195932583,270.0
271,1.4674722738129828,-1.0190071530623699,1.951702688715301,-4.080303666901047,-1.4535809607223913,-1.2403678667412827,271.0
272,1.4674723292176592,-1.0190071392609035,1.9517026797034955,-4.08030367220936,-1.453581016049443,-1.1285237253540528,272.0
273,1.46747238957541,-1.0190071242249361,1.9517026698855653,-4.0803036779946655,-1.4535810763178447,-1.0066795914342297,273.0
274,1.4674724551174325,-1.0190071189307734,1.9517026577658543,-4.080303671801383,-1.453581141880397,-0.874835463956751,274.0
275,1.4674725257827237,-1.0190071204670885,1.9517026437412306,-4.08030365693246,-1.453581212646165,-0.7329913392819909,275.0
276,1.4674725980552248,-1.0190071340999853,1.9517026278086602,-4.080303628070823,-1.4535812851392038,-0.5811472186616063,276.0
277,1.4674726726059055,-1.019007157445894,1.9517026101509227,-4.08030358779008,-1.4535813600079754,-0.4193031043792431,277.0
278,1.4674727389774338,-1.019007197332232,1.951702591913889,-4.080303530304703,-1.4535814268480922,-0.25382785890379617,278.0
279,1.4674727989132317,-1.0190072389801075,1.9517025747035899,-4.080303472021011,-1.4535814872616761,-0.0979447827097333,279.0
280,1.4674728397062973,-1.0190072923970581,1.9517025596870574,-4.080303403971218,-1.4535815286232858,0.047938293484326454,280.0
281,1.467472877703078,-1.0190073421523738,1.9517025456998682,-4.080303340586103,-1.4535815671496377,0.18382136967840673,281.0
282,1.4674728969466588,-1.019007396983715,1.9517025347120363,-4.080303274939292,-1.4535815869490665,0.3097044458724975,282.0
283,1.4674729144272258,-1.0190074475876283,1.9517025246259867,-4.080303214405667,-1.453581604942284,0.4255875220666018,283.0
284,1.4674729219289238,-1.0190074959357256,1.9517025167889859,-4.0803031582798965,-1.453581612922496,0.5314705982607073,284.0
285,1.4674729228727899,-1.0190075411754171,1.9517025106442094,-4.080303106891478,-1.4535816143066604,0.6273536744548128,285.0
286,1.4674729237182167,-1.0190075816968909,1.9517025051402883,-4.080303060862543,-1.4535816155464651,0.7132367506489306,286.0
287,1.4674729199103171,-1.0190076174010974,1.9517025011812104,-4.080303021151578,-1.453581612080475,0.7891198268430487,287.0
288,1.4674729112166345,-1.0190076482829813,1.951702498813109,-4.0803029878074994,-1.4535816036758995,0.8550029030371722,288.0
289,1.4674729038425143,-1.0190076744774876,1.951702496804447,-4.080302959524519,-1.4535815965470045,0.9108859792312888,289.0
290,1.4674728977879563,-1.0190076959846153,1.9517024951552222,-4.080302936302637,-1.4535815906937901,0.9567690554253858,290.0
291,1.4674728930529608,-1.019007712804366,1.9517024938654384,-4.080302918141854,-1.4535815861162562,0.9926521316194908,291.0
292,1.4674728896375275,-1.0190077249367395,1.9517024929350952,-4.0803029050421715,-1.4535815828144025,1.018535207813597,292.0
293,1.4674728875416567,-1.0190077323817361,1.9517024923641928,-4.080302897003588,-1.4535815807882295,1.034418284007704,293.0
294,1.4676820499439482,-1.0177073481455454,1.9491622439632046,-4.079063485065228,-1.4537957481863235,1.041918242361276,294.0
295,1.4681577062071725,-1.0147498833955355,1.9433849477830927,-4.076244682076472,-1.4542827875444053,1.0405263838337169,295.0
296,1.468251850815581,-1.014163321247197,1.9422390162120409,-4.075685516273673,-1.4543791912890316,1.0309928908724273,296.0
297,1.4682515129243754,-1.0141629609775085,1.9422380986028505,-4.075684958336011,-1.4543788578437313,1.012335955777382,297.0
298,1.4682509939256065,-1.014162407605531,1.9422366891608998,-4.075684101347269,-1.4543783456738453,0.9836790206823351,298.0
299,1.468250293819274,-1.0141616611312638,1.9422347878861874,-4.075682945307445,-1.454377654779373,0.945022085587294,299.0
300,1.4682494125882464,-1.0141607215407782,1.9422323947680133,-4.075681490278043,-1.454376785010996,0.8963651519384118,300.0
301,1.468248349968916,-1.014159588619737,1.9422295096416096,-4.075679737205111,-1.454375734071577,0.8377082390395594,301.0
302,1.4682471061911717,-1.0141582625550432,1.9422261326505195,-4.075677685263241,-1.4543745039649694,0.7690513261407006,302.0
303,1.4682468860635582,-1.0141579974101347,1.9422255411290417,-4.075677358870079,-1.454374285487475,0.6903944266129732,303.0
304,1.4682468851167285,-1.0141579558329354,1.9422255467566165,-4.0756774062728525,-1.4543742835202802,0.6017375313839822,304.0
305,1.468246884057692,-1.014157909598254,1.94222555304782,-4.075677458892054,-1.4543742812871319,0.5030806473860284,305.0
306,1.4682468721935664,-1.0141578613829905,1.9422255617461492,-4.075677515711803,-1.454374268700878,0.3944237715901243,306.0
307,1.4682468544169565,-1.0141578099498365,1.942225572042458,-4.075677577249649,-1.454374250395932,0.2757669035971724,307.0
308,1.4682468302022689,-1.0141577568855065,1.9422255838162283,-4.075677641840209,-1.4543742256331185,0.1471100430746051,308.0
309,1.468246791696539,-1.0141577064865268,1.9422255980364105,-4.075677706094573,-1.4543741865888318,0.008453187258857613,309.0
310,1.4682467461616362,-1.0141576564666255,1.9422256135860307,-4.075677771230169,-1.4543741405101036,-0.1402036664885221,310.0
311,1.4682466853795226,-1.0141576145835631,1.942225631052544,-4.0756778299932765,-1.4543740792437339,-0.29886051351189435,311.0
312,1.4682466157148428,-1.0141575803083396,1.9422256492566836,-4.075677881796503,-1.454374009158123,-0.4652214884382121,312.0
313,1.4682465429441443,-1.0141575575442832,1.9422256665486806,-4.075677921142511,-1.4543739360750962,-0.6242952874758949,313.0
314,1.4682464709320409,-1.0141575497645698,1.942225681710878,-4.075677943377556,-1.454373863897964,-0.7733690865135858,314.0
315,1.4682464021232606,-1.014157548286369,1.942225695411306,-4.0756779578790585,-1.454373794989667,-0.9124428855512908,315.0
316,1.4682463384983284,-1.0141575582288296,1.9422257065845119,-4.075677958480451,-1.4543737313831788,-1.041516684589011,316.0
317,1.4682462799162883,-1.0141575728400287,1.942225716150752,-4.075677952854461,-1.4543736728714203,-1.1605904836267398,317.0
318,1.4682462274225823,-1.0141575896056336,1.9422257242372298,-4.075677943653636,-1.4543736204765672,-1.269664282664466,318.0
319,1.4682461829047795,-1.0141576139878965,1.9422257297513792,-4.075677924340182,-1.454373576141876,-1.3687380817022092,319.0
320,1.4682461428803748,-1.0141576359091367,1.9422257347089529,-4.075677906976126,-1.4543735362821002,-1.4578118807399516,320.0
321,1.4682461080627491,-1.0141576563030672,1.9422257388465067,-4.075677890371067,-1.4543735016206234,-1.536885679777751,321.0
322,1.4682460824850192,-1.0141576804484458,1.942225740674627,-4.0756778677950365,-1.4543734762471083,-1.6059594788155116,322.0
323,1.468246060610246,-1.014157701098233,1.9422257422380858,-4.075677848487398,-1.4543734545469857,-1.665033277853248,323.0
324,1.4682460424384298,-1.014157718252427,1.9422257435368786,-4.07567783244815,-1.4543734365202547,-1.7141070768909723,324.0
325,1.4682460279695704,-1.0141577319110298,1.94222574457101,-4.075677819677296,-1.454373422166916,-1.7531808759286927,325.0
326,1.468246017203668,-1.0141577420740413,1.9422257453404805,-4.0756778101748345,-1.4543734114869693,-1.7822546749664143,326.0
327,1.4682460101407222,-1.0141577487414617,1.9422257458452896,-4.075677803940767,-1.4543734044804149,-1.8013284740041438,327.0
328,1.4683245273130314,-1.0136618859081503,1.9412563712629913,-4.075204462856264,-1.4544538385522625,-1.8111680093656557,328.0
329,1.4687885396156606,-1.0107315327568387,1.9355277816955276,-4.072407235192498,-1.454929178790067,-1.8129832816193585,329.0
330,1.4690146816604641,-1.0093024850813423,1.9327340361252625,-4.0710430291124755,-1.4551608459086418,-1.8057884259772983,330.0
331,1.4690144111854981,-1.0093021795911723,1.9327332602831342,-4.071042558580494,-1.4551605783366748,-1.7903320284515154,331.0
332,1.469013965718289,-1.0093016764545781,1.9327319824856657,-4.0710417836231265,-1.4551601376506513,-1.764875630925716,332.0
333,1.4690133452588376,-1.00930097567156,1.9327302027328563,-4.07104070424037,-1.4551595238505715,-1.729419233399946,333.0
334,1.4690125498071438,-1.0093000772421177,1.932727921024707,-4.071039320432226,-1.4551587369364354,-1.6839628358741563,334.0
335,1.4690115796146328,-1.0092989812300424,1.9327251373861296,-4.071037631782241,-1.455157778910204,-1.6285064551348725,335.0
336,1.469010434568261,-1.0092976876065984,1.9327218518057505,-4.071035638477446,-1.4551566488722067,-1.5630500800791554,336.0
337,1.4690098380470094,-1.0092969834640841,1.9327200861762925,-4.071034576364959,-1.4551560606099447,-1.4875937131425565,337.0
338,1.469009876268227,-1.0092969626058017,1.9327200814556782,-4.071034592710022,-1.4551560992631642,-1.4021373536712092,338.0
339,1.4690099189566,-1.0092969393358708,1.9327200762090362,-4.071034610849819,-1.4551561423948889,-1.3066810048864115,339.0
340,1.4690099678176431,-1.009296918640704,1.9327200693878286,-4.071034624975862,-1.4551561915206375,-1.2012246629704846,340.0
341,1.4690100242302389,-1.0092969045660833,1.9327200601514365,-4.071034630349289,-1.4551562478524895,-1.0857683294445999,341.0
342,1.4690100855281252,-1.0092968892718106,1.932720050114592,-4.071034636190953,-1.4551563090570632,-0.9603120046645923,342.0
343,1.4690101520792551,-1.0092968902083341,1.9327200368830868,-4.071034622681768,-1.4551563756987196,-0.8248556863020529,343.0
344,1.4690102235542568,-1.0092968917245022,1.9327200226046415,-4.071034607595691,-1.4551564472766736,-0.6793993685576527,344.0
345,1.4690102944912147,-1.0092969127054772,1.9327200058501992,-4.071034570557176,-1.455156518508236,-0.5239430572362133,345.0
346,1.4690103675718322,-1.009296939373936,1.9327199879190688,-4.0710345266740635,-1.4551565919420928,-0.35874068338016624,346.0
347,1.4690104293134618,-1.0092969818908537,1.9327199701187343,-4.071034466956477,-1.455156654178555,-0.196471425572999,347.0
348,1.469010481417895,-1.009297027293394,1.9327199538336455,-4.071034405772236,-1.455156706794165,-0.044202167765873296,348.0
349,1.469010520657342,-1.0092970786286344,1.932719939295303,-4.071034340272934,-1.4551567465870563,0.0980670900411798,349.0
350,1.4690105514664489,-1.009297129462875,1.9327199264837833,-4.071034276918084,-1.455156777934175,0.23033634784816673,350.0
351,1.4690105696587514,-1.009297182089518,1.932719915919382,-4.071034213892464,-1.4551567966663805,0.3526056056550932,351.0
352,1.4690105863631657,-1.009297230411997,1.9327199062190017,-4.0710341560215,-1.4551568138665414,0.4648748634619514,352.0
353,1.4690105882473945,-1.0092972777581635,1.9327198995669965,-4.071034102028689,-1.455156816218446,0.567144121268759,353.0
354,1.4690105891435608,-1.0092973206754077,1.932719893697125,-4.07103405323839,-1.4551568175375285,0.6594133790755008,354.0
355,1.4690105899426023,-1.0092973589413452,1.9327198884634178,-4.071034009735907,-1.4551568187136512,0.7416826368822091,355.0
356,1.469010582662396,-1.009297392386607,1.9327198854604393,-4.0710339732061485,-1.4551568117530758,0.8139518946888926,356.0
357,1.4690105745580095,-1.0092974211651375,1.9327198832388697,-4.071033942117679,-1.4551568039214275,0.8762211524955534,357.0
358,1.4690105677551302,-1.0092974453220394,1.932719881374066,-4.071033916021795,-1.4551567973474862,0.9284904103021914,358.0
359,1.4690105622537573,-1.0092974648573132,1.9327198798660297,-4.071033894918498,-1.455156792031252,0.9707596681088184,359.0
360,1.4690105580538915,-1.0092974797709604,1.9327198787147624,-4.071033878807788,-1.4551567879727247,1.0030289259154426,360.0
361,1.4690105551555324,-1.0092974900629808,1.9327198779202643,-4.071033867689666,-1.4551567851719045,1.0252981837220891,361.0
362,1.469016249531844,-1.009260959041009,1.9326483992008503,-4.070998932425872,-1.455162621455179,1.0376341424345117,362.0
363,1.4693878232054376,-1.0068775078549619,1.927985552066898,-4.068720348715486,-1.4555434488492784,1.042451837557492,363.0
364,1.4697627894907674,-1.004471665416746,1.923278851426168,-4.0664203102052925,-1.4559277565369275,1.0376329366857135,364.0
365,1.4697688771434207,-1.0044309920697259,1.9231991437574545,-4.0663812892763795,-1.4559340041053832,1.0253068898671835,365.0
366,1.469768490925604,-1.004430537139953,1.9231980068926546,-4.066380606651365,-1.455933623269035,1.0030553007166574,366.0
367,1.4697679311391427,-1.004429877761963,1.9231963591138737,-4.066379617250503,-1.4559330712825074,0.9708037115661501,367.0
368,1.469767197784037,-1.0044290139357557,1.9231942004211118,-4.06637832107379,-1.4559323481457993,0.9285521224156402,368.0
369,1.4697662907459745,-1.004427945564592,1.9231915307381713,-4.066376718546362,-1.4559314528506582,0.8763005376260103,369.0
370,1.4697652099484324,-1.0044266725837043,1.9231883500139917,-4.066374809952681,-1.4559303847223215,0.8140489587700342,370.0
371,1.4697642162398963,-1.0044254954156133,1.923185426998368,-4.066373063360375,-1.455929402490564,0.7417973830759514,371.0
372,1.4697642153754027,-1.0044254573803904,1.92318543217664,-4.066373106776251,-1.455929400697038,0.6595458200270691,372.0
373,1.469764214402825,-1.0044254147382048,1.9231854380001814,-4.0663731554004485,-1.4559293986608903,0.5672942634260265,373.0
374,1.4697642124736254,-1.0044253677072126,1.923185444613251,-4.066373209130086,-1.4559293955745496,0.46504271410968473,374.0
375,1.4697641958840322,-1.004425319744237,1.9231854542845603,-4.066373266583753,-1.455929378483105,0.35279117578747193,375.0
376,1.4697641778172685,-1.0044252675086422,1.9231854648175304,-4.0663733291545885,-1.455929359875114,0.23053964532176763,376.0
377,1.4697641472548693,-1.0044252170318377,1.9231854775809447,-4.066373392092192,-1.4559293287757278,0.09828812114480885,377.0
378,1.4697641082863973,-1.0044251660748977,1.9231854920666407,-4.066373457160583,-1.4559292892557207,-0.04396340050444619,378.0
379,1.469764056572828,-1.0044251209813935,1.9231855082907459,-4.066373517975385,-1.4559292370317667,-0.19621491785657824,379.0
380,1.4697639952631358,-1.0044250787895237,1.9231855260251935,-4.0663735773024365,-1.455929175227781,-0.35844877428727656,380.0
381,1.4697639244145464,-1.0044250528205483,1.9231855434852636,-4.066373620032639,-1.4559291040333413,-0.5198599366688481,381.0
382,1.4697638560851962,-1.0044250315065346,1.9231855598277072,-4.066373657014065,-1.4559290354073422,-0.671271099050369,382.0
383,1.469763787069004,-1.004425030061193,1.9231855736608459,-4.066373671605189,-1.455928966290118,-0.8126822614318355,383.0
384,1.469763722933345,-1.0044250287180547,1.9231855865157532,-4.0663736851644865,-1.455928902060572,-0.9440934238132328,384.0
385,1.4697636639768574,-1.0044250417700935,1.9231855964306375,-4.066373681436223,-1.4559288431590576,-1.065504586194542,385.0
386,1.4697636099082754,-1.0044250552771645,1.9231856053188685,-4.066373676274857,-1.455928789156092,-1.1769157485757924,386.0
387,1.4697635622049239,-1.0044250719446026,1.9231856125283107,-4.066373666336895,-1.4559287415576092,-1.2783269109569901,387.0
388,1.4697635216875504,-1.0044250941457682,1.9231856175807918,-4.066373648778325,-1.4559287012088589,-1.3697380733380817,388.0
389,1.4697634856026087,-1.0044251139182165,1.923185622080547,-4.0663736331405875,-1.4559286652740933,-1.4511492357191185,389.0
390,1.4697634539500988,-1.0044251312619497,1.923185626027582,-4.066373619423685,-1.4559286337533128,-1.5225603981001552,390.0
391,1.4697634310960326,-1.0044251518860898,1.9231856277989403,-4.066373600337471,-1.455928611074473,-1.583971560481202,391.0
392,1.4697634123170484,-1.0044251696142346,1.923185629150415,-4.066373583768775,-1.4559285924471979,-1.6353827228622686,392.0
393,1.4697633971907695,-1.0044251838940723,1.9231856302390131,-4.066373570422861,-1.4559285774431199,-1.6767938852433488,393.0
394,1.4697633857171968,-1.0044251947256027,1.9231856310647335,-4.066373560299728,-1.455928566062238,-1.70820504762441,394.0
395,1.4697633778963293,-1.004425202108827,1.9231856316275793,-4.0663735533993774,-1.455928558304553,-1.7296162100054757,395.0
396,1.4697633737281677,-1.004425206043745,1.92318563192755,-4.066373549721808,-1.4559285541700644,-1.7410273723865457,396.0
397,1.4696184379931743,-1.0053329618191444,1.9250421338974066,-4.0673219895571355,-1.4557795557026316,-1.743403967326981,397.0
398,1.469563172553053,-1.0056791122074575,1.9257500702793249,-4.067683658754401,-1.4557227410066618,-1.7370711983433083,398.0
399,1.4695211910395911,-1.0059420816779527,1.9262878951728384,-4.067958425488223,-1.455679582477426,-1.721025985251225,399.0
400,1.4694530450163645,-1.0063689439362757,1.9271609134292742,-4.06840443752259,-1.4556095258764805,-1.6949807721591377,400.0
401,1.4693587344833738,-1.0069596989824268,1.928369125048632,-4.0690216948575,-1.4555125712038248,-1.6589355590670456,401.0
402,1.4692372629362094,-1.0077128990999966,1.929909575404454,-4.0698086897565275,-1.4553877340447645,-1.6128902302163484,402.0
403,1.469088913042782,-1.008628954346606,1.9317831013761468,-4.070765849275971,-1.4552352936409756,-1.556844848192906,403.0
404,1.4689140935477436,-1.0097084584294147,1.933990914652886,-4.071893791736824,-1.4550556537787682,-1.4907994661694914,404.0
405,1.4687114998658362,-1.0109495923541958,1.936529303626191,-4.073190622981519,-1.4548475261906233,-1.4147539168876482,405.0
406,1.468481952444149,-1.012353499592563,1.9394006015170628,-4.0746575337300825,-1.4546117210640528,-1.3287083297182252,406.0
407,1.4682241130898555,-1.0139183612406861,1.9426010976983066,-4.076292630922167,-1.4543469158564943,-1.2326625455412294,407.0
408,1.4679386664170546,-1.015645121596012,1.946132718781689,-4.078096897589987,-1.4540537870175336,-1.1266166698083295,408.0
409,1.4676241778569856,-1.017531880838233,1.9499915897472024,-4.080068357127076,-1.4537309165771815,-1.010570539128284,409.0
410,1.4672806735278123,-1.019578733458295,1.9541779041621608,-4.082207108632039,-1.4533783299501568,-0.884524177348305,410.0
411,1.4669078108620837,-1.0217852711497089,1.9586908298386043,-4.084512727881533,-1.4529956882229278,-0.748477566784129,411.0
412,1.4665049153905418,-1.0241506838522474,1.9635287156541161,-4.086984373140801,-1.4525823241624805,-0.6024306522000381,412.0
413,1.4660712957478395,-1.0266741799744297,1.9686899487022462,-4.089621222404819,-1.4521375535548686,-0.44638338097479946,413.0
414,1.4656172682544046,-1.0292919699659164,1.974044067248499,-4.0923566251793515,-1.4516719773650577,-0.2842445711133557,414.0
415,1.4651841362827203,-1.0317672333811196,1.979106705857784,-4.094943120507279,-1.4512279425538432,-0.1307007044382718,415.0
416,1.4647759717355322,-1.0340775448871231,1.9838319978770063,-4.097357275225673,-1.4508096189863815,0.012843533606838712,416.0
417,1.464393646918844,-1.0362239837683747,1.9882221436323704,-4.099600211245548,-1.4504178693907928,0.14638805968546947,417.0
418,1.4640378980519642,-1.0382074229481197,1.9922789222130146,-4.101672835466958,-1.4500534221651658,0.2699328096412128,418.0
419,1.4637094213236315,-1.0400286504735026,1.9960039391938436,-4.103575966112034,-1.449716966362359,0.38347772713531525,419.0
420,1.4634076770360533,-1.0416871223421702,1.9993960871911698,-4.10530903926121,-1.449407967350824,0.4870228803172667,420.0
421,1.4631340669891761,-1.0431843700359171,2.002458485647777,-4.106873644273827,-1.449127812945816,0.580568135646976,421.0
422,1.4628885855288878,-1.0445203879713914,2.005191123197196,-4.108269775361079,-1.4488764975461048,0.6641135115754688,422.0
423,1.4626717348465457,-1.045695721554834,2.007595110712985,-4.109497998491316,-1.448654518355381,0.7376589621169282,423.0
424,1.4624834629502645,-1.0467103179590058,2.0096703406485643,-4.110558258893322,-1.4484618238732145,0.8012045098442306,424.0
425,1.4623248189198235,-1.0475652499271224,2.0114189969672975,-4.111451668832955,-1.4482994532278954,0.8547500575715399,425.0
426,1.462195224209513,-1.048259940341388,2.012839904956046,-4.112177630138468,-1.4481668332598883,0.8982956631440211,426.0
427,1.462095003401573,-1.0487947133499564,2.0139337244157494,-4.112736478785969,-1.4480642855277346,0.9318413134994996,427.0
428,1.4620246585408503,-1.0491700698610356,2.0147014749371217,-4.1131287339581375,-1.4479923074017946,0.955386963854983,428.0
429,1.4619841896273453,-1.0493860098746246,2.0151431565201627,-4.113354395654973,-1.4479508988820677,0.9689326142104568,429.0
430,1.4618607019385392,-1.0500432167733758,2.016487442483455,-4.114041230938139,-1.4478245532041885,0.9730452055512514,430.0
431,1.4617623176531316,-1.0505664612204846,2.0175577232533244,-4.114588073025175,-1.4477238938438113,0.9684951279234202,431.0
432,1.4617622170111608,-1.0505663532241218,2.0175575179215484,-4.114587975469938,-1.4477237943006458,0.9545460175054208,432.0
433,1.461762044219808,-1.0505661678060745,2.0175571653891478,-4.114587807978172,-1.447723623395822,0.9305969070874271,433.0
434,1.4617617992720784,-1.0505659049572422,2.0175566656492077,-4.114587570589774,-1.447723381073109,0.8966477986960774,434.0
435,1.461761482095819,-1.050565564583748,2.017556018630364,-4.114587263716193,-1.447723066752567,0.8526987098885749,435.0
436,1.4617610927505404,-1.0505651467630293,2.017555224391438,-4.114586887017824,-1.447722680912785,0.7987496210810934,436.0
437,1.461760794215877,-1.0505648153903888,2.0175546173449064,-4.114586611167129,-1.4477223849034508,0.7348005381388948,437.0
438,1.4617607934252979,-1.05056477856191,2.017554622090654,-4.11458665286508,-1.4477223835885091,0.6608514666085442,438.0
439,1.4617607925260356,-1.050564736758589,2.0175546274828786,-4.114586700180456,-1.4477223820818776,0.5769023985254473,439.0
440,1.4617607915172188,-1.0505646899830805,2.017554633523895,-4.114586753102791,-1.447722380376745,0.48295333491222225,440.0
441,1.4617607766833656,-1.0505646416646477,2.017554642422497,-4.1145868101997385,-1.4477223650430864,0.3790042813904174,441.0
442,1.4617607586184076,-1.0505645891499888,2.017554652468521,-4.114586872596995,-1.4477223464671745,0.2650552335239703,442.0
443,1.461760732862757,-1.0505645353679798,2.0175546641411852,-4.114586937819852,-1.4477223201821037,0.14110619270187785,443.0
444,1.461760693498027,-1.0505644835571697,2.0175546781625044,-4.114587003300368,-1.4477222802929135,0.007157159206635344,444.0
445,1.461760647021888,-1.0505644318223382,2.0175546935319444,-4.114587069986515,-1.4477222332847255,-0.1367918711940042,445.0
446,1.4617605846079789,-1.0505643885061486,2.0175547108870395,-4.1145871300877435,-1.4477221703978678,-0.29074089872899034,446.0
447,1.4617605128711366,-1.0505643513829361,2.01755472924439,-4.11458718490891,-1.447722098234629,-0.4542419102511679,447.0
448,1.4617604355503588,-1.050564326923402,2.017554747077637,-4.1145872264858205,-1.4477220205982144,-0.6139576827205654,448.0
449,1.4617603593959572,-1.0505643170866166,2.017554762852029,-4.114587251387222,-1.4477219442648597,-0.7636734551899111,449.0
450,1.4617602862421615,-1.0505643153381685,2.017554777037899,-4.114587266637189,-1.447721871010434,-0.9033892276592218,450.0
451,1.4617602185506566,-1.0505643246103917,2.017554788797061,-4.114587268487283,-1.4477218033266026,-1.0331050001285156,451.0
452,1.4617601562209988,-1.0505643400692126,2.017554798755704,-4.11458726239842,-1.4477217410680665,-1.152820772597801,452.0
453,1.461760100034278,-1.0505643569592487,2.0175548073618335,-4.114587253582871,-1.447721684972805,-1.2625365450670414,453.0
454,1.4617600526170373,-1.0505643829164326,2.017554813155165,-4.1145872329664925,-1.4477216377410658,-1.3622523175362802,454.0
455,1.4617600099550365,-1.0505644062704969,2.0175548183675067,-4.114587214417625,-1.4477215952459637,-1.4519680900055059,455.0
456,1.4617599724080388,-1.0505644274949502,2.0175548228707205,-4.114587197337835,-1.4477215578520592,-1.5316838624747227,456.0
457,1.4617599450880554,-1.050564453318024,2.0175548248439785,-4.114587173223704,-1.447721530739536,-1.6013996349439403,457.0
458,1.4617599216868387,-1.0505644754370476,2.0175548265341936,-4.114587152568494,-1.447721507516021,-1.661115407413163,458.0
459,1.4617599022043881,-1.0505644938520198,2.0175548279413618,-4.114587135372201,-1.4477214881815137,-1.7108311798824118,459.0
460,1.4617598866407042,-1.0505645085629414,2.017554829065487,-4.114587121634828,-1.4477214727360148,-1.7505469523516655,460.0
461,1.4617598749957867,-1.0505645195698128,2.0175548299065698,-4.114587111356377,-1.4477214611795248,-1.7802627248209024,461.0
462,1.461759867269636,-1.0505645268726338,2.01755483046461,-4.114587104536846,-1.4477214535120435,-1.7999784972901582,462.0
463,1.4618230608163425,-1.0502139878140748,2.0168715509601336,-4.114254494393727,-1.4477859597420994,-1.8102602788293887,463.0
464,1.4623351035989947,-1.04737375064128,2.0113353412540906,-4.111559577923656,-1.4483086382073471,-1.8126804205399867,464.0
465,1.462618152961393,-1.0458028501264645,2.008273251452679,-4.110068972594916,-1.4485975707576608,-1.8059413016521195,465.0
466,1.4626178422935459,-1.045802615630399,2.0082726111948648,-4.110068566595587,-1.448597262618315,-1.7910536241264814,466.0
467,1.4626173229512112,-1.0458022236241606,2.0082715408781557,-4.110067887887956,-1.4485967475028665,-1.76616594660084,467.0
468,1.4626165949343894,-1.04580167410775,2.0082700405025515,-4.1100669364720215,-1.4485960254113166,-1.731278269075188,468.0
469,1.4626156582430805,-1.0458009670811668,2.0082681100680526,-4.110065712347784,-1.4485950963436645,-1.6863905915495399,469.0
470,1.4626145131434123,-1.0458001025992918,2.0082657495884053,-4.110064215140436,-1.4485939623190065,-1.631502930159018,470.0
471,1.4626131595488134,-1.0457990806442308,2.008262959058986,-4.110062444971698,-1.4485926226810246,-1.5666152760554095,471.0
472,1.4626123592771252,-1.0457984544671413,2.008261272341176,-4.110061383556847,-1.4485918310381547,-1.491727629358571,472.0
473,1.4626123994480988,-1.0457984325598242,2.0082612674464064,-4.11006140077952,-1.4485918716919344,-1.4068399912427785,473.0
474,1.462612444345953,-1.0457984081019427,2.008261262001032,-4.110061419910018,-1.448591917092837,-1.311952362960069,474.0
475,1.4626124954938533,-1.0457983855787116,2.0082612551049244,-4.110061435759543,-1.4485919685798276,-1.2070647416009708,475.0
476,1.4626125548749396,-1.0457983708492895,2.0082612455956785,-4.110061441513725,-1.4485920278801445,-1.092177128741983,476.0
477,1.4626126194237061,-1.0457983548371195,2.00826123525826,-4.1100614477718995,-1.4485920923346067,-0.9672895251480562,477.0
478,1.4626126895056624,-1.045798354944821,2.008261221823802,-4.1100614348880455,-1.448592162496208,-0.8324019275202372,478.0
479,1.4626127648181606,-1.0457983567278863,2.0082612071758614,-4.11006141916709,-1.44859223791179,-0.6875143307669394,479.0
480,1.462612839920113,-1.045798377899364,2.008261190126242,-4.110061381646967,-1.448592313298255,-0.5326267399383037,480.0
481,1.4626129177731657,-1.045798405118144,2.0082611717880465,-4.110061336814808,-1.4485923914955001,-0.36784355131608515,481.0
482,1.462612983315632,-1.045798450580303,2.0082611535094923,-4.110061273676951,-1.44859245753774,-0.20499945537211398,482.0
483,1.462613039597033,-1.0457984981999222,2.0082611367327607,-4.110061209795491,-1.4485925143282328,-0.0521553594281879,483.0
484,1.4626130812722606,-1.0457985530291634,2.0082611218451216,-4.11006114045353,-1.4485925565627122,0.09068873651571638,484.0
485,1.462613115007907,-1.0457986067695835,2.008261108615137,-4.110061073783582,-1.448592590838229,0.22353283245958291,485.0
486,1.4626131343416366,-1.0457986629593283,2.008261097834747,-4.110061006977402,-1.44859261071789,0.3463769284034343,486.0
487,1.462613152101524,-1.0457987145749985,2.0082610879319165,-4.110060945609509,-1.4485926289792668,0.45922102434725176,487.0
488,1.4626131550016075,-1.0457987649137854,2.0082610810357346,-4.110060888385538,-1.4485926323516531,0.5620651202910774,488.0
489,1.462613155954645,-1.0457988107711194,2.008261075076923,-4.1100608365634965,-1.4485926337329809,0.6549092162348764,489.0
490,1.4626131568050333,-1.0457988516892756,2.008261069759916,-4.1100607903230735,-1.4485926349655294,0.7377533121786588,490.0
491,1.4626131496759156,-1.0457988874817177,2.008261066616716,-4.1100607513086445,-1.4485926281615376,0.8105974081224391,491.0
492,1.4626131410231606,-1.0457989183013323,2.0082610643916983,-4.1100607181724795,-1.4485926197858119,0.8734415040662239,492.0
493,1.4626131337472663,-1.0457989442168074,2.0082610625207318,-4.110060690309071,-1.4485926127428645,0.9262856000100321,493.0
494,1.4626131278482322,-1.0457989652281436,2.0082610610038176,-4.110060667718418,-1.4485926070326958,0.969129695953855,494.0
495,1.4626131233260586,-1.0457989813353417,2.008261059840958,-4.1100606504005235,-1.4485926026553053,1.0019737918976683,495.0
496,1.4626131201807455,-1.0457989925384017,2.0082610590321526,-4.110060638355386,-1.4485925996106932,1.0248178878414866,496.0
497,1.4626144208786358,-1.0457916574454071,2.008246737307353,-4.110053654405751,-1.4485939279834503,1.0376750041491687,497.0
498,1.4630039634926613,-1.0435959880425387,2.0039635190013945,-4.107966913281497,-1.4489917306935294,1.04291357604307,498.0
499,1.4634466076079666,-1.0411004368919468,1.9990952590074054,-4.105595122370657,-1.4494437637436253,1.0385669606431498,499.0
500,1.4634591028157735,-1.0410284303263704,1.9989546517982353,-4.1055265477265985,-1.449456531819922,1.0266870369195673,500.0
501,1.4634586538259144,-1.0410280736018034,1.9989536994988937,-4.105525951382862,-1.449456087799795,1.0049363297982128,501.0
502,1.4634579984106475,-1.0410275528712734,1.9989523093750086,-4.105525080867011,-1.4494554396391202,0.973185622676862,502.0
503,1.4634571365699724,-1.0410268681347798,1.9989504814265797,-4.105523936179044,-1.4494545873378972,0.9314349155555007,503.0
504,1.463456068187649,-1.0410260193048237,1.998948215589993,-4.105522517706552,-1.4494535299225362,0.8796842107170275,504.0
505,1.4634547931445288,-1.041025006291716,1.9989455118000161,-4.105520825846741,-1.4494522663952143,0.8179335097282598,505.0
506,1.4634535410150091,-1.0410240061262197,1.998942857569133,-4.105519170745982,-1.4494510254405788,0.7461828111484926,506.0
507,1.463453540100083,-1.0410239660006029,1.998942862760697,-4.105519216269113,-1.4494510235486637,0.6644321263179058,507.0
508,1.4634535390704198,-1.0410239209839287,1.9989428686022301,-4.105519267291449,-1.4494510214031453,0.5726814472093988,508.0
509,1.4634535378134674,-1.0410238711116961,1.9989428751183027,-4.105519323771087,-1.4494510188891632,0.470930775372722,509.0
510,1.46345352035091,-1.0410238203875448,1.998942884890317,-4.105519384086845,-1.44945100092405,0.35918011513397663,510.0
511,1.4634535013264967,-1.041023765124512,1.9989428955368278,-4.1055194497989325,-1.4494509813575343,0.2374294622122828,511.0
512,1.4634534700116304,-1.0410237111913698,1.9989429083715429,-4.10551951627221,-1.4494509495011507,0.10567881568360736,512.0
513,1.4634534289525432,-1.041023657194953,1.9989429230825686,-4.105519584607551,-1.4494509078890978,-0.03607182809859584,513.0
514,1.4634533752870127,-1.0410236085668088,1.9989429395370988,-4.105519649196934,-1.4494508537053432,-0.18782246791960827,514.0
515,1.463453310652175,-1.0410235637595846,1.9989429576161697,-4.105519711484642,-1.4494507885745735,-0.3495731013424483,515.0
516,1.4634532344205906,-1.041023534330588,1.9989429759799338,-4.105519758563895,-1.4494507119776423,-0.515109575298755,516.0
517,1.4634531599757519,-1.0410235108842194,1.9989429932444622,-4.1055197985763074,-1.4494506372256468,-0.6710942212259585,517.0
518,1.4634530846379459,-1.0410235091175195,1.9989430079410848,-4.105519814325767,-1.4494505617829008,-0.8170788671531515,518.0
519,1.463453014460806,-1.0410235074718341,1.9989430216309723,-4.105519828996376,-1.4494504915080095,-0.9530635130803016,519.0
520,1.4634529498005078,-1.0410235230751697,1.998943032081405,-4.105519823225325,-1.4494504269181523,-1.0790481590074186,520.0
521,1.4634528902812547,-1.0410235378559476,1.9989430416481078,-4.105519817442119,-1.449450367467659,-1.1950328049345225,521.0
522,1.4634528385228631,-1.0410235590010337,1.9989430489196505,-4.10551980307101,-1.4494503158468017,-1.3010174508616241,522.0
523,1.4634527935358712,-1.0410235836357327,1.9989430544493703,-4.105519783531566,-1.449450271038005,-1.3970020967886891,523.0
524,1.4634527532357737,-1.0410236057039042,1.9989430594029796,-4.105519766027804,-1.4494502308975379,-1.4829867427157568,524.0
525,1.4634527202171443,-1.0410236286176038,1.9989430628508853,-4.1055197462415896,-1.4494501980550076,-1.5589713886428096,525.0
526,1.4634526947310116,-1.0410236527069525,1.998943064703147,-4.105519723755137,-1.4494501727648317,-1.6249560345698655,526.0
527,1.4634526731073128,-1.0410236731455502,1.998943066274697,-4.105519704676516,-1.4494501513073925,-1.680940680496943,527.0
528,1.4634526553460474,-1.0410236899333958,1.998943067565533,-4.105519689005724,-1.4494501336826893,-1.7269253264240434,528.0
529,1.4634526414472162,-1.0410237030704914,1.9989430685756593,-4.105519676742763,-1.4494501198907228,-1.762909972351121,529.0
530,1.4634526314108187,-1.0410237125568367,1.998943069305075,-4.105519667887633,-1.4494501099314927,-1.7888946182782026,530.0
531,1.463452625236855,-1.0410237183924316,1.9989430697537802,-4.105519662440336,-1.449450103804999,-1.8048792642052964,531.0
532,1.4636740063921563,-1.0397557824959869,1.9964676999953082,-4.104312690129878,-1.4496762768246327,-1.8124468238587128,532.0
533,1.4641863818890262,-1.0368209770448942,1.990738116752835,-4.1015189806805195,-1.4501997438741288,-1.8111475852404773,533.0
534,1.4642869099521274,-1.036243978993487,1.9896115431774168,-4.100969615011031,-1.4503024535957374,-1.8016866116100438,534.0
535,1.4642865388514683,-1.0362436661585608,1.9896107115924986,-4.100969095990413,-1.4503020857314415,-1.7830857777630296,535.0
536,1.46428596824327,-1.036243185140354,1.989609432938957,-4.100968297938961,-1.4503015200995086,-1.7544849439160006,536.0
537,1.4642851981275327,-1.0362425359388663,1.9896077072167921,-4.100967220856675,-1.4503007566999386,-1.7158841100689788,537.0
538,1.4642842285246442,-1.0362417185587078,1.989605534427434,-4.100965864712959,-1.4502997956893462,-1.6672832774495587,538.0
539,1.46428305978203,-1.0362407330783925,1.989602914595138,-4.100964228986314,-1.4502986397368423,-1.6086824642875548,539.0
540,1.464281691598051,-1.0362395794297083,1.989599847698688,-4.100962314129302,-1.4502972865255563,-1.5400816511255488,540.0
541,1.4642814726985238,-1.036239352049722,1.9895992841478873,-4.100961977825124,-1.4502970707236997,-1.4614808512390196,541.0
542,1.4642815140253742,-1.0362393295088617,1.9895992790867865,-4.1009619955012315,-1.4502971125336694,-1.372880055667163,542.0
543,1.4642815600103112,-1.036239304458356,1.9895992734845458,-4.100962015033895,-1.4502971590126779,-1.2742792714076798,543.0
544,1.464281613947887,-1.036239286594195,1.9895992653865977,-4.1009620251819205,-1.4502972130588698,-1.1656784952843506,544.0
545,1.4642816743733738,-1.036239271585314,1.9895992556509303,-4.100962031007061,-1.4502972733986312,-1.0470777269756093,545.0
546,1.464281740003154,-1.0362392605554103,1.9895992444057746,-4.100962031400534,-1.4502973389869638,-0.9184769661597787,546.0
547,1.46428181102017,-1.0362392622039973,1.9895992305097525,-4.100962016533867,-1.4502974101023338,-0.779876210091092,547.0
548,1.4642818856358217,-1.0362392694025504,1.9895992152166198,-4.100961994752732,-1.450297484873319,-0.6312754560613308,548.0
549,1.464281960774112,-1.0362392931041076,1.9895991977309113,-4.100961954275119,-1.4502975603241492,-0.47267470875908746,549.0
550,1.4642820335157047,-1.0362393278550555,1.9895991793064178,-4.100961901782977,-1.450297633479698,-0.3063165858913077,550.0
551,1.4642820966498487,-1.036239371596681,1.989599161593819,-4.10096184091753,-1.4502976971012504,-0.14718710570601468,551.0
552,1.4642821447372043,-1.0362394230615288,1.9895991458020892,-4.1009617741037205,-1.4502977457310928,0.0019423744792337258,552.0
553,1.4642821847500522,-1.0362394756594862,1.9895991314228847,-4.100961707491918,-1.4502977862875694,0.14107185466446398,553.0
554,1.4642822107395481,-1.0362395305822276,1.9895991194516494,-4.10096164082875,-1.450297812826049,0.2702013348496566,554.0
555,1.4642822292215762,-1.0362395842610876,1.9895991090849818,-4.100961576942776,-1.450297831836447,0.3893308150348285,555.0
556,1.4642822422625996,-1.0362396344005815,1.9895991002156113,-4.100961518042653,-1.4502978453660085,0.4984602952199697,556.0
557,1.4642822432659504,-1.0362396826399873,1.9895990939070924,-4.100961463489191,-1.450297846825733,0.5975897754051193,557.0
558,1.4642822441680852,-1.0362397260130873,1.9895990882349595,-4.100961414438979,-1.4502978481382032,0.6867192555902369,558.0
559,1.4642822437134166,-1.0362397644907302,1.9895990834448993,-4.100961371154882,-1.4502978480460718,0.765848735775359,559.0
560,1.464282234331225,-1.0362397978971274,1.989599081018279,-4.100961335221866,-1.4502978389680081,0.8349782159604731,560.0
561,1.4642822263062245,-1.036239826471086,1.9895990789426843,-4.10096130448678,-1.4502978312031414,0.8941076961455989,561.0
562,1.4642822196384149,-1.0362398502126042,1.9895990772181116,-4.100961278949621,-1.450297824751472,0.9432371763307532,562.0
563,1.4642822143277967,-1.036239869121684,1.9895990758445645,-4.100961258610392,-1.4502978196129996,0.9823666565159241,563.0
564,1.4642822103743693,-1.0362398831983255,1.9895990748220433,-4.100961243469092,-1.4502978157877244,1.011496136701071,564.0
565,1.4642822077781334,-1.0362398924425287,1.9895990741505487,-4.100961233525722,-1.4502978132756463,1.03062561688623,565.0
566,1.464361827984671,-1.035776549278371,1.9886937980031603,-4.100519467446495,-1.4503791925754215,1.0404753370563757,566.0
567,1.464859791838173,-1.0328786435484536,1.9830319455875678,-4.097756564690857,-1.450888158107414,1.0423092320213678,567.0
568,1.465104977462535,-1.0314508671306564,1.9802423157622957,-4.096395225340933,-1.451138765311715,1.0351284613772285,568.0
569,1.4651046723948358,-1.031450597250732,1.9802416127621605,-4.096394791692173,-1.4511384638185292,1.0196812481878446,569.0
570,1.4651041698366924,-1.0314501526597308,1.980240454663667,-4.096394077313969,-1.4511379671489175,0.9942340349984651,570.0
571,1.4651034697881047,-1.0314495333576534,1.9802388414668157,-4.096393082206317,-1.4511372753028804,0.9587868218090684,571.0
572,1.465102572249073,-1.0314487393444995,1.980236773171607,-4.096391806369221,-1.4511363882804176,0.9133396086196759,572.0
573,1.4651014769891642,-1.0314477704394656,1.9802342496435967,-4.096390250602306,-1.4511353041253652,0.8578924044156016,573.0
574,1.4651001841108808,-1.0314466267229738,1.9802312709425232,-4.096388414549693,-1.4511340237081611,0.7924452032701975,574.0
575,1.4650994870293297,-1.0314459910222429,1.9802296684649423,-4.096387447299374,-1.45113333286786,0.7169980104725044,575.0
576,1.4650994860882722,-1.0314459496956092,1.9802296738448106,-4.096387494222812,-1.4511333309207037,0.6315508254131265,576.0
577,1.4650994850317947,-1.031445903563838,1.9802296798818135,-4.096387546511292,-1.4511333287035826,0.5361036508685235,577.0
578,1.4650994780123192,-1.0314458540822977,1.9802296875161682,-4.09638760362392,-1.4511333207102912,0.43065648316972455,578.0
579,1.4650994602273173,-1.0314458024558344,1.9802296975285347,-4.096387665076404,-1.4511333024077073,0.3152093238678498,579.0
580,1.4650994409026936,-1.031445746357715,1.980229708408245,-4.096387731850606,-1.4511332825270966,0.18976217326511663,580.0
581,1.4650994027219773,-1.0314456952638014,1.9802297222888718,-4.09638779647304,-1.451133243816966,0.05431502896413842,581.0
582,1.4650993611883327,-1.0314456406898374,1.9802297372600335,-4.096387865636276,-1.4511332017170249,-0.09113211483779667,582.0
583,1.4650993008714486,-1.0314455974182448,1.9802297544255483,-4.096387925507564,-1.4511331409173966,-0.24657925219702748,583.0
584,1.4650992337629767,-1.0314455556638398,1.9802297727112572,-4.096387984916159,-1.4511330733323953,-0.41177666690485004,584.0
585,1.465099157422623,-1.0314455316069524,1.9802297905312223,-4.096388026067345,-1.4511329966725794,-0.5740633113862241,585.0
586,1.4650990836564244,-1.03144551661497,1.9802298067006041,-4.0963880565249715,-1.451132922676072,-0.7263499558675747,586.0
587,1.4650990112667,-1.0314455149517152,1.980229820908714,-4.096388071701714,-1.4511328501842553,-0.8686366003489043,587.0
588,1.4650989440919204,-1.0314455195243661,1.9802298333154331,-4.096388078889317,-1.4511327829728182,-1.0009232448302106,588.0
589,1.465098882227315,-1.0314455349086509,1.9802298433204206,-4.096388072911219,-1.451132721180556,-1.123209889311512,589.0
590,1.4650988254216923,-1.0314455490348808,1.9802298525072415,-4.096388067421977,-1.451132664441361,-1.2354965337927835,590.0
591,1.4650987778739575,-1.031445574094015,1.9802298585136215,-4.096388047904924,-1.4511326170749133,-1.3377831782740304,591.0
592,1.465098735232753,-1.0314455974524708,1.980229863787609,-4.096388029403796,-1.451132574604695,-1.430069822755273,592.0
593,1.4650986972120656,-1.0314456182798486,1.9802298684901143,-4.096388012907413,-1.4511325367364665,-1.5123564672365086,593.0
594,1.4650986684467355,-1.0314456426661054,1.9802298709504838,-4.096387990697796,-1.4511325081684243,-1.5846431117177324,594.0
595,1.4650986447297052,-1.0314456650833712,1.9802298726851777,-4.096387969780576,-1.4511324846360016,-1.646929756198956,595.0
596,1.465098624820398,-1.0314456839015873,1.9802298741413682,-4.0963879522215745,-1.4511324648816637,-1.6992164006802124,596.0
597,1.4650986087188143,-1.0314456991207546,1.9802298753190555,-4.096387938020792,-1.4511324489054103,-1.7415030451614808,597.0
598,1.4650985964249537,-1.0314457107408734,1.9802298762182418,-4.0963879271782275,-1.4511324367072418,-1.7737896896427325,598.0
599,1.465098587938816,-1.0314457187619444,1.980229876838927,-4.096387919693884,-1.4511324282871585,-1.796076334123989,599.0
600,1.4651044631901038,-1.0314109579200632,1.980161902756291,-4.096354718800949,-1.4511384361508528,-1.8084264436997306,600.0
601,1.4655058766512337,-1.0290375876422024,1.975521394589849,-4.094088427036947,-1.451548900369998,-1.8132491238022606,601.0
602,1.4659045854434662,-1.0266795867429268,1.9709108851072308,-4.091836759021724,-1.4519566018201402,-1.8084512264098949,602.0
603,1.4659098816399432,-1.026646659371623,1.97084636270482,-4.091805175488125,-1.4519620249415408,-1.7961101272575413,603.0
604,1.4659094563959707,-1.0266462606187847,1.9708453275230415,-4.09180453876519,-1.4519616036697047,-1.7738295505509538,604.0
605,1.4659088402933964,-1.0266456828971329,1.9708438277295113,-4.091803616267365,-1.4519609933220468,-1.7415489738443757,605.0
606,1.46590803333222,-1.0266449262066673,1.9708418633242286,-4.09180240799465,-1.4519601938985662,-1.6992683971377776,606.0
607,1.4659070356625723,-1.0266439905842235,1.9708394343202775,-4.091800913707492,-1.4519592065674005,-1.6469878239469207,607.0
608,1.4659058473822104,-1.026642876053773,1.970836540726129,-4.09179913324984,-1.4519580320893215,-1.5847072554851716,608.0
609,1.4659047663172249,-1.0266418516782783,1.9708338902690683,-4.091797505928175,-1.4519569637445477,-1.5124266902319095,609.0
610,1.4659048041553442,-1.0266418310287273,1.9708338856034364,-4.091797522107979,-1.4519570020239867,-1.4301461375781181,610.0
611,1.465904846588672,-1.026641807887975,1.9708338803870904,-4.091797540179889,-1.4519570449279944,-1.337865591413705,611.0
612,1.4659048938927928,-1.026641783075013,1.9708338744600322,-4.0917975591768725,-1.4519570926918821,-1.2355850525333736,612.0
613,1.4659049502943942,-1.026641769046055,1.9708338653161257,-4.091797564582736,-1.451957149015068,-1.123304524612345,613.0
614,1.4659050117185397,-1.0266417537670758,1.9708338553574243,-4.091797570472681,-1.4519572103486302,-1.0010240045787933,614.0
615,1.4659050784169154,-1.0266417492084212,1.9708338430030345,-4.091797563313078,-1.4519572770756861,-0.8687434908274785,615.0
616,1.4659051502946843,-1.026641750842034,1.9708338288511564,-4.091797548222466,-1.451957349054327,-0.726462979590494,616.0
617,1.4659052235416907,-1.0266417656990225,1.970833812746509,-4.09179751796448,-1.4519574225309528,-0.57418247266947,617.0
618,1.4659052993427881,-1.0266417895617774,1.970833794997374,-4.091797477077832,-1.4519574986512405,-0.4119019720458643,618.0
619,1.4659053659848174,-1.0266418309881808,1.9708337767838897,-4.091797418069342,-1.4519575657692712,-0.24670461404029792,619.0
620,1.4659054258854414,-1.0266418739242207,1.9708337596855008,-4.09179735860071,-1.451957626152215,-0.0912563947080689,620.0
621,1.4659054671278988,-1.0266419280916086,1.97083374477343,-4.09179728990337,-1.451957667961897,0.05419182462411851,621.0
622,1.465905505049211,-1.0266419788008774,1.9708337309468502,-4.091797225718597,-1.4519577064133944,0.18964004395628253,622.0
623,1.4659055242383319,-1.0266420344956135,1.9708337201179107,-4.091797159363492,-1.4519577261578362,0.3150882632884269,623.0
624,1.4659055418978078,-1.026642085750686,1.9708337101521836,-4.091797098297826,-1.4519577443283662,0.43053648262054045,624.0
625,1.4659055488105568,-1.0266421348597865,1.9708337025449874,-4.091797041633472,-1.4519577517187452,0.5359847019526378,625.0
626,1.465905549763358,-1.0266421806317165,1.9708336965197497,-4.091796989831671,-1.451957753110121,0.6314329212847294,626.0
627,1.4659055506163354,-1.026642221608171,1.9708336911257642,-4.091796943457082,-1.4519577543557238,0.7168811406168073,627.0
628,1.465905546306923,-1.026642257674063,1.9708336873597871,-4.091796903572668,-1.4519577503858039,0.7923293599488942,628.0
629,1.4659055375494003,-1.0266422888456306,1.970833685081187,-4.091796870028455,-1.451957741915654,0.8577775792809814,629.0
630,1.465905530129962,-1.0266423152544142,1.9708336831507383,-4.091796841609548,-1.45195773473968,0.9132257986130721,630.0
631,1.4659055240486079,-1.0266423369004136,1.9708336815684406,-4.091796818315945,-1.4519577288578818,0.95867401794519,631.0
632,1.4659055193053376,-1.02664235378363,1.9708336803342963,-4.091796800147648,-1.451957724270259,0.9941222372773052,632.0
633,1.465905515900152,-1.0266423659040638,1.9708336794483061,-4.091796787104657,-1.4519577209768122,1.0195704566094181,633.0
634,1.4659055138330501,-1.026642373261715,1.9708336789104701,-4.091796779186973,-1.451957718977541,1.0350186759415285,634.0
635,1.4661414406001771,-1.0252251739980713,1.9680606725145158,-4.090441472100875,-1.4521990742476127,1.042191922195797,635.0
636,1.4666259408446938,-1.0223145065591999,1.962365414194997,-4.087657908149846,-1.4526947239311718,1.0403563792590458,636.0
637,1.466705811744735,-1.0218334258037531,1.9614239869134957,-4.087197730981283,-1.4527764391791809,1.0305002935700132,637.0
638,1.4667054504588695,-1.0218330712245216,1.961423083144811,-4.087197181158975,-1.4527760823751368,1.011390247202407,638.0
639,1.4667049001175416,-1.0218325310993084,1.9614217064475588,-4.087196343622916,-1.4527755388608998,0.9822802008348063,639.0
640,1.4667041607207512,-1.0218318054281132,1.9614198568217396,-4.087195218373109,-1.45277480863647,0.9431701544671964,640.0
641,1.4667032322379359,-1.0218308941859695,1.9614175342484008,-4.087193805519851,-1.4527738914388317,0.8940601105801271,641.0
642,1.4667021144188241,-1.0218297971684176,1.9614147385722385,-4.087192105966057,-1.4527727851146461,0.8349500864767969,642.0
643,1.466700807491498,-1.0218285145617771,1.9614114699346443,-4.087190118888478,-1.4527714916269123,0.7658400623734926,643.0
644,1.4667006407417147,-1.0218283181377044,1.961411059190832,-4.0871899046156415,-1.4527713257676709,0.6867300524404005,644.0
645,1.4667006397745321,-1.021828275667895,1.9614110647611513,-4.08718995285811,-1.4527713237582371,0.5976200466790643,645.0
646,1.4667006386933654,-1.0218282284635376,1.961411070984523,-4.087190006387383,-1.4527713214794213,0.49851005153267663,646.0
647,1.466700625932396,-1.0218281794202166,1.9614110797441116,-4.087190064085761,-1.452771308023703,0.3894000651194681,647.0
648,1.4667006078391776,-1.0218281269341727,1.961411089993177,-4.087190126628303,-1.452771289399804,0.27029008642032376,648.0
649,1.4667005824331725,-1.0218280732139668,1.9614111018213125,-4.087190191922229,-1.4527712634464365,0.1411801150269822,649.0
650,1.4667005432631732,-1.0218280217910667,1.9614111160283962,-4.087190257186615,-1.4527712237358057,0.0020701480423644877,650.0
651,1.466700496222293,-1.0218279714496488,1.9614111316288887,-4.087190322686274,-1.4527711761548017,-0.14703981660979315,651.0
652,1.4667004344170123,-1.0218279287055227,1.9614111491303716,-4.087190382343768,-1.4527711138635548,-0.30614977457992487,652.0
653,1.46670036322287,-1.0218278947163355,1.961411167338378,-4.087190433858941,-1.4527710422562667,-0.47250993912563904,653.0
654,1.4667002896473718,-1.021827871578168,1.961411184620681,-4.087190473570988,-1.4527709683691,-0.6311322055865696,654.0
655,1.4667002165948948,-1.0218278645447323,1.9614111997393966,-4.087190495015017,-1.4527708951604708,-0.7797544720475971,655.0
656,1.4667001470536192,-1.021827862981549,1.961411213474393,-4.087190509637587,-1.4527708255199059,-0.9183767385087863,656.0
657,1.466700082784267,-1.0218278737892945,1.961411224599538,-4.0871905093269545,-1.452770761276624,-1.046999004970087,657.0
658,1.4667000236109975,-1.0218278885257477,1.9614112342298562,-4.087190503641164,-1.4527707021733822,-1.1656212714315457,658.0
659,1.4666999708142348,-1.0218279060473763,1.961411242262538,-4.087190493633727,-1.4527706494811587,-1.2742435378931154,659.0
660,1.4666999258817026,-1.0218279306706237,1.9614112478554242,-4.087190474159223,-1.4527706047309916,-1.3728658043547717,660.0
661,1.466699885505193,-1.021827952797146,1.961411252881203,-4.0871904566593695,-1.4527705645183562,-1.4614880708165203,661.0
662,1.466699850676354,-1.021827973728777,1.9614112569802102,-4.087190439481926,-1.452770529848621,-1.5401103372783371,662.0
663,1.4666998249116803,-1.0218279980819576,1.961411258877015,-4.087190416767834,-1.4527705042869377,-1.6087326037402063,663.0
664,1.4666998029015712,-1.021828018886264,1.9614112604974074,-4.087190397363759,-1.4527704824502383,-1.6673548702021226,664.0
665,1.4666997846460266,-1.0218280361416945,1.9614112618413841,-4.087190381269702,-1.4527704643385224,-1.7159771366640642,665.0
666,1.4666997701450466,-1.0218280498482508,1.9614112629089488,-4.087190368485661,-1.4527704499517906,-1.7545994031260248,666.0
667,1.4666997593986313,-1.0218280600059328,1.9614112637001022,-4.087190359011639,-1.4527704392900425,-1.7832216695879761,667.0
668,1.4666997524067809,-1.021828066614741,1.9614112642148434,-4.087190352847634,-1.4527704323532782,-1.8018439360499037,668.0
669,1.4667964133576907,-1.0212381774036579,1.9602562018911096,-4.08662538571634,-1.4528693628163243,-1.8113480033574174,669.0
670,1.4672794327931564,-1.0182904721791124,1.9544843218144645,-4.083802240315688,-1.4533637229926302,-1.8127029203785123,670.0
671,1.467489312265665,-1.0170087043122533,1.9519744217205814,-4.082574555599934,-1.4535785346166452,-1.8051762155545221,671.0
672,1.4674890213054046,-1.0170084018695782,1.9519736528981624,-4.082574089030781,-1.453578246566335,-1.7892498416067535,672.0
673,1.4674885476543067,-1.01700790952638,1.9519724013403636,-4.082573329507844,-1.4535777776523133,-1.7633234676589837,673.0
674,1.4674878913123706,-1.017007227282658,1.9519706670471835,-4.082572277031122,-1.4535771278745804,-1.727397093711191,674.0
675,1.4674870522795969,-1.0170063551384125,1.9519684500186232,-4.082570931600614,-1.4535762972331359,-1.6814707197634118,675.0
676,1.4674860308342237,-1.0170052931673912,1.951965750284247,-4.082569292746523,-1.4535752879188162,-1.6255443549911912,676.0
677,1.4674848268269005,-1.0170040413299817,1.9519625678280978,-4.082567360720912,-1.4535740987558738,-1.5596179925843365,677.0
678,1.4674842656651328,-1.0170034261618834,1.9519610292079896,-4.082566436692896,-1.4535735449893095,-1.4836916390921757,678.0
679,1.467484304630326,-1.0170034048886711,1.9519610243734615,-4.0825664533324,-1.45357358440255,-1.397765292386884,679.0
680,1.4674843481241333,-1.0170033811714865,1.9519610190047758,-4.0825664717801855,-1.453573628353142,-1.3018389569534754,680.0
681,1.467484398093421,-1.0170033607168028,1.9519610119286057,-4.08256648542299,-1.453573678570005,-1.1959126283207389,681.0
682,1.4674844555193454,-1.0170033464113701,1.9519610025587462,-4.082566490896272,-1.4535737359140521,-1.0799863079947085,682.0
683,1.467484517905338,-1.0170033312123543,1.9519609923348242,-4.0825664964586466,-1.453573798209394,-0.954059996074143,683.0
684,1.4674845856216714,-1.0170033327168864,1.9519609789172188,-4.082566482199105,-1.453573866021863,-0.8181336905898173,684.0
685,1.4674846583198684,-1.0170033343320353,1.9519609645124196,-4.082566466890749,-1.453573938823428,-0.672207385547112,685.0
686,1.4674847301894518,-1.0170033567336432,1.9519609475995034,-4.082566428272726,-1.4535740109976176,-0.5162810874751322,686.0
687,1.4674848038319996,-1.0170033849027358,1.9519609295994669,-4.082566382815739,-1.453574085002765,-0.3507802742161379,687.0
688,1.4674848662473243,-1.0170034280419586,1.951960911868958,-4.082566322543933,-1.4535741479118167,-0.18897941333550428,688.0
689,1.467484918159761,-1.017003474796336,1.9519608957251373,-4.082566260139872,-1.4535742003401344,-0.03717855245473785,689.0
690,1.4674849578112341,-1.0170035268276474,1.951960881297873,-4.082566194053966,-1.453574240543576,0.10462230842614294,690.0
691,1.4674849881476897,-1.0170035787626528,1.9519608687020868,-4.082566129804759,-1.4535742714196913,0.23642316930719892,691.0
692,1.4674850065210934,-1.0170036320527822,1.9519608582684653,-4.082566066245182,-1.4535742903312585,0.3582240301883649,692.0
693,1.467485023386018,-1.0170036809677223,1.9519608486914493,-4.082566007903921,-1.4535743076901626,0.47002489106963874,693.0
694,1.467485024582908,-1.017003729036397,1.9519608422829295,-4.082565953424414,-1.4535743093537041,0.5718257519510486,694.0
695,1.4674850254868759,-1.017003772426937,1.9519608365325514,-4.082565904279681,-1.4535743106786922,0.6636266128325179,695.0
696,1.4674850262923733,-1.017003811090882,1.951960831408568,-4.082565860488353,-1.4535743118593476,0.7454274737140757,696.0
697,1.4674850184596704,-1.0170038448384497,1.9519608286030694,-4.082565823848829,-1.4535743043436722,0.8172283345956961,697.0
698,1.467485010304952,-1.0170038738544558,1.9519608264682622,-4.082565792609788,-1.4535742964597977,0.8790291954773484,698.0
699,1.4674850034697486,-1.0170038981753795,1.9519608246788862,-4.082565766425537,-1.453574289851613,0.9308300563590552,699.0
700,1.4674849979540607,-1.0170039178012213,1.9519608232349426,-4.082565745296076,-1.4535742845191186,0.9726309172407662,700.0
701,1.4674849937578882,-1.0170039327319826,1.9519608221364326,-4.082565729221406,-1.4535742804623144,1.004431778122496,701.0
702,1.467484990881231,-1.017003942967663,1.951960821383357,-4.0825657182015265,-1.4535742776812002,1.0262326390041736,702.0
703,1.467496075347008,-1.0169352223941803,1.9518261537448627,-4.082499794878248,-1.4535856277608281,1.0381572626281639,703.0
704,1.4678968565692068,-1.0144506388871815,1.9469576697880768,-4.0801167533473315,-1.453996009574976,1.04256343200801,704.0
705,1.4682616746526225,-1.0121883228490092,1.9425246627325596,-4.077946844215414,-1.4543695702065473,1.0373568069509636,705.0
706,1.468263746811597,-1.0121737928682142,1.942496055977386,-4.077932771968199,-1.4543717005771568,1.0245912211484385,706.0
707,1.4682633350485546,-1.012173345952743,1.9424949386835857,-4.077932100861082,-1.454371294222931,1.0018525828382572,707.0
708,1.4682627422003307,-1.0121727024927538,1.9424933300262364,-4.077931134614426,-1.4543707091622142,0.969113944528044,708.0
709,1.4682619682669262,-1.0121718624882463,1.9424912300053392,-4.077929873228235,-1.4543699453950065,0.9263753062178276,709.0
710,1.4682610131158114,-1.0121708258265953,1.9424886385334612,-4.077928317198698,-1.4543690017661737,0.8736366783803629,710.0
711,1.4682598766935238,-1.0121695924623548,1.9424855555752203,-4.077926466725686,-1.4543678778101627,0.8108980621966185,711.0
712,1.4682588992150905,-1.0121685229910347,1.9424829055178794,-4.077924885432093,-1.4543669108371626,0.7381594499669384,712.0
713,1.4682588983318627,-1.0121684841134362,1.9424829106441677,-4.077924929648898,-1.454366909006713,0.6554208496938776,713.0
714,1.46825889733841,-1.0121684405565594,1.9424829164076436,-4.077924979130715,-1.454366906926691,0.5626822564814146,714.0
715,1.4682588946490212,-1.0121683927217946,1.942482923071664,-4.077925033709193,-1.4543669030964745,0.4599436704736026,715.0
716,1.4682588777584673,-1.0121683437601348,1.9424829326999489,-4.077925092117618,-1.4543668857012404,0.34720509489499923,716.0
717,1.468258859370507,-1.0121682904557592,1.9424829431823705,-4.077925155705644,-1.4543668667696363,0.224466527641024,717.0
718,1.4682588274605215,-1.0121682393942624,1.9424829560197492,-4.077925219294513,-1.454366834323738,0.09172796649722535,718.0
719,1.4682587878213778,-1.0121681874026298,1.9424829704889088,-4.077925285380147,-1.4543667941308653,-0.051010592439971345,719.0
720,1.4682587344549978,-1.0121681421190416,1.9424829867833424,-4.077925346446053,-1.4543667402582652,-0.20374914678402484,720.0
721,1.4682586721095727,-1.0121680990553603,1.9424830045511334,-4.077925406676388,-1.454366677416693,-0.36648769487114286,721.0
722,1.4682585981006009,-1.0121680730918117,1.9424830224003131,-4.077925449768255,-1.4543666030637403,-0.531352803823072,722.0
723,1.4682585266274955,-1.0121680528706898,1.9424830390123764,-4.077925485903881,-1.4543665313056993,-0.686344871756299,723.0
724,1.468258454891355,-1.0121680512956497,1.9424830532725452,-4.077925501033602,-1.4543664594658783,-0.8313369396896784,724.0
725,1.4682583881297429,-1.0121680511214683,1.9424830663773471,-4.077925513655651,-1.4543663926203536,-0.9663290076231827,725.0
726,1.4682583266368159,-1.0121680664592527,1.9424830764502607,-4.0779255077812495,-1.4543663312010584,-1.0913210755568334,726.0
727,1.4682582700636349,-1.0121680805699325,1.942483085717282,-4.077925502376826,-1.4543662746956185,-1.2063131434906151,727.0
728,1.4682582213546187,-1.012168101990355,1.9424830925010628,-4.077925487254716,-1.4543662261352117,-1.3113052114244657,728.0
729,1.468258178671533,-1.0121681253908696,1.9424830978487955,-4.077925468775199,-1.4543661836274382,-1.4062972793584645,729.0
730,1.4682581404817783,-1.0121681463279637,1.9424831026335563,-4.077925452241054,-1.4543661455945411,-1.4912893472925102,730.0
731,1.4682581098227594,-1.0121681687855175,1.9424831057466416,-4.0779254325884455,-1.4543661151164595,-1.566281415226639,731.0
732,1.4682580857568976,-1.0121681915337986,1.9424831075302855,-4.077925411380468,-1.4543660912424856,-1.6312734831608076,732.0
733,1.468258065393928,-1.012168210781916,1.942483109039488,-4.0779253934356525,-1.4543660710418786,-1.6862655510950133,733.0
734,1.4682580487338504,-1.0121682265298704,1.9424831102742486,-4.077925378753999,-1.4543660545146382,-1.7312576190292548,734.0
735,1.4682580357766648,-1.0121682387776623,1.9424831112345697,-4.077925367335512,-1.4543660416607653,-1.7662496869634934,735.0
736,1.4682580265223715,-1.0121682475252918,1.9424831119204509,-4.077925359180187,-1.45436603248026,-1.7912417548977224,736.0
737,1.4682580209709704,-1.012168252772759,1.9424831123318926,-4.07792535428803,-1.4543660269731224,-1.8062338228319343,737.0
738,1.468508619165562,-1.0105901314536319,1.9393886665805542,-4.07640956989748,-1.4546227494693125,-1.8131100252643706,738.0
739,1.468964640452236,-1.0077180524994653,1.933756954431636,-4.073650919540986,-1.4550899168283422,-1.8108468084012388,739.0
740,1.4690265160970588,-1.0073270741610194,1.9329901998486405,-4.073275276919348,-1.4551533108683503,-1.8006819565516896,740.0
741,1.4690261742460682,-1.0073266814301833,1.9329892200571848,-4.0732746896508685,-1.455152972676871,-1.781144320462529,741.0
742,1.46902565742458,-1.007326087686884,1.932987738776475,-4.073273801799207,-1.4551524613879514,-1.751606684373329,742.0
743,1.469024965632594,-1.0073252929311212,1.9329857560065102,-4.073272613364365,-1.4551517770015914,-1.7120690482841523,743.0
744,1.4690240989190066,-1.0073242971768297,1.9329832717534905,-4.073271124259315,-1.45515091990718,-1.6625314156896638,744.0
745,1.469023057541785,-1.007323100497484,1.9329802860499812,-4.073269334024731,-1.455149892159413,-1.6029938021212038,745.0
746,1.4690218412537535,-1.0073217028226207,1.9329767988645803,-4.07326724310047,-1.4551486917900536,-1.533456188552811,746.0
747,1.4690217773948446,-1.0073215733344192,1.9329765167597537,-4.073267090541037,-1.4551486295754308,-1.453918589462285,747.0
748,1.4690218174395113,-1.0073215514691578,1.9329765117662454,-4.073267107587878,-1.4551486700633856,-1.3643809944102836,748.0
749,1.4690218619509674,-1.007321527190364,1.932976506240891,-4.073267126423492,-1.4551487150273148,-1.2648434095243717,749.0
750,1.4690219145378296,-1.007321511087955,1.9329764980081743,-4.073267134714596,-1.4551487676559602,-1.155305833866716,750.0
751,1.4690219729433802,-1.0073214965149502,1.9329764884153884,-4.07326714024984,-1.455148825974995,-1.035768265868213,751.0
752,1.4690220363751425,-1.0073214874148866,1.9329764771237203,-4.073267138671908,-1.455148889383338,-0.9062307050916288,752.0
753,1.4690221049409944,-1.0073214889015933,1.9329764634486835,-4.073267124189322,-1.4551489580477999,-0.7666931485502241,753.0
754,1.4690221764219518,-1.007321497604468,1.9329764482670722,-4.073267101010705,-1.4551490297021217,-0.6171555946699421,754.0
755,1.4690222489057991,-1.0073215203255288,1.9329764310752118,-4.0732670618090285,-1.4551491024986394,-0.45761804738118317,755.0
756,1.4690223175122374,-1.007321555338787,1.9329764130558433,-4.073267009445779,-1.4551491715333635,-0.29130081465646807,756.0
757,1.4690223777005946,-1.0073215968857352,1.932976395846666,-4.073266951273838,-1.4551492322035582,-0.1331128281131199,757.0
758,1.4690224220475923,-1.0073216471839739,1.9329763806205347,-4.073266886174363,-1.4551492770984695,0.015075158430360922,758.0
759,1.4690224601612845,-1.0073216971513088,1.9329763666628936,-4.0732668226126645,-1.455149315749093,0.15326314497401164,759.0
760,1.4690224833528485,-1.0073217501729963,1.9329763552444215,-4.073266758387195,-1.4551493394889918,0.281451131517781,760.0
761,1.4690225009380429,-1.0073218011406557,1.932976345194043,-4.073266697528922,-1.4551493575954344,0.399639118061695,761.0
762,1.4690225119535127,-1.0073218490644194,1.9329763368292279,-4.073266641335923,-1.4551493690941695,0.5078271046056921,762.0
763,1.4690225129074541,-1.007321894815917,1.932976330723856,-4.073266589475635,-1.455149370497598,0.6060150911498003,763.0
764,1.469022513764241,-1.0073219359078291,1.9329763252402827,-4.073266542897079,-1.4551493717580937,0.6942030776939894,764.0
765,1.4690225123554241,-1.0073219722931288,1.9329763208109947,-4.073266502058313,-1.4551493707040544,0.7723910642382465,765.0
766,1.4690225034810165,-1.007322003859036,1.9329763184730901,-4.07326646805777,-1.4551493621279308,0.8405790507825674,766.0
767,1.4690224959080709,-1.0073220307956954,1.932976316478047,-4.073266439043522,-1.455149354809525,0.8987670373269282,767.0
768,1.4690224896365873,-1.0073220531031057,1.932976314825862,-4.073266415015566,-1.455149348748837,0.9469550238713093,768.0
769,1.4690224846665656,-1.0073220707812687,1.932976313516539,-4.073266395973906,-1.4551493439458663,0.9851430104157216,769.0
770,1.469022480998006,-1.0073220838301844,1.9329763125500787,-4.073266381918543,-1.4551493404006133,1.0133309969600959,770.0
771,1.4690224786309087,-1.007322092249853,1.9329763119264811,-4.073266372849475,-1.4551493381130782,1.0315189835044676,771.0
772,1.4691300515007204,-1.0066339712335752,1.931626089326217,-4.072604504387808,-1.455259592867048,1.0407049400537052,772.0
773,1.4695951474400895,-1.0036587568122795,1.9257881875638208,-4.069742825009652,-1.4557362843091037,1.0416263344980652,773.0
774,1.4697808605413012,-1.0024697618437144,1.9234550906084809,-4.06859912555347,-1.455926632561497,1.0337721607545962,774.0
775,1.4697805770972228,-1.0024694225531285,1.9234542569144348,-4.068598630643431,-1.4559263530606539,1.0174397742117374,775.0
776,1.4697801201058933,-1.0024688755215707,1.9234529127658737,-4.068597832709682,-1.4559259024269258,0.9911073876688693,776.0
777,1.4697794895673129,-1.0024681207490405,1.9234510581627968,-4.06859673175222,-1.4559252806603125,0.9547750011259846,777.0
778,1.4697786854814814,-1.002467158235538,1.9234486931052044,-4.068595327771048,-1.4559244877608137,0.908442614583105,778.0
779,1.4697777076155703,-1.002465987775369,1.9234458174295628,-4.06859362166847,-1.4559235216746615,0.8521102364298083,779.0
780,1.4697765561101943,-1.002464609492752,1.9234424312345737,-4.06859161289939,-1.4559223836424309,0.7857778599744983,780.0
781,1.4697760530599693,-1.002463986016729,1.9234409563097739,-4.068590761199369,-1.4559218859369818,0.7094454931310588,781.0
782,1.4697760521522505,-1.002463946020769,1.9234409616188775,-4.068590806727903,-1.4559218840539105,0.623113132481772,782.0
783,1.4697760511335045,-1.0024639014243797,1.9234409675724327,-4.068590857399018,-1.4559218819041715,0.5267807835966243,783.0
784,1.4697760430408378,-1.0024638539697364,1.9234409753134463,-4.0685909125751625,-1.4559218729297414,0.42044844145537,784.0
785,1.469776025848125,-1.0024638041676956,1.923440985178091,-4.06859097205442,-1.4559218552183513,0.3041161075469465,785.0
786,1.469776006188612,-1.0024637506271636,1.9234409960151806,-4.06859103621944,-1.455921835005297,0.1777837818959712,786.0
787,1.4697759688417467,-1.0024637016880442,1.9234410097372427,-4.068591098522018,-1.4559217971304623,0.041451462396548906,787.0
788,1.4697759282450864,-1.0024636496416244,1.9234410245038343,-4.0685911649451985,-1.4559217559712032,-0.10488085644456784,788.0
789,1.4697758691660336,-1.0024636088871464,1.9234410414518346,-4.068591222070597,-1.4559216964163828,-0.26121316830621044,789.0
790,1.4697758041433315,-1.0024635708235952,1.9234410592233924,-4.06859127726868,-1.4559216309369951,-0.42551959703410186,790.0
791,1.4697757331469696,-1.0024635485938824,1.9234410761184704,-4.068591315692538,-1.4559215596325874,-0.5828499525208322,791.0
792,1.4697756644921585,-1.0024635354980833,1.9234410913658873,-4.068591343355622,-1.4559214907627163,-0.7301803080076166,792.0
793,1.469775597468346,-1.0024635340632015,1.923441104777849,-4.068591357535358,-1.4559214236408542,-0.8675106634944991,793.0
794,1.4697755354296094,-1.0024635377462128,1.9234411165417955,-4.068591364997421,-1.455921361560767,-0.994841018981379,794.0
795,1.4697754784891215,-1.0024635519716867,1.9234411259312802,-4.068591359590425,-1.4559213046892507,-1.112171374468284,795.0
796,1.4697754264016392,-1.002463564984728,1.9234411345204974,-4.06859135464426,-1.4559212526648617,-1.2195017299552513,796.0
