Miguel-LA/TFM_MiguelLerinAlonso/workspace/ros_ur_driver/src/trayectories/data/saved_trajectories/20240615_2021_trajectory.csv
,shoulder_pan_joint,shoulder_lift_joint,elbow_joint,wrist_1_joint,wrist_2_joint,wrist_3_joint,time_from_start
0,-1.3915913647175595,-2.0444245403120647,-1.868692920647978,-2.284987418906278,-1.7350979806499391,4.453717339783908e-05,0.0
1,-1.3911818859147644,-2.0438251496853153,-1.8686732290345036,-2.2865053417393773,-1.7343471446588854,-0.004955462826602159,1.25
2,-1.3899534495063786,-2.042026977805067,-1.8686141541940802,-2.291059110238674,-1.7320946366857242,-0.019955462826602193,2.5
3,-1.3879060554924028,-2.03903002467132,-1.8685156961267082,-2.298648724404169,-1.7283404567304559,-0.04495546282660229,3.75
4,-1.3850397038728364,-2.034834290284074,-1.8683778548323868,-2.309274184235862,-1.7230846047930803,-0.0799554628266024,5.0
5,-1.381323719875314,-2.029445466845335,-1.8682012348779675,-2.3228585882539785,-1.7161414635902097,-0.12495542703290557,6.25
6,-1.3766852710185433,-2.0228770661444013,-1.8679872715712826,-2.3392193588779717,-1.70707032256774,-0.17995529607684352,7.5
7,-1.3710657926042993,-2.015139954468997,-1.8677371191044991,-2.3582096798016745,-1.6955168020832958,-0.24495501156272984,8.75
8,-1.3643991338356949,-2.006242920975349,-1.8674667300677212,-2.3795801606209364,-1.6811087792197217,-0.3199545340122727,10.0
9,-1.3566062861840624,-1.996194521790489,-1.8672033170138889,-2.402986398550469,-1.6634174879356163,-0.40495383433627735,11.25
10,-1.3476068569227988,-1.9850044885485,-1.8669807718852076,-2.4280174078924315,-1.642020063278756,-0.49995283850843864,12.5
11,-1.3373139454105343,-1.9726821592272896,-1.866850762423933,-2.454119953719797,-1.6164892298565896,-0.6049515063754628,13.75
12,-1.3256537087554685,-1.9592404975607756,-1.8668804352753905,-2.4806003037574076,-1.5865040848080139,-0.7199497987445703,15.0
13,-1.3125612385159278,-1.9446977944067474,-1.8671455668847934,-2.5066669631426817,-1.5518062702734003,-0.8449476644880737,16.25
14,-1.298002852638127,-1.9290811098087455,-1.867739039570581,-2.5313619804430374,-1.512341258207569,-0.9799450811537975,17.5
15,-1.2819919219082476,-1.9124300654236384,-1.8687641860492796,-2.5536102004446617,-1.4683232765833159,-1.1249420450161753,18.75
16,-1.265307696233196,-1.89550658814364,-1.8702594835472297,-2.5716054552818224,-1.4222402088835258,-1.2736699314587632,20.0
17,-1.249596855969273,-1.8798362273466602,-1.8720824647372871,-2.5838974939316874,-1.3790539883426256,-1.4128312436268855,21.25
18,-1.235047808938097,-1.8654491069341401,-1.8741493713822406,-2.591349769451232,-1.3395753296299366,-1.5419928744276823,22.5
19,-1.2217428988753778,-1.8523177825554182,-1.8763773969958941,-2.594896171441247,-1.304170994432153,-1.6611574613269795,23.75
20,-1.2097106235203234,-1.8404113722091293,-1.8786858880098816,-2.5954142132314213,-1.2729181600340862,-1.7703237717946705,25.0
21,-1.1989553380041706,-1.8296993968901776,-1.8809998345554138,-2.5937049713693936,-1.2457717810000233,-1.8694912049041275,26.25
22,-1.1894529288234212,-1.8201517939170082,-1.883248082468154,-2.5904998547831872,-1.2225381454485684,-1.9586596846559563,27.5
23,-1.181161300531765,-1.8117444247035774,-1.88536905046731,-2.586409391302202,-1.2028956836760458,-2.037852041533575,28.75
24,-1.1757223749087673,-1.8062160146569473,-1.8867887195406152,-2.5834949496488955,-1.1901240887711062,-2.113801162382745,30.0
25,-1.174436165404507,-1.8049088553772639,-1.8871242927522325,-2.5828060337584113,-1.1871041530017516,-2.191090541760384,31.25
26,-1.1744362329760283,-1.804909235971102,-1.8871240413222308,-2.582806550097962,-1.1871047302599165,-2.2754687130662186,32.5
27,-1.1744362967383373,-1.804909671128887,-1.8871237320613568,-2.5828072333288685,-1.1871052755532558,-2.369846875120801,33.75
28,-1.1744363067173427,-1.8049097824743578,-1.8871236922762376,-2.582807335544537,-1.1871053548527506,-2.474225028023077,35.0
29,-1.1744363034818224,-1.8049098196863969,-1.8871237187500813,-2.5828072938772495,-1.1871053193035417,-2.5886031735432757,36.25
30,-1.1744363066615793,-1.8049098577172407,-1.8871237513633012,-2.58280723659211,-1.1871052966761635,-2.7129813107841994,37.5
31,-1.1744363264750386,-1.804909893860102,-1.8871237929818963,-2.5828071576713807,-1.1871053163226235,-2.8473594398132422,38.75
32,-1.174436351935832,-1.8049099309157508,-1.8871238371791124,-2.5828070754850487,-1.1871053419852473,-2.9917375600886205,40.0
33,-1.1744363942840128,-1.8049099641120487,-1.8871238823538354,-2.582806997814661,-1.1871053850145303,-3.1461156735964657,41.25
34,-1.1744364462046875,-1.8049099947021885,-1.8871239279747236,-2.5828069224569608,-1.187105437575287,-3.310493783985839,42.5
35,-1.174436511559497,-1.8049100193860363,-1.8871239720563409,-2.5828068547404373,-1.1871055034622768,-3.4833735776525576,43.75
36,-1.1744365833142498,-1.8049100331375296,-1.8871240075730977,-2.582806806583034,-1.1871055755892734,-3.6500100767392074,45.0
37,-1.174436653986477,-1.8049100423689564,-1.8871240383926011,-2.5828067676129605,-1.1871056465597132,-3.806646575825854,46.25
38,-1.1744367251764702,-1.804910038832323,-1.8871240570512675,-2.582806753542775,-1.187105717846863,-3.9532830749124903,47.5
39,-1.1744367918256082,-1.8049100347765559,-1.8871240738011106,-2.5828067418313125,-1.1871057845751687,-4.089919573999121,48.75
40,-1.1744368532608542,-1.804910021094283,-1.8871240796447322,-2.5828067505471064,-1.187105845925871,-4.216556073085753,50.0
41,-1.1744369098137795,-1.8049100075765339,-1.887124084133407,-2.5828067603809624,-1.187105902386353,-4.333192572172386,51.25
42,-1.174436959290928,-1.804909991163364,-1.887124083634202,-2.582806777984232,-1.1871059517099662,-4.43982907125902,52.5
43,-1.1744370020684392,-1.8049099725395166,-1.8871240789245243,-2.5828068019023447,-1.1871059942845061,-4.536465570345653,53.75
44,-1.174437040419311,-1.8049099558428803,-1.887124074702201,-2.5828068233453996,-1.1871060324534104,-4.623102069432289,55.0
45,-1.1744370722292634,-1.8049099394155887,-1.8871240687118744,-2.5828068461903095,-1.1871060640715878,-4.6997385685189235,56.25
46,-1.1744370965250195,-1.8049099224944696,-1.887124059915321,-2.5828068722217554,-1.187106088151578,-4.766375067605559,57.5
47,-1.1744371171747625,-1.8049099081126678,-1.8871240524388473,-2.5828068943467173,-1.1871061086179346,-4.823011566692195,58.75
48,-1.174437134178493,-1.804909896270185,-1.8871240462824508,-2.5828069125651956,-1.1871061254706583,-4.869648065778826,60.0
49,-1.17443714753621,-1.804909886967019,-1.8871240414461359,-2.582806926877189,-1.1871061387097481,-4.906284564865461,61.25
50,-1.1744371572479135,-1.8049098802031691,-1.887124037929902,-2.5828069372826974,-1.187106148335204,-4.932921063952094,62.5
51,-1.1744371633136037,-1.8049098759786355,-1.8871240357337489,-2.582806943781721,-1.1871061543470258,-4.949557563038727,63.75
52,-1.1751417572558975,-1.8066732039618392,-1.88482200662916,-2.5833507938839584,-1.1878097688527094,-4.957530509712056,65.0
53,-1.1767802637679001,-1.8107737792040925,-1.8794687043483533,-2.584615495471458,-1.1894459983362191,-4.9563688090371345,66.25
54,-1.1771428370488755,-1.811681176324712,-1.878284100799122,-2.5848953557166237,-1.189808070529217,-4.9465822819888965,67.5
55,-1.1771428309562626,-1.8116811817902865,-1.878284100962548,-2.5848953582537275,-1.189808070071087,-4.92761575782785,68.75
56,-1.1771428216513518,-1.8116811901375565,-1.8782841012121394,-2.584895362128507,-1.1898080693714104,-4.898649233666802,70.0
57,-1.1771428091341427,-1.8116812013665218,-1.8782841015478962,-2.584895367340961,-1.189808068430187,-4.859682709505757,71.25
58,-1.1771427934576892,-1.8116812154394428,-1.8782841020805117,-2.5848953734793345,-1.1898080676996419,-4.810716185909461,72.5
59,-1.1771427751727297,-1.8116812319645539,-1.8782841039590654,-2.5848953762692966,-1.189808071874206,-4.751749667779217,73.75
60,-1.1771427537868644,-1.8116812512921214,-1.8782841061561986,-2.584895379532402,-1.189808076756725,-4.682783149648973,75.0
61,-1.1771427204824663,-1.81168126720292,-1.8782841101181922,-2.5848953619659243,-1.18980804836229,-4.6038166456671705,76.25
62,-1.1771426814972177,-1.8116812840971939,-1.8782841148330942,-2.5848953386000666,-1.1898080107070872,-4.514850145813479,77.5
63,-1.177142638099013,-1.8116813028724106,-1.8782841201441227,-2.584895312316534,-1.1898079685627558,-4.415883655995842,78.75
64,-1.1771425868368386,-1.8116813175528046,-1.8782841186238408,-2.584895297929788,-1.1898079176887408,-4.306917174703386,80.0
65,-1.1771425295048459,-1.8116813312304374,-1.8782841140714102,-2.5848952879399767,-1.189807860386284,-4.187950701016511,81.25
66,-1.1771424672328465,-1.8116813424184661,-1.8782841055661597,-2.5848952843312203,-1.1898077981065485,-4.058984234391623,82.5
67,-1.1771423998690813,-1.8116813464923844,-1.878284088578811,-2.5848952962540768,-1.189807730660438,-3.9200177719246083,83.75
68,-1.1771423292882475,-1.8116813469119148,-1.8782840670539138,-2.5848953163098844,-1.1898076599329097,-3.7710513115839426,85.0
69,-1.1771422580110844,-1.8116813375734113,-1.8782840358659052,-2.584895355746089,-1.1898075883532153,-3.6120848581315395,86.25
70,-1.1771421895574814,-1.811681320754295,-1.8782839983124935,-2.5848954090490404,-1.1898075194840199,-3.445704025032553,87.5
71,-1.1771421298998652,-1.8116812981980743,-1.878283957937421,-2.5848954710256136,-1.1898074593383996,-3.286907367294999,88.75
72,-1.17714208498939,-1.8116812694115652,-1.8782839161122649,-2.584895540884846,-1.1898074138725852,-3.138110709557445,90.0
73,-1.1771420471594605,-1.8116812397317685,-1.8782838756222082,-2.5848956104053817,-1.1898073754883902,-2.9993140518198858,91.25
74,-1.1771420231438938,-1.811681207366561,-1.8782838368243948,-2.584895681117572,-1.1898073509056428,-2.870517394082328,92.5
75,-1.1771420056396336,-1.8116811754928732,-1.8782838005255895,-2.584895748937808,-1.1898073328560927,-2.7517207363447693,93.75
76,-1.1771419937993528,-1.8116811453021275,-1.8782837676160535,-2.5848958117751653,-1.189807320509553,-2.6429240786072086,95.0
77,-1.1771419927917124,-1.8116811155607677,-1.8782837385074214,-2.584895870525176,-1.1898073190262095,-2.5441274208696476,96.25
78,-1.1771419918860633,-1.8116810888297739,-1.8782837123451013,-2.584895923328628,-1.189807317693007,-2.455330763132086,97.5
79,-1.1771419926476925,-1.8116810650144881,-1.878283689523806,-2.584895969908557,-1.189807318077107,-2.3765341053945215,98.75
80,-1.1771420014381446,-1.8116810437302258,-1.878283671647682,-2.584896009139336,-1.189807326547672,-2.3077374476569563,100.0
81,-1.1771420089508524,-1.8116810255397564,-1.8782836563699583,-2.5848960426676904,-1.1898073337869906,-2.2489407899193914,101.25
82,-1.1771420151858165,-1.811681010443083,-1.8782836436906316,-2.5848960704936195,-1.1898073397950624,-2.200144132181829,102.5
83,-1.1771420201430365,-1.8116809984402025,-1.8782836336097053,-2.584896092617123,-1.1898073445718875,-2.1613474744442707,103.75
84,-1.1771420238225123,-1.8116809895311146,-1.8782836261271794,-2.5848961090382017,-1.1898073481174662,-2.13255081670671,105.0
85,-1.1771420262242442,-1.8116809837158188,-1.8782836212430545,-2.584896119756855,-1.1898073504317985,-2.113754158969146,106.25
86,-1.1775192102048981,-1.8126365283818204,-1.8770286191051757,-2.585198314409857,-1.190183977498989,-2.1040983452343816,107.5
87,-1.179137878948452,-1.8167372324997,-1.871642825085886,-2.5864951510620022,-1.1918002567613437,-2.103085715648079,108.75
88,-1.1798098317901802,-1.818439549334874,-1.8694070367278808,-2.587033501533947,-1.1924712207369412,-2.111167061453393,110.0
89,-1.1798098305614653,-1.8184395549050567,-1.869407039567064,-2.5870334986501904,-1.192471226149503,-2.1279327522778115,111.25
90,-1.1798098285998755,-1.8184395637976096,-1.8694070440996957,-2.5870334940463984,-1.1924712347904198,-2.1546984431022294,112.5
91,-1.179809825905411,-1.8184395760125323,-1.8694070503257756,-2.5870334877225716,-1.192471246659693,-2.1914641339266487,113.75
92,-1.179809822478072,-1.8184395915498248,-1.869407058245304,-2.587033479678709,-1.1924712617573214,-2.2382298247510697,115.0
93,-1.1798098178670084,-1.8184396108635883,-1.8694070664793976,-2.5870334751825186,-1.1924712761957939,-2.294995504900519,116.25
94,-1.1798098123705831,-1.8184396336533086,-1.8694070759405723,-2.5870334707479423,-1.1924712925477834,-2.361761183498405,117.5
95,-1.1798098106471095,-1.8184396577967155,-1.8694070942950336,-2.587033439889076,-1.1924712989786648,-2.438526851547609,118.75
96,-1.179809811381922,-1.8184396838829546,-1.8694071194043325,-2.5870333899741738,-1.1924712990267523,-2.525292513833768,120.0
97,-1.1798098121686225,-1.8184397129547083,-1.8694071474839844,-2.587033333972743,-1.1924712988072037,-2.6220581648234633,121.25
98,-1.1798098206837875,-1.8184397431616,-1.8694071792794729,-2.587033272705201,-1.1924713070109165,-2.7288238091780506,122.5
99,-1.1798098377769022,-1.8184397742977314,-1.8694072148767198,-2.5870332062482806,-1.1924713245951288,-2.8455894454541424,123.75
100,-1.1798098579847576,-1.8184398073834394,-1.869407253340208,-2.587033135021679,-1.1924713453431721,-2.9723550739060514,125.0
101,-1.1798098950313298,-1.8184398364614442,-1.8694072931267556,-2.5870330667908674,-1.1924713829382294,-3.109120696901467,126.25
102,-1.1798099359327305,-1.8184398668682238,-1.8694073354043905,-2.5870329948021467,-1.1924714244180425,-3.2558863192216365,127.5
103,-1.179809994463106,-1.8184398890195101,-1.8694073751514437,-2.58703293384059,-1.1924714834299222,-3.4126519343986477,128.75
104,-1.179810059904491,-1.8184399084705438,-1.869407414427457,-2.5870328761458192,-1.192471549324557,-3.5785858450100085,130.0
105,-1.179810131645612,-1.8184399178957962,-1.8694074459254844,-2.587032836320328,-1.1924716213721198,-3.7395836141942276,131.25
106,-1.1798102016295857,-1.8184399202012145,-1.8694074699594911,-2.587032811032266,-1.1924716915447857,-3.890581383378443,132.5
107,-1.1798102695543928,-1.8184399161180322,-1.869407487145806,-2.5870327989316353,-1.1924717595515832,-4.031579152562642,133.75
108,-1.1798103324854106,-1.818439907123735,-1.8694074980058877,-2.5870327979798704,-1.192471822475166,-4.162576921746836,135.0
109,-1.179810390425952,-1.818439893316067,-1.8694075026357293,-2.5870328079835616,-1.1924718803204184,-4.283574690931023,136.25
110,-1.179810443266638,-1.8184398800826247,-1.8694075062352213,-2.5870328183688667,-1.1924719330639428,-4.394572460115205,137.5
111,-1.1798104874202813,-1.8184398608904278,-1.8694075013405782,-2.58703284306047,-1.1924719770062213,-4.495570229299383,138.75
112,-1.1798105272021815,-1.818439843598493,-1.8694074969305599,-2.5870328653073074,-1.1924720165976845,-4.586567998483561,140.0
113,-1.1798105626123379,-1.8184398282068193,-1.8694074930051687,-2.5870328851093776,-1.1924720518383314,-4.667565767667734,141.25
114,-1.1798105885730332,-1.8184398107298483,-1.8694074841112134,-2.58703291181832,-1.1924720775756508,-4.738563536851904,142.5
115,-1.1798106105368145,-1.818439795447345,-1.8694074761044353,-2.5870329353921697,-1.1924720993425044,-4.799561306036076,143.75
116,-1.179810628899845,-1.8184397826702638,-1.8694074694102896,-2.5870329551013134,-1.1924721175408919,-4.850559075220257,145.0
117,-1.1798106436621238,-1.818439772398603,-1.8694074640287774,-2.58703297094575,-1.1924721321708123,-4.891556844404441,146.25
118,-1.1798106548236509,-1.8184397646323616,-1.8694074599599009,-2.5870329829254795,-1.1924721432322651,-4.92255461358862,147.5
119,-1.179810662384426,-1.8184397593715398,-1.8694074572036596,-2.5870329910405023,-1.1924721507252507,-4.943552382772801,148.75
120,-1.1799421125211746,-1.8187768566861364,-1.868962076489013,-2.5871422218044735,-1.1926033951535762,-4.954926435438261,150.0
121,-1.1814260267410273,-1.8225824275639337,-1.863934126688064,-2.5883752951386296,-1.1940849875508934,-4.958161785019725,151.25
122,-1.182441484023845,-1.8251866272214292,-1.8604934413380803,-2.5892191018263344,-1.1950988577881505,-4.951818666472117,152.5
123,-1.1824414793971911,-1.8251866313644585,-1.8604934414354541,-2.589219103852037,-1.1950988573432944,-4.937291775457223,153.75
124,-1.182441471585648,-1.82518663835946,-1.860493441599858,-2.58921910727219,-1.1950988565922085,-4.91276488444233,155.0
125,-1.1824414605892155,-1.8251866482064338,-1.860493441831292,-2.5892191120867936,-1.1950988555348934,-4.878237993427435,156.25
126,-1.1824414464078936,-1.8251866609053804,-1.860493442129756,-2.5892191182958473,-1.1950988541713488,-4.833711102412536,157.5
127,-1.182441429443762,-1.8251866761755773,-1.860493443320105,-2.5892191228513806,-1.195098855964801,-4.779184215094361,158.75
128,-1.1824414096065017,-1.8251866940800836,-1.8604934452170525,-2.589219126438057,-1.1950988601373087,-4.7146573298027725,160.0
129,-1.1824413826105398,-1.8251867118197918,-1.860493448161316,-2.589219120337799,-1.1950988492474834,-4.640130451473535,161.25
130,-1.1824413460342011,-1.8251867276518454,-1.8604934525995525,-2.58921909847764,-1.1950988139814398,-4.555603582628887,162.5
131,-1.1824413051057232,-1.8251867453415236,-1.8604934576191248,-2.5892190737856033,-1.1950987743340828,-4.461076722503263,163.75
132,-1.1824412585256165,-1.825186762637495,-1.8604934603992587,-2.5892190518767806,-1.1950987287115005,-4.356549869117626,165.0
133,-1.182441204014348,-1.825186775603631,-1.860493456043485,-2.5892190424357575,-1.1950986742339218,-4.242023024298977,166.25
134,-1.1824411447419891,-1.8251867897033955,-1.8604934513028775,-2.5892190321875748,-1.1950986149874132,-4.117496188857605,167.5
135,-1.1824410803783298,-1.8251867949045766,-1.8604934362823564,-2.5892190410571048,-1.195098550556398,-3.9829693587908963,168.75
136,-1.1824410111823345,-1.8251867990411563,-1.8604934187129751,-2.58921905347138,-1.1950984812747696,-3.8384425295495017,170.0
137,-1.182440941940155,-1.8251867919853213,-1.8604933902190615,-2.589219087967614,-1.1950984117681502,-3.6839157060854744,171.25
138,-1.1824408698790057,-1.8251867814950193,-1.8604933574971807,-2.5892191300739493,-1.1950983393814103,-3.5194307503264817,172.5
139,-1.182440809308978,-1.8251867585525146,-1.8604933162231436,-2.58921919332117,-1.1950982783103863,-3.3561979419774346,173.75
140,-1.1824407567035597,-1.8251867340570977,-1.860493275921487,-2.5892192572635127,-1.1950982251963405,-3.2029651336283984,175.0
141,-1.1824407181438734,-1.8251867037796246,-1.8604932343676706,-2.589219328433589,-1.1950981860656136,-3.0597323252793687,176.25
142,-1.182440686311517,-1.825186673863439,-1.8604931952661083,-2.5892193968916235,-1.1950981536826817,-2.9264995169303507,177.5
143,-1.1824406683756463,-1.8251866411948245,-1.8604931578193091,-2.5892194666471386,-1.1950981351822274,-2.8032667085813374,178.75
144,-1.1824406518952222,-1.8251866111771848,-1.8604931234112068,-2.589219530742187,-1.1950981181830342,-2.690033900232332,180.0
145,-1.1824406486182064,-1.8251865810149261,-1.8604930929838024,-2.5892195911979625,-1.1950981144136843,-2.586801091883328,181.25
146,-1.1824406476776614,-1.8251865532939848,-1.8604930656657437,-2.5892196461448496,-1.1950981130251659,-2.4935682835343256,182.5
147,-1.1824406468379975,-1.8251865285463507,-1.8604930412777723,-2.5892196951982216,-1.1950981117855775,-2.410335475185327,183.75
148,-1.1824406530256173,-1.8251865063579995,-1.860493021578478,-2.5892197371158048,-1.1950981176297497,-2.337102666836328,185.0
149,-1.1824406610046885,-1.825186487041899,-1.8604930052385034,-2.5892197728366635,-1.1950981253154787,-2.2738698584873305,186.25
150,-1.1824406677219035,-1.8251864707805594,-1.8604929914826245,-2.5892198029084206,-1.1950981317857428,-2.220637050138324,187.5
151,-1.1824406731772623,-1.82518645757398,-1.860492980310842,-2.5892198273310747,-1.1950981370405414,-2.177404241789314,188.75
152,-1.182440677370765,-1.8251864474221595,-1.8604929717231578,-2.589219846104628,-1.1950981410798742,-2.144171433440308,190.0
153,-1.1824406803024115,-1.8251864403250972,-1.860492965719572,-2.5892198592290785,-1.195098143903742,-2.1209386250913034,191.25
154,-1.1824482611117264,-1.825206112706336,-1.8604668128335438,-2.5892263939960407,-1.1951057121084048,-2.10768157116428,192.5
155,-1.1836536193074125,-1.8283353770829454,-1.856308099073077,-2.590264470878297,-1.196309075463447,-2.1023547396353366,193.75
156,-1.1849921341209178,-1.8318103391730687,-1.851689968358635,-2.5914172215741966,-1.1976453768223845,-2.106820684397939,195.0
157,-1.1850351626050204,-1.8319220531919052,-1.8515415108343571,-2.5914542771927085,-1.1976883388987787,-2.1192090500117264,196.25
158,-1.1850351609701086,-1.8319220605125004,-1.8515415145317482,-2.5914542735845134,-1.1976883458936771,-2.1414619039968716,197.5
159,-1.185035158600499,-1.8319220711228281,-1.8515415198906746,-2.5914542683548647,-1.1976883560319465,-2.1737147579820157,198.75
160,-1.1850351554961922,-1.8319220850228892,-1.851541526911137,-2.5914542615037632,-1.1976883693135874,-2.2159676119671645,200.0
161,-1.1850351514489097,-1.8319221024186971,-1.8515415349665174,-2.591454255410673,-1.1976883839243513,-2.268220464244843,201.25
162,-1.1850351463130493,-1.8319221234542709,-1.8515415436187626,-2.5914542517390204,-1.1976883985959406,-2.330473314192422,202.5
163,-1.1850351416942897,-1.8319221472636136,-1.8515415558603998,-2.591454239922909,-1.197688412148289,-2.40272616092077,203.75
164,-1.1850351423823577,-1.831922171686568,-1.8515415795411982,-2.5914541930010566,-1.197688412176101,-2.48497899443287,205.0
165,-1.1850351431380162,-1.8319221990678884,-1.8515416061404513,-2.5914541402038505,-1.197688412072118,-2.577231821988862,206.25
166,-1.1850351447678278,-1.83192222920832,-1.8515416357518424,-2.5914540815552516,-1.1976884127066372,-2.679484642716563,207.5
167,-1.1850351610001908,-1.8319222587813258,-1.8515416697893325,-2.591454018207954,-1.1976884294083134,-2.791737452418098,208.75
168,-1.1850351786800557,-1.831922290987881,-1.8515417068618252,-2.5914539492071524,-1.1976884476103882,-2.9139902545198977,210.0
169,-1.1850352085136187,-1.8319223211880409,-1.8515417457570003,-2.5914538806121166,-1.197688477986604,-3.0462430506660403,211.25
170,-1.1850352465758867,-1.8319223510830636,-1.8515417869177435,-2.5914538102073426,-1.197688516618654,-3.188495844615332,212.5
171,-1.1850352970308444,-1.831922376325354,-1.8515418274043245,-2.591453745302708,-1.197688567593489,-3.340748634296241,213.75
172,-1.1850353568687464,-1.8319223990069613,-1.8515418683218239,-2.59145368266143,-1.197688627929117,-3.503001417485838,215.0
173,-1.1850354276477408,-1.831922410842562,-1.851541902052021,-2.5914536381865187,-1.1976886990543534,-3.668243852515698,216.25
174,-1.1850354963718477,-1.831922419204495,-1.8515419317405868,-2.5914536011864575,-1.1976887680640298,-3.8237510716675587,217.5
175,-1.1850355656099203,-1.831922415087604,-1.8515419493810927,-2.591453588686062,-1.1976888373870138,-3.969258290819462,218.75
176,-1.1850356300804337,-1.8319224109837142,-1.8515419655422745,-2.5914535775807765,-1.1976889019322179,-4.104765509971396,220.0
177,-1.1850356894432246,-1.831922396877037,-1.8515419703185487,-2.59145358775888,-1.1976889611967758,-4.230272729123353,221.25
178,-1.1850357440761872,-1.8319223838943384,-1.8515419747142592,-2.5914535971260273,-1.197689015739333,-4.3457799482753465,222.5
179,-1.185035791338726,-1.8319223672258862,-1.8515419731973344,-2.591453615971107,-1.1976890628357402,-4.451287167427388,223.75
180,-1.1850358325795336,-1.831922349328266,-1.8515419685933026,-2.591453639039032,-1.1976891038773652,-4.546794386579474,225.0
181,-1.1850358695022603,-1.8319223333046049,-1.851541964471327,-2.5914536596916515,-1.1976891406217642,-4.632301605731561,226.25
182,-1.1850358994373613,-1.8319223170581567,-1.8515419579445818,-2.591453682866777,-1.197689170359648,-4.707808824883648,227.5
183,-1.1850359227350533,-1.831922300863993,-1.8515419493917908,-2.591453707916618,-1.1976891934464466,-4.773316044035742,228.75
184,-1.1850359424762376,-1.8319222871419492,-1.8515419421446244,-2.5914537291424775,-1.1976892130089318,-4.82882326318783,230.0
185,-1.1850359586609152,-1.8319222758920262,-1.8515419362030814,-2.591453746544356,-1.1976892290471042,-4.8743304823399045,231.25
186,-1.185035971289085,-1.8319222671142212,-1.8515419315671648,-2.5914537601222527,-1.1976892415609623,-4.909837701491984,232.5
187,-1.185035980360747,-1.8319222608085348,-1.851541928236875,-2.591453769876167,-1.197689250550507,-4.93534492064406,233.75
188,-1.1850359858759016,-1.8319222569749665,-1.8515419262122115,-2.5914537758061,-1.1976892560157377,-4.950852139796141,235.0
189,-1.185865522018837,-1.8341023908397258,-1.848627773767801,-2.5921936916847175,-1.1985173427139568,-4.95798146538922,236.25
190,-1.1873707526556065,-1.8380583595043247,-1.8433398961917795,-2.593536302617424,-1.2000199440278465,-4.955768366499028,237.5
191,-1.1875949667671084,-1.8386476387118593,-1.8425522203790674,-2.5937362977704033,-1.2002437693142716,-4.945217038514651,238.75
192,-1.1875949604699705,-1.8386476443408655,-1.8425522204777514,-2.5937363006514196,-1.2002437685802037,-4.925274792059345,240.0
193,-1.1875949510151458,-1.838647652792525,-1.8425522206259197,-2.5937363049771154,-1.2002437674780388,-4.895332545604042,241.25
194,-1.1875949384026336,-1.8386476640668388,-1.8425522208235732,-2.5937363107474916,-1.2002437660077767,-4.855390299148742,242.5
195,-1.1875949227436544,-1.838647678087457,-1.8425522212953536,-2.593736317138039,-1.200243765137369,-4.8054480550696805,243.75
196,-1.1875949044735967,-1.8386476945554957,-1.8425522229206592,-2.593736320921086,-1.200243768656018,-4.745505821223165,245.0
197,-1.187594883155595,-1.8386477137708526,-1.84255222481711,-2.5937363253352483,-1.200243772761673,-4.6755635873766455,246.25
198,-1.1875948493274882,-1.8386477287891458,-1.84255222891818,-2.5937363058120937,-1.2002437411460347,-4.595621369490874,247.5
199,-1.1875948108756287,-1.8386477453989418,-1.8425522336308036,-2.5937362827632597,-1.2002437040313887,-4.505679155376864,248.75
200,-1.187594768123126,-1.8386477638388254,-1.8425522389278495,-2.593736256889933,-1.2002436625745407,-4.405736950306894,250.0
201,-1.1875947172191994,-1.8386477774543946,-1.8425522364542473,-2.5937362446943473,-1.2002436119387787,-4.295794754922238,251.25
202,-1.1875946608264147,-1.8386477908319696,-1.8425522319145993,-2.5937362350019155,-1.2002435555761273,-4.175852566974052,252.5
203,-1.1875945995772599,-1.8386478006738378,-1.8425522223701054,-2.593736233790776,-1.2002434943094784,-4.045910385819567,253.75
204,-1.1875945333932107,-1.838647804589897,-1.842552205447145,-2.5937362458218947,-1.2002434280419234,-3.905968208256474,255.0
205,-1.187594464606787,-1.8386478036385867,-1.8425521829283125,-2.5937362682629366,-1.2002433590880397,-3.7560260333790176,256.25
206,-1.187594394637976,-1.8386477943834123,-1.8425521518850863,-2.593736307489414,-1.200243288815125,-3.5960838652363227,257.5
207,-1.1875943290346151,-1.8386477766007228,-1.842552113837856,-2.5937363622889604,-1.200243222778563,-3.4298189820068408,258.75
208,-1.187594271188069,-1.8386477546606557,-1.8425520741421186,-2.5937364229988167,-1.2002431644482263,-3.2720049361199655,260.0
209,-1.1875942291397663,-1.8386477256819553,-1.8425520324917994,-2.5937364929185827,-1.200243121836439,-3.1241908902330646,261.25
210,-1.1875941924897009,-1.8386476968897334,-1.8425519927184453,-2.5937365608561453,-1.2002430846377852,-2.9863768443461627,262.5
211,-1.1875941707902344,-1.8386476648568448,-1.8425519544540507,-2.5937366307399783,-1.2002430623699065,-2.8585627984592468,263.75
212,-1.1875941538505237,-1.8386476340023794,-1.8425519188403507,-2.5937366968691413,-1.2002430448913999,-2.740748752572321,265.0
213,-1.1875941437874762,-1.8386476044761166,-1.8425518866886779,-2.593736758314593,-1.2002430343262613,-2.632934706685395,266.25
214,-1.187594142811307,-1.8386475757535383,-1.8425518581774976,-2.5937368154539797,-1.2002430328810376,-2.5351206607984533,267.5
215,-1.1875941419349367,-1.8386475499674133,-1.8425518325811465,-2.5937368667517324,-1.200243031583566,-2.4473066149115135,268.75
216,-1.1875941436473407,-1.8386475269704796,-1.8425518105360246,-2.593736911755523,-1.2002430329258988,-2.3694925690245694,270.0
217,-1.1875941520991597,-1.838647506517173,-1.8425517931033872,-2.593736949711044,-1.2002430410638083,-2.301678523137624,271.25
218,-1.187594159304656,-1.8386474890799536,-1.842551778241403,-2.593736982069564,-1.2002430480016846,-2.243864477250684,272.5
219,-1.1875941652638298,-1.8386474746588246,-1.842551765950068,-2.5937370088310856,-1.200243053739528,-2.1960504313637514,273.75
220,-1.1875941699766805,-1.838647463253782,-1.842551756229387,-2.593737029995607,-1.2002430582773385,-2.158236385476821,275.0
221,-1.1875941734432085,-1.8386474548648257,-1.842551749079359,-2.5937370455631275,-1.200243061615116,-2.1304223395898867,276.25
222,-1.1875941756634139,-1.8386474494919556,-1.842551744499985,-2.5937370555336487,-1.2002430637528605,-2.112608293702951,277.5
223,-1.1880700830386721,-1.8399136371857323,-1.8408495571153645,-2.5941764158089042,-1.2007180946290732,-2.103698738666991,278.75
224,-1.1896098277458769,-1.8440102629006654,-1.8353423162495635,-2.595597904148025,-1.202255004094667,-2.1035930903202504,280.0
225,-1.190118271421697,-1.8453630264836527,-1.833523752957677,-2.596067297134326,-1.202762514708631,-2.112343281956587,281.25
226,-1.190118270126033,-1.8453630322156303,-1.833523755829169,-2.596067294441652,-1.2027625200941128,-2.129941238687932,282.5
227,-1.1901182680941111,-1.845363041204791,-1.8335237603323793,-2.5960672902188713,-1.2027625285398822,-2.1575391954192806,283.75
228,-1.190118265325931,-1.8453630534511354,-1.8335237664673087,-2.596067284465985,-1.2027625400459399,-2.195137152150622,285.0
229,-1.190118261821493,-1.8453630689546632,-1.833523774233957,-2.5960672771829922,-1.2027625546122855,-2.2427351088819645,286.25
230,-1.1901182570841184,-1.8453630881988585,-1.8335237821599413,-2.5960672739268182,-1.202762567868505,-2.3003330633997985,287.5
231,-1.1901182514980868,-1.8453631108096509,-1.8335237913844415,-2.596067270398083,-1.2027625831959792,-2.367931017809171,288.75
232,-1.1901182503143475,-1.8453631343915884,-1.8335238106041152,-2.596067236809084,-1.2027625877569892,-2.4455289601421057,290.0
233,-1.1901182510376982,-1.8453631600765628,-1.833523835703575,-2.5960671872430683,-1.2027625877630634,-2.5331268976998147,291.25
234,-1.1901182518120126,-1.8453631886710269,-1.833523863749972,-2.596067131667935,-1.2027625875010195,-2.630724823358203,292.5
235,-1.1901182613975712,-1.8453632180768036,-1.833523895596973,-2.5960670710323885,-1.2027625969019855,-2.7383227420773126,293.75
236,-1.1901182781989288,-1.8453632486807412,-1.8335239310762517,-2.5960670052165553,-1.2027626141999195,-2.8559206528703633,295.0
237,-1.1901182993826138,-1.8453632806087459,-1.8335239692386296,-2.596066935465084,-1.2027626359247547,-2.9835185560658393,296.25
238,-1.1901183357542937,-1.8453633091852435,-1.8335240088510707,-2.5960668678975805,-1.2027626728465965,-3.121116454236998,297.5
239,-1.1901183771597035,-1.845363338178879,-1.8335240504582406,-2.596066797995373,-1.2027627148200695,-3.268714351284134,298.75
240,-1.1901184345771207,-1.845363359966861,-1.833524090000572,-2.5960667375844464,-1.2027627727203911,-3.426312241324129,300.0
241,-1.1901184995119156,-1.8453633779374266,-1.8335241281454326,-2.5960666824903225,-1.2027628380922724,-3.5925266246905343,301.25
242,-1.1901185691506897,-1.8453633871654351,-1.833524159152966,-2.5960666433222572,-1.2027629080356226,-3.752685418015057,302.5
243,-1.1901186375028232,-1.8453633884102376,-1.8335241818866939,-2.5960666203699287,-1.2027629765590286,-3.902844211339589,303.75
244,-1.1901187033868648,-1.8453633845302853,-1.8335241987924205,-2.5960666083192883,-1.2027630425251434,-4.043003004664129,305.0
245,-1.1901187643680355,-1.8453633749841956,-1.83352420857042,-2.59606660897352,-1.2027631034849624,-4.17316179798868,306.25
246,-1.1901188205111777,-1.845363361677776,-1.83352421311963,-2.596066618534106,-1.2027631595346169,-4.29332059131325,307.5
247,-1.190118871320068,-1.8453633482733964,-1.8335242158938743,-2.59606662988753,-1.2027632102366395,-4.403479384637831,308.75
248,-1.1901189140440065,-1.8453633297613967,-1.8335242110897,-2.5960666537919255,-1.2027632527523855,-4.5036381779624035,310.0
249,-1.1901189525023261,-1.8453633130976654,-1.8335242067651771,-2.5960666753096726,-1.2027632910232988,-4.593796971286988,311.25
250,-1.190118986608793,-1.8453632982144481,-1.8335242028263934,-2.59606669460096,-1.2027633249618483,-4.673955764611573,312.5
251,-1.1901190112573428,-1.8453632810999778,-1.833524193712396,-2.5960667211510398,-1.2027633493851326,-4.744114557936163,313.75
252,-1.1901190323926405,-1.845363266424898,-1.8335241858974514,-2.5960667439168352,-1.202763370327273,-4.804273351260752,315.0
253,-1.1901190500146872,-1.8453632541892109,-1.8335241793815569,-2.596066762898348,-1.2027633877882704,-4.854432144585324,316.25
254,-1.1901190641234822,-1.8453632443929142,-1.8335241741647148,-2.596066778095577,-1.2027634017681241,-4.894590937909895,317.5
255,-1.1901190747190258,-1.845363237036008,-1.833524170246926,-2.596066789508521,-1.202763412266834,-4.9247497312344715,318.75
256,-1.1901190818013174,-1.8453632321184916,-1.833524167628191,-2.596066797137182,-1.2027634192844,-4.944908524559043,320.0
257,-1.1903150260945214,-1.845890992123129,-1.8328106668649402,-2.5962539123503934,-1.2029589837730539,-4.955632962224057,321.25
258,-1.191766306148328,-1.8497999883978793,-1.8275259671096613,-2.597639795837651,-1.2044074510494907,-4.958104223241101,322.5
259,-1.1926090887770995,-1.852070017477148,-1.8244570439543584,-2.5984446045345235,-1.2052486020733175,-4.951185973904901,323.75
260,-1.19260908401267,-1.8520700217288313,-1.824457044005044,-2.598444606800987,-1.20524860142299,-4.9359676020454755,325.0
261,-1.1926090761175312,-1.8520700287742984,-1.8244570440890358,-2.5984446105567462,-1.205248600345332,-4.910749230186047,326.25
262,-1.1926090650916832,-1.8520700386135485,-1.8244570442063326,-2.5984446158017995,-1.2052485988403434,-4.875530858326623,327.5
263,-1.1926090509351264,-1.8520700512465824,-1.8244570443569355,-2.5984446225361473,-1.2052485969080244,-4.830312486467204,328.75
264,-1.1926090340888362,-1.8520700663752803,-1.8244570454187894,-2.598444627559503,-1.2052485984259316,-4.775094126038384,330.0
265,-1.1926090143802235,-1.8520700841163216,-1.8244570470482846,-2.5984446321243926,-1.2052486018764679,-4.70987577012367,331.25
266,-1.1926089870660734,-1.8520701011490095,-1.8244570499535635,-2.598444625093337,-1.2052485883114783,-4.634657422392385,332.5
267,-1.1926089510828453,-1.8520701166777984,-1.8244570543726744,-2.5984446036132978,-1.205248553660055,-4.549439083063748,333.75
268,-1.1926089108516296,-1.8520701340112122,-1.824457059374021,-2.5984445793391107,-1.2052485147241248,-4.454220753487421,335.0
269,-1.1926088647861661,-1.8520701504035746,-1.8244570614647904,-2.5984445591782594,-1.205248469546949,-4.349002430674463,336.25
270,-1.1926088112694404,-1.852070163065989,-1.824457057128027,-2.5984445500328395,-1.2052484160648125,-4.233784116293071,337.5
271,-1.1926087531066059,-1.8520701768287275,-1.8244570524108044,-2.598444540108984,-1.2052483579293192,-4.108565810684397,338.75
272,-1.1926086899473993,-1.8520701811052644,-1.8244570367124877,-2.598444550596818,-1.2052482946945906,-3.9733475109673346,340.0
273,-1.192608622096975,-1.8520701850841346,-1.824457019238019,-2.5984445630906396,-1.2052482267575042,-3.8281292115905177,341.25
274,-1.1926085545897798,-1.8520701772058257,-1.8244569901401513,-2.5984445990347327,-1.2052481589710615,-3.6729109184440127,342.5
275,-1.1926084848430172,-1.8520701659317262,-1.8244569569754954,-2.5984446423982606,-1.2052480888844181,-3.5078726902652697,343.75
276,-1.192608425983868,-1.8520701435883131,-1.8244569162931976,-2.598444704481398,-1.2052480295275556,-3.345338123643228,345.0
277,-1.1926083759178152,-1.8520701190307105,-1.8244568761945887,-2.5984447683206384,-1.2052479789469204,-3.192803557021179,346.25
278,-1.1926083384682387,-1.8520700896057232,-1.8244568352607748,-2.5984448380380525,-1.2052479409307848,-3.050268990399122,347.5
279,-1.1926083086545534,-1.852070060076729,-1.8244567966335568,-2.598444905666932,-1.2052479105657732,-2.9177344237770475,348.75
280,-1.1926082912470755,-1.8520700283784155,-1.824456759774569,-2.598444973876725,-1.2052478925988512,-2.795199857154967,350.0
281,-1.1926082752602158,-1.8520699992669958,-1.8244567259236222,-2.598445036519942,-1.2052478760982035,-2.6826652905328796,351.25
282,-1.1926082730543617,-1.8520699698166263,-1.824456696085914,-2.5984450956942973,-1.205247873403571,-2.580130723910784,352.5
283,-1.192608272140658,-1.8520699429835559,-1.8244566692458042,-2.5984451492802743,-1.2052478720469597,-2.4875961572886824,353.75
284,-1.1926082713256965,-1.8520699190502772,-1.8244566453062414,-2.5984451970753364,-1.2052478708369543,-2.4050615906665773,355.0
285,-1.192608277991631,-1.8520698975839331,-1.8244566261683706,-2.598445237720549,-1.2052478771649773,-2.3325270240444707,356.25
286,-1.192608285690471,-1.8520698789626024,-1.8244566101716273,-2.5984452724028833,-1.2052478845749424,-2.269992457422363,357.5
287,-1.1926082921581775,-1.8520698633190398,-1.824456596732946,-2.598445301539111,-1.2052478907999686,-2.2174578908002673,358.75
288,-1.1926082973947507,-1.852069850653244,-1.8244565858523278,-2.5984453251292323,-1.2052478958400559,-2.1749233241781796,360.0
289,-1.1926083014001903,-1.8520698409652132,-1.8244565775297745,-2.598445343173248,-1.205247899695204,-2.142388757556087,361.25
290,-1.1926083041744961,-1.8520698342549482,-1.824456571765286,-2.5984453556711578,-1.205247902365413,-2.11985419093399,362.5
291,-1.1926347142434433,-1.852141841882319,-1.8243586710586197,-2.5984714327809133,-1.205274258584674,-2.107229446045891,363.75
292,-1.1938557162298886,-1.8554712970751936,-1.8198323661802909,-2.5996767905459737,-1.2064927734979007,-2.1024521059810093,365.0
293,-1.1950470016067503,-1.8587197259452921,-1.8154162204990467,-2.6008528100647923,-1.2076816342132344,-2.10747598773011,366.25
294,-1.1950647954851399,-1.8587682534681786,-1.8153502563870563,-2.6008703750042694,-1.2076993966282743,-2.120344723438238,367.5
295,-1.195064793803021,-1.8587682608227802,-1.8153502600447309,-2.6008703717085044,-1.2076994034226503,-2.1431512601973015,368.75
296,-1.1950647913833423,-1.85876827140216,-1.815350265306189,-2.600870366967643,-1.207699413196162,-2.1759577969563626,370.0
297,-1.1950647882261034,-1.8587682852063174,-1.8153502721714307,-2.600870360781685,-1.2076994259488085,-2.21876433371542,371.25
298,-1.195064784095102,-1.8587683024619608,-1.8153502799495116,-2.6008703557420754,-1.2076994395811427,-2.271570867993889,372.5
299,-1.195064778898795,-1.8587683232569523,-1.8153502883726491,-2.6008703528531574,-1.2076994532795016,-2.3343773995288783,373.75
300,-1.195064774613172,-1.858768346568345,-1.8153503010256613,-2.6008703396557085,-1.2076994649884234,-2.407183926883483,375.0
301,-1.195064775289857,-1.8587683705439018,-1.8153503246426625,-2.6008702931912446,-1.207699464985895,-2.4899904418386334,376.25
302,-1.1950647760316258,-1.8587683974022398,-1.815350351156873,-2.6008702409231477,-1.2076994648401438,-2.5827969500321486,377.5
303,-1.1950647784303698,-1.858768426758593,-1.8153503807366997,-2.600870182972132,-1.2076994663225857,-2.685603451315292,378.75
304,-1.1950647943548072,-1.8587684557548072,-1.8153504146079436,-2.600870120359694,-1.2076994827194685,-2.798409942217007,380.0
305,-1.1950648116924283,-1.8587684873204897,-1.8153504514846297,-2.6008700521865165,-1.2076995005833608,-2.9212164249268757,381.25
306,-1.195064841812108,-1.8587685165441137,-1.8153504900598816,-2.6008699848932255,-1.2076995312450474,-3.054022901798553,382.5
307,-1.1950648791089828,-1.8587685458472882,-1.815350530976246,-2.600869915311071,-1.2076995691122832,-3.1968293768432963,383.75
308,-1.195064929368025,-1.858768570024035,-1.815350570901824,-2.6008698520274285,-1.2076996198839116,-3.3496358473056675,385.0
309,-1.1950649879722013,-1.8587685922764066,-1.815350611556659,-2.60086979005913,-1.2076996789864094,-3.5124423113795915,386.25
310,-1.1950650575282922,-1.8587686031211734,-1.8153506443448366,-2.6008697474980353,-1.207699748876759,-3.677274709096564,387.5
311,-1.195065124655326,-1.8587686106065404,-1.8153506730267903,-2.600869712357003,-1.207699816277136,-3.832221647767172,388.75
312,-1.1950651919720263,-1.8587686066749718,-1.8153506904265382,-2.6008696998868817,-1.2076998836790023,-3.977168586437775,390.0
313,-1.1950652546152778,-1.858768602157537,-1.815350705765101,-2.600869689992184,-1.207699946387319,-4.112115525108397,391.25
314,-1.1950653122941417,-1.8587685885206622,-1.8153507104726805,-2.6008696997486966,-1.2077000039695278,-4.23706246377903,392.5
315,-1.1950653653567394,-1.8587685759752066,-1.8153507148034853,-2.6008697087243604,-1.2077000569432064,-4.352009402449669,393.75
316,-1.1950654110018528,-1.8587685594214967,-1.8153507128046473,-2.6008697279158577,-1.2077001024166438,-4.456956341120323,395.0
317,-1.195065451015554,-1.8587685421111115,-1.8153507082717555,-2.600869750311637,-1.2077001422336113,-4.5519032797909835,396.25
318,-1.1950654868149346,-1.8587685266238936,-1.8153507042162718,-2.60086977034865,-1.2077001778569783,-4.636850218461644,397.5
319,-1.1950655155059091,-1.8587685106860166,-1.815350697463288,-2.6008697934260745,-1.2077002063486435,-4.711797157132314,398.75
320,-1.1950655380486999,-1.858768495051907,-1.8153506890662026,-2.600869817752529,-1.207700228683433,-4.776744095802972,400.0
321,-1.1950655571205357,-1.858768481825011,-1.8153506819620304,-2.6008698383333946,-1.2077002475792944,-4.831691034473628,401.25
322,-1.1950655727214166,-1.858768471005329,-1.815350676150771,-2.600869855168672,-1.207700263036227,-4.876637973144272,402.5
323,-1.1950655848513427,-1.8587684625928593,-1.815350671632427,-2.60086986825836,-1.2077002750542312,-4.9115849118149075,403.75
324,-1.1950655935103134,-1.858768456587602,-1.8153506684069987,-2.600869877602459,-1.2077002836333062,-4.936531850485558,405.0
325,-1.1950655986983287,-1.8587684529895565,-1.8153506664744856,-2.6008698832009687,-1.2077002887734523,-4.951478789156216,406.25
326,-1.195926001233726,-1.8611437061652656,-1.8121037939825357,-2.6017474586448217,-1.2085588518827737,-4.958215747469655,407.5
327,-1.197321375552895,-1.8649958347171105,-1.8068381001704528,-2.603170684637,-1.2099512438817124,-4.955514058833769,408.75
328,-1.197489330464549,-1.8654595100133906,-1.8062042800220794,-2.603341996867415,-1.210118842574131,-4.944637668986409,410.0
329,-1.197489324144693,-1.8654595156438951,-1.8062042800593212,-2.6033419999807945,-1.2101188415884843,-4.92427710764844,411.25
330,-1.1974893147208672,-1.8654595240397969,-1.8062042801148541,-2.603342004623297,-1.210118840118742,-4.893916546310489,412.5
331,-1.1974893021930715,-1.8654595352010959,-1.806204280188678,-2.603342010794922,-1.2101188381649035,-4.853555984972531,413.75
332,-1.1974892866959337,-1.865459549038035,-1.806204280545252,-2.603342017538392,-1.2101188369229334,-4.80319542757686,415.0
333,-1.197489268610393,-1.8654595652966393,-1.806204281932887,-2.6033420221450125,-1.2101188397769151,-4.742834883250486,416.25
334,-1.197489247479325,-1.865459584211275,-1.8062042835623877,-2.603342027378499,-1.2101188429156113,-4.672474339057952,417.5
335,-1.1974892139538693,-1.8654595986576703,-1.8062042877057265,-2.603342007375658,-1.2101188106495289,-4.592113811336196,418.75
336,-1.1974891762473412,-1.8654596148950644,-1.806204292388748,-2.6033419847810135,-1.2101187742888206,-4.50175328740083,420.0
337,-1.1974891343455742,-1.8654596329131317,-1.8062042976485797,-2.603341959436328,-1.2101187337110157,-4.401392772143917,421.25
338,-1.1974890842821782,-1.8654596458720691,-1.8062042947818508,-2.6033419483738234,-1.2101186838639157,-4.291032267075453,422.5
339,-1.1974890290447822,-1.865459658911155,-1.8062042902709008,-2.6033419390035024,-1.2101186286576886,-4.17067176939511,423.75
340,-1.197488969050993,-1.8654596680332176,-1.806204280332677,-2.603341938920569,-1.2101185686423475,-4.040311278431808,425.0
341,-1.1974889042536465,-1.865459671804146,-1.8062042635209044,-2.603341951002741,-1.210118503760656,-3.8999507908656943,426.25
342,-1.1974888371421848,-1.8654596702789399,-1.8062042406918501,-2.603341974348303,-1.2101184364726365,-3.7495903062726894,427.5
343,-1.1974887686635622,-1.8654596611686554,-1.8062042098632483,-2.6033420132356095,-1.2101183676893195,-3.58922982832617,428.75
344,-1.1974887051457253,-1.8654596432354227,-1.8062041718086121,-2.603342068222396,-1.2101183037312804,-3.423075791154184,430.0
345,-1.1974886488295062,-1.8654596218487727,-1.8062041325955402,-2.6033421279196864,-1.210118246933591,-3.265686727631504,431.25
346,-1.1974886085234353,-1.8654595932043276,-1.8062040912256911,-2.6033421972520436,-1.210118206061385,-3.118297664108871,432.5
347,-1.1974885728554399,-1.8654595651840964,-1.8062040519510103,-2.603342263936266,-1.2101181698480195,-2.9809086005862975,433.75
348,-1.1974885523954941,-1.8654595337516073,-1.8062040141008855,-2.603342332827048,-1.2101181488201105,-2.853519537063809,435.0
349,-1.197488535916603,-1.8654595037599444,-1.806203978951924,-2.603342397639441,-1.2101181318061114,-2.7361304735413916,436.25
350,-1.1974885267125668,-1.8654594749367168,-1.8062039472781533,-2.603342457920472,-1.2101181221026818,-2.628741410019028,437.5
351,-1.1974885257609689,-1.8654594470510641,-1.8062039191596597,-2.603342513834951,-1.2101181206857619,-2.5313523464967163,438.75
352,-1.1974885249070821,-1.8654594220287422,-1.806203893928394,-2.603342564008079,-1.2101181194143324,-2.443963282974458,440.0
353,-1.1974885269785145,-1.8654593997052074,-1.8062038723179596,-2.6033426079127584,-1.210118121119607,-2.366574219452227,441.25
354,-1.1974885351748996,-1.8654593798942747,-1.8062038551584723,-2.6033426449525408,-1.210118129005299,-2.2991851559300267,442.5
355,-1.1974885421550063,-1.8654593630231266,-1.8062038405453158,-2.603342676495915,-1.2101181357208168,-2.241796092407845,443.75
356,-1.1974885479188353,-1.8654593490917661,-1.8062038284784876,-2.603342702542881,-1.210118141266161,-2.194407028885678,445.0
357,-1.1974885524663859,-1.8654593381001892,-1.8062038189579908,-2.603342723093438,-1.2101181456413312,-2.1570179653635204,446.25
358,-1.197488555797658,-1.8654593300483966,-1.8062038119838264,-2.603342738147586,-1.210118148846328,-2.129628901841348,447.5
359,-1.197488557912652,-1.8654593249363878,-1.8062038075559936,-2.6033427477053266,-1.2101181508811505,-2.112239838319171,448.75
360,-1.1979876287770999,-1.866854182161033,-1.804286729116764,-2.603868401294495,-1.2106161032494924,-2.1036354731967255,450.0
361,-1.1994415462705093,-1.870917763907879,-1.7987017977888244,-2.605399750697852,-1.2120667628871336,-2.1038851328473687,451.25
362,-1.199880079209515,-1.872143432710919,-1.797017260642575,-2.605861638126212,-1.2125043163054816,-2.1128751436195143,452.5
363,-1.1998800778886145,-1.87214343842039,-1.7970172634637873,-2.605861635683978,-1.2125043214916207,-2.1307587944847244,453.75
364,-1.199880075829106,-1.8721434473224257,-1.797017267862537,-2.605861631876121,-1.2125043295776927,-2.1586424453499236,455.0
365,-1.1998800730309893,-1.8721434594170254,-1.7970172738388233,-2.60586162670264,-1.212504340563698,-2.196526096215113,456.25
366,-1.1998800694942648,-1.8721434747041898,-1.797017281392647,-2.6058616201635356,-1.212504354449636,-2.244409747080317,457.5
367,-1.1998800647096768,-1.8721434936666694,-1.7970172890522125,-2.6058616177437766,-1.212504366663543,-2.3022933929137546,458.75
368,-1.199880059088935,-1.8721435159141822,-1.797017298007399,-2.605861615009016,-1.2125043809016427,-2.3701770386605028,460.0
369,-1.1998800580874525,-1.8721435389302057,-1.7970173173973003,-2.605861580923888,-1.2125043846542216,-2.4480606717837015,461.25
370,-1.1998800587961134,-1.872143564052613,-1.7970173423607647,-2.6058615319884932,-1.2125043846241998,-2.535944300229708,462.5
371,-1.1998800595569423,-1.872143592010886,-1.7970173702458272,-2.605861477141944,-1.2125043843436878,-2.6338279169271965,463.75
372,-1.1998800693517586,-1.872143620664593,-1.797017401934903,-2.6058614173564636,-1.212504393999093,-2.7417115263394614,465.0
373,-1.1998800857975342,-1.8721436505884386,-1.7970174371749104,-2.6058613524511416,-1.2125044109439473,-2.8595951278612155,466.25
374,-1.1998801069777982,-1.8721436816100212,-1.7970174750203962,-2.605861283921933,-1.212504432665913,-2.9874787218244045,467.5
375,-1.1998801425625252,-1.8721437095584088,-1.7970175143508942,-2.605861217250771,-1.2125044688004702,-3.12536231086599,468.75
376,-1.1998801834928505,-1.8721437376187213,-1.797017555495863,-2.605861148734444,-1.212504510294385,-3.27324589858155,470.0
377,-1.1998802396508264,-1.872143758945863,-1.7970175947461113,-2.6058610890574334,-1.2125045669351586,-3.431129479362134,471.25
378,-1.1998803025272604,-1.8721437760367707,-1.7970176318928845,-2.6058610358095566,-1.212504630238745,-3.5953600623548887,472.5
379,-1.1998803686613804,-1.8721437848426974,-1.7970176617783098,-2.605860998134565,-1.212504696668963,-3.751155638909772,473.75
380,-1.199880433331944,-1.8721437863634287,-1.7970176839000491,-2.605860975466917,-1.2125047615106503,-3.896951215464669,475.0
381,-1.1998804956490141,-1.8721437827491108,-1.7970177001284273,-2.6058609637785595,-1.212504823907777,-4.032746792019523,476.25
382,-1.1998805532198165,-1.8721437747995509,-1.7970177105024776,-2.605860962196884,-1.2125048814755326,-4.158542368574348,477.5
383,-1.1998806060383855,-1.8721437623401989,-1.7970177148454596,-2.6058609710726213,-1.2125049342050236,-4.27433794512915,478.75
384,-1.1998806542955935,-1.8721437509568297,-1.7970177188133793,-2.6058609791818603,-1.2125049823808465,-4.3801335216839385,480.0
385,-1.1998806944718998,-1.872143734246266,-1.7970177148712272,-2.6058610003927583,-1.2125050223685814,-4.47592909823871,481.25
386,-1.1998807301985082,-1.8721437188148355,-1.7970177107930825,-2.6058610203971577,-1.212505057917956,-4.561724674793479,482.5
387,-1.1998807617609626,-1.8721437051820358,-1.797017707190267,-2.605861038069923,-1.2125050893238343,-4.637520251348251,483.75
388,-1.1998807869266572,-1.872143691594352,-1.797017701595196,-2.605861057593931,-1.2125051143192926,-4.703315827903015,485.0
389,-1.1998808060622523,-1.8721436783397631,-1.7970176944131206,-2.6058610782822296,-1.2125051332766277,-4.759111404457803,486.25
390,-1.1998808217682575,-1.872143667460737,-1.7970176885182574,-2.605861095262653,-1.2125051488363212,-4.804906981012603,487.5
391,-1.199880834044673,-1.8721436589572749,-1.797017683910605,-2.605861108535203,-1.212505160998374,-4.840702557567399,488.75
392,-1.1998808428914984,-1.8721436528293753,-1.7970176805901648,-2.605861118099879,-1.2125051697627856,-4.866498134122192,490.0
393,-1.1998808483087335,-1.8721436490770378,-1.7970176785569376,-2.6058611239566805,-1.212505175129556,-4.882293710676983,491.25
394,-1.1997313865218444,-1.8717310714814894,-1.7976043366437169,-2.6056860318850226,-1.2123561774817448,-4.888446182696841,492.5
395,-1.1992755296257294,-1.870472739497019,-1.7993936116053293,-2.605152003551166,-1.2119017362506608,-4.885769303810042,493.75
396,-1.1991757244344243,-1.8701972541278225,-1.7997853411145974,-2.60503508387892,-1.2118022410289915,-4.873774282124375,495.0
397,-1.1989927137317655,-1.869692102338326,-1.800503647365062,-2.6048206907086597,-1.2116197987112047,-4.851779260438702,496.25
398,-1.1987264975177534,-1.86895728412853,-1.801548530356722,-2.6045088240403858,-1.2113544092973003,-4.819784238753039,497.5
399,-1.1983758306852044,-1.8679926152040198,-1.8029184099502136,-2.6041012361166405,-1.2110048205131971,-4.777789181581033,498.75
400,-1.197938112214268,-1.8667977109565301,-1.8046099844874859,-2.603601587735894,-1.2105684163661539,-4.725794032336682,500.0
401,-1.1974162092612604,-1.8653729959930692,-1.8066268921686865,-2.6030058441639614,-1.2100480805152138,-4.663798883092346,501.25
402,-1.19680807776998,-1.8637181304712773,-1.808966623082716,-2.60231683431265,-1.209441758416543,-4.59180367094426,502.5
403,-1.196112343684678,-1.8618328862531652,-1.8116274893992141,-2.6015364601397213,-1.2087480689634065,-4.509808368008889,503.75
404,-1.195329292085769,-1.859717286059338,-1.8146098942442968,-2.6006642990042113,-1.2079672980714384,-4.41781299510425,505.0
405,-1.194456992826483,-1.8573709898595643,-1.817911508743384,-2.599703000364441,-1.207097505199159,-4.315817510646143,506.25
406,-1.1934935440330752,-1.8547936037516894,-1.8215301683269014,-2.598655103456231,-1.206136778686142,-4.20382187297839,507.5
407,-1.1924393697401379,-1.8519851815180661,-1.8254664311570064,-2.597520000501802,-1.2050855449925844,-4.081826110643808,508.75
408,-1.1912923793299888,-1.848945290883499,-1.8297179165482669,-2.596300483189745,-1.2039417027018513,-3.9498301828176436,510.0
409,-1.190048639628596,-1.8456730597528446,-1.8342802766523412,-2.595001731183905,-1.202701298708781,-3.8078340087044102,511.25
410,-1.188708383655484,-1.842168449912554,-1.8391539695908339,-2.5936233265547783,-1.2013645678198162,-3.6558376216256203,512.5
411,-1.1872737580984005,-1.8384421142651404,-1.8443212218842246,-2.5921723974581594,-1.1999336351171785,-3.4943265906648513,513.75
412,-1.1858631620951676,-1.8348037413329503,-1.849351336026861,-2.5907707756545486,-1.198526588373397,-3.3367369761168324,515.0
413,-1.1845323126723883,-1.8313938871006434,-1.8540518991430144,-2.5894707122053315,-1.1971990148204767,-3.1891471425067057,516.25
414,-1.1832833090088912,-1.8282129946719738,-1.858425282195027,-2.588269414422921,-1.195953024427443,-3.051557131066298,517.5
415,-1.1821183022396669,-1.8252615590957832,-1.8624738227037532,-2.587164071850409,-1.194790779107489,-2.9239669796672274,518.75
416,-1.1810370665995147,-1.8225394706946039,-1.8661974058287663,-2.586154906375834,-1.1937120523598432,-2.8063766802773626,520.0
417,-1.180042057519975,-1.8200473242237378,-1.8695986332823669,-2.5852387469141735,-1.1927193117180783,-2.698786277572388,521.25
418,-1.1791369344393,-1.8177861056240159,-1.8726811566263546,-2.5844109943475093,-1.1918162339698508,-2.6011958266021873,522.5
419,-1.178318190553473,-1.8157548178202187,-1.8754415954849952,-2.5836759890424394,-1.190999296046386,-2.5136052659821386,523.75
420,-1.1775927451526886,-1.8139553868741678,-1.8778867135459312,-2.583025114184148,-1.1902754496145294,-2.4360147027160037,525.0
421,-1.1769557011052485,-1.8123864090811672,-1.880011816337103,-2.5824644160876593,-1.1896397749094518,-2.3684240569388004,526.25
422,-1.176412907384923,-1.8110495607159829,-1.8818225113035325,-2.581986672975553,-1.1890981479380165,-2.310833411161589,527.5
423,-1.1759638124428364,-1.809944679371446,-1.883318279610118,-2.5815925602220933,-1.1886500146324588,-2.263242757594539,528.75
424,-1.175606564632162,-1.8090712196862886,-1.884497379695802,-2.5812843450498746,-1.1882935148900056,-2.225652063639459,530.0
425,-1.175344353058675,-1.808430120618417,-1.8853628116999401,-2.581058122291148,-1.1880318523811717,-2.1980613696843996,531.25
426,-1.1751771777223747,-1.8080213821678297,-1.8859145756225337,-2.5809138919459116,-1.1878650271059572,-2.1804706757293255,532.5
427,-1.1750465548910323,-1.8077023182071064,-1.8863451033835485,-2.5808014860489643,-1.1877346770512294,-2.172758845685017,533.75
428,-1.174432066045969,-1.8062032451912418,-1.888366731445356,-2.58027449494707,-1.1871214667898211,-2.174074925384919,535.0
429,-1.1744318234039703,-1.8062031767557234,-1.888366508972883,-2.5802747829590476,-1.1871212233739874,-2.184438011702208,536.25
430,-1.1744313466212999,-1.8062030422824282,-1.888366071822594,-2.5802753488920698,-1.1871207450707595,-2.2048010980194843,537.5
431,-1.1744306356979581,-1.8062028417713565,-1.88836541999449,-2.580276192746137,-1.1871200318801378,-2.235164184336762,538.75
432,-1.1744296905462106,-1.8062025753272504,-1.8883645531886435,-2.5802773156438468,-1.1871190830255534,-2.275527248617152,540.0
433,-1.1744285111964217,-1.806202242913638,-1.8883634715092323,-2.580278717194935,-1.1871178987769486,-2.3258903049145747,541.25
434,-1.1744270976770101,-1.8062018444965628,-1.8883621750534574,-2.580280397035546,-1.1871164793860207,-2.386253361211966,542.5
435,-1.1744270610776288,-1.8062018549546976,-1.8883621609947485,-2.5802804006425015,-1.1871164426744252,-2.456616398953785,543.75
436,-1.1744270618573847,-1.806201879449821,-1.8883621845103697,-2.580280353095946,-1.1871164434980959,-2.5369794358273587,545.0
437,-1.1744270627235567,-1.8062019069868338,-1.8883622109749485,-2.580280299532299,-1.1871164443367614,-2.6273424670829835,546.25
438,-1.174427071209023,-1.8062019357520023,-1.8883622410402903,-2.580280241077415,-1.1871164530494587,-2.7277054921506094,547.5
439,-1.174427087569251,-1.8062019656835038,-1.8883622747294286,-2.5802801777656335,-1.1871164699012255,-2.8380685101437053,548.75
440,-1.174427105412366,-1.8062019983267674,-1.8883623114721264,-2.5802801087134695,-1.187116488284052,-2.9584315214375128,550.0
441,-1.1744271410876104,-1.806202026547699,-1.8883623494823263,-2.580280043094408,-1.1871165244810449,-3.088794522947253,551.25
442,-1.1744271795826897,-1.8062020568971418,-1.8883623903990938,-2.580279972488697,-1.1871165635376897,-3.229157520990628,552.5
443,-1.1744272348169273,-1.8062020796276983,-1.8883624291978198,-2.5802799118480384,-1.1871166192483238,-3.3795205184104846,553.75
444,-1.1744272961436908,-1.806202101860944,-1.8883624694023382,-2.5802798503883517,-1.1871166810565523,-3.5398835080708815,555.0
445,-1.1744273697330072,-1.806202111572231,-1.8883625014168686,-2.5802798097874207,-1.1871167549562447,-3.70298853196239,556.25
446,-1.174427440390493,-1.8062021171001221,-1.8883625285246595,-2.580279778220909,-1.1871168258519242,-3.856312782933479,557.5
447,-1.174427510300502,-1.8062021128799115,-1.8883625460777986,-2.580279765918026,-1.1871168958449378,-3.9996370339045413,558.75
448,-1.1744275752407594,-1.8062021062248377,-1.8883625597672757,-2.580279759832594,-1.1871169608192091,-4.13296128487558,560.0
449,-1.1744276350352612,-1.806202091913675,-1.8883625645447815,-2.580279770216537,-1.1871170205160917,-4.2562855358465805,561.25
450,-1.1744276899812056,-1.8062020787629676,-1.8883625689348857,-2.5802797797584787,-1.187117075372333,-4.369609786817564,562.5
451,-1.1744277364541054,-1.8062020601421862,-1.8883625654763576,-2.5802798024771145,-1.1871171216512229,-4.472934037788538,563.75
452,-1.174427777764691,-1.8062020421078828,-1.8883625609845485,-2.5802798255672816,-1.1871171627659995,-4.566258288759494,565.0
453,-1.174427814648713,-1.8062020260060176,-1.8883625569740479,-2.580279846183263,-1.1871171994751946,-4.649582539730435,566.25
454,-1.1744278431826654,-1.8062020087433126,-1.8883625492745642,-2.5802798715212587,-1.1871172277981743,-4.72290679070138,567.5
455,-1.1744278662703969,-1.8062019926091502,-1.8883625409726001,-2.5802798962552442,-1.187117250681068,-4.786231041672314,568.75
456,-1.1744278857121746,-1.8062019790228536,-1.8883625339816588,-2.580279917083305,-1.1871172699503556,-4.839555292643299,570.0
457,-1.1744279015079986,-1.806201967984423,-1.88836252830174,-2.580279934005439,-1.1871172856060368,-4.882879543614284,571.25
458,-1.1744279136578684,-1.8062019594938565,-1.8883625239328463,-2.580279947021647,-1.1871172976481115,-4.916203794585261,572.5
459,-1.1744279221617835,-1.8062019535511542,-1.8883625208749781,-2.580279956131928,-1.1871173060765787,-4.939528045556242,573.75
460,-1.1744349103532075,-1.806219405695994,-1.8883396948743727,-2.580285380956461,-1.1871242844614924,-4.952873381687628,575.0
461,-1.1756912726205997,-1.8093598068649182,-1.884233415303807,-2.5812604178091814,-1.1883788902024872,-4.9582433071068035,576.25
462,-1.1770890876580071,-1.8128537949639532,-1.879664802214942,-2.5823452343128586,-1.1897747522778015,-4.9538117774882044,577.5
463,-1.1771336864963091,-1.8129652879268385,-1.879519022755346,-2.582379851299097,-1.1898192924201594,-4.9414046530841675,578.75
464,-1.1771336793358658,-1.8129652943613093,-1.8795190229241014,-2.5823798543012817,-1.1898192918355337,-4.919130491658584,580.0
465,-1.1771336689607366,-1.81296530368454,-1.8795190231686196,-2.5823798586513,-1.18981929098844,-4.886856330232996,581.25
466,-1.1771336553709215,-1.8129653158965302,-1.8795190234889008,-2.5823798643491505,-1.189819289878878,-4.844582168807399,582.5
467,-1.1771336388249056,-1.8129653308155087,-1.8795190244200666,-2.5823798694036095,-1.1898192907100276,-4.792308009450078,583.75
468,-1.1771336195007036,-1.812965348316292,-1.8795190263306472,-2.582379872443351,-1.1898192949991853,-4.730033852896641,585.0
469,-1.177133595167674,-1.8129653672770445,-1.879519028869393,-2.582379871339004,-1.1898192926480124,-4.6577596995700405,586.25
470,-1.177133559121219,-1.8129653829472332,-1.879519033166896,-2.5823798497939743,-1.189819257872035,-4.575485559346727,587.5
471,-1.1771335186760332,-1.8129654005118674,-1.8795190380243585,-2.582379825464531,-1.1898192187243528,-4.483211425047261,588.75
472,-1.177133473562608,-1.8129654195082576,-1.879519042887641,-2.582379799431805,-1.1898191748348315,-4.380937297519737,590.0
473,-1.1771334194573835,-1.812965432432354,-1.8795190385648493,-2.582379790008617,-1.1898191207622508,-4.268663180989769,591.25
474,-1.1771333605320073,-1.8129654465087692,-1.8795190338533776,-2.582379779760177,-1.1898190618638562,-4.146389072053208,592.5
475,-1.1771332965404202,-1.8129654542203868,-1.8795190214541375,-2.5823797835019384,-1.1898189978295464,-4.014114969031878,593.75
476,-1.1771332275745887,-1.8129654583577737,-1.8795190040790297,-2.582379795726286,-1.1898189287796435,-3.8718408682114225,595.0
477,-1.1771331572638342,-1.8129654542704179,-1.8795189783956947,-2.58237982443822,-1.1898188582527767,-3.7195667717020724,596.25
478,-1.1771330845050028,-1.812965444640369,-1.879518946636276,-2.5823798647152794,-1.1898187851853683,-3.557292681698933,597.5
479,-1.1771330204671895,-1.8129654232786971,-1.8795189063179287,-2.582379925379459,-1.189818720671804,-3.3920622147523547,598.75
480,-1.1771329628883993,-1.812965400466965,-1.879518866607047,-2.5823799869784128,-1.1898186626081422,-3.236573383489977,600.0
481,-1.1771329232353405,-1.812965369188016,-1.879518824318607,-2.5823800598653315,-1.1898186223746106,-3.091084552227616,601.25
482,-1.1771328867427422,-1.8129653398692707,-1.8795187848893506,-2.5823801279855787,-1.1898185853393661,-2.955595720965273,602.5
483,-1.1771328682528943,-1.8129653060365274,-1.8795187467000058,-2.582380199635513,-1.1898185662740342,-2.830106889702969,603.75
484,-1.1771328512364727,-1.8129652748998675,-1.8795187115539012,-2.5823802655757797,-1.1898185487279878,-2.7146180584406734,605.0
485,-1.1771328445174216,-1.8129652443506274,-1.8795186801584391,-2.582380327333217,-1.1898185415107223,-2.6091292271784026,606.25
486,-1.17713284354365,-1.8129652154766196,-1.8795186521486884,-2.582380384120162,-1.1898185400776007,-2.513640395916158,607.5
487,-1.1771328426718564,-1.8129651896264263,-1.8795186270722346,-2.5823804349601334,-1.1898185387945617,-2.428151564653899,608.75
488,-1.1771328467595623,-1.812965166508662,-1.8795186061528222,-2.5823804789923805,-1.1898185425249417,-2.352662733391653,610.0
489,-1.1771328551272822,-1.8129651461640859,-1.8795185892192705,-2.5823805163373077,-1.1898185505884422,-2.2871739021294126,611.25
490,-1.1771328622172696,-1.8129651289260826,-1.879518574871434,-2.5823805479797466,-1.1898185574206637,-2.231685070867163,612.5
491,-1.1771328680295248,-1.812965114794653,-1.8795185631093114,-2.582380573919697,-1.189818563021607,-2.186196239604871,613.75
492,-1.1771328725640477,-1.8129651037697951,-1.8795185539329053,-2.5823805941571605,-1.1898185673912711,-2.1507074083425954,615.0
493,-1.1771328758208381,-1.8129650958515082,-1.879518547342216,-2.582380608692136,-1.189818570529657,-2.1252185770803154,616.25
494,-1.1771328777998964,-1.8129650910397925,-1.8795185433372432,-2.5823806175246236,-1.1898185724367636,-2.109729745818045,617.5
495,-1.178004935280068,-1.8151716720806679,-1.8766159135854028,-2.5830829789560035,-1.190689335471621,-2.1026485888744735,618.75
496,-1.1795741846674561,-1.8191423782232088,-1.871392689151594,-2.5843468577325015,-1.1922562566302817,-2.1049388134517106,620.0
497,-1.1798007703556208,-1.8197157183273092,-1.8706385010889286,-2.584529349446338,-1.192482510193047,-2.1155915095752236,621.25
498,-1.179800768880622,-1.8197157250196345,-1.8706385044559029,-2.5845293460253544,-1.1924825166355568,-2.1356605493450287,622.5
499,-1.179800766670661,-1.819715735046611,-1.8706385095005724,-2.5845293408997634,-1.1924825262882401,-2.165729589114824,623.75
500,-1.1798007637257375,-1.8197157484082396,-1.8706385162229382,-2.5845293340695648,-1.192482539151097,-2.20579862888463,625.0
501,-1.1798007599481746,-1.81971576520172,-1.870638524326645,-2.5845293266675684,-1.1924825543819695,-2.2558676663458357,626.25
502,-1.1798007549886824,-1.8197157857746404,-1.8706385327519377,-2.584529322744677,-1.1924825689693233,-2.3159366947727746,627.5
503,-1.179800749203558,-1.8197158097724409,-1.870638542579832,-2.5845293181687206,-1.1924825859851085,-2.3860057231997027,628.75
504,-1.179800749709225,-1.8197158340275212,-1.8706385653694322,-2.584529273061408,-1.1924825864837723,-2.466074735681971,630.0
505,-1.1798007504623873,-1.8197158612199416,-1.8706385913408021,-2.584529221143405,-1.1924825864540454,-2.556143744514418,631.25
506,-1.1798007512735222,-1.8197158914149727,-1.870638620255856,-2.5845291631982352,-1.1924825862074395,-2.656212744634415,632.5
507,-1.1798007649958473,-1.819715921491852,-1.8706386534218258,-2.584529100378269,-1.1924826001345412,-2.7662817349400197,633.75
508,-1.179800782572713,-1.819715953663509,-1.8706386898796368,-2.5845290320294962,-1.1924826182207182,-2.886350717877787,635.0
509,-1.1798008087497707,-1.8197159854080867,-1.870638728584309,-2.584528962013189,-1.192482644939464,-3.0164196941371855,636.25
510,-1.1798008466903322,-1.8197160153488428,-1.8706387691835094,-2.584528892122369,-1.1924826834413826,-3.15648866689076,637.5
511,-1.179800893679583,-1.8197160430009633,-1.8706388103855311,-2.584528824046788,-1.192482730974122,-3.306557636788388,638.75
512,-1.1798009534420992,-1.8197160657640719,-1.870638850841885,-2.584528761783461,-1.192482791227857,-3.466626599924365,640.0
513,-1.1798010229186486,-1.8197160808839876,-1.870638886952003,-2.5845287116327706,-1.1924828610948652,-3.632867218826214,641.25
514,-1.1798010931863627,-1.8197160902094844,-1.8706389177281848,-2.5845286726057823,-1.192482931662494,-3.7905614607587843,642.5
515,-1.1798011634202905,-1.819716088192685,-1.8706389375725543,-2.5845286558203,-1.192483002015722,-3.9382557026913325,643.75
516,-1.1798012297524265,-1.8197160842373008,-1.870638954339951,-2.5845286439866793,-1.1924830684278895,-4.075949944623836,645.0
517,-1.179801290972289,-1.8197160718318015,-1.8706389613850471,-2.584528650225294,-1.1924831295822553,-4.20364418655633,646.25
518,-1.1798013473299227,-1.8197160583839307,-1.8706389659182039,-2.5845286599427313,-1.1924831858473182,-4.321338428488791,647.5
519,-1.1798013971510761,-1.819716042879716,-1.8706389664437437,-2.584528675620794,-1.1924832355290773,-4.4290326704212495,648.75
520,-1.1798014398597823,-1.8197160242651,-1.8706389617680739,-2.584528699495558,-1.192483278033545,-4.526726912353671,650.0
521,-1.1798014781968194,-1.8197160075558845,-1.8706389575709998,-2.5845287209264978,-1.1924833161872495,-4.614421154286102,651.25
522,-1.1798015106649042,-1.8197159915704755,-1.8706389522503448,-2.5845287426717047,-1.1924833484708717,-4.69211539621852,652.5
523,-1.1798015350395346,-1.8197159745533944,-1.870638943425753,-2.5845287688288576,-1.192483372627171,-4.759809638150946,653.75
524,-1.1798015558134702,-1.8197159600501287,-1.870638935904757,-2.5845287911219956,-1.1924833932150283,-4.817503880083383,655.0
525,-1.1798015729867117,-1.8197159480606806,-1.870638929687353,-2.584528809551121,-1.1924834102344442,-4.8651981220158405,656.25
526,-1.1798015865592584,-1.8197159385850474,-1.8706389247735453,-2.5845288241162314,-1.1924834236854176,-4.902892363948295,657.5
527,-1.1798015965311102,-1.8197159316232285,-1.870638921163334,-2.5845288348173274,-1.1924834335679486,-4.930586605880747,658.75
528,-1.179801602902267,-1.8197159271752241,-1.8706389188567192,-2.5845288416544085,-1.192483439882037,-4.948280847813203,660.0
529,-1.1803238930763955,-1.8210537408266245,-1.868868642308799,-2.584965059256415,-1.1930049087336903,-4.957089601187156,661.25
530,-1.1819319204095098,-1.8251726341931762,-1.8634182840911797,-2.5863080846034703,-1.1946104078155726,-4.957026402777993,662.5
531,-1.1824325087267111,-1.8264548796194018,-1.8617215461333854,-2.5867261796797245,-1.1951102115038303,-4.9481205986203864,663.75
532,-1.1824325030450782,-1.826454884715645,-1.8617215462345964,-2.586726182182901,-1.19511021092055,-4.930294530222302,665.0
533,-1.1824324941761843,-1.8264548926707593,-1.8617215463925842,-2.5867261860902993,-1.1951102100100628,-4.9024684618242205,666.25
534,-1.1824324821200296,-1.8264549034847444,-1.861721546607349,-2.5867261914019197,-1.1951102087723693,-4.864642393426127,667.5
535,-1.182432466876614,-1.8264549171576008,-1.8617215468788906,-2.5867261981177627,-1.195110207207469,-4.816816325028044,668.75
536,-1.1824324490724187,-1.8264549332569247,-1.861721548482308,-2.5867262015246046,-1.1951102107111344,-4.7589902632625,670.0
537,-1.1824324282061442,-1.826454952128718,-1.8617215503972901,-2.5867262053938824,-1.1951102149657649,-4.691164201660628,671.25
538,-1.1824323968368733,-1.8264549684138909,-1.8617215539989096,-2.5867261910992037,-1.195110191349657,-4.6133381524517265,672.5
539,-1.182432358832315,-1.826454984908757,-1.8617215585591245,-2.5867261683855887,-1.1951101546971996,-4.525512107900138,673.75
540,-1.1824323164669934,-1.8264550032610358,-1.861721563714667,-2.586726142753303,-1.1951101135906284,-4.4276860748774975,675.0
541,-1.182432266886021,-1.8264550184957917,-1.8617215632775814,-2.5867261265869232,-1.1951100645516095,-4.3198600490551575,676.25
542,-1.1824322108050005,-1.826455031852996,-1.8617215587652902,-2.5867261168924505,-1.1951100085018538,-4.202034031099668,677.5
543,-1.1824321498870303,-1.8264550440237675,-1.8617215515966687,-2.58672611098059,-1.1951099475885667,-4.074208020636975,678.75
544,-1.1824320839003746,-1.8264550479366692,-1.8617215348583898,-2.586726122834997,-1.195109881519883,-3.936382015036525,680.0
545,-1.1824320141089615,-1.8264550497443777,-1.8617215149029311,-2.58672613994901,-1.1951098116051957,-3.7885560107540677,681.25
546,-1.1824319442156355,-1.826455040445743,-1.861721484185427,-2.586726178895865,-1.1951097414118963,-3.630730013469247,682.5
547,-1.1824318753116716,-1.8264550252142049,-1.8617214480429207,-2.5867262291986837,-1.195109672115132,-3.464461324067032,683.75
548,-1.1824318159671097,-1.8264550025917923,-1.8617214077314417,-2.586726291183232,-1.1951096122801212,-3.304527868504218,685.0
549,-1.1824317695128168,-1.8264549749783794,-1.8617213666055474,-2.5867263591515717,-1.1951095652834285,-3.1545944129414356,686.25
550,-1.1824317318421684,-1.826454945239528,-1.8617213261571495,-2.5867264286929865,-1.1951095270553886,-3.014660957378692,687.5
551,-1.1824317060632428,-1.8264549136194375,-1.8617212875886444,-2.5867264984079545,-1.1951095007147128,-2.8847275018159726,688.75
552,-1.1824316886080302,-1.8264548816719735,-1.8617212512920027,-2.586726566301751,-1.195109482710531,-2.764794046253268,690.0
553,-1.182431675135794,-1.8264548517860317,-1.861721218225763,-2.586726628968866,-1.195109468730934,-2.6548605906905887,691.25
554,-1.1824316741277945,-1.8264548219407608,-1.861721189074479,-2.586726687866507,-1.1951094672432085,-2.554927135127916,692.5
555,-1.1824316732206621,-1.8264547950820087,-1.8617211628402606,-2.586726740870462,-1.1951094659043546,-2.464993679565277,693.75
556,-1.1824316728041768,-1.826454771186661,-1.8617211396219788,-2.586726787910726,-1.1951094651046263,-2.385060224002626,695.0
557,-1.1824316816286997,-1.8264547497358876,-1.8617211216391776,-2.5867268274157356,-1.1951094736050272,-2.315126768439982,696.25
558,-1.1824316891913769,-1.8264547313524266,-1.861721106227792,-2.586726861271802,-1.1951094808899296,-2.255193312877333,697.5
559,-1.1824316954922085,-1.82645471603628,-1.8617210933878199,-2.5867268894789253,-1.1951094869593335,-2.205259857314654,698.75
560,-1.1824317005311944,-1.8264547037874457,-1.861721083119264,-2.5867269120371064,-1.195109491813239,-2.1653264017519676,700.0
561,-1.1824317043083346,-1.8264546946059226,-1.861721075422125,-2.586726928946344,-1.195109495451646,-2.135392946189291,701.25
562,-1.182431706823629,-1.8264546884917112,-1.8617210702964024,-2.5867269402066393,-1.1951094978745544,-2.1154594906266024,702.5
563,-1.1826611796055464,-1.8270497052150867,-1.8609290859061567,-2.5869255462468064,-1.1953385890783805,-2.1049167822103283,703.75
564,-1.184189315853572,-1.8310121642924904,-1.8556549840256138,-2.5882480996497264,-1.1968641847195884,-2.102728091053989,705.0
565,-1.1850262754342262,-1.8331824059768043,-1.852766359767617,-2.5889724602738,-1.197699755493101,-2.1098812543014303,706.25
566,-1.185026274288675,-1.8331824111103805,-1.852766362326654,-2.588972457776397,-1.1976997603518857,-2.1254292390234544,707.5
567,-1.1850262724063396,-1.8331824195457203,-1.8527663665315868,-2.588972453672738,-1.1976997683356956,-2.150977223745461,708.75
568,-1.1850262697872198,-1.833182431282823,-1.8527663723824161,-2.588972447962824,-1.1976997794445308,-2.1865252084674784,710.0
569,-1.185026266431316,-1.833182446321689,-1.8527663798791416,-2.588972440646655,-1.1976997936783915,-2.2320731931895073,711.25
570,-1.1850262619538396,-1.8331824650383939,-1.8527663878733376,-2.5889724360876665,-1.1976998076857845,-2.2876211756987037,712.5
571,-1.185026256530548,-1.8331824872611597,-1.8527663968895647,-2.5889724322927954,-1.1976998229975533,-2.353169157480076,713.75
572,-1.1850262539939485,-1.8331825112104476,-1.852766413358999,-2.588972407018164,-1.1976998311335354,-2.428717130623411,715.0
573,-1.1850262547090884,-1.8331825367227292,-1.8527664378790043,-2.5889723582094764,-1.1976998311588418,-2.5142650959640918,716.25
574,-1.1850262554806403,-1.8331825651987652,-1.8527664653324418,-2.5889723034041414,-1.19769983095837,-2.60981305135386,717.5
575,-1.1850262620379315,-1.8331825952596947,-1.8527664962816677,-2.588972243208124,-1.1976998370140104,-2.7153610000474853,718.75
576,-1.1850262787466046,-1.8331826258472794,-1.852766531176488,-2.5889721779953314,-1.1976998542072286,-2.830908940391497,720.0
577,-1.1850262969029453,-1.8331826590809828,-1.8527665690943609,-2.588972107127323,-1.1976998729025288,-2.9564568723379074,721.25
578,-1.1850263328396844,-1.8331826878631343,-1.8527666082083853,-2.588972039844709,-1.1976999093823055,-3.0920047982874435,722.5
579,-1.1850263717827956,-1.8331827186144167,-1.8527666501681845,-2.5889719677997842,-1.1976999489079967,-3.237552724023724,723.75
580,-1.1850264284186236,-1.8331827410050863,-1.8527666895353905,-2.5889719069502535,-1.197700006027337,-3.3931006430871293,725.0
581,-1.1850264913674295,-1.8331827619577439,-1.8527667294760126,-2.5889718470556415,-1.1977000694500621,-3.5583703354629312,726.25
582,-1.1850265627629977,-1.8331827714773203,-1.8527667609629952,-2.588971807141864,-1.19770014115399,-3.7205822573239447,727.5
583,-1.1850266317862586,-1.8331827754785075,-1.8527667863592319,-2.5889717787863917,-1.1977002103916932,-3.8727941791849285,728.75
584,-1.1850266994550773,-1.8331827714874351,-1.8527668035830933,-2.5889717665530254,-1.1977002781434596,-4.015006101045882,730.0
585,-1.1850267622351545,-1.8331827639188494,-1.8527668158138595,-2.588971762807274,-1.1977003409383113,-4.14721802290682,731.25
586,-1.1850268200383267,-1.8331827501650018,-1.8527668204953027,-2.5889717727045243,-1.1977003986459491,-4.269429944767742,732.5
587,-1.1850268731117524,-1.8331827375365681,-1.8527668247936797,-2.588971781791933,-1.1977004516316574,-4.381641866628648,733.75
588,-1.1850269174736363,-1.8331827187457672,-1.852766820400766,-2.5889718055857056,-1.1977004957877613,-4.483853788489527,735.0
589,-1.1850269572908527,-1.833182701419127,-1.8527668160109707,-2.588971827848415,-1.1977005354128658,-4.576065710350403,736.25
590,-1.1850269927900583,-1.8331826859714915,-1.852766812097227,-2.5889718476968273,-1.1977005707407933,-4.6582776322112585,737.5
591,-1.1850270195737977,-1.8331826689303972,-1.8527668039214746,-2.588971873266105,-1.1977005973086743,-4.730489554072115,738.75
592,-1.1850270416991755,-1.8331826534995463,-1.8527667958550655,-2.588971897050722,-1.1977006192339643,-4.792701475932971,740.0
593,-1.1850270602681008,-1.8331826405490663,-1.8527667890852562,-2.588971917012179,-1.1977006376349641,-4.844913397793847,741.25
594,-1.1850270752805732,-1.833182630078955,-1.8527667836120476,-2.588971933150476,-1.1977006525116733,-4.887125319654741,742.5
595,-1.1850270867365922,-1.8331826220892125,-1.8527667794354417,-2.588971945465612,-1.1977006638640917,-4.919337241515618,743.75
596,-1.1850270946361583,-1.8331826165798382,-1.852766776555438,-2.588971953957587,-1.1977006716922192,-4.941549163376507,745.0
597,-1.1850709478065473,-1.833297715797629,-1.8526126853127485,-2.5890112569838224,-1.197744447875664,-4.953900676939933,746.25
598,-1.1863931942386963,-1.8367685845136477,-1.8479661644541059,-2.5901962855712695,-1.1990643739802964,-4.95834723482302,747.5
599,-1.187578899123222,-1.839881045230183,-1.8437994553854908,-2.591258944424137,-1.2002479996331403,-4.9530051878865216,748.75
600,-1.1875861626834823,-1.8399001266988515,-1.843773915729886,-2.5912654598800704,-1.2002552541134461,-4.9397471319909085,750.0
601,-1.1875861553416167,-1.8399001332725162,-1.843773915821365,-2.591265463258402,-1.2002552532093824,-4.916513687786546,751.25
602,-1.1875861448397091,-1.839900142675578,-1.843773915952218,-2.591265468090814,-1.2002552519161969,-4.8832802435821865,752.5
603,-1.1875861311777596,-1.8399001549080376,-1.8437739161224447,-2.591265474377307,-1.2002552502338897,-4.840046799377823,753.75
604,-1.1875861146719204,-1.8399001697553383,-1.8437739169655205,-2.5912654797921224,-1.2002552509137958,-4.786813362114308,755.0
605,-1.1875860953849944,-1.839900187174858,-1.843773918607286,-2.591265483873245,-1.2002552545024723,-4.72357993131789,756.25
606,-1.1875860703028824,-1.8399002053255273,-1.8437739210824937,-2.591265481431029,-1.2002552481501634,-4.6503465053911555,757.5
607,-1.1875860347279021,-1.8399002207442487,-1.8437739253731071,-2.5912654601974916,-1.2002552138734857,-4.567113091132198,758.75
608,-1.1875859948593102,-1.8399002380026837,-1.843773930225805,-2.5912654362109517,-1.20025517531364,-4.473879684104498,760.0
609,-1.1875859499996033,-1.8399002558905988,-1.8437739341381625,-2.5912654124443133,-1.200255131586457,-4.370646283923268,761.25
610,-1.187585896762757,-1.8399002685352912,-1.8437739298266227,-2.5912654032975087,-1.2002550783839807,-4.257412893622886,762.5
611,-1.1875858388231304,-1.8399002822979782,-1.8437739251303322,-2.5912653933580385,-1.2002550204718816,-4.134179511900092,763.75
612,-1.1875857759032606,-1.839900288732496,-1.843773911731231,-2.591265399390672,-1.2002549574988044,-4.000946135838568,765.0
613,-1.1875857081639174,-1.8399002927081414,-1.8437738944276747,-2.5912654117206024,-1.2002548896742213,-3.857712761349732,766.25
614,-1.1875856396505222,-1.839900287350519,-1.8437738677991782,-2.5912654426691115,-1.2002548209242163,-3.7044793917469176,767.5
615,-1.1875855682432745,-1.839900277810512,-1.843773836195956,-2.591265482718921,-1.2002547492068607,-3.54124602849921,768.75
616,-1.1875855071831003,-1.8399002556841035,-1.8437737955766265,-2.5912655444909194,-1.200254687655538,-3.3767649030754976,770.0
617,-1.1875854528109606,-1.8399002324851566,-1.8437737560037237,-2.591265606385994,-1.200254632789507,-3.222242218835351,771.25
618,-1.18758541437764,-1.8399002021301563,-1.8437737144476198,-2.5912656776386664,-1.2002545937814029,-3.0777195345952304,772.5
619,-1.1875853805552388,-1.8399001730269624,-1.843773675550988,-2.591265745052431,-1.2002545594145315,-2.943196850355155,773.75
620,-1.1875853626514055,-1.8399001402589277,-1.8437736380627547,-2.591265814950349,-1.2002545409417373,-2.8186741661151102,775.0
621,-1.18758534618537,-1.8399001101223924,-1.8437736035850678,-2.591265879234999,-1.200254523952432,-2.7041514818750674,776.25
622,-1.1875853410510222,-1.8399000802663465,-1.8437735729220694,-2.591265939594577,-1.200254518324103,-2.5996287976350416,777.5
623,-1.1875853401078398,-1.8399000523875328,-1.843773545493406,-2.591265994810695,-1.200254516928066,-2.5051061133950343,778.75
624,-1.1875853392644413,-1.8399000274581547,-1.8437735209665456,-2.5912660441852404,-1.2002545156797229,-2.4205834291550357,780.0
625,-1.187585344162683,-1.839900005147121,-1.843773500782604,-2.5912660866915758,-1.2002545202278996,-2.3460607449150332,781.25
626,-1.1875853522042317,-1.839899985606912,-1.8437734842778837,-2.591266122802515,-1.2002545279710537,-2.281538060675025,782.5
627,-1.1875853589994672,-1.839899969095129,-1.8437734703311341,-2.5912661533168273,-1.2002545345141404,-2.2270153764350074,783.75
628,-1.1875853645483891,-1.8398999556117723,-1.843773458942354,-2.5912661782345126,-1.200254539857161,-2.182492692194961,785.0
629,-1.1875853688509976,-1.8398999451568399,-1.8437734501115464,-2.591266197555571,-1.2002545440001142,-2.1479700079549318,786.25
630,-1.1875853719072929,-1.839899937730331,-1.8437734438387114,-2.591266211280003,-1.2002545469430006,-2.123447323714905,787.5
631,-1.1875853737172746,-1.8398999333322463,-1.8437734401238488,-2.591266219407807,-1.2002545486858198,-2.108924639474874,788.75
632,-1.1885515273975726,-1.8424673757933403,-1.8403167247899836,-2.59216229750761,-1.2012189158338595,-2.1025518674665538,790.0
633,-1.189977326609824,-1.8462562810838343,-1.8352154824823512,-2.5934846784476093,-1.202642079875217,-2.105732530568615,791.25
634,-1.190109553523091,-1.8466076653783852,-1.834742398245,-2.5936073135558675,-1.2027740665528754,-2.117017346322603,792.5
635,-1.1901095519810378,-1.8466076722057552,-1.834742401620459,-2.5936073103914667,-1.2027740729057583,-2.137902687830173,793.75
636,-1.190109549700642,-1.8466076823021023,-1.8347424066121039,-2.5936073057119353,-1.2027740823004316,-2.168788029337746,795.0
637,-1.1901095466819038,-1.8466076956674262,-1.8347424132199341,-2.5936072995172736,-1.202774094736895,-2.2096733708453304,796.25
638,-1.1901095427860149,-1.846607712435252,-1.8347424210357468,-2.593607293348959,-1.202774108993831,-2.2605587113986183,797.5
639,-1.1901095377403021,-1.846607732867873,-1.8347424292576742,-2.593607290235037,-1.2027741226721063,-2.3214440495234463,798.75
640,-1.1901095322603634,-1.846607756478513,-1.83474243948013,-2.593607284381837,-1.2027741376248988,-2.392329386663345,800.0
641,-1.1901095329285425,-1.8466077802988583,-1.8347424625508364,-2.5936072386170324,-1.2027741376332477,-2.4732147082604765,801.25
642,-1.1901095336683105,-1.8466078070562415,-1.8347424885024757,-2.593607187071024,-1.2027741375489414,-2.564100025508503,802.5
643,-1.1901095344683208,-1.8466078367425136,-1.8347425173645562,-2.59360712961694,-1.2027741372755147,-2.6649853348731627,803.75
644,-1.190109549147229,-1.8466078660204919,-1.834742550557141,-2.593607067475156,-1.2027741522905204,-2.775870633448794,805.0
645,-1.1901095664184291,-1.8466078976303653,-1.8347425868803295,-2.5936069998136206,-1.2027741700765093,-2.8967559247873895,806.25
646,-1.1901095934311008,-1.8466079282481243,-1.8347426252744397,-2.59360693124927,-1.202774197630874,-3.027641209660216,807.5
647,-1.1901096306709569,-1.846607957663183,-1.8347426656835502,-2.5936068620614723,-1.2027742354336504,-3.168526491519099,808.75
648,-1.1901096780147626,-1.846607983968582,-1.8347427062209567,-2.593606795998471,-1.2027742833107364,-3.3194117700579806,810.0
649,-1.1901097366287097,-1.8466080063518329,-1.8347427464584802,-2.593606734315888,-1.2027743424172277,-3.4802970419687758,811.25
650,-1.190109805263922,-1.8466080200652333,-1.8347427813667108,-2.593606686758334,-1.2027744114260053,-3.646272496272232,812.5
651,-1.1901098734719693,-1.8466080291937543,-1.834742811661837,-2.5936066483797093,-1.2027744799321374,-3.803143751102019,813.75
652,-1.1901099420568093,-1.8466080262622058,-1.8347428302928843,-2.5936066336976715,-1.2027745486198431,-3.9500150059319132,815.0
653,-1.1901100063943455,-1.8466080225040684,-1.8347428467852347,-2.593606621915135,-1.2027746130374868,-4.086886260761958,816.25
654,-1.190110065714395,-1.8466080096638977,-1.8347428528323129,-2.5936066295598805,-1.2027746722789927,-4.213757515592142,817.5
655,-1.1901101203205384,-1.8466079967050177,-1.834742857286031,-2.5936066388458823,-1.2027747267943178,-4.330628770422454,818.75
656,-1.1901101682082615,-1.846607981110603,-1.8347428570593387,-2.593606655340116,-1.2027747745336335,-4.437500025252877,820.0
657,-1.1901102095291969,-1.8466079631581425,-1.8347428524708567,-2.593606678449503,-1.2027748156534164,-4.534371280083405,821.25
658,-1.1901102465845823,-1.8466079470589154,-1.8347428483560373,-2.593606699173314,-1.202774852528414,-4.621242534913989,822.5
659,-1.190110277469969,-1.8466079313086177,-1.8347428426483838,-2.593606721049732,-1.202774883225545,-4.698113789744668,823.75
660,-1.1901103009631737,-1.8466079149418626,-1.8347428340217136,-2.5936067463493946,-1.2027749065042495,-4.764985044575383,825.0
661,-1.1901103209431791,-1.8466079010226102,-1.8347428266850845,-2.593606767865719,-1.2027749263018312,-4.821856299406158,826.25
662,-1.190110337409986,-1.8466078895508622,-1.834742820638494,-2.5936067855987046,-1.2027749426182912,-4.868727554236937,827.5
663,-1.1901103503635933,-1.8466078805266157,-1.8347428158819459,-2.5936067995483514,-1.202774955453628,-4.905598809067735,828.75
664,-1.190110359804001,-1.8466078739498717,-1.8347428124154403,-2.5936068097146583,-1.2027749648078423,-4.932470063898517,830.0
665,-1.1901103657312095,-1.8466078698206287,-1.834742810238977,-2.5936068160976267,-1.2027749706809334,-4.949341318729281,831.25
666,-1.1907108072035897,-1.8482231979130244,-1.832555729809967,-2.594182769534361,-1.2033742439817279,-4.957537922498233,832.5
667,-1.1922214213150324,-1.8522871288174168,-1.8270533627895094,-2.595631775637974,-1.204881919666106,-4.9567259690646654,833.75
668,-1.1926004540688828,-1.8533068323988788,-1.8256727367177539,-2.5959953541948813,-1.2052602175477345,-4.94728116642844,835.0
669,-1.1926004482721044,-1.853306837580159,-1.8256727367609191,-2.595995356967117,-1.2052602167181088,-4.928779115319162,836.25
670,-1.19260043934228,-1.8533068455618205,-1.8256727368274142,-2.595995361237693,-1.2052602154400869,-4.900277064209865,837.5
671,-1.1926004272794088,-1.8533068563438637,-1.825672736917239,-2.595995367006608,-1.205260213713668,-4.861775013100543,838.75
672,-1.1926004121091494,-1.85330686990914,-1.8256727370810633,-2.5959953740891106,-1.2052602117644526,-4.813272962743101,840.0
673,-1.1926003944175045,-1.853306885866004,-1.8256727384761406,-2.5959953782655956,-1.2052602147449774,-4.754770928215102,841.25
674,-1.192600373701752,-1.8533069045504424,-1.8256727401096848,-2.5959953831559854,-1.2052602182349754,-4.686268893687141,842.5
675,-1.192600342165837,-1.8533069201050547,-1.8256727437636107,-2.5959953677286824,-1.2052601924668642,-4.607766872790668,843.75
676,-1.192600304793394,-1.8533069362744037,-1.8256727483070603,-2.5959953453989417,-1.2052601564525287,-4.519264856304235,845.0
677,-1.1926002631692085,-1.853306954250717,-1.8256727534366823,-2.5959953202331585,-1.2052601161210648,-4.420762850726386,846.25
678,-1.1926002141781795,-1.853306968619994,-1.8256727523430785,-2.5959953057223153,-1.205260067593366,-4.312260853154306,847.5
679,-1.1926001591367497,-1.853306981660379,-1.8256727478520949,-2.595995296334549,-1.2052600125840678,-4.193758863335962,848.75
680,-1.1926000993500736,-1.8533069927878068,-1.8256727399865569,-2.595995292175822,-1.2052599527957701,-4.065256880840981,850.0
681,-1.1926000346388062,-1.853306996551728,-1.8256727233375702,-2.5959953041057373,-1.2052598880015013,-3.926754902850486,851.25
682,-1.1925999665791132,-1.853306997372618,-1.8256727027498811,-2.595995322858935,-1.2052598198040605,-3.7782529265651434,852.5
683,-1.1925998980777606,-1.8533069881909563,-1.8256726722143855,-2.5959953615260387,-1.2052597510016938,-3.619750957159158,853.75
684,-1.1925998315762332,-1.8533069723593165,-1.8256726357855158,-2.595995412748197,-1.205259684094829,-3.4533886234412394,855.0
685,-1.1925997739074026,-1.853306950329145,-1.8256725960536593,-2.5959954735870654,-1.2052596259387593,-3.2941378889011537,856.25
686,-1.1925997297931028,-1.8533069227662802,-1.8256725551559423,-2.5959955413121882,-1.20525958127669,-3.1448871543609425,857.5
687,-1.1925996932071095,-1.8533068938664958,-1.8256725153132507,-2.5959956094281997,-1.2052595441376803,-3.0056364198205854,858.75
688,-1.1925996692456138,-1.8533068627021505,-1.8256724772175934,-2.595995678244452,-1.2052595196139957,-2.8763856852800895,860.0
689,-1.1925996523050895,-1.8533068317058357,-1.8256724414934822,-2.595995744626646,-1.2052595021295116,-2.7571349507394722,861.25
690,-1.1925996401881191,-1.853306802502218,-1.8256724090436363,-2.5959958060189554,-1.2052594895085187,-2.6478842161987304,862.5
691,-1.1925996392082494,-1.8533067735948752,-1.825672380384865,-2.595995863491374,-1.2052594880540306,-2.548633481657889,863.75
692,-1.1925996383271067,-1.8533067476000946,-1.8256723546136007,-2.5959959151731633,-1.2052594867460895,-2.459382747116977,865.0
693,-1.1925996385947624,-1.853306724456801,-1.825672332000001,-2.5959959608707877,-1.205259486636085,-2.380132012575976,866.25
694,-1.1925996471203955,-1.8533067037515323,-1.8256723143730516,-2.5959959992739696,-1.2052594948421165,-2.3108812780349206,867.5
695,-1.1925996544149033,-1.8533066860361622,-1.825672299291483,-2.595996032131625,-1.205259501863174,-2.251630543493819,868.75
696,-1.1925996604782858,-1.8533066713106936,-1.8256722867552924,-2.5959960594437534,-1.2052595076992576,-2.2023798089527054,870.0
697,-1.192599665310543,-1.8533066595751237,-1.8256722767644828,-2.5959960812103544,-1.2052595123503673,-2.1631290744115588,871.25
698,-1.192599668911675,-1.8533066508294518,-1.8256722693190548,-2.5959960974314282,-1.2052595158165031,-2.1338783398704297,872.5
699,-1.1925996712816815,-1.8533066450736784,-1.8256722644190084,-2.5959961081069753,-1.205259518097665,-2.114627605329324,873.75
700,-1.1928843259148718,-1.8540819115145948,-1.8246167454713411,-2.5962783390841424,-1.2055435908373013,-2.104605216498085,875.0
701,-1.1943531123962048,-1.8580822324979334,-1.8191703741548577,-2.5977345982945375,-1.2070093752423923,-2.1030268341156946,876.25
702,-1.1950562461098533,-1.8599972604460373,-1.8165631001312927,-2.598431734024958,-1.2077110745206685,-2.1106290724690435,877.5
703,-1.195056244920021,-1.8599972656522308,-1.816563102686412,-2.5984317317240317,-1.2077110792831085,-2.1267156997102497,878.75
704,-1.1950562429905485,-1.8599972740947728,-1.8165631068298809,-2.5984317279927716,-1.2077110870060446,-2.152802326951481,880.0
705,-1.1950562403214349,-1.8599972857736633,-1.8165631125616997,-2.598431722831176,-1.2077110976894767,-2.188888954192716,881.25
706,-1.1950562369126811,-1.8599973006889028,-1.8165631198818684,-2.5984317162392463,-1.2077111113334054,-2.2349755814339547,882.5
707,-1.195056232351766,-1.8599973192317796,-1.8165631275933536,-2.598431712709078,-1.2077111242714966,-2.2910622037218875,883.75
708,-1.1950562268685665,-1.8599973411842488,-1.8165631363632009,-2.5984317097374543,-1.207711138546812,-2.3571488247940406,885.0
709,-1.1950562246731389,-1.8599973645886787,-1.816563153292245,-2.5984316829948835,-1.207711145219914,-2.43323543624608,886.25
710,-1.1950562253761585,-1.8599973896218684,-1.8165631777344755,-2.5984316346864906,-1.2077111452138707,-2.5193220407365273,887.5
711,-1.1950562261339082,-1.8599974175425318,-1.8165632050895766,-2.598431580452495,-1.2077111449757618,-2.615408634413364,888.75
712,-1.195056233344107,-1.8599974468217306,-1.8165632359833808,-2.5984315209975635,-1.2077111517656423,-2.7214952213841697,890.0
713,-1.1950562497314923,-1.859997476803304,-1.8165632706968082,-2.598431456563243,-1.207711168641427,-2.837581800103556,891.25
714,-1.19505626806144,-1.8599975091372807,-1.8165633083433181,-2.5984313868677007,-1.2077111875122486,-2.9636683706751277,892.5
715,-1.1950563036024804,-1.8599975372095476,-1.8165633471896019,-2.5984313205559855,-1.2077112235961331,-3.099754935252235,893.75
716,-1.1950563418525526,-1.8599975672769722,-1.816563388854196,-2.5984312494773563,-1.207711262428339,-3.245841499749634,895.0
717,-1.195056398036718,-1.8599975887451834,-1.816563427704851,-2.5984311900582786,-1.2077113190898647,-3.4019280570864834,896.25
718,-1.1950564602258706,-1.8599976085602439,-1.8165634668207957,-2.5984311321124802,-1.2077113817424916,-3.567526233157274,897.5
719,-1.1950565296756859,-1.859997617880992,-1.8165634978925038,-2.5984310927853436,-1.207711451499399,-3.7291929384258866,898.75
720,-1.1950565970866494,-1.8599976211456086,-1.8165635223582968,-2.5984310660732746,-1.2077115191134187,-3.8808596436945617,900.0
721,-1.1950566628787849,-1.8599976173343498,-1.8165635393465043,-2.5984310538712063,-1.2077115849887488,-4.022526348963439,901.25
722,-1.1950567238798917,-1.8599976094642625,-1.8165635508278168,-2.5984310511520947,-1.2077116459957333,-4.154193054232407,902.5
723,-1.1950567800435783,-1.859997596168455,-1.816563555441709,-2.5984310606389482,-1.2077117020654162,-4.275859759501546,903.75
724,-1.1950568315802117,-1.8599975839455853,-1.8165635596533796,-2.5984310693887114,-1.2077117535154218,-4.387526464770796,905.0
725,-1.1950568744251664,-1.859997565360418,-1.816563554860384,-2.5984310933580006,-1.2077117961499328,-4.489193170040132,906.25
726,-1.195056913055866,-1.859997548603302,-1.8165635505388262,-2.5984311149696566,-1.2077118345908884,-4.580859875309589,907.5
727,-1.1950569474723098,-1.8599975336742363,-1.8165635466887085,-2.5984311342236794,-1.2077118688382877,-4.662526580579097,908.75
728,-1.1950569731149943,-1.8599975169718421,-1.816563538326568,-2.598431159626853,-1.2077118942633407,-4.734193285848669,910.0
729,-1.1950569945189211,-1.859997502078143,-1.816563530409091,-2.5984311827181026,-1.207711915469963,-4.795859991118292,911.25
730,-1.1950570124519437,-1.8599974895996387,-1.8165635237755258,-2.59843120206483,-1.2077119332376771,-4.847526696387936,912.5
731,-1.1950570269140615,-1.8599974795363279,-1.8165635184258744,-2.5984312176670326,-1.207711947566482,-4.889193401657617,913.75
732,-1.1950570379052743,-1.8599974718882093,-1.8165635143601382,-2.5984312295247105,-1.2077119584563767,-4.9208601069272815,915.0
733,-1.1950570454255818,-1.8599974666552832,-1.816563511578317,-2.5984312376378624,-1.2077119659073616,-4.942526812196928,916.25
734,-1.195126121347599,-1.8601879178762564,-1.8163027860993175,-2.598501988878865,-1.2077808936413068,-4.954423965579785,917.5
735,-1.1964243903538017,-1.863767676084097,-1.8114022400712295,-2.5998317410554734,-1.2090763780324816,-4.958422219251307,918.75
736,-1.197479730282973,-1.8666776086471357,-1.8074186622718351,-2.6009126757229573,-1.2101294558828444,-4.952699124955459,920.0
737,-1.197480861326327,-1.8666807427780978,-1.8074143769611488,-2.600913840632134,-1.2101305880394218,-4.939057737139354,921.25
738,-1.1974808539839403,-1.8666807493299866,-1.807414376981108,-2.6009138442671174,-1.2101305868452772,-4.9154205709323895,922.5
739,-1.1974808435352648,-1.8666807586537346,-1.8074143770095117,-2.600913849439926,-1.210130585145935,-4.881783404725378,923.75
740,-1.1974808299803001,-1.8666807707493414,-1.8074143770463593,-2.6009138561505605,-1.2101305829413946,-4.838146238518377,925.0
741,-1.197480813655369,-1.866680785395138,-1.8074143777468958,-2.600913862026586,-1.2101305832192293,-4.784509082146704,926.25
742,-1.1974807945743433,-1.8666808025819808,-1.8074143791381503,-2.6009138669701386,-1.2101305861026772,-4.720871933519046,927.5
743,-1.1974807694852292,-1.8666808201659977,-1.8074143814938488,-2.600913864318433,-1.210130577979051,-4.647234790466335,928.75
744,-1.1974807345936407,-1.8666808352429984,-1.8074143857542675,-2.600913843516537,-1.2101305444001804,-4.5635976584435305,930.0
745,-1.197480695510876,-1.8666808521084959,-1.807414390575274,-2.6009138200091533,-1.2101305066388397,-4.469960534294596,931.25
746,-1.197480651374138,-1.8666808692662888,-1.8074143940668563,-2.6009137975148304,-1.2101304636025039,-4.3663234170518646,932.5
747,-1.197480599224014,-1.8666808815919205,-1.8074143897825667,-2.600913788671185,-1.2101304114882976,-4.2526863092166725,933.75
748,-1.1974805424833905,-1.866680895003519,-1.8074143851172209,-2.6009137790644465,-1.2101303547762217,-4.129049210414056,935.0
749,-1.1974804808651511,-1.8666809008037266,-1.8074143713692177,-2.6009137860964286,-1.2101302931001214,-3.9954121172099555,936.25
750,-1.1974804145563367,-1.8666809046311938,-1.8074143541831416,-2.6009137984747084,-1.2101302267052176,-3.851775025378307,937.5
751,-1.197480347714406,-1.8666808988155803,-1.807414327295603,-2.600913830161256,-1.210130159618002,-3.69813793868814,938.75
752,-1.1974802778378562,-1.8666808894276592,-1.8074142959169117,-2.6009138698553373,-1.2101300894307876,-3.534500858267287,940.0
753,-1.1974802188411415,-1.866680867306864,-1.8074142553902446,-2.6009139315589196,-1.210130029937135,-3.3703941880612267,941.25
754,-1.1974801665072832,-1.8666808442806568,-1.807414216075415,-2.6009139930534917,-1.2101299771062188,-3.2162818715650925,942.5
755,-1.1974801290946449,-1.8666808147337361,-1.8074141750323496,-2.600914063003054,-1.2101299391220275,-3.072169555068815,943.75
756,-1.1974800968090842,-1.866680786140075,-1.80741413655307,-2.6009141295149836,-1.2101299062920865,-2.938057238572109,945.0
757,-1.197480079386855,-1.8666807542796577,-1.8074140995443242,-2.6009141980370822,-1.2101298883046114,-2.813944922075244,946.25
758,-1.1974800633683735,-1.8666807249863115,-1.8074140655174453,-2.600914261038207,-1.2101298717664268,-2.6998326055783295,947.5
759,-1.1974800589361858,-1.866680695852299,-1.8074140353120542,-2.6009143202325866,-1.210129866842982,-2.595720289081356,948.75
760,-1.1974800580167528,-1.8666806687866622,-1.807414008262438,-2.6009143742610425,-1.2101298654742945,-2.5016079725844014,950.0
761,-1.1974800571950157,-1.8666806445969164,-1.8074139840870016,-2.6009144225486494,-1.2101298642510383,-2.4174956560873953,951.25
762,-1.1974800623445738,-1.8666806229440596,-1.8074139643080178,-2.600914463999253,-1.210129869054298,-2.343383339590417,952.5
763,-1.1974800701423698,-1.8666806040198827,-1.8074139480642457,-2.6009144992330158,-1.210129876556782,-2.2792710230934157,953.75
764,-1.197480076723895,-1.8666805880474304,-1.8074139343541156,-2.6009145289711473,-1.2101298828890568,-2.2251587065964586,955.0
765,-1.197480082089149,-1.8666805750267015,-1.8074139231776265,-2.6009145532136486,-1.2101298880511224,-2.181046390099548,956.25
766,-1.1974800862381314,-1.8666805649576945,-1.807413914534781,-2.6009145719605185,-1.2101298920429782,-2.1469340736026115,957.5
767,-1.1974800891708428,-1.8666805578404095,-1.8074139084255794,-2.6009145852117572,-1.2101298948646246,-2.1228217571056778,958.75
768,-1.1974800908872834,-1.8666805536748463,-1.807413904850021,-2.6009145929673654,-1.2101298965160612,-2.1087094406087328,960.0
769,-1.198447790270558,-1.8693819592163992,-1.803695741087382,-2.6019379895422805,-1.211095420520326,-2.1026078075012276,961.25
770,-1.199770282816857,-1.8730738036695136,-1.7986143634376326,-2.603336596185223,-1.2124149414604004,-2.1061274185845438,962.5
771,-1.199871693494126,-1.8733569056597095,-1.7982247144701118,-2.603443842763279,-1.2125161283304013,-2.1176203217692002,963.75
772,-1.1998716919270698,-1.8733569124382163,-1.798224717775232,-2.6034438399048407,-1.2125161344260404,-2.1387772042203492,965.0
773,-1.1998716896193296,-1.8733569224206486,-1.7982247226425492,-2.603443835695335,-1.212516143402841,-2.1699340866715024,966.25
774,-1.1998716865709058,-1.873356935607006,-1.7982247290720623,-2.6034438301347613,-1.2125161552608028,-2.211090969122631,967.5
775,-1.1998716826299916,-1.8733569521395137,-1.7982247366285724,-2.6034438248458853,-1.2125161686371484,-2.2622478497009326,968.75
776,-1.1998716775519633,-1.8733569722473564,-1.798224744610791,-2.6034438224436585,-1.2125161813358747,-2.323404726119648,970.0
777,-1.1998716722310856,-1.8733569953743314,-1.798224754879606,-2.603443816312727,-1.2125161947706595,-2.3945616010833404,971.25
778,-1.1998716728865029,-1.8733570186750974,-1.7982247778241987,-2.603443771138637,-1.2125161947522327,-2.47571846089809,972.5
