Miguel-LA/TFM_MiguelLerinAlonso/workspace/ros_ur_driver/src/trayectories/data/saved_trajectories/20240615_2023_trajectory.csv
,shoulder_pan_joint,shoulder_lift_joint,elbow_joint,wrist_1_joint,wrist_2_joint,wrist_3_joint,time_from_start
0,-1.391649397746736,-2.0444536340730615,-1.8686020741902265,-2.2849648501124507,-1.7351328638734131,-3.9476424409076574e-05,0.0
1,-1.391239830041361,-2.0438541768803082,-1.868582638357267,-2.286482671225468,-1.734382138436645,-0.005039476424409075,1.25
2,-1.3900111269252369,-2.0420558053020477,-1.8685243308583885,-2.2910361345645214,-1.7321299621263404,-0.020039476424409074,2.5
3,-1.3879632883983635,-2.039058519338281,-1.8684271516935913,-2.2986252401296103,-1.7283763349424999,-0.045039476424409086,3.75
4,-1.3850963144607407,-2.0348623189890076,-1.8682911008628749,-2.309249987920735,-1.7231212568851229,-0.08003947642440905,5.0
5,-1.3813795196422407,-2.029472890784326,-1.86811677703134,-2.3228335124847344,-1.7161790688558316,-0.12503944110681298,6.25
6,-1.3767400559959726,-2.0229037314347798,-1.8679056013112387,-2.3391933457990812,-1.707109020540817,-0.18003931054736355,7.5
7,-1.3711193444811165,-2.015165695405958,-1.8676587165144816,-2.3581827550692775,-1.6955566889193143,-0.245039026275997,8.75
8,-1.3644512110291527,-2.006267557815744,-1.8673920658477894,-2.3795524247409032,-1.6811498797563367,-0.3200385489159231,10.0
9,-1.3566566153502981,-1.9962178591776727,-1.8671328463871635,-2.4029580656986944,-1.6634597171597987,-0.40503784919855357,11.25
10,-1.347655127174109,-1.9850263131280834,-1.8669149387690989,-2.427988772864423,-1.6420632205297858,-0.5000368530018653,12.5
11,-1.3373597931379444,-1.9727022385707897,-1.8667899919381385,-2.45409142988649,-1.6165329285812478,-0.6050355201421619,13.75
12,-1.3256967041745136,-1.9592585802820324,-1.866825133689355,-2.4805723845514875,-1.5865477123387843,-0.72003381135491,15.0
13,-1.3126008807175633,-1.9447136124443165,-1.867096116414134,-2.5066402143000874,-1.5518489748333084,-0.8450316755787859,16.25
14,-1.2980385515313375,-1.929094383507742,-1.8676957887659738,-2.5313370227231675,-1.5123818632761525,-0.9800290902384418,17.5
15,-1.2820229974050306,-1.9124405142960792,-1.8687274416057438,-2.5535876521013976,-1.4683602752763083,-1.1250260516005908,18.75
16,-1.2653344439153444,-1.8955149059665464,-1.870229145968552,-2.571584974053055,-1.4222743198285905,-1.2737465641394121,20.0
17,-1.2496194555868207,-1.8798427620070197,-1.872057866312624,-2.5838794084410317,-1.3790847538315447,-1.4128986640472774,21.25
18,-1.2350663222957488,-1.8654540279843734,-1.874129878941352,-2.591334407901923,-1.339601936889793,-1.5420511663328065,22.5
19,-1.2217574757211054,-1.8523212813282757,-1.8763624228601097,-2.5948836479801902,-1.304192914847281,-1.6612066986276104,23.75
20,-1.2097214854206517,-1.840413651510624,-1.878674888610487,-2.5954045057919752,-1.272935105507539,-1.7703639969393485,25.0
21,-1.1989628358554372,-1.8297007321801624,-1.8809922955067602,-2.5936979526749617,-1.2457838491664006,-1.8695218153564035,26.25
22,-1.1894576848401213,-1.820152676822603,-1.8832434740118167,-2.59049545739893,-1.2225461758331022,-1.958678012953121,27.5
23,-1.181163705776039,-1.8117450828053845,-1.8853669253820484,-2.586407517327701,-1.2028999772410804,-2.0378579493201303,28.75
24,-1.1757232850059038,-1.8062165979911282,-1.886788195206016,-2.583494833036943,-1.1901259664782375,-2.1137930758908245,30.0
25,-1.1744361653772781,-1.8049088553892905,-1.887124292513149,-2.582806034442946,-1.187104152585533,-2.191068375631999,31.25
26,-1.1744362329413596,-1.804909235858634,-1.8871240412772372,-2.5828065502693223,-1.1871047298595259,-2.2754307031517778,32.5
27,-1.1744362966971513,-1.804909670889932,-1.8871237322137857,-2.5828072329952922,-1.1871052751851534,-2.369793021499153,33.75
28,-1.174436306716388,-1.804909782450761,-1.8871236922638097,-2.5828073355527232,-1.1871053548501451,-2.474155330946753,35.0
29,-1.174436303483405,-1.8049098196583389,-1.8871237187312262,-2.58280729390396,-1.1871053193231804,-2.5885176330543116,36.25
30,-1.1744363066467134,-1.804909857689876,-1.8871237513321955,-2.582807236650513,-1.1871052966620497,-2.7128799269019113,37.5
31,-1.174436326457768,-1.804909893828548,-1.8871237929456668,-2.5828071577399223,-1.1871053163056073,-2.8472422126014196,38.75
32,-1.1744363518993333,-1.8049099308871384,-1.8871238371401646,-2.582807075552035,-1.1871053419481916,-2.9916044895164453,40.0
33,-1.1744363942431646,-1.804909964080028,-1.887123882310259,-2.582806997889585,-1.187105384973031,-3.145966759610223,41.25
34,-1.174436446142403,-1.8049099946786646,-1.8871239279327128,-2.582806922521497,-1.1871054375124943,-3.310329026515004,42.5
35,-1.17443651149499,-1.8049100193616727,-1.8871239720128314,-2.5828068548072753,-1.1871055033972446,-3.4832029409222365,43.75
36,-1.1744365832417463,-1.8049100331280592,-1.88712400754148,-2.5828068066230134,-1.187105575516464,-3.6498493814717796,45.0
37,-1.1744366539184585,-1.8049100423600717,-1.887124038362939,-2.582806767650467,-1.1871056464914083,-3.8064958220213203,46.25
38,-1.174436725107784,-1.8049100388365025,-1.8871240570340055,-2.5828067535548445,-1.1871057177780953,-3.953142262570851,47.5
39,-1.1744367917617715,-1.8049100347804405,-1.8871240737850676,-2.5828067418425293,-1.187105784511256,-4.089788703120376,48.75
40,-1.1744368532022198,-1.8049100211082982,-1.8871240796400781,-2.5828067505369106,-1.1871058458673325,-4.216435143669901,50.0
41,-1.1744369097599654,-1.8049100075893971,-1.8871240841291357,-2.5828067603716045,-1.1871059023326267,-4.333081584219427,51.25
42,-1.1744369592461985,-1.8049099911828375,-1.8871240836391263,-2.582806777959222,-1.1871059516654487,-4.439728024768953,52.5
43,-1.1744370020281103,-1.8049099725570745,-1.8871240789289647,-2.582806801879796,-1.1871059942443687,-4.536374465318481,53.75
44,-1.1744370403833826,-1.804909955858522,-1.8871240747061564,-2.582806823325311,-1.1871060324176526,-4.62302090586801,55.0
45,-1.1744370722032957,-1.8049099394336743,-1.8871240687212762,-2.5828068461624865,-1.1871060640458508,-4.69966734641754,56.25
46,-1.1744370965026767,-1.8049099225100307,-1.8871240599234103,-2.5828068721978164,-1.1871060881294333,-4.766313786967068,57.5
47,-1.1744371171560442,-1.8049099081257045,-1.8871240524456243,-2.5828068943266613,-1.1871061085993824,-4.822960227516598,58.75
48,-1.1744371341633995,-1.8049098962806975,-1.8871240462879157,-2.5828069125490236,-1.1871061254556987,-4.869606668066123,60.0
49,-1.174437147524741,-1.8049098869750066,-1.8871240414502881,-2.5828069268649005,-1.187106138698381,-4.906253108615651,61.25
50,-1.1744371572400691,-1.8049098802086323,-1.8871240379327419,-2.5828069372742926,-1.1871061483274292,-4.932899549165178,62.5
51,-1.174437163309384,-1.8049098759815743,-1.8871240357352768,-2.5828069437771997,-1.1871061543428436,-4.9495459897147045,63.75
52,-1.1751401817390834,-1.806669261032113,-1.8848271541273127,-2.583349577802112,-1.1878081955259396,-4.957526691425829,65.0
53,-1.176778971727097,-1.81077054569854,-1.8794729256888325,-2.5846144981920256,-1.1894447080895887,-4.956374925091599,66.25
54,-1.1771428370533341,-1.8116811763207123,-1.8782841007990023,-2.584895355714767,-1.1898080705295524,-4.946596161815432,67.5
55,-1.1771428309639147,-1.811681181783422,-1.8782841009623426,-2.5848953582505416,-1.1898080700716622,-4.927639579117278,68.75
56,-1.1771428216621973,-1.811681190127827,-1.878284101211848,-2.5848953621239907,-1.1898080693722257,-4.898682996419125,70.0
57,-1.1771428091481817,-1.8116812013539276,-1.8782841015475196,-2.5848953673351147,-1.1898080684312426,-4.859726413720973,71.25
58,-1.1771427934743244,-1.8116812154244086,-1.8782841020788028,-2.5848953734767965,-1.189808067695844,-4.810769831581577,72.5
59,-1.1771427751924475,-1.8116812319467337,-1.8782841039570397,-2.584895376266288,-1.1898080718697042,-4.751813254914227,73.75
60,-1.177142753809665,-1.8116812512715157,-1.8782841061538562,-2.5848953795289233,-1.1898080767515193,-4.682856678246874,75.0
61,-1.1771427205190377,-1.8116812671870663,-1.87828411011378,-2.584895361987796,-1.1898080483975746,-4.603900115711739,76.25
62,-1.1771426815381798,-1.8116812840794725,-1.8782841148280813,-2.584895338624875,-1.189808010746866,-4.514943557309022,77.5
63,-1.1771426381443346,-1.8116813028528034,-1.8782841201385763,-2.584895312343982,-1.1898079686067682,-4.4159870089542785,78.75
64,-1.1771425868914365,-1.81168131753978,-1.8782841186281742,-2.584895297939309,-1.1898079177433059,-4.30703046911309,80.0
65,-1.1771425295642362,-1.8116813312162683,-1.8782841140761284,-2.5848952879503155,-1.1898078604456492,-4.188073936879622,81.25
66,-1.177142467297404,-1.8116813424145617,-1.878284105582439,-2.5848952843197943,-1.1898077981711852,-4.059117411711593,82.5
67,-1.1771423999384578,-1.8116813464881887,-1.8782840885963061,-2.584895296241797,-1.1898077307298986,-3.920160890707317,83.75
68,-1.1771423293568766,-1.8116813469209065,-1.8782840670839431,-2.584895316271914,-1.1898076600018301,-3.771204371822817,85.0
69,-1.177142258084171,-1.811681337582987,-1.8782840358978852,-2.584895355705652,-1.189807588426612,-3.6122478598277254,86.25
70,-1.1771421896186591,-1.811681320777426,-1.8782839983538973,-2.584895408985485,-1.189807519545698,-3.4458668678136894,87.5
71,-1.1771421299573082,-1.8116812982197932,-1.8782839579762973,-2.5848954709659377,-1.1898074593963124,-3.28706026861324,88.75
72,-1.1771420850283547,-1.8116812694421354,-1.8782839161539693,-2.584895540813241,-1.1898074139121206,-3.1382536694127925,90.0
73,-1.1771420471957155,-1.8116812397602127,-1.8782838756610125,-2.5848956103387555,-1.1898073755251763,-2.999447070212341,91.25
74,-1.1771420231620287,-1.811681207399583,-1.8782838368620016,-2.5848956810473083,-1.189807350924343,-2.870640471011888,92.5
75,-1.1771420056563038,-1.8116811755232283,-1.8782838005601588,-2.58489574887322,-1.1898073328732823,-2.7518338718114372,93.75
76,-1.1771419938004055,-1.8116811453331927,-1.8782837676464577,-2.5848958117138006,-1.1898073205111022,-2.6430272726109827,95.0
77,-1.1771419927926636,-1.8116811155888402,-1.8782837385348967,-2.584895870469723,-1.1898073190276097,-2.544220673410528,96.25
78,-1.1771419918869133,-1.8116810888548533,-1.8782837123696474,-2.584895923279087,-1.189807317694258,-2.4554140742100725,97.5
79,-1.1771419926383178,-1.811681065037187,-1.8782836895428703,-2.5848959698667184,-1.1898073180680733,-2.3766074750096142,98.75
80,-1.17714200143004,-1.8116810437498492,-1.8782836716641633,-2.5848960091031667,-1.1898073265398623,-2.3078008758091553,100.0
81,-1.1771420089440183,-1.8116810255563038,-1.8782836563838563,-2.58489604263719,-1.189807333780405,-2.248994276608697,101.25
82,-1.1771420151802525,-1.811681010456555,-1.8782836437019461,-2.5848960704687878,-1.1898073397897009,-2.20018767740824,102.5
83,-1.1771420201387428,-1.8116809984505988,-1.8782836336184365,-2.584896092597961,-1.1898073445677502,-2.1613810782077874,103.75
84,-1.177142023819489,-1.8116809895384351,-1.878283626133328,-2.5848961090247085,-1.1898073481145528,-2.1325744790073338,105.0
85,-1.177142026222491,-1.8116809837200636,-1.8782836212466196,-2.5848961197490308,-1.189807350430109,-2.1137678798068764,106.25
86,-1.177517915339324,-1.8126332479975942,-1.8770329275086108,-2.585197276993959,-1.1901826845451673,-2.104104322727198,107.5
87,-1.1791363383456557,-1.8167333295635975,-1.8716479511317228,-2.586493916770992,-1.191798718431516,-2.103081759761001,108.75
88,-1.179809831791037,-1.8184395493309893,-1.8694070367259008,-2.5870335015359585,-1.1924712207331667,-2.111155369577152,110.0
89,-1.1798098305630507,-1.8184395548978691,-1.8694070395634004,-2.587033498653911,-1.1924712261425188,-2.1279111189386763,111.25
90,-1.1798098286021894,-1.818439563787119,-1.8694070440943487,-2.587033494051829,-1.1924712347802264,-2.1546668683001995,112.5
91,-1.1798098259084537,-1.8184395759987388,-1.869407050318745,-2.5870334877297125,-1.19247124664629,-2.191422617661727,113.75
92,-1.1798098224818432,-1.8184395915327287,-1.8694070582365898,-2.5870334796875603,-1.1924712617407092,-2.2381783670232545,115.0
93,-1.179809817872063,-1.8184396108426304,-1.8694070664706968,-2.587033475186597,-1.1924712761807563,-2.294934105721963,116.25
94,-1.1798098123764562,-1.818439633628957,-1.8694070759304628,-2.5870334707526808,-1.192471292530311,-2.3616898428569555,117.5
95,-1.1798098106464214,-1.8184396577722781,-1.8694070942715113,-2.5870334399358366,-1.19247129897862,-2.438445569459482,118.75
96,-1.1798098113811495,-1.8184396838555281,-1.8694071193779331,-2.587033390026653,-1.192471299026702,-2.5252012902827454,120.0
97,-1.179809812167802,-1.818439712924316,-1.8694071474546234,-2.587033334031311,-1.1924712988074502,-2.6219569998214576,121.25
98,-1.179809820667523,-1.818439743131972,-1.8694071792456013,-2.5870332727684335,-1.192471306994188,-2.7287127027247786,122.5
99,-1.1798098377591808,-1.8184397742654541,-1.8694072148398142,-2.5870332063171846,-1.192471324576888,-2.845468397547461,123.75
100,-1.1798098579492757,-1.8184398073555896,-1.8694072533021018,-2.5870331350870286,-1.192471345307165,-2.972224084542507,125.0
101,-1.179809894993155,-1.8184398364314807,-1.8694072930857575,-2.587033066861175,-1.192471382899489,-3.108979766075187,126.25
102,-1.1798099358764005,-1.8184398668469053,-1.8694073353661378,-2.5870329948608166,-1.1924714243612493,-3.25573544693919,127.5
103,-1.1798099944030642,-1.8184398889967868,-1.8694073751106701,-2.587032933903126,-1.1924714833693866,-3.412491120658892,128.75
104,-1.1798100598309527,-1.8184399084608824,-1.8694074143951704,-2.587032876186642,-1.1924715492507048,-3.5784208140020937,130.0
105,-1.1798101315765035,-1.818439917886717,-1.8694074458951424,-2.587032836358692,-1.1924716213027162,-3.739428524649208,131.25
106,-1.1798102015596614,-1.8184399202054178,-1.8694074699417986,-2.5870328110447227,-1.1924716914747773,-3.8904362352963133,132.5
107,-1.179810269489258,-1.8184399161219478,-1.8694074871293256,-2.5870327989432385,-1.1924717594863696,-4.031443945943407,133.75
108,-1.1798103324254265,-1.8184399071380297,-1.8694074980010944,-2.5870327979695142,-1.1924718224152806,-4.162451656590496,135.0
109,-1.1798103903707284,-1.8184398933292272,-1.8694075026313166,-2.5870328079740266,-1.1924718802652858,-4.283459367237575,136.25
110,-1.1798104432205676,-1.81843988010265,-1.8694075062403286,-2.5870328183431033,-1.1924719330180928,-4.394467077884652,137.5
111,-1.179810487378557,-1.8184398609085641,-1.8694075013452036,-2.587032843037137,-1.1924719769646968,-4.495474788531726,138.75
112,-1.1798105271648034,-1.81843984361474,-1.8694074969347034,-2.587032865286405,-1.1924720165604854,-4.5864824991787945,140.0
113,-1.1798105625793058,-1.8184398282211771,-1.8694074930088305,-2.5870328850909052,-1.1924720518054577,-4.66749020982586,141.25
114,-1.1798105885494063,-1.8184398107462876,-1.8694074841198263,-2.587032911792962,-1.1924720775522353,-4.738497920472927,142.5
115,-1.1798106105167674,-1.8184397954612939,-1.8694074761117436,-2.5870329353706527,-1.192472099322637,-4.799505631119993,143.75
116,-1.1798106288833774,-1.8184397826817218,-1.8694074694162925,-2.587032955083638,-1.192472117524572,-4.850513341767066,145.0
117,-1.179810643649236,-1.8184397724075705,-1.8694074640334757,-2.5870329709319173,-1.19247213215804,-4.891521052414142,146.25
118,-1.1798106548143426,-1.8184397646388382,-1.8694074599632944,-2.587032982915489,-1.1924721432230405,-4.9225287630612184,147.5
119,-1.1798106623786977,-1.8184397593755255,-1.869407457205748,-2.587032991034354,-1.1924721507195737,-4.943536473708293,148.75
120,-1.1799412456016192,-1.81877463343575,-1.8689650138675926,-2.587141501428511,-1.192602529590499,-4.954918253308313,150.0
121,-1.1814243721220088,-1.822578184206047,-1.8639397330431116,-2.588373920216127,-1.1940833355203266,-4.958163531330016,151.25
122,-1.1824414840268598,-1.8251866272187294,-1.8604934413380165,-2.5892191018250146,-1.19509885778844,-4.951828132653836,152.5
123,-1.182441479403372,-1.8251866313589233,-1.8604934414353238,-2.589219103849331,-1.1950988573438885,-4.937311183101835,153.75
124,-1.1824414715949954,-1.8251866383510897,-1.8604934415996612,-2.589219107268098,-1.1950988565931073,-4.912794233549835,155.0
125,-1.182441460601729,-1.8251866481952286,-1.8604934418310286,-2.589219112081315,-1.1950988555360964,-4.878277283997836,156.25
126,-1.1824414464235733,-1.8251866608913396,-1.860493442129426,-2.589219118288982,-1.1950988541728564,-4.833760334445832,157.5
127,-1.1824414294619534,-1.8251866761591582,-1.8604934433183653,-2.589219122848091,-1.1950988559609748,-4.779243388584859,158.75
128,-1.1824414096277496,-1.825186694060906,-1.8604934452150206,-2.589219126434215,-1.1950988601328396,-4.714726444756165,160.0
129,-1.182441382644749,-1.8251867118049843,-1.860493448157165,-2.5892191203582446,-1.195098849280467,-4.640209507873472,161.25
130,-1.1824413460727121,-1.8251867276351759,-1.8604934525948795,-2.5892190985006565,-1.1950988140185712,-4.555692580491717,162.5
131,-1.182441305148572,-1.8251867453230142,-1.860493457613849,-2.589219073811544,-1.1950987743756625,-4.46117566181694,163.75
132,-1.1824412585774404,-1.8251867626251679,-1.8604934604033996,-2.589219051885756,-1.1950987287632922,-4.356658749882562,165.0
133,-1.1824412040709051,-1.8251867755901774,-1.8604934560480084,-2.589219042445536,-1.1950986742904541,-4.242141846517283,166.25
134,-1.1824411448032779,-1.825186789688816,-1.8604934513077793,-2.589219032198171,-1.1950986150486753,-4.117624952538804,167.5
135,-1.1824410804447385,-1.8251867949006066,-1.8604934362992178,-2.589219041045191,-1.1950985506228895,-3.983108063928908,168.75
136,-1.1824410112535029,-1.8251867990369017,-1.8604934187310453,-2.5892190534586126,-1.1950984813460257,-3.8385911761503078,170.0
137,-1.1824409420103872,-1.8251867919945712,-1.8604933902500034,-2.589219087928497,-1.195098411838684,-3.684074294142468,171.25
138,-1.1824408699410673,-1.825186781518527,-1.8604933575394713,-2.5892191300091447,-1.1950983394439856,-3.5195980032902927,172.5
139,-1.1824408093673509,-1.8251867585746246,-1.8604933162629202,-2.5892191932602167,-1.1950982783692419,-3.356355253478352,173.75
140,-1.1824407567432333,-1.8251867340882497,-1.8604932759642412,-2.589219257190287,-1.1950982252366014,-3.2031125036664205,175.0
141,-1.1824407181808707,-1.825186703808675,-1.8604932344075404,-2.589219328365303,-1.1950981861031589,-3.059869753854496,176.25
142,-1.1824406863300723,-1.8251866738972355,-1.8604931953048478,-2.58921939681946,-1.1950981537018208,-2.9266270040425866,177.5
143,-1.1824406683927546,-1.8251866412259854,-1.860493157855028,-2.589219466580602,-1.1950981351998742,-2.8033842542306795,178.75
144,-1.1824406519108834,-1.8251866112057105,-1.8604931234439044,-2.589219530681278,-1.1950981181991884,-2.690141504418776,180.0
145,-1.1824406486191918,-1.8251865810439643,-1.8604930930124184,-2.589219591140405,-1.195098114415139,-2.586898754606879,181.25
146,-1.1824406476785463,-1.825186553320067,-1.860493065691447,-2.5892196460931505,-1.1950981130264722,-2.4936560047949827,182.5
147,-1.1824406468387822,-1.8251865285694768,-1.8604930413005627,-2.5892196951523823,-1.1950981117867359,-2.4104132549830903,183.75
148,-1.182440653017057,-1.8251865063787225,-1.860493021596008,-2.589219737077482,-1.195098117621504,-2.337170505171199,185.0
149,-1.1824406609973828,-1.825186487059585,-1.8604930052534645,-2.589219772803957,-1.1950981253084416,-2.2739277553593045,186.25
150,-1.1824406677158523,-1.8251864707952086,-1.8604929914950168,-2.58921980288133,-1.1950981317799139,-2.2206850055474043,187.5
151,-1.1824406731724655,-1.8251864575855925,-1.8604929803206651,-2.5892198273096003,-1.1950981370359206,-2.1774422557355004,188.75
152,-1.1824406773672227,-1.8251864474307349,-1.860492971730412,-2.5892198460887696,-1.1950981410764623,-2.1441995059236008,190.0
153,-1.1824406803001235,-1.8251864403306362,-1.860492965724257,-2.589219859218836,-1.195098143901538,-2.1209567561117,191.25
154,-1.1824480541770035,-1.825205575482304,-1.860467526796071,-2.5892262157763835,-1.1951055055161894,-2.1076904361017403,192.5
155,-1.1836519585730547,-1.828331065599346,-1.8563138289219403,-2.590263040626125,-1.1963074174775368,-2.1023552289324416,193.75
156,-1.184991636261531,-1.831809046660372,-1.8516916860688355,-2.5914167928103047,-1.197644879783564,-2.1068119865789425,195.0
157,-1.18503516260628,-1.8319220531862643,-1.8515415108315083,-2.5914542771954894,-1.197688338893389,-2.1191919030925908,196.25
158,-1.1850351609720988,-1.8319220605035889,-1.8515415145272476,-2.5914542735889055,-1.1976883458851622,-2.1414348156148413,197.5
159,-1.1850351586032197,-1.8319220711106463,-1.8515415198845222,-2.5914542683608692,-1.1976883560203067,-2.1736777281370903,198.75
160,-1.185035155499643,-1.831922085007437,-1.8515415269033326,-2.59145426151138,-1.1976883692988225,-2.2159206406593452,200.0
161,-1.1850351514536048,-1.8319221023994658,-1.851541534958607,-2.5914542554140296,-1.197688383910938,-2.268163551478144,201.25
162,-1.1850351463185647,-1.8319221234316805,-1.8515415436094704,-2.591454251742963,-1.1976883985801845,-2.3304064599628296,202.5
163,-1.1850351416936475,-1.8319221472408111,-1.8515415558382904,-2.5914542399667178,-1.197688412148263,-2.4026493652446232,203.75
164,-1.185035142381632,-1.8319221716608136,-1.8515415795162267,-2.591454193050537,-1.1976884121760716,-2.4848922572938275,205.0
165,-1.185035143137241,-1.831922199039205,-1.8515416061125354,-2.5914541402593567,-1.1976884120723665,-2.577135143398962,206.25
166,-1.18503514475241,-1.8319222291802308,-1.851541635719513,-2.5914540816154203,-1.1976884126907736,-2.6793780226754045,207.5
167,-1.1850351609833352,-1.8319222587506179,-1.8515416697539886,-2.5914540182737333,-1.1976884293909706,-2.7916208909140443,208.75
168,-1.185035178661761,-1.831922290954555,-1.851541706823463,-2.5914539492785544,-1.19768844759155,-2.9138637515624675,210.0
169,-1.1850352084771105,-1.8319223211593667,-1.8515417457175198,-2.591453880679647,-1.1976884779495496,-3.046106606251799,211.25
170,-1.1850352465367187,-1.8319223510522997,-1.8515417868753867,-2.5914538102797926,-1.1976885165788993,-3.1883494587383012,212.5
171,-1.1850352969731919,-1.8319223763035009,-1.8515418273649011,-2.591453745363062,-1.1976885675353568,-3.3405923069630252,213.75
172,-1.1850353568074274,-1.8319223989837181,-1.8515418682798939,-2.591453682725622,-1.197688627867288,-3.5028351486952944,215.0
173,-1.1850354275775057,-1.8319224108332903,-1.8515419020209694,-2.5914536382257665,-1.1976886989838147,-3.668084279917722,216.25
174,-1.1850354963006473,-1.8319224192087282,-1.8515419317224462,-2.591453601199312,-1.1976887679927422,-3.8236014405324767,217.5
175,-1.1850355655434504,-1.8319224150915563,-1.8515419493641574,-2.5914535886980627,-1.1976888373204624,-3.969118601147273,218.75
176,-1.1850356300190648,-1.8319224109982972,-1.8515419655373366,-2.591453577570254,-1.1976889018709507,-4.104635761762103,220.0
177,-1.185035689386558,-1.831922396890503,-1.8515419703139895,-2.591453587749164,-1.197688961140203,-4.23015292237695,221.25
178,-1.1850357440242227,-1.831922383906687,-1.851541974710078,-2.5914535971171175,-1.1976890156874547,-4.345670082991841,222.5
179,-1.1850357912955782,-1.8319223672446117,-1.8515419732021514,-2.5914536159469725,-1.1976890627928007,-4.4511872436067765,223.75
180,-1.1850358325406787,-1.8319223493451284,-1.8515419685976404,-2.5914536390172986,-1.1976891038386976,-4.546704404221757,225.0
181,-1.185035869467698,-1.831922333319604,-1.8515419644751852,-2.591453659672319,-1.1976891405873689,-4.632221564836735,226.25
182,-1.1850358994124304,-1.8319223170754861,-1.8515419579537342,-2.5914536828399712,-1.1976891703349426,-4.7077387254517165,227.5
183,-1.185035922713658,-1.831922300878865,-1.851541949399645,-2.5914537078936135,-1.1976891934252452,-4.773255886066707,228.75
184,-1.185035942458378,-1.8319222871543634,-1.851541942151181,-2.591453729123275,-1.1976892129912342,-4.828773046681688,230.0
185,-1.1850359586465913,-1.8319222759019826,-1.8515419362083398,-2.5914537465289547,-1.19768922903291,-4.874290207296655,231.25
186,-1.185035971278297,-1.83192226712172,-1.8515419315711255,-2.591453760110653,-1.197689241550272,-4.909807367911629,232.5
187,-1.1850359803534947,-1.831922260813576,-1.8515419282395373,-2.5914537698683686,-1.19768925054332,-4.935324528526597,233.75
188,-1.1850359858721848,-1.83192225697755,-1.8515419262135762,-2.5914537758021035,-1.1976892560120544,-4.950841689141576,235.0
189,-1.1858639600684366,-1.834098285808939,-1.8486332608963623,-2.592192298482822,-1.1985157834927176,-4.957978692336177,236.25
190,-1.187369703947558,-1.8380556033382538,-1.8433435803109979,-2.5935353672057584,-1.200018897150181,-4.95577552562319,237.5
191,-1.1875949667717973,-1.8386476387076676,-1.8425522203789937,-2.5937362977682583,-1.2002437693148182,-4.945231888351887,238.75
192,-1.1875949604777989,-1.8386476443338675,-1.8425522204776286,-2.593736300647838,-1.2002437685811163,-4.925299583359476,240.0
193,-1.1875949510261132,-1.8386476527827211,-1.8425522206257479,-2.5937363049720976,-1.2002437674793174,-4.895367278367065,241.25
194,-1.1875949384167404,-1.8386476640542289,-1.842552220823352,-2.593736310741037,-1.2002437660094212,-4.855434973374657,242.5
195,-1.1875949227603009,-1.838647678072452,-1.8425522212938725,-2.593736317134592,-1.2002437651341629,-4.805502670745956,243.75
196,-1.1875949044932734,-1.8386476945377597,-1.8425522229189086,-2.5937363209170115,-1.200243768652228,-4.745570378362337,245.0
197,-1.1875948831783016,-1.8386477137503854,-1.84255222481509,-2.5937363253305463,-1.2002437727573,-4.675638085978713,246.25
198,-1.1875948493635797,-1.8386477287735468,-1.8425522289137746,-2.5937363058336502,-1.2002437411808113,-4.595705809539394,247.5
199,-1.1875948109160026,-1.8386477453815282,-1.8425522336258013,-2.5937362827876935,-1.200243704070539,-4.505773536876109,248.75
200,-1.1875947681677526,-1.8386477638195773,-1.8425522389223201,-2.5937362569169404,-1.2002436626178148,-4.405841273269035,250.0
201,-1.1875947172729218,-1.838647777441651,-1.84255223645857,-2.5937362447035897,-1.2002436119924667,-4.295909019335633,251.25
202,-1.187594660884813,-1.8386477908181158,-1.8425522319193022,-2.593736235011945,-1.200243555634499,-4.17597677284078,252.5
203,-1.1875945996407034,-1.838647800670084,-1.8425522223863275,-2.5937362337792433,-1.200243494373002,-4.046044533143053,253.75
204,-1.1875945334613558,-1.838647804585865,-1.8425522054645698,-2.593736245809507,-1.2002434281101542,-3.90611229704282,255.0
205,-1.1875944646741696,-1.8386478036474996,-1.842552182958208,-2.59373626822516,-1.2002433591557151,-3.756180063621569,256.25
206,-1.1875943947097074,-1.8386477943929005,-1.8425521519169115,-2.5937363074491993,-1.2002432888871684,-3.5962478369362243,257.5
207,-1.187594329093947,-1.838647776623226,-1.8425521138785712,-2.593736362226692,-1.200243222838391,-3.429980847928055,258.75
208,-1.1875942712437566,-1.838647754681777,-1.842552074180333,-2.5937364229403723,-1.2002431645043796,-3.272156860578287,260.0
209,-1.1875942291775252,-1.8386477257116187,-1.842552032532776,-2.5937364928485898,-1.200243121874763,-3.124332873228491,261.25
210,-1.187594192524816,-1.8386476969173196,-1.8425519927565526,-2.5937365607910534,-1.2002430846734258,-2.9865088858786972,262.5
211,-1.1875941708077904,-1.838647664888822,-1.8425519544909599,-2.5937366306714433,-1.200243062388021,-2.8586848985288857,263.75
212,-1.1875941538666503,-1.8386476340317526,-1.8425519188742547,-2.5937366968061863,-1.2002430449080395,-2.740860911179068,265.0
213,-1.1875941437884963,-1.8386476045061322,-1.8425518867184725,-2.5937367582548814,-1.2002430343277717,-2.6330369238292466,266.25
214,-1.187594142812228,-1.8386475757806346,-1.8425518582043943,-2.5937368154000757,-1.200243032882401,-2.5352129364794096,267.5
215,-1.1875941419357585,-1.83864754999159,-1.8425518326051458,-2.593736866703636,-1.2002430315847823,-2.4473889491295773,268.75
216,-1.187594143638318,-1.838647526992314,-1.8425518105546341,-2.5937369117150046,-1.2002430329172116,-2.3695649617797376,270.0
217,-1.1875941520913762,-1.8386475065360086,-1.8425517931194415,-2.5937369496760896,-1.2002430410563139,-2.3017409744298964,271.25
218,-1.1875941592981114,-1.838647489095791,-1.8425517782549015,-2.5937369820401748,-1.2002430479953834,-2.2439169870800613,272.5
219,-1.1875941652585242,-1.8386474746716637,-1.8425517659610111,-2.59373700880726,-1.2002430537344198,-2.1960929997302365,273.75
220,-1.187594169972614,-1.8386474632636225,-1.842551756237774,-2.5937370299773455,-1.2002430582734234,-2.1582690123804142,275.0
221,-1.1875941734403812,-1.8386474548716678,-1.8425517490851908,-2.593737045550431,-1.2002430616123936,-2.130445025030584,276.25
222,-1.1875941756618256,-1.8386474494957994,-1.842551744503261,-2.5937370555265162,-1.200243063751331,-2.112621037680756,277.5
223,-1.1880687442813098,-1.8399100753075008,-1.8408543454792499,-2.594175179869718,-1.2007167583372698,-2.103703815591041,278.75
224,-1.1896084601782269,-1.844006624364386,-1.8353472076613253,-2.5955966416139407,-1.2022536390437746,-2.1035882331292033,280.0
225,-1.1901182714226186,-1.845363026479575,-1.8335237529556343,-2.596067297136242,-1.2027625147048,-2.112330762686284,281.25
226,-1.1901182701276867,-1.8453630322083143,-1.833523755825504,-2.5960672944450884,-1.2027625200872392,-2.129918777954737,282.5
227,-1.190118268096497,-1.8453630411942372,-1.8335237603270924,-2.5960672902238295,-1.2027625285299663,-2.15750679322319,283.75
228,-1.1901182653290487,-1.8453630534373433,-1.8335237664603994,-2.596067284472464,-1.2027625400329813,-2.195094808491636,285.0
229,-1.1901182618253425,-1.845363068937633,-1.8335237742254256,-2.5960672771909925,-1.2027625545962846,-2.242682823760086,286.25
230,-1.1901182570892608,-1.8453630881780445,-1.8335237821514498,-2.5960672739300668,-1.2027625678543956,-2.3002708368173304,287.5
231,-1.1901182515040505,-1.8453631107855115,-1.8335237913745932,-2.59606727040185,-1.2027625831796152,-2.3678588497638113,288.75
232,-1.190118250313669,-1.8453631343675125,-1.8335238105805902,-2.5960672368555366,-1.2027625877569774,-2.4454468506502813,290.0
233,-1.190118251036968,-1.8453631600495934,-1.8335238356771226,-2.5960671872954855,-1.2027625877633106,-2.5330348467572485,291.25
234,-1.1901182518112035,-1.845363188641145,-1.833523863720663,-2.5960671317260124,-1.2027625875012933,-2.6306228309527415,292.5
235,-1.1901182613815795,-1.8453632180476731,-1.8335238955632038,-2.596067071095031,-1.2027625968855258,-2.7382108082206016,293.75
236,-1.1901182781815152,-1.8453632486490246,-1.8335239310394793,-2.596067005284773,-1.202762614181982,-2.855798777560306,295.0
237,-1.1901182993477704,-1.8453632805813702,-1.8335239692006815,-2.5960669355298127,-1.2027626358893841,-2.9833867392990223,296.25
238,-1.1901183357168224,-1.8453633091558033,-1.8335240088102607,-2.59606686796719,-1.202762672808558,-3.1209746960073277,297.5
239,-1.190118377104435,-1.8453633381579064,-1.833524050420178,-2.596066798053523,-1.2027627147643358,-3.2685626515982613,298.75
240,-1.1901184345182303,-1.845363359944514,-1.8335240899600156,-2.5960667376464075,-1.2027627726610055,-3.4261506001809106,300.0
241,-1.190118499440521,-1.8453633779279657,-1.8335241281136434,-2.596066682530478,-1.2027628380205653,-3.5923624277473527,301.25
242,-1.1901185690836178,-1.8453633871565474,-1.8335241591231015,-2.5960666433599813,-1.2027629079682574,-3.752531162534771,302.5
243,-1.190118637434986,-1.8453633884142322,-1.833524181869287,-2.5960666203823366,-1.202762976491107,-3.9026998973221985,303.75
244,-1.1901187033237008,-1.845363384534005,-1.8335241987762125,-2.5960666083308412,-1.2027630424619007,-4.042868632109631,305.0
245,-1.1901187643098963,-1.8453633749979752,-1.833524208565709,-2.5960666089636195,-1.20276310342692,-4.173037366897077,306.25
246,-1.1901188204576834,-1.8453633616904543,-1.8335242131152953,-2.5960666185249965,-1.2027631594812116,-4.293206101684542,307.5
247,-1.190118871275472,-1.8453633482927196,-1.833524215898889,-2.596066629862578,-1.2027632101922605,-4.4033748364720156,308.75
248,-1.190118914003651,-1.8453633297788823,-1.8335242110942382,-2.596066653769346,-1.2027632527122265,-4.50354357125948,310.0
249,-1.1901189524662112,-1.8453633131133138,-1.833524206769238,-2.596066675289466,-1.20276329098736,-4.593712306046957,311.25
250,-1.1901189865825408,-1.8453632982326766,-1.8335242028361003,-2.5960666945726825,-1.2027633249358358,-4.673881040834438,312.5
251,-1.190119011234583,-1.845363281115781,-1.8335241937208118,-2.5960667211265243,-1.2027633493625811,-4.744049775621919,313.75
252,-1.1901190323733735,-1.8453632664382758,-1.8335241859045757,-2.596066743896082,-1.2027633703081821,-4.804218510409404,315.0
253,-1.190119049998913,-1.8453632542001634,-1.8335241793873895,-2.5960667628813567,-1.2027633877726402,-4.854387245196872,316.25
254,-1.1901190641112007,-1.8453632444014418,-1.833524174169256,-2.5960667780823474,-1.2027634017559548,-4.894555979984338,317.5
255,-1.1901190747102368,-1.8453632370421105,-1.833524170250176,-2.596066789499055,-1.2027634122581254,-4.9247247147718065,318.75
256,-1.1901190817960212,-1.8453632321221691,-1.8335241676301495,-2.5960667971314773,-1.202763419279152,-4.944893449559274,320.0
257,-1.1903140486172792,-1.8458883593129007,-1.8328142262497222,-2.5962529789194067,-1.2029580081903677,-4.9556255371732965,321.25
258,-1.19176477762784,-1.8497958713499745,-1.8275315330790347,-2.597638336193432,-1.2044059254908863,-4.958106729698122,322.5
259,-1.1926090887802785,-1.8520700174743112,-1.8244570439543246,-2.5984446045330114,-1.2052486020737514,-4.951196127519735,323.75
260,-1.1926090840189612,-1.8520700217232173,-1.824457044004977,-2.5984446067979947,-1.2052486014238486,-4.935987697123203,325.0
261,-1.1926090761269348,-1.8520700287659069,-1.8244570440889354,-2.5984446105522725,-1.2052486003466154,-4.91077926672667,326.25
262,-1.1926090651041994,-1.8520700386023798,-1.8244570442061996,-2.598444615795845,-1.2052485988420516,-4.875570836330139,327.5
263,-1.1926090509507548,-1.8520700512326358,-1.8244570443567691,-2.5984446225287128,-1.2052485969101576,-4.830362405933613,328.75
264,-1.192609034106926,-1.8520700663589968,-1.8244570454172937,-2.598444627555313,-1.2052485984227643,-4.775153986951837,330.0
265,-1.1926090144013175,-1.8520700840973336,-1.8244570470465407,-2.598444632119507,-1.2052486018727748,-4.709945572500011,331.25
266,-1.192608987099745,-1.852070101134478,-1.824457049949428,-2.598444625113437,-1.2052485883439035,-4.6347371662151335,332.5
267,-1.1926089511207147,-1.8520701166614555,-1.8244570543680236,-2.5984446036359037,-1.205248553696523,-4.549528768349393,333.75
268,-1.1926089108937303,-1.852070133993081,-1.824457059368771,-2.598444579364582,-1.2052485147649217,-4.454320380223672,335.0
269,-1.1926088648370583,-1.8520701503915333,-1.8244570614689142,-2.598444559186958,-1.2052484695978074,-4.3491119988619635,336.25
270,-1.1926088113249516,-1.8520701630528538,-1.824457057132529,-2.598444550042311,-1.2052484161202976,-4.233903625933875,337.5
271,-1.1926087531667346,-1.8520701768144996,-1.8244570524156811,-2.5984445401192433,-1.20524835798942,-4.108695261788094,338.75
272,-1.192608690012528,-1.8520701811014453,-1.8244570367292612,-2.598444550584826,-1.2052482947598029,-3.9734869035277445,340.0
273,-1.1926086221667482,-1.8520701850800427,-1.8244570192559886,-2.5984445630777917,-1.2052482268273668,-3.8282785456138053,341.25
274,-1.1926085546586167,-1.8520701772149615,-1.8244569901709133,-2.598444598995891,-1.205248159040201,-3.673070193917996,342.5
275,-1.1926084849033336,-1.8520701659546228,-1.824456957017185,-2.5984446423346403,-1.2052480889452446,-3.508039249074656,343.75
276,-1.1926084260405845,-1.8520701436098435,-1.824456916332399,-2.598444704421575,-1.2052480295847516,-3.345494740989723,345.0
277,-1.1926083759563528,-1.8520701190609903,-1.8244568762367117,-2.5984447682488954,-1.205247978986041,-3.1929502329047814,346.25
278,-1.1926083385041641,-1.8520700896339508,-1.824456835300043,-2.598444837971172,-1.2052479409672539,-3.050405724819832,347.5
279,-1.1926083086725658,-1.8520700601095288,-1.8244567966716965,-2.5984449055963514,-1.2052479105843643,-2.9178612167348654,348.75
280,-1.1926082912636757,-1.8520700284086435,-1.824456759809718,-2.5984449738116786,-1.205247892615985,-2.79531670864989,350.0
281,-1.1926082752754035,-1.852069999294652,-1.8244567259557813,-2.5984450364604297,-1.2052478761138794,-2.682772200564907,351.25
282,-1.1926082730553191,-1.852069969844745,-1.8244566961140403,-2.5984450956381435,-1.2052478734049927,-2.580227692479919,352.5
283,-1.1926082721415174,-1.8520699430087917,-1.824456669271047,-2.5984451492298777,-1.2052478720482356,-2.487683184394922,353.75
284,-1.1926082713264576,-1.8520699190726304,-1.8244566453286004,-2.598445197030697,-1.2052478708380845,-2.405138676309925,355.0
285,-1.1926082779833647,-1.8520698976039272,-1.8244566261855466,-2.5984452376833103,-1.2052478771570212,-2.332594168224919,356.25
286,-1.1926082856834286,-1.8520698789796362,-1.82445661018626,-2.598445272371158,-1.2052478845681642,-2.2700496601399194,357.5
287,-1.192608292152359,-1.8520698633331132,-1.8244565967450357,-2.5984453015128994,-1.2052478907943684,-2.2175051520549287,358.75
288,-1.192608297390156,-1.852069850664357,-1.8244565858618746,-2.5984453251085347,-1.2052478958356339,-2.174960643969945,360.0
289,-1.1926083013968196,-1.8520698409733662,-1.824456577536778,-2.5984453431580636,-1.20524789969196,-2.1424161358849605,361.25
290,-1.1926083041723494,-1.8520698342601405,-1.8244565717697467,-2.598445355661487,-1.205247902363347,-2.1198716277999714,362.5
291,-1.1926343403714028,-1.8521408224043876,-1.8243600570162821,-2.5984710636959987,-1.20527388547421,-2.10723818387377,363.75
292,-1.1938541456997793,-1.855467014515029,-1.81983818820163,-2.599675240141131,-1.2064912061667532,-2.1024519728309037,365.0
293,-1.1950466922716596,-1.8587188824381558,-1.8154173672182632,-2.6008525046942483,-1.2076813255049572,-2.107467183473296,366.25
294,-1.1950647954864453,-1.8587682534624719,-1.815350256384218,-2.600870375006827,-1.2076993966230023,-2.120327026077424,367.5
295,-1.1950647938050596,-1.8587682608138676,-1.8153502600402982,-2.6008703717124986,-1.2076994034144166,-2.143123621373596,368.75
296,-1.195064791386114,-1.858768271390041,-1.8153502653001623,-2.6008703669730737,-1.207699413184966,-2.175920216669761,370.0
297,-1.1950647882296084,-1.8587682851909928,-1.8153502721638093,-2.600870360788552,-1.2076994259346512,-2.218716811965922,371.25
298,-1.1950647840998563,-1.8587683024429347,-1.8153502799418049,-2.6008703557447186,-1.2076994395686098,-2.2715134047866936,372.5
299,-1.1950647789043716,-1.858768323234635,-1.815350288363609,-2.6008703528562576,-1.2076994532648002,-2.3343099948587875,373.75
300,-1.1950647746125398,-1.8587683465459506,-1.8153503010036016,-2.6008703396991093,-1.2076994649884258,-2.407106580766982,375.0
301,-1.195064775289144,-1.8587683705186286,-1.8153503246177678,-2.6008702932402237,-1.2076994649858976,-2.489903154259243,376.25
302,-1.1950647760308621,-1.8587683973741118,-1.8153503511290578,-2.600870240978065,-1.207699464840414,-2.5826997210021263,377.5
303,-1.195064778415241,-1.8587684267310458,-1.8153503807045206,-2.600870183031616,-1.2076994663070082,-2.6854962808340206,378.75
304,-1.195064794338275,-1.8587684557247042,-1.8153504145727797,-2.6008701204246956,-1.2076994827024456,-2.79829283027284,380.0
305,-1.1950648116744909,-1.8587684872878327,-1.8153504514464773,-2.600870052257049,-1.2076995005648767,-2.9210893715294017,381.25
306,-1.195064841776329,-1.8587685165160033,-1.8153504900206303,-2.6008699849599766,-1.2076995312087213,-3.0538859069443545,382.5
307,-1.1950648790706073,-1.8587685458171377,-1.8153505309341464,-2.600869915382665,-1.2076995690733208,-3.196682440526213,383.75
308,-1.195064929311555,-1.858768570002593,-1.8153505708626496,-2.6008698520871403,-1.2076996198269614,-3.3494789695323677,385.0
309,-1.1950649879121529,-1.8587685922536057,-1.8153506115150022,-2.6008697901226254,-1.20769967892585,-3.5122754921489316,386.25
310,-1.19506505745998,-1.858768603112095,-1.8153506443141971,-2.6008697475367044,-1.2076997488081445,-3.677115693499348,387.5
311,-1.1950651245860924,-1.8587686106105838,-1.8153506730088953,-2.6008697123698283,-1.207699816207815,-3.8320725736328485,388.75
312,-1.1950651919074102,-1.8587686066787459,-1.8153506904098364,-2.6008696998988516,-1.2076998836143045,-3.977029453766347,390.0
313,-1.19506525455564,-1.8587686021716372,-1.8153507057602338,-2.6008696899820962,-1.2076999463277809,-4.111986333899865,391.25
314,-1.1950653122390928,-1.8587685885336773,-1.8153507104681876,-2.6008696997393854,-1.207700003914571,-4.236943214033393,392.5
315,-1.19506536530628,-1.8587685759871366,-1.8153507147993668,-2.600869708715825,-1.2077000568928313,-4.351900094166924,393.75
316,-1.1950654109599763,-1.8587685594396128,-1.815350712809391,-2.6008697278924195,-1.2077001023749734,-4.456856974300473,395.0
317,-1.1950654509778675,-1.8587685421274152,-1.815350708276025,-2.6008697502905442,-1.2077001421961098,-4.551813854434027,396.25
318,-1.1950654867814374,-1.8587685266383849,-1.8153507042200665,-2.6008697703299015,-1.2077001778236458,-4.636770734567582,397.5
319,-1.1950655154817715,-1.858768510702757,-1.8153506974722793,-2.600869793400027,-1.2077002063247284,-4.711727614701144,398.75
320,-1.1950655380280126,-1.8587684950662542,-1.8153506890739084,-2.6008698177302048,-1.2077002286629368,-4.776684494834701,400.0
321,-1.195065557103299,-1.858768481836965,-1.815350681968451,-2.600869838314794,-1.2077002475622167,-4.831641374968253,401.25
322,-1.1950655727076307,-1.85876847101489,-1.815350676155906,-2.600869855153795,-1.2077002630225684,-4.8765982551017855,402.5
323,-1.1950655848410072,-1.8587684626000271,-1.8153506716362768,-2.6008698682472073,-1.2077002750439911,-4.911555135235316,403.75
324,-1.1950655935034287,-1.8587684565923768,-1.815350668409563,-2.60086987759503,-1.207700283626485,-4.936512015368862,405.0
325,-1.1950655986948948,-1.8587684529919382,-1.8153506664757648,-2.6008698831972628,-1.2077002887700499,-4.951468895502412,406.25
326,-1.1959245016296975,-1.8611395663018435,-1.81210945299965,-2.6017459291101566,-1.2085573554846756,-4.958213460331868,407.5
327,-1.1973204694747346,-1.8649933333532582,-1.8068415194248502,-2.6031697604708355,-1.2099503397386087,-4.955521702380355,408.75
328,-1.1974893304692877,-1.865459510009169,-1.8062042800220515,-2.6033419968650806,-1.21011884257487,-4.944652934689834,410.0
329,-1.1974893241525173,-1.8654595156369242,-1.806204280059275,-2.6033419999769407,-1.2101188415897046,-4.924302314814757,411.25
330,-1.197489314731777,-1.8654595240300766,-1.8062042801147897,-2.6033420046179225,-1.2101188401204435,-4.893951694939698,412.5
331,-1.1974893022070674,-1.8654595351886267,-1.8062042801885956,-2.603342010788027,-1.2101188381670864,-4.853601075064636,413.75
332,-1.1974892867124227,-1.865459549023212,-1.806204280543987,-2.6033420175341924,-1.2101188369203315,-4.803250459114946,415.0
333,-1.1974892686298606,-1.8654595652791381,-1.8062042819313935,-2.6033420221400534,-1.2101188397738434,-4.742899856251464,416.25
334,-1.1974892475105785,-1.8654595841978077,-1.8062042835585252,-2.6033420273971464,-1.2101188429456906,-4.672549253505312,417.5
335,-1.19748921398927,-1.865459598642416,-1.8062042877013516,-2.6033420073967797,-1.2101188106835998,-4.592198667246452,418.75
336,-1.1974891762869204,-1.8654596148780451,-1.8062042923837798,-2.603341984804953,-1.210118774327149,-4.50184808476159,420.0
337,-1.1974891343893042,-1.8654596328943276,-1.8062042976430903,-2.603341959462778,-1.2101187337533637,-4.401497510967573,421.25
338,-1.197489084334808,-1.8654596458596462,-1.8062042947861465,-2.6033419483827607,-1.2101186839165092,-4.2911469473503505,422.5
339,-1.1974890291019755,-1.8654596588976537,-1.806204290275573,-2.603341939013198,-1.2101186287148544,-4.170796391123275,423.75
340,-1.197488969113114,-1.8654596680296023,-1.8062042803487945,-2.6033419389089865,-1.2101185687045495,-4.040445841616641,425.0
341,-1.1974889043203572,-1.8654596718002638,-1.8062042635382127,-2.603341950990302,-1.2101185038274531,-3.9000952955133488,426.25
342,-1.1974888372081378,-1.8654596702877142,-1.8062042407215415,-2.6033419743108497,-1.210118436538883,-3.7497447523765848,427.5
343,-1.1974887687337605,-1.8654596611779943,-1.806204209894851,-2.6033420131957454,-1.2101183677598302,-3.589394215887446,428.75
344,-1.1974887052034922,-1.8654596432573602,-1.8062041718488353,-2.603342068161161,-1.210118303789541,-3.4232372345807507,430.0
345,-1.1974886488837158,-1.8654596218693593,-1.8062041326332867,-2.603342127862222,-1.210118246988264,-3.265838229595176,431.25
346,-1.1974886085601861,-1.8654595932331985,-1.8062040912661583,-2.603342197183335,-1.2101182060986981,-3.1184392246096473,432.5
347,-1.1974885728896099,-1.8654595652109398,-1.8062040519886353,-2.6033422638723827,-1.210118169882712,-2.9810402196241843,433.75
348,-1.1974885524125751,-1.8654595337826947,-1.8062040141373183,-2.6033423327598677,-1.210118148837746,-2.8536412146388006,435.0
349,-1.1974885359322884,-1.8654595037884918,-1.8062039789853803,-2.60334239757775,-1.2101181318223062,-2.7362422096534913,436.25
350,-1.1974885267135613,-1.865459474965864,-1.806203947307544,-2.603342457862028,-1.2101181221041628,-2.628843204668236,437.5
351,-1.1974885257618666,-1.8654594470773647,-1.8062039191861798,-2.6033425137822146,-1.2101181206870981,-2.5314441996830284,438.75
352,-1.1974885249078824,-1.8654594220521963,-1.806203893952044,-2.603342563961051,-1.2101181194155242,-2.4440451946978743,440.0
353,-1.197488526969761,-1.8654593997263653,-1.8062038723362857,-2.6033426078732007,-1.2101181211111856,-2.3666461897127555,441.25
354,-1.1974885351673552,-1.8654593799125099,-1.8062038551742667,-2.6033426449184476,-1.2101181289980403,-2.2992471847276588,442.5
355,-1.1974885421486712,-1.8654593630384393,-1.806203840558579,-2.6033426764672853,-1.2101181357147217,-2.2418481797425818,443.75
356,-1.197488547913709,-1.8654593491041562,-1.806203828489219,-2.603342702519716,-1.2101181412612292,-2.1944491747575228,445.0
357,-1.197488552462469,-1.8654593381096567,-1.8062038189661913,-2.603342723075737,-1.210118145637563,-2.1570501697724733,446.25
358,-1.1974885557949504,-1.8654593300549414,-1.8062038119894952,-2.6033427381353498,-1.2101181488437227,-2.1296511647874055,447.5
359,-1.1974885579111534,-1.8654593249400098,-1.8062038075591311,-2.603342747698554,-1.2101181508797088,-2.1122521598023365,448.75
360,-1.1979863266734534,-1.866850542889708,-1.804291730884818,-2.603867029842513,-1.2106148040639877,-2.1036401972694274,450.0
361,-1.1994402906779835,-1.8709142546256368,-1.7987066208954332,-2.605398428236344,-1.2120655101066042,-2.1038799226474216,451.25
362,-1.199880079210461,-1.8721434327068318,-1.7970172606405554,-2.6058616381279607,-1.2125043163017688,-2.1128623403274456,452.5
363,-1.1998800778902945,-1.8721434384131288,-1.7970172634601993,-2.6058616356870843,-1.2125043214850248,-2.1307360497297596,453.75
364,-1.19988007583152,-1.8721434473119902,-1.7970172678573804,-2.6058616318805847,-1.212504329568214,-2.1586097591320637,455.0
365,-1.1998800730341377,-1.8721434594034163,-1.7970172738320986,-2.605861626708461,-1.2125043405513363,-2.196483468534364,456.25
366,-1.1998800694981475,-1.8721434746874068,-1.797017281384354,-2.6058616201707148,-1.2125043544343914,-2.2443571779366724,457.5
367,-1.1998800647148524,-1.8721434936461825,-1.797017289043966,-2.6058616177462945,-1.2125043666504318,-2.3022308823123057,458.75
368,-1.199880059094934,-1.8721435158904374,-1.7970172979978412,-2.605861615011935,-1.2125043808864462,-2.370104586596158,460.0
369,-1.1998800580867863,-1.8721435389066512,-1.7970173173739004,-2.6058615809697487,-1.212504384654237,-2.447978278272971,461.25
370,-1.1998800587953953,-1.8721435640262392,-1.79701734233446,-2.6058615320402305,-1.2125043846244643,-2.535851965268456,462.5
371,-1.1998800595561474,-1.8721435919816731,-1.797017370216691,-2.605861477199252,-1.212504384343981,-2.6337256405030494,463.75
372,-1.199880069336104,-1.8721436206361073,-1.7970174019013578,-2.6058614174182457,-1.212504393982968,-2.7415993084640675,465.0
373,-1.199880085780491,-1.8721436505574303,-1.7970174371383902,-2.6058613525184087,-1.2125044109263783,-2.8594729685325473,466.25
374,-1.199880106943706,-1.8721436815832448,-1.7970174749827152,-2.6058612839858077,-1.212504432631294,-2.9873466210390616,467.5
375,-1.1998801425258672,-1.8721437095296174,-1.7970175143103777,-2.605861217319452,-1.2125044687632456,-3.1252202686178117,468.75
376,-1.199880183438791,-1.8721437375981913,-1.7970175554580796,-2.605861148791891,-1.2125045102398608,-3.27309391487713,470.0
377,-1.1998802395932309,-1.8721437589239898,-1.7970175947058562,-2.6058610891186382,-1.212504566877068,-3.430967554200343,471.25
378,-1.1998803024594014,-1.8721437760277353,-1.7970176318622193,-2.605861035848214,-1.212504630170582,-3.5952002030874546,472.5
379,-1.1998803685977415,-1.872143784834224,-1.797017661749552,-2.6058609981708183,-1.212504696605039,-3.751005721105237,473.75
380,-1.1998804332677082,-1.8721437863671544,-1.7970176838833212,-2.605860975478965,-1.2125047614463322,-3.8968112391230187,475.0
381,-1.1998804955893405,-1.8721437827525715,-1.7970177001128875,-2.605860963789752,-1.2125048238480267,-4.032616757140772,476.25
382,-1.1998805531650374,-1.8721437748124725,-1.7970177104979732,-2.6058609621876783,-1.2125048814208461,-4.158422275158496,477.5
383,-1.1998806059881413,-1.8721437623520512,-1.7970177148413282,-2.6058609710641782,-1.2125049341548642,-4.27422779317619,478.75
384,-1.1998806542498839,-1.8721437509676122,-1.7970177188096208,-2.605860979174179,-1.2125049823352136,-4.380033311193879,480.0
385,-1.1998806944343103,-1.8721437342625018,-1.7970177148755182,-2.6058610003717106,-1.2125050223311784,-4.4758388292115345,481.25
386,-1.1998807301650585,-1.8721437188292835,-1.7970177107969005,-2.6058610203784287,-1.2125050578846723,-4.56164434722921,482.5
387,-1.1998807617316527,-1.8721437051946959,-1.7970177071936129,-2.605861038053512,-1.2125050892946698,-4.637449865246874,483.75
388,-1.1998807869059274,-1.872143691608711,-1.7970177016029765,-2.605861057571519,-1.212505114298756,-4.703255383264537,485.0
389,-1.199880806044932,-1.8721436783517604,-1.7970176944196212,-2.605861078263503,-1.2125051332594685,-4.7590609012822105,486.25
390,-1.1998808217543466,-1.8721436674703726,-1.7970176885234785,-2.6058610952476133,-1.2125051488225398,-4.804866419299908,487.5
391,-1.1998808340341716,-1.8721436589645486,-1.7970176839145466,-2.6058611085238494,-1.2125051609879702,-4.840671937317596,488.75
392,-1.1998808428844066,-1.8721436528342874,-1.7970176805928264,-2.6058611180922115,-1.2125051697557596,-4.866477455335282,490.0
393,-1.1998808483050514,-1.8721436490795886,-1.7970176785583196,-2.6058611239526988,-1.2125051751259075,-4.8822829733529645,491.25
394,-1.1997320644754175,-1.871732942888724,-1.7976016756141646,-2.605686826095891,-1.2123568533299438,-4.888444184055002,492.5
395,-1.1992755874463479,-1.8704728990952741,-1.7993933846628012,-2.605152071286798,-1.211901793891703,-4.88577625294326,493.75
396,-1.199175864973493,-1.8701976420480972,-1.799784789507014,-2.605035248517469,-1.2118023811315815,-4.873791172720482,495.0
397,-1.1989929369892847,-1.8696927185806205,-1.800502771092423,-2.604820952250125,-1.2116200212753425,-4.851806092497707,496.25
398,-1.1987268034937228,-1.8689581286928438,-1.8015473294190276,-2.604509182484767,-1.211354714322986,-4.819821012274939,497.5
399,-1.198376223953952,-1.8679936887673445,-1.8029168901528005,-2.6041016850263983,-1.2110052126010886,-4.77783589669265,498.75
400,-1.197938589174706,-1.8667990129853254,-1.8046081412613346,-2.60360213217833,-1.2105688918944373,-4.725850688911195,500.0
401,-1.1974167699133889,-1.8653745264873347,-1.8066247255137977,-2.6030064841390748,-1.2100486394838894,-4.663865481129747,501.25
402,-1.1968087272126142,-1.8637198902786478,-1.8089641392601374,-2.6023175627637483,-1.2094424059505866,-4.59188021059734,502.5
403,-1.1961130774811024,-1.8618348746356461,-1.8116246829617686,-2.6015372832067376,-1.208748800603341,-4.509894849124867,503.75
404,-1.1953301167252322,-1.859719504161002,-1.814606773020039,-2.6006652077803976,-1.207968120341456,-4.417909417863581,505.0
405,-1.1944579024886386,-1.8573734366538681,-1.8179080657119577,-2.5997040028380565,-1.2070984122475725,-4.31592387486837,506.25
406,-1.1934945466369362,-1.854796280717352,-1.8215264128583755,-2.598656188858379,-1.2061377784739675,-4.203938178872496,507.5
407,-1.1924404667405692,-1.851988089015263,-1.825462364776403,-2.5975211669623426,-1.205086638981792,-4.081952358231569,508.75
408,-1.1912935722074451,-1.8489484292980272,-1.829713540764081,-2.596301728829799,-1.203942892380012,-3.9499663721141793,510.0
409,-1.190049919582991,-1.8456764272634354,-1.8342755814473404,-2.595003067752429,-1.2027025752303397,-3.8079801394638437,511.25
410,-1.188709761694524,-1.8421720489035591,-1.8391489672581596,-2.5936247394867737,-1.2013659422486367,-3.6559936941036746,512.5
411,-1.1872751968530233,-1.8384458443047493,-1.8443160536676757,-2.5921738456860934,-1.1999350701908542,-3.4944882332867584,513.75
412,-1.18586452331905,-1.8348072445444632,-1.8493464974441223,-2.5907721205715557,-1.1985279461972222,-3.3368886775346143,515.0
413,-1.184533595052594,-1.8313971632690644,-1.854047388571595,-2.589471955635835,-1.1972002940743438,-3.1892889026914037,516.25
414,-1.1832845112084565,-1.8282160435569075,-1.8584210980304352,-2.5882705581984116,-1.19595422376723,-3.051688949989245,517.5
415,-1.1821194228970773,-1.8252643804313236,-1.862469963359066,-2.587165117809981,-1.194791897164533,-2.924088857300126,518.75
416,-1.1810380958457796,-1.822542061896018,-1.8661938612877973,-2.5861558670173044,-1.1937130792178516,-2.8064886164473704,520.0
417,-1.1800430030842413,-1.820049687380835,-1.8695954112409803,-2.5852396125329804,-1.1927202551427927,-2.698888272423867,521.25
418,-1.1791377949000956,-1.8177882404106698,-1.8726782555366996,-2.584411766803049,-1.1918170925326663,-2.6012878801061015,522.5
419,-1.1783189580874522,-1.8157567220572308,-1.8754390077030791,-2.5836766780754283,-1.1910000618873602,-2.5136873780231546,523.75
420,-1.1775934253635463,-1.8139570621676335,-1.8778844444438219,-2.5830257128757688,-1.1902761283632566,-2.436086873378784,525.0
421,-1.176956287617493,-1.8123878536040237,-1.8800098598023658,-2.5824649323098896,-1.1896403601609733,-2.368486286138685,526.25
422,-1.1764134001985547,-1.8110507744682296,-1.881820867336168,-2.581987106728394,-1.1890986396923326,-2.3108856988985793,527.5
423,-1.1759642148863465,-1.8099456633331976,-1.88331695134116,-2.581592907429808,-1.188650416233262,-2.263285103916531,528.75
424,-1.1756068725957496,-1.8090719726475952,-1.8844963632588034,-2.5812846107451355,-1.188293822208725,-2.22568446849856,530.0
425,-1.1753445665423399,-1.8084306425792778,-1.885362107094901,-2.5810583064739547,-1.1880320654178071,-2.1980838330806023,531.25
426,-1.1751772967261171,-1.8080216731282452,-1.885914182849454,-2.5809139946162647,-1.1878651458605087,-2.1804831976626367,532.5
427,-1.1750471300932634,-1.8077037216771081,-1.8863432105409559,-2.580801979573476,-1.187735251056039,-2.17276233356214,533.75
428,-1.1744320661706902,-1.8062032452264183,-1.8883667315597095,-2.5802744947990286,-1.18712146691494,-2.174069598634194,535.0
429,-1.1744318237614613,-1.8062031768565514,-1.8883665093006576,-2.5802747825347123,-1.1871212237326185,-2.1844227434885815,536.25
430,-1.174431347211561,-1.8062030424489075,-1.88836607236379,-2.58027534819144,-1.1871207456629032,-2.2047758883429704,537.5
431,-1.1744306365209893,-1.8062028420034868,-1.888365420749107,-2.5802761917692125,-1.1871200327057936,-2.235129033197347,538.75
432,-1.1744296916021415,-1.806202575624877,-1.8883645541571252,-2.580277314388967,-1.1871190840858703,-2.2754821560446854,540.0
433,-1.1744285124851515,-1.806202243276882,-1.8883634726912333,-2.580278715663395,-1.1871179000710317,-2.325835270879214,541.25
434,-1.174427099198539,-1.8062018449254238,-1.8883621764489775,-2.580280395227345,-1.18711648091387,-2.3861883857137105,542.5
435,-1.1744270610769012,-1.8062018549318621,-1.888362160972828,-2.580280400686819,-1.187116442673651,-2.456541482011496,543.75
436,-1.1744270618565713,-1.8062018794239614,-1.8883621844855172,-2.580280353146247,-1.1871164434973083,-2.5368945774282032,545.0
437,-1.1744270627226479,-1.806201906957945,-1.8883622109471847,-2.580280299588493,-1.1871164443358817,-2.627247667220936,546.25
438,-1.1744270711934963,-1.8062019357235957,-1.8883622410083176,-2.580280241137501,-1.1871164530334664,-2.7276007508372517,547.5
439,-1.17442708755225,-1.8062019656524013,-1.88836227469442,-2.580280177831427,-1.1871164698837102,-2.837953827375719,548.75
440,-1.1744271053938913,-1.8062019982929685,-1.888362311434083,-2.5802801087849665,-1.1871164882650183,-2.9583068972071245,550.0
441,-1.1744271410507052,-1.8062020265186032,-1.8883623494430992,-2.5802800431620985,-1.1871165244436015,-3.088659957263218,551.25
442,-1.174427179543058,-1.806202056865896,-1.8883623903569688,-2.5802799725613874,-1.18711656349748,-3.2290130138474944,552.5
443,-1.1744272347585414,-1.8062020796055038,-1.8883624291585606,-2.580279911908558,-1.1871166191894633,-3.3793660698047434,553.75
444,-1.1744272960695217,-1.8062021018511563,-1.8883624693700716,-2.5802798504292723,-1.1871166809820703,-3.539719118012132,555.0
445,-1.1744273696619907,-1.8062021115628593,-1.888362501385973,-2.5802798098266018,-1.1871167548849288,-3.7028311295541196,556.25
446,-1.1744274403185655,-1.8062021171044642,-1.8883625285065997,-2.5802797782335674,-1.1871168257799112,-3.856165321988101,557.5
447,-1.1744275102334232,-1.8062021128839607,-1.8883625460609563,-2.5802797659298307,-1.1871168957777798,-3.9994995144220624,558.75
448,-1.1744275751789024,-1.8062021062396425,-1.8883625597623335,-2.5802797598218516,-1.1871169607574532,-4.132833706855993,560.0
449,-1.174427634978224,-1.8062020919273258,-1.8883625645402242,-2.5802797702066322,-1.187117020459148,-4.256167899289893,561.25
450,-1.1744276899289892,-1.806202078775465,-1.8883625689307135,-2.580279779749411,-1.1871170753202014,-4.369502091723762,562.5
451,-1.1744277364108342,-1.8062020601610767,-1.8883625654810627,-2.580279802452929,-1.1871171216081566,-4.472836284157634,563.75
452,-1.1744277777258205,-1.8062020421248524,-1.888362560988775,-2.580279825545556,-1.1871171627273134,-4.56617047659149,565.0
453,-1.174427814614243,-1.8062020260210654,-1.888362556977796,-2.580279846163996,-1.187117199440888,-4.64950466902533,566.25
454,-1.1744278431578987,-1.8062020087606199,-1.8883625492834697,-2.580279871494726,-1.187117227773627,-4.7228388614591665,567.5
455,-1.1744278662492547,-1.8062019926239246,-1.8883625409802027,-2.580279896232595,-1.1871172506601135,-4.786173053892993,568.75
456,-1.1744278856946573,-1.8062019790350952,-1.8883625339879577,-2.580279917064538,-1.1871172699329937,-4.8395072463268685,570.0
457,-1.1744279014941057,-1.8062019679941315,-1.8883625283067353,-2.580279933990555,-1.1871172855922674,-4.882841438760754,571.25
458,-1.1744279136476,-1.8062019595010321,-1.8883625239365385,-2.5802799470106463,-1.1871172976379343,-4.916175631194623,572.5
459,-1.1744279221551401,-1.8062019535557972,-1.888362520877367,-2.5802799561248104,-1.1871173060699942,-4.939509823628502,573.75
460,-1.174434706365322,-1.8062188958175702,-1.8883403615774357,-2.5802852226448034,-1.1871240807588255,-4.952864468552628,575.0
461,-1.175689534542198,-1.8093554623588035,-1.8842390960260091,-2.581259068923111,-1.1883771545540827,-4.958242777710126,576.25
462,-1.1770885668620326,-1.8128524931710421,-1.8796665043897827,-2.582344830130733,-1.1897742322073814,-4.953820481178414,577.5
463,-1.177133686501828,-1.8129652879218792,-1.879519022755216,-2.582379851296783,-1.18981929242061,-4.941421821186015,578.75
464,-1.1771336793445806,-1.8129652943534778,-1.879519022923896,-2.5823798542976277,-1.1898192918362451,-4.919157601223325,580.0
465,-1.1771336689726473,-1.8129653036738365,-1.879519023168339,-2.5823798586463056,-1.189819290989412,-4.886893381260643,581.25
466,-1.177133655386028,-1.8129653158829553,-1.8795190234885448,-2.582379864342817,-1.1898192898801114,-4.84462916129793,582.5
467,-1.1771336388425726,-1.8129653307995086,-1.87951902441832,-2.5823798694008304,-1.1898192907061063,-4.792364943398655,583.75
468,-1.1771336195214555,-1.8129653482974981,-1.8795190263285955,-2.582379872440087,-1.1898192949945792,-4.730100728308118,585.0
469,-1.1771335952013295,-1.8129653672624138,-1.879519028865381,-2.5823798713591204,-1.1898192926804818,-4.657836516428174,586.25
470,-1.17713355915923,-1.8129653829307089,-1.8795190331623646,-2.582379849816694,-1.1898192579087064,-4.575572317667752,587.5
471,-1.1771335187184362,-1.812965400493471,-1.8795190380192297,-2.5823798254901975,-1.1898192187655265,-4.4833081248192626,588.75
472,-1.1771334736139987,-1.812965419495982,-1.879519042891747,-2.5823797994407554,-1.1898191748861913,-4.381043938742999,590.0
473,-1.1771334195135652,-1.8129654324189342,-1.879519038569338,-2.5823797900184022,-1.1898191208183986,-4.268779763675929,591.25
474,-1.177133360592981,-1.8129654464942035,-1.8795190338582537,-2.582379779770778,-1.1898190619248041,-4.146515596192775,592.5
475,-1.1771332966065704,-1.8129654542164184,-1.879519021470803,-2.5823797834902136,-1.1898189978957776,-4.014251434628298,593.75
476,-1.177133227645558,-1.8129654583535162,-1.8795190040969094,-2.582379795713707,-1.1898189288506988,-3.871987275270585,595.0
477,-1.177133157333936,-1.8129654542796962,-1.8795189784262945,-2.5823798243994136,-1.189818858323176,-3.719723120217405,596.25
478,-1.1771330845795622,-1.8129654446502375,-1.8795189466688216,-2.5823798646740057,-1.189818785260244,-3.557458971671587,597.5
479,-1.1771330205271304,-1.812965423301507,-1.8795189063583688,-2.582379925317168,-1.189818720732235,-3.39222176907008,598.75
480,-1.1771329629291762,-1.8129654004991305,-1.8795188666505345,-2.58237998690346,-1.189818662649516,-3.236722996344811,600.0
481,-1.1771329232734082,-1.8129653692180443,-1.879518824359205,-2.582380059795359,-1.1898186224132352,-3.091224223619551,601.25
482,-1.177132886761857,-1.812965339904247,-1.8795187849288306,-2.5823801279115073,-1.1898185853590757,-2.955725450894316,602.5
483,-1.1771328682705444,-1.8129653060688233,-1.8795187467364605,-2.5823801995671176,-1.1898185662922336,-2.8302266781691126,603.75
484,-1.1771328512526578,-1.812965274929483,-1.8795187115873302,-2.582380265513061,-1.1898185487446766,-2.7147279054439317,605.0
485,-1.1771328445184404,-1.8129652443808368,-1.8795186801877444,-2.5823803272738037,-1.1898185415122216,-2.6092291327187622,606.25
486,-1.1771328435445678,-1.812965215503823,-1.8795186521750775,-2.5823803840666604,-1.1898185400789507,-2.513730359993626,607.5
487,-1.1771328426726726,-1.8129651896506236,-1.8795186270957076,-2.582380434912544,-1.1898185387957627,-2.428231587268475,608.75
488,-1.1771328467506077,-1.8129651665304332,-1.879518606170943,-2.5823804789524165,-1.1898185425163126,-2.3527328145433364,610.0
489,-1.1771328551195979,-1.8129651461827687,-1.879518589234821,-2.582380516303013,-1.1898185505810372,-2.287234041818197,611.25
490,-1.1771328622108557,-1.812965128941677,-1.879518574884414,-2.582380547951121,-1.1898185574144828,-2.2317352690930488,612.5
491,-1.177132868024381,-1.8129651148071595,-1.879518563119721,-2.5823805738967414,-1.1898185630166502,-2.186236496367864,613.75
492,-1.1771328725601742,-1.812965103779213,-1.8795185539407442,-2.582380594139874,-1.1898185673875386,-2.1507377236426968,615.0
493,-1.1771328758182351,-1.8129650958578374,-1.879518547347484,-2.582380608680518,-1.1898185705271482,-2.1252389509175247,616.25
494,-1.1771328777985635,-1.8129650910430333,-1.8795185433399408,-2.582380617518674,-1.189818572435479,-2.109740178192355,617.5
495,-1.1780033032882005,-1.815167542618755,-1.8766213456466971,-2.583081664542828,-1.1906877059021663,-2.1026512844095895,618.75
496,-1.1795731012751256,-1.8191396368888675,-1.8713962952081293,-2.584345985165366,-1.1922551748432044,-2.104931578109419,620.0
497,-1.1798007703567217,-1.8197157183223152,-1.8706385010864162,-2.584529349448891,-1.1924825101882397,-2.1155765336868897,621.25
498,-1.1798007688824534,-1.8197157250113254,-1.8706385044517224,-2.584529346029602,-1.1924825166275579,-2.1356356319937957,622.5
499,-1.1798007666732229,-1.819715735034987,-1.8706385094947242,-2.5845293409057057,-1.19248252627705,-2.1656947303006993,623.75
500,-1.17980076372903,-1.8197157483933002,-1.870638516215422,-2.5845293340772013,-1.1924825391367153,-2.2057538286076124,625.0
501,-1.1798007599526943,-1.8197157651829716,-1.870638524318967,-2.5845293266711438,-1.1924825543686757,-2.255812924617203,626.25
502,-1.179800754994023,-1.819715785752487,-1.8706385327428652,-2.584529322748901,-1.1924825689536152,-2.3158720115812494,627.5
503,-1.1798007492097193,-1.8197158097468829,-1.8706385425693652,-2.584529318173594,-1.1924825859669865,-2.385931098545286,628.75
504,-1.1798007497085092,-1.8197158340019848,-1.8706385653450677,-2.584529273110067,-1.192482586483729,-2.465990169580877,630.0
505,-1.1798007504616213,-1.8197158611914244,-1.870638591313494,-2.58452922119813,-1.192482586454278,-2.5560492369623473,631.25
506,-1.1798007512726756,-1.819715891383456,-1.8706386202256753,-2.5845291632587166,-1.1924825862076969,-2.6561082956194526,632.5
507,-1.1798007649791027,-1.819715921461201,-1.8706386533870942,-2.584529100443378,-1.192482600117319,-2.7661673444737898,633.75
508,-1.1798007825545116,-1.8197159536301957,-1.8706386898418832,-2.584529032100277,-1.1924826182019834,-2.886226385958151,635.0
509,-1.1798008087134,-1.8197159853793847,-1.8706387285453894,-2.584528962080188,-1.1924826449025554,-3.0162854207606973,636.25
510,-1.1798008466512686,-1.8197160153180159,-1.8706387691417086,-2.584528892194328,-1.192482683401741,-3.1563444520515356,637.5
511,-1.179800893622028,-1.819716042979041,-1.8706388103465692,-2.5845288241067514,-1.192482730916094,-3.3064034804929934,638.75
512,-1.1798009533808327,-1.8197160657407356,-1.8706388508004101,-2.584528761847291,-1.192482791166087,-3.466462502171656,640.0
513,-1.179801022846575,-1.8197160808744224,-1.870638886920436,-2.584528711672801,-1.192482861022484,-3.632705472007651,641.25
514,-1.179801093118719,-1.8197160902005072,-1.870638917698558,-2.5845286726433523,-1.1924829315945618,-3.7904096554031135,642.5
515,-1.1798011633519498,-1.8197160881967602,-1.8706389375552794,-2.584528655832492,-1.1924830019472987,-3.9381138387985537,643.75
516,-1.179801229688875,-1.8197160842410904,-1.8706389543238866,-2.5845286439980173,-1.1924830683642613,-4.075818022193964,645.0
517,-1.1798012909138786,-1.8197160718457392,-1.8706389613803487,-2.5845286502152227,-1.192483129523941,-4.203522205589342,646.25
518,-1.179801347276273,-1.8197160583967324,-1.8706389659138885,-2.584528659933481,-1.1924831857937566,-4.32122638898471,647.5
519,-1.1798013971064423,-1.8197160428991697,-1.87063896644863,-2.5845286755958434,-1.1924832354846568,-4.428930572380046,648.75
520,-1.1798014398194945,-1.8197160242826595,-1.8706389617724846,-2.584528699473036,-1.1924832779934498,-4.5266347557753726,650.0
521,-1.1798014781608777,-1.8197160075715497,-1.870638957574935,-2.5845287209064063,-1.1924833161514796,-4.614338939170697,651.25
522,-1.1798015106388806,-1.8197159915886438,-1.8706389522597664,-2.584528742643778,-1.1924833484450812,-4.692043122566012,652.5
523,-1.1798015350170905,-1.8197159745690636,-1.8706389434338786,-2.5845287688047724,-1.1924833726049282,-4.759747305961332,653.75
524,-1.179801555794606,-1.8197159600632988,-1.8706389359115865,-2.5845287911017523,-1.1924833931963332,-4.817451489356661,655.0
525,-1.179801572971427,-1.8197159480713516,-1.8706389296928865,-2.5845288095347185,-1.1924834102192965,-4.86515567275201,656.25
526,-1.1798015865475535,-1.8197159385932191,-1.870638924777783,-2.5845288241036704,-1.1924834236738175,-4.902859856147364,657.5
527,-1.1798015965229849,-1.819715931628901,-1.8706389211662757,-2.5845288348086077,-1.192483433559896,-4.930564039542708,658.75
528,-1.1798016028977212,-1.8197159271783978,-1.870638918858365,-2.5845288416495302,-1.192483439877532,-4.948268222938056,660.0
529,-1.180322471975425,-1.8210501007429023,-1.8688734590805776,-2.584963872352208,-1.1930034898674078,-4.957084691453411,661.25
530,-1.181930517135767,-1.8251690397618363,-1.8634230404488814,-2.5863069125869376,-1.194609006747033,-4.957031428174211,662.5
531,-1.1824325087307739,-1.8264548796157583,-1.8617215461333132,-2.586726179677935,-1.1951102115042476,-4.948133344667059,663.75
532,-1.1824325030523093,-1.826454884709159,-1.8617215462344676,-2.586726182179715,-1.195110210921292,-4.930317217731866,665.0
533,-1.182432494186584,-1.826454892661431,-1.8617215463923988,-2.586726186085717,-1.1951102100111304,-4.902501090796683,666.25
534,-1.1824324821335979,-1.826454903472574,-1.861721546607107,-2.586726191395942,-1.1951102087737622,-4.864684963861482,667.5
535,-1.1824324668933508,-1.8264549171425883,-1.8617215468785924,-2.5867261981103886,-1.1951102072091875,-4.816868836926291,668.75
536,-1.182432449091632,-1.8264549332395479,-1.8617215484805447,-2.5867262015210417,-1.195110210707217,-4.759052716616888,670.0
537,-1.182432428228416,-1.826454952108575,-1.8617215503952462,-2.5867262053897524,-1.1951102149612236,-4.691236596477902,671.25
538,-1.1824323968725008,-1.8264549683984264,-1.8617215539946375,-2.5867261911204826,-1.1951101913840059,-4.6134204887155414,672.5
539,-1.1824323588722774,-1.8264549848914453,-1.8617215585542612,-2.5867261684097675,-1.1951101547359748,-4.525604385614795,673.75
540,-1.1824323165112611,-1.8264550032418594,-1.8617215637092799,-2.586726142780087,-1.1951101136335809,-4.427788294055054,675.0
541,-1.182432266939405,-1.8264550184830772,-1.861721563281875,-2.586726126596157,-1.1951100646049604,-4.319972209683967,676.25
542,-1.1824322108631176,-1.8264550318391533,-1.8617215587699691,-2.5867261169024856,-1.1951100085599455,-4.202156133181841,677.5
543,-1.1824321499502486,-1.8264550440200187,-1.8617215516127046,-2.586726110969233,-1.1951099476518636,-4.074340064175965,678.75
544,-1.1824320839683522,-1.826455047932638,-1.8617215348756333,-2.586726122822784,-1.1951098815879448,-3.936524000038314,680.0
545,-1.1824320141762423,-1.8264550497533287,-1.8617215149325008,-2.586726139911519,-1.1951098116727652,-3.788707937212042,681.25
546,-1.1824319442873188,-1.8264550404552797,-1.8617214842169316,-2.586726178855921,-1.1951097414838874,-3.6308918813845494,682.5
547,-1.1824318753725152,-1.8264550252373986,-1.8617214480842506,-2.5867262291351336,-1.195109672176478,-3.464625296991515,683.75
548,-1.1824318160242644,-1.8264550026135795,-1.8617214077702655,-2.5867262911235347,-1.195109612337748,-3.304681899965802,685.0
549,-1.1824317695516064,-1.8264549750090016,-1.8617213666471972,-2.5867263590799645,-1.195109565322792,-3.1547385029401345,686.25
550,-1.1824317318782818,-1.8264549452680372,-1.8617213261959256,-2.58672642862632,-1.1951095270920362,-3.0147951059144913,687.5
551,-1.1824317060813199,-1.826454913652523,-1.8617212876262343,-2.586726498337642,-1.1951095007333588,-2.8848517088888803,688.75
552,-1.1824316886246606,-1.826454881702411,-1.861721251326584,-2.5867265662370658,-1.1951094827276845,-2.7649083118632767,690.0
553,-1.182431675136846,-1.8264548518171881,-1.8617212182561949,-2.58672662890738,-1.195109468732487,-2.6549649148377052,691.25
554,-1.1824316741287464,-1.8264548219689483,-1.8617211891020111,-2.5867266878108803,-1.1951094672446136,-2.5550215178121407,692.5
555,-1.1824316732215139,-1.8264547951072272,-1.8617211628648924,-2.586726740820695,-1.1951094659056118,-2.4650781207866093,693.75
556,-1.1824316727947761,-1.8264547712095125,-1.861721139641136,-2.586726787868642,-1.1951094650955711,-2.38513472376106,695.0
557,-1.1824316816205533,-1.82645474975569,-1.861721121655778,-2.586726827379267,-1.1951094735971803,-2.3151913267355235,696.25
558,-1.182431689184485,-1.8264547313691792,-1.8617211062418364,-2.5867268612409493,-1.195109480883291,-2.2552479297099755,697.5
559,-1.1824316954865712,-1.8264547160499833,-1.861721093399308,-2.586726889453689,-1.1951094869539032,-2.205304532684411,698.75
560,-1.1824317005268115,-1.8264547037980998,-1.8617210831281956,-2.586726912017485,-1.195109491809017,-2.165361135658826,700.0
561,-1.1824317043052062,-1.8264546946135272,-1.8617210754285,-2.586726928932339,-1.1951094954486325,-2.135417738633257,701.25
562,-1.1824317068217551,-1.8264546884962665,-1.8617210703002214,-2.58672694019825,-1.1951094978727494,-2.1154743416076767,702.5
563,-1.1826601137268602,-1.8270469413939379,-1.8609327646038494,-2.5869246237601837,-1.1953375249719023,-2.104923926655984,703.75
564,-1.1841877320618999,-1.8310080575158953,-1.855660450213399,-2.5882467289297755,-1.1968626035601277,-2.10272530437791,705.0
565,-1.1850262754349985,-1.8331824059733437,-1.8527663597658919,-2.588972460275484,-1.1976997554898257,-2.109870773003197,706.25
566,-1.1850262742901796,-1.8331824111036374,-1.8527663623232926,-2.5889724577796773,-1.1976997603455035,-2.1254088162623224,707.5
567,-1.1850262724085767,-1.833182419535695,-1.8527663665265894,-2.5889724536776155,-1.1976997683262067,-2.150946859521437,708.75
568,-1.1850262697901897,-1.833182431269515,-1.8527663723757821,-2.588972447969298,-1.1976997794319355,-2.186484902780563,710.0
569,-1.1850262664350182,-1.8331824463050987,-1.8527663798708713,-2.588972440654726,-1.1976997936626892,-2.232022946039692,711.25
570,-1.1850262619588192,-1.833182465017988,-1.8527663878650584,-2.588972436091151,-1.1976998076717247,-2.28756098708891,712.5
571,-1.1850262565363505,-1.8331824872373832,-1.8527663968799182,-2.5889724322968557,-1.197699822981171,-2.353099027407404,713.75
572,-1.185026253993279,-1.8331825111865685,-1.8527664133360484,-2.5889724070638485,-1.1976998311335116,-2.4286370591041826,715.0
573,-1.1850262547083361,-1.8331825366958854,-1.8527664378532045,-2.5889723582608326,-1.1976998311588154,-2.514175082981971,716.25
574,-1.1850262554798392,-1.83318256516898,-1.8527664653037075,-2.5889723034615377,-1.1976998309586295,-2.609713096920885,717.5
575,-1.1850262620220404,-1.8331825952306033,-1.85276649624848,-2.5889722432701454,-1.19769983699766,-2.715251104163249,718.75
576,-1.185026278729274,-1.8331826258155572,-1.8527665311402945,-2.588972178062976,-1.1976998541893837,-2.830789103053897,720.0
577,-1.1850262968841772,-1.8331826590466291,-1.8527665690551653,-2.588972107200579,-1.1976998728832036,-2.9563270935374084,721.25
578,-1.1850263328023007,-1.8331826878336146,-1.8527666081681053,-2.58897203991387,-1.1976999093443628,-3.0918650780301276,722.5
579,-1.1850263717427518,-1.8331827185827965,-1.8527666501250388,-2.588971967873865,-1.197699948867354,-3.2374030623036156,723.75
580,-1.1850264283597638,-1.833182740982633,-1.8527666894952692,-2.588971907011886,-1.1977000059679883,-3.3929410399163924,725.0
581,-1.1850264912942616,-1.8331827619479877,-1.852766729443744,-2.588971847096546,-1.1977000693765785,-3.5582040974096345,726.25
582,-1.1850265626942056,-1.833182771468148,-1.8527667609326564,-2.5889718071803216,-1.1977001410849009,-3.7204259607335404,727.5
583,-1.1850266317166183,-1.8331827754826149,-1.8527667863415065,-2.5889717787989817,-1.1977002103219676,-3.8726478240574167,728.75
584,-1.1850266993901675,-1.8331827714912632,-1.8527668035665714,-2.5889717665647596,-1.1977002780784702,-4.014869687381269,730.0
585,-1.1850267621753363,-1.8331827639330824,-1.852766815809015,-2.5889717627970317,-1.197700340878592,-4.147091550705099,731.25
586,-1.1850268199832106,-1.833182750178116,-1.8527668204908387,-2.588971772695087,-1.197700398590924,-4.269313414028912,732.5
587,-1.1850268730613385,-1.8331827375485639,-1.8527668247895965,-2.588971781783301,-1.1977004515813265,-4.381535277352718,733.75
588,-1.1850269174319035,-1.8331827187639276,-1.852766820405367,-2.588971805562372,-1.1977004957462298,-4.48375714067649,735.0
589,-1.1850269572534127,-1.8331827014354194,-1.8527668160150985,-2.5889718278274816,-1.1977005353756065,-4.575979004000257,736.25
590,-1.185026992756911,-1.8331826859859155,-1.8527668121008816,-2.5889718476782937,-1.1977005707078061,-4.658200867324012,737.5
591,-1.1850270195500325,-1.833182668946972,-1.852766803930139,-2.5889718732405576,-1.1977005972851238,-4.73042273064776,738.75
592,-1.1850270416789457,-1.8331826535136553,-1.852766795862441,-2.5889718970289755,-1.1977006192139175,-4.7926445939715085,740.0
593,-1.1850270602514066,-1.8331826405607092,-1.8527667890913426,-2.5889719169942333,-1.197700637618421,-4.844866457295277,741.25
594,-1.1850270752674146,-1.8331826300881322,-1.852766783616845,-2.588971933136331,-1.1977006524986338,-4.887088320619062,742.5
595,-1.1850270867269694,-1.833182622095924,-1.8527667794389497,-2.5889719454552678,-1.1977006638545558,-4.919310183942838,743.75
596,-1.1850270946300712,-1.8331826165840837,-1.8527667765576574,-2.5889719539510434,-1.1977006716861869,-4.941532047266619,745.0
597,-1.1850704526557343,-1.8332964160455878,-1.8526144253198513,-2.589010813217486,-1.19774395359378,-4.953891991720789,746.25
598,-1.1863915574556636,-1.8367642879859958,-1.8479719162982415,-2.5901948186476624,-1.1990627400693994,-4.958347734830619,747.5
599,-1.1875786955437875,-1.8398805108278427,-1.8438001707968077,-2.5912587619676706,-1.2002477964085037,-4.953014044550578,748.75
600,-1.187586162689209,-1.839900126693724,-1.8437739157298145,-2.591265459877435,-1.2002552541141516,-4.939765253760174,750.0
601,-1.187586155350485,-1.839900133264576,-1.8437739158212545,-2.591265463254321,-1.2002552532104744,-4.916541751018711,751.25
602,-1.1875861448517187,-1.8399001426648252,-1.8437739159520683,-2.591265468085288,-1.200255251917676,-4.883318248277243,752.5
603,-1.1875861311929108,-1.8399001548944718,-1.843773916122256,-2.5912654743703354,-1.2002552502357553,-4.8400947455357715,753.75
604,-1.1875861146895768,-1.839900169739391,-1.8437739169640175,-2.5912654797883863,-1.2002552509105104,-4.786871249721819,755.0
605,-1.187586095405683,-1.8399001871561724,-1.8437739186055249,-2.5912654838688676,-1.200255254498623,-4.723647760388286,756.25
606,-1.1875860703361227,-1.8399002053111209,-1.8437739210784847,-2.5912654814508693,-1.2002552481821906,-4.6504242759080165,757.5
607,-1.1875860347653913,-1.8399002207280006,-1.8437739253685859,-2.591265460219868,-1.2002552139096065,-4.567200803111957,758.75
608,-1.1875859949010823,-1.8399002379846159,-1.8437739302206897,-2.591265436236216,-1.2002551753541424,-4.47397733753497,760.0
609,-1.187585950050189,-1.8399002558785837,-1.8437739341422594,-2.591265412453005,-1.20025513163701,-4.370753878804987,761.25
610,-1.187585896818017,-1.839900268522166,-1.843773929831098,-2.591265403307003,-1.200255078439205,-4.257530429967497,762.5
611,-1.1875858388830656,-1.8399002822837414,-1.8437739251351908,-2.5912653933683183,-1.2002550205317895,-4.134306989698038,763.75
612,-1.1875857759682504,-1.839900288728682,-1.843773911747832,-2.591265399378843,-1.2002549575638763,-4.001083555093281,765.0
613,-1.1875857082336085,-1.8399002927040509,-1.843773894445477,-2.591265411707917,-1.200254889744,-3.857860122067295,766.25
614,-1.1875856397193347,-1.8399002873597123,-1.8437738678296332,-2.591265442630517,-1.2002548209933277,-3.7046366939206927,767.5
615,-1.187585568316436,-1.8399002778202864,-1.8437738362283356,-2.5912654826778874,-1.20025474928034,-3.541413272130335,768.75
616,-1.1875855072412316,-1.839900255706292,-1.8437737956163907,-2.5912655444298967,-1.200254687714155,-3.37692349690174,770.0
617,-1.187585452850492,-1.8399002325163787,-1.843773756046467,-2.591265606312705,-1.2002546328296293,-3.222390871198701,771.25
618,-1.1875854144145277,-1.8399002021592905,-1.8437737144875048,-2.5912656775702794,-1.2002545938188423,-3.0778582454956878,772.5
619,-1.1875853805737528,-1.8399001730608477,-1.8437736755897545,-2.5912657449801486,-1.2002545594336342,-2.943325619792714,773.75
620,-1.1875853626684907,-1.839900140290197,-1.8437736380985286,-2.5912658148836476,-1.2002545409593652,-2.8187929940897773,775.0
621,-1.1875853462010255,-1.8399001101510457,-1.8437736036178487,-2.5912658791738785,-1.2002545239685851,-2.704260368386843,776.25
622,-1.1875853410520096,-1.8399000802955294,-1.8437735729507811,-2.5912659395367776,-1.2002545183255644,-2.5997277426839247,777.5
623,-1.1875853401087282,-1.8399000524137838,-1.8437735455192332,-2.591265994758703,-1.2002545169293808,-2.5051951169810187,778.75
624,-1.18758533926523,-1.8399000274814736,-1.8437735209894877,-2.5912660441390556,-1.2002545156808906,-2.4206624912781276,780.0
625,-1.1875853441540682,-1.8399000051680536,-1.843773500800285,-2.5912660866528916,-1.2002545202196049,-2.346129865575226,781.25
626,-1.187585352196856,-1.8398999856248341,-1.8437734842930216,-2.5912661227693947,-1.2002545279639516,-2.2815972398723257,782.5
627,-1.1875853589933305,-1.8398999691100404,-1.8437734703437287,-2.5912661532892707,-1.2002545345082318,-2.2270646141694157,783.75
628,-1.1875853645434913,-1.8398999556236728,-1.8437734589524055,-2.5912661782125195,-1.2002545398524451,-2.1825319884664776,785.0
629,-1.1875853688473392,-1.8398999451657296,-1.8437734501190552,-2.5912661975391424,-1.2002545439965915,-2.1479993627635494,786.25
630,-1.1875853719048732,-1.8398999377362102,-1.8437734438436773,-2.5912662112691374,-1.2002545469406707,-2.1234667370606304,787.5
631,-1.187585373716094,-1.839899933335115,-1.8437734401262715,-2.591266219402506,-1.2002545486846832,-2.1089341113577076,788.75
632,-1.1885499453824089,-1.842463171764238,-1.8403223849429915,-2.5921608302405796,-1.2012173367439907,-2.102553677262277,790.0
633,-1.189976478392179,-1.8462540270350494,-1.8352185172467295,-2.5934838917547505,-1.2026412332229377,-2.105724412553251,791.25
634,-1.1901095535242567,-1.8466076653732244,-1.8347423982424484,-2.59360731355826,-1.202774066548073,-2.1170015589109195,792.5
635,-1.1901095519829377,-1.8466076721973448,-1.834742401616301,-2.593607310395365,-1.2027740728979321,-2.137876958955597,793.75
636,-1.1901095497032756,-1.8466076822904416,-1.8347424066063387,-2.59360730571734,-1.2027740822895812,-2.168752359000278,795.0
637,-1.1901095466852714,-1.846607695652516,-1.8347424132125625,-2.5936072995241846,-1.202774094723021,-2.2096277590449707,796.25
638,-1.1901095427906185,-1.8466077124166087,-1.8347424210282448,-2.5936072933517997,-1.2027741089813504,-2.2605031581387127,797.5
639,-1.1901095377457298,-1.8466077328458934,-1.8347424292488297,-2.593607290238386,-1.2027741226573925,-2.3213785548006562,798.75
640,-1.1901095322597404,-1.8466077564562975,-1.8347424394586136,-2.5936072844245186,-1.2027741376248908,-2.392253950494091,800.0
641,-1.1901095329278373,-1.846607780273715,-1.8347424625264845,-2.5936072386653395,-1.2027741376332388,-2.473129330628323,801.25
642,-1.1901095336675545,-1.8466078070281933,-1.834742488475206,-2.593607187125308,-1.2027741375491996,-2.564004706425622,802.5
643,-1.1901095344674861,-1.84660783671154,-1.8347425173344425,-2.5936071296768857,-1.2027741372758,-2.6648800743273826,803.75
644,-1.190109549130771,-1.8466078659903675,-1.8347425505225279,-2.593607067539629,-1.2027741522735806,-2.775755431451761,805.0
645,-1.1901095664005492,-1.8466078975976423,-1.8347425868427256,-2.5936069998836695,-1.2027741700580914,-2.896630781337014,806.25
646,-1.1901095933953942,-1.8466079282199201,-1.8347426252356942,-2.59360693131561,-1.2027741975946276,-3.0275061247530726,807.5
647,-1.1901096306326222,-1.8466079576329033,-1.8347426656419534,-2.593606862132693,-1.2027742353947362,-3.168381465149107,808.75
648,-1.1901096779583047,-1.8466079839470222,-1.834742706182199,-2.5936067960578844,-1.2027742832538038,-3.3192568022317825,810.0
649,-1.1901097365686297,-1.8466080063288897,-1.8347427464172363,-2.5936067343791134,-1.2027743423566428,-3.4801321326852355,811.25
650,-1.19010980519395,-1.8466080200558683,-1.834742781335632,-2.5936066867977052,-1.2027744113557273,-3.646111567623229,812.5
651,-1.1901098734063196,-1.8466080291849685,-1.8347428116326783,-2.5936066484166482,-1.202774479866201,-3.8029927639159165,813.75
652,-1.1901099419905095,-1.8466080262660785,-1.834742830275889,-2.5936066337098134,-1.2027745485534607,-3.9498739602087087,815.0
653,-1.1901100063327188,-1.8466080225076682,-1.8347428467694373,-2.593606621926421,-1.2027746129757833,-4.086755156501645,816.25
654,-1.1901100656577837,-1.8466080096773323,-1.8347428528276957,-2.5936066295502536,-1.2027746722224757,-4.213636352794722,817.5
655,-1.190110120268572,-1.84660799671735,-1.8347428572817925,-2.593606638837045,-1.202774726742438,-4.330517549087933,818.75
656,-1.1901101681650599,-1.8466079811293725,-1.834742857064136,-2.5936066553159547,-1.2027747744906423,-4.437398745381248,820.0
657,-1.1901102094902363,-1.8466079631750698,-1.8347428524751832,-2.5936066784277134,-1.2027748156146452,-4.534279941674675,821.25
658,-1.190110246549862,-1.8466079470739998,-1.8347428483598929,-2.5936066991538964,-1.2027748524938628,-4.621161137968152,822.5
659,-1.1901102774448653,-1.8466079313261066,-1.834742842657602,-2.593606721022698,-1.2027748832006702,-4.6980423342617295,823.75
660,-1.1901103009415626,-1.8466079149569181,-1.8347428340296492,-2.593606746326122,-1.2027749064828357,-4.764923530555336,825.0
661,-1.1901103209250607,-1.8466079010352325,-1.8347428266917376,-2.5936067678462074,-1.2027749262838783,-4.821804726848996,826.25
662,-1.19011033739536,-1.8466078895610514,-1.8347428206438647,-2.5936067855829545,-1.2027749426037988,-4.8686859231426745,827.5
663,-1.1901103503524602,-1.846607880534372,-1.8347428158860342,-2.593606799536362,-1.2027749554425964,-4.9055671194363715,828.75
664,-1.1901103597963605,-1.8466078739551943,-1.8347428124182459,-2.5936068097064306,-1.2027749648002712,-4.932448315730046,830.0
665,-1.1901103657270615,-1.8466078698235184,-1.8347428102405001,-2.59360681609316,-1.2027749706768232,-4.949329512023708,831.25
666,-1.1907093910389606,-1.848219388080676,-1.8325608881419042,-2.594181411126346,-1.2033728305722386,-4.957533756638301,832.5
667,-1.19222018593931,-1.8522838053410435,-1.8270578626146976,-2.5956305906431476,-1.2048806866922417,-4.956731737956324,833.75
668,-1.1926004540730868,-1.8533068323951212,-1.8256727367177226,-2.595995354192871,-1.205260217548336,-4.947294584500817,835.0
669,-1.192600448279423,-1.8533068375736175,-1.8256727367608647,-2.595995356963617,-1.2052602167191564,-4.928802474854439,836.25
670,-1.1926004393527132,-1.8533068455524953,-1.8256727368273364,-2.595995361232703,-1.2052602154415801,-4.900310365208034,837.5
671,-1.1926004272929571,-1.853306856331754,-1.825672736917138,-2.595995367000129,-1.2052602137156072,-4.8618182555616105,838.75
672,-1.1926004121252327,-1.8533068698946338,-1.8256727370797952,-2.595995374085314,-1.2052602117617432,-4.813326146650576,840.0
673,-1.1926003944365946,-1.8533068858487862,-1.8256727384746356,-2.5959953782610894,-1.2052602147417613,-4.754834053585483,841.25
674,-1.1926003737238484,-1.8533069045305128,-1.8256727401079424,-2.5959953831507687,-1.2052602182312528,-4.686341960520407,842.5
675,-1.1926003422008864,-1.8533069200898866,-1.8256727437593578,-2.5959953677495893,-1.2052601925006141,-4.607849881070349,843.75
676,-1.1926003048326719,-1.8533069362574408,-1.82567274830222,-2.5959953454226894,-1.205260156490587,-4.519357806034509,845.0
677,-1.1926002632126875,-1.8533069542319396,-1.8256727534313242,-2.595995320259446,-1.2052601161631933,-4.420865741919567,846.25
678,-1.1926002142305872,-1.8533069686075783,-1.8256727523473528,-2.59599530573126,-1.2052600676457383,-4.312373685798739,847.5
679,-1.1926001591937763,-1.8533069816468677,-1.8256727478567503,-2.595995296344266,-1.2052600126410673,-4.1938816374336945,848.75
680,-1.1926000994120811,-1.8533069927841999,-1.8256727400025101,-2.5959952921643907,-1.2052599528578574,-4.065389596395423,850.0
681,-1.1926000347054588,-1.853306996547851,-1.8256727233547185,-2.595995304093449,-1.2052598880682388,-3.926897559867806,851.25
682,-1.192599966645063,-1.8533069973814575,-1.8256727027792792,-2.595995322821708,-1.2052598198703002,-3.7784055250386843,852.5
683,-1.192599898148007,-1.853306988200372,-1.8256726722456988,-2.5959953614863864,-1.2052597510722491,-3.619913497090085,853.75
684,-1.192599831635366,-1.853306972381906,-1.8256726358262565,-2.5959954126858134,-1.2052596841544618,-3.4535519176411613,855.0
685,-1.1925997739629355,-1.8533069503503596,-1.8256725960919198,-2.59599547352848,-1.2052596259947614,-3.2942912416381906,856.25
686,-1.192599729830782,-1.8533069227960435,-1.8256725551969755,-2.595995541242037,-1.2052595813149387,-3.145030565635073,857.5
687,-1.1925996932421767,-1.853306893894196,-1.8256725153514393,-2.5959956093629115,-1.2052595441732774,-3.005769889631824,858.75
688,-1.1925996692631622,-1.8533068627342586,-1.825672477254599,-2.595995678175689,-1.2052595196321074,-2.876509213628436,860.0
689,-1.1925996523212252,-1.8533068317353596,-1.8256724415275094,-2.5959957445634165,-1.2052595021461654,-2.7572485376249265,861.25
690,-1.1925996401891423,-1.853306802532405,-1.8256724090735639,-2.595995805958938,-1.2052594895100375,-2.647987861621279,862.5
691,-1.1925996392091747,-1.8533067736221673,-1.8256723804119221,-2.5959958634371136,-1.2052594880554035,-2.5487271856175524,863.75
692,-1.1925996383279336,-1.853306747624491,-1.825672354637787,-2.59599591512466,-1.205259486747317,-2.4594665096137343,865.0
693,-1.1925996385856743,-1.8533067244788728,-1.8256723320187913,-2.59599596082985,-1.2052594866273374,-2.380205833609848,866.25
694,-1.192599647112531,-1.8533067037706314,-1.8256723143893114,-2.595995999238545,-1.205259494834547,-2.310945157605894,867.5
695,-1.1925996544082629,-1.853306686052289,-1.8256722993052124,-2.5959960321017133,-1.2052595018567824,-2.2516844816019,868.75
696,-1.1925996604728692,-1.8533066713238484,-1.825672286766491,-2.5959960594193547,-1.2052595076940442,-2.2024238055978875,870.0
697,-1.1925996653063504,-1.8533066595853058,-1.825672276773151,-2.595996081191469,-1.2052595123463319,-2.1631631295938494,871.25
698,-1.1925996689087062,-1.8533066508366616,-1.8256722693251926,-2.5959960974180563,-1.2052595158136457,-2.133902453589828,872.5
699,-1.192599671279937,-1.8533066450779156,-1.8256722644226158,-2.5959961080991163,-1.2052595180959857,-2.114641777585823,873.75
700,-1.1928832167699006,-1.8540788907004426,-1.8246208582637056,-2.5962772393969082,-1.2055424839595126,-2.1046117556190493,875.0
701,-1.194351655275099,-1.8580782639454043,-1.8191757772708383,-2.597733153602337,-1.2070079210984737,-2.1030234404959587,876.25
702,-1.195056246110668,-1.859997260442472,-1.8165631001295426,-2.5984317340265335,-1.2077110745174071,-2.1106180556813485,877.5
703,-1.1950562449215711,-1.859997265645448,-1.8165631026830829,-2.59843173172703,-1.207711079276904,-2.126694741459662,878.75
704,-1.1950562429928338,-1.8599972740847726,-1.8165631068249728,-2.598431727997191,-1.2077110869968966,-2.1527714272379943,880.0
705,-1.1950562403244558,-1.8599972857604457,-1.8165631125552126,-2.5984317228370175,-1.207711097677386,-2.1888481130163373,881.25
706,-1.1950562369164373,-1.8599973006724675,-1.8165631198738024,-2.5984317162465103,-1.2077111113183712,-2.234924798794677,882.5
707,-1.1950562323568044,-1.8599973192116084,-1.8165631275852951,-2.5984317127118084,-1.2077111242583796,-2.291001479625857,883.75
708,-1.1950562268744296,-1.8599973411607755,-1.8165631363538233,-2.598431709740632,-1.2077111385315475,-2.357078159235118,885.0
709,-1.1950562246724805,-1.8599973645652392,-1.8165631532693585,-2.598431683040117,-1.2077111452199198,-2.433154829240743,886.25
710,-1.1950562253754191,-1.8599973895955377,-1.8165631777087667,-2.5984316347373033,-1.2077111452138771,-2.5192314922683052,887.5
711,-1.1950562261331195,-1.8599974175133345,-1.8165632050609573,-2.598431580509259,-1.2077111449760438,-2.615308144494514,888.75
712,-1.1950562333285184,-1.8599974467932092,-1.8165632359503592,-2.598431521058857,-1.207711151749591,-2.7213847900140733,890.0
713,-1.1950562497144983,-1.8599974767722163,-1.8165632706608101,-2.598431456630066,-1.2077111686239155,-2.8374614272801457,891.25
714,-1.1950562680274066,-1.8599975091103993,-1.8165633083061195,-2.5984313869312,-1.2077111874776956,-2.9635380563950005,892.5
715,-1.1950563035658504,-1.8599975371806154,-1.8165633471495657,-2.598431320624328,-1.207711223558944,-3.0996146795092154,893.75
716,-1.1950563417984883,-1.8599975672563136,-1.8165633888168113,-2.598431249534533,-1.2077112623738153,-3.245691302550408,895.0
717,-1.1950563979790751,-1.8599975887231577,-1.8165634276649918,-2.5984311901192396,-1.2077113190317321,-3.4017679184299006,896.25
718,-1.1950564601546896,-1.8599976085506906,-1.8165634667889494,-2.598431132152787,-1.2077113816709961,-3.567360537129033,897.5
719,-1.1950565296087758,-1.8599976178720121,-1.8165634978625684,-2.5984310928232324,-1.2077114514321932,-3.7290371838605454,898.75
720,-1.1950565970189313,-1.8599976211495313,-1.8165635223408112,-2.5984310660858334,-1.2077115190456151,-3.8807138305921196,900.0
721,-1.1950566628156842,-1.859997617338005,-1.816563539330211,-2.5984310538829094,-1.2077115849255682,-4.022390477323882,901.25
722,-1.19505672382176,-1.859997609478024,-1.8165635508230413,-2.598431051142275,-1.2077116459376986,-4.154067124055748,902.5
723,-1.1950567799900358,-1.8599975961811306,-1.8165635554373105,-2.5984310606299044,-1.2077117020119634,-4.27574377078778,903.75
724,-1.1950568315355203,-1.8599975839649712,-1.8165635596583791,-2.598431069363709,-1.20771175347095,-4.387420417519922,905.0
725,-1.1950568743846648,-1.8599975653779868,-1.8165635548649148,-2.5984310933353423,-1.2077117961096304,-4.4890970642521575,906.25
726,-1.195056913019554,-1.8599975486190532,-1.8165635505428885,-2.5984311149493426,-1.2077118345547548,-4.580773710984499,907.5
727,-1.1950569474401878,-1.8599975336881702,-1.816563546692302,-2.598431134205709,-1.2077118688063235,-4.6624503577169065,908.75
728,-1.1950569730919884,-1.85999751698785,-1.8165635383350778,-2.598431159602033,-1.2077118942405471,-4.734127004449363,910.0
729,-1.195056994499366,-1.85999750209175,-1.8165635304163246,-2.598431182697006,-1.2077119154505882,-4.795803651181878,911.25
730,-1.1950570124358393,-1.8599974896108447,-1.816563523781483,-2.598431202047456,-1.207711933221721,-4.847480297914421,912.5
731,-1.1950570269014076,-1.8599974795451328,-1.8165635184305553,-2.5984312176533813,-1.2077119475539446,-4.889156944646994,913.75
732,-1.195057037896071,-1.8599974718946133,-1.8165635143635426,-2.5984312295147816,-1.2077119584472582,-4.920833591379551,915.0
733,-1.1950570454198293,-1.8599974666592862,-1.816563511580445,-2.5984312376316563,-1.2077119659016617,-4.9425102381120904,916.25
734,-1.1951255213667722,-1.8601862635381283,-1.816305050825207,-2.5985013743483205,-1.2077802949473817,-4.954415451205206,917.5
735,-1.1964228521141755,-1.8637634346405245,-1.81140804643555,-2.599830165513014,-1.2090748430919227,-4.958423190651602,918.75
736,-1.1974796518746582,-1.8666773924390627,-1.8074189582485682,-2.6009125954090515,-1.2101293776404036,-4.9527079959041735,920.0
737,-1.1974808613320809,-1.8666807427729633,-1.807414376961133,-2.6009138406292855,-1.2101305880403574,-4.939076260267346,921.25
738,-1.1974808539927824,-1.8666807493220967,-1.807414376981084,-2.60091384426274,-1.2101305868467152,-4.915449035523274,922.5
739,-1.1974808435471949,-1.866680758643089,-1.8074143770094793,-2.6009138494340203,-1.2101305851478752,-4.881821810779161,923.75
740,-1.1974808299953184,-1.86668077073594,-1.8074143770463182,-2.600913856143125,-1.2101305829438371,-4.838194586035051,925.0
741,-1.197480813672846,-1.8666807853793954,-1.8074143777456213,-2.600913862022057,-1.2101305832165883,-4.784567371108798,926.25
742,-1.1974807945948016,-1.8666808025635535,-1.8074143791366586,-2.600913866964839,-1.2101305860995857,-4.720940163944025,927.5
743,-1.1974807695178407,-1.8666808201519058,-1.8074143814898669,-2.6009138643378753,-1.2101305780104357,-4.647312962337708,928.75
744,-1.1974807346303997,-1.8666808352271143,-1.8074143857497789,-2.6009138435384522,-1.2101305444355566,-4.563685771777795,930.0
745,-1.197480695551814,-1.8666808520908433,-1.8074143905701956,-2.600913820033897,-1.2101305066784804,-4.47005858907936,931.25
746,-1.1974806514236995,-1.866680869254575,-1.807414394070928,-2.6009137975232357,-1.2101304636520314,-4.366431413287868,932.5
747,-1.197480599278138,-1.8666808815791283,-1.8074143897870132,-2.6009137886803635,-1.2101304115423839,-4.252804246915568,933.75
748,-1.197480542542078,-1.866680894989647,-1.8074143851220463,-2.600913779074382,-1.2101303548348803,-4.129177089566223,935.0
749,-1.1974804809287747,-1.8666809008000542,-1.8074143713857076,-2.600913786084552,-1.2101302931638283,-3.99554993781879,936.25
750,-1.1974804146245497,-1.8666809046272566,-1.8074143542008212,-2.6009137984619746,-1.2101302267735192,-3.8519227874499555,937.5
751,-1.1974803477817488,-1.8666808988246277,-1.8074143273258438,-2.6009138301230013,-1.2101301596856444,-3.6982956422160296,938.75
752,-1.1974802779094444,-1.866680889437277,-1.807414295949059,-2.6009138698146708,-1.2101300895026939,-3.5346685032525547,940.0
753,-1.1974802188977418,-1.866680867328494,-1.8074142554295283,-2.600913931498913,-1.2101300299942188,-3.370552373921897,941.25
754,-1.1974801665457684,-1.866680844311051,-1.807414216117635,-2.6009139929815364,-1.210129977145292,-3.21643011596287,942.5
755,-1.1974801291305492,-1.8666808147620921,-1.8074141750717383,-2.6009140629359244,-1.2101299391584805,-3.072307858003701,943.75
756,-1.1974800968271029,-1.8666807861730264,-1.8074141365913459,-2.600914129444116,-1.2101299063106898,-2.938185600044103,945.0
757,-1.1974800794034781,-1.8666807543100568,-1.8074140995796355,-2.6009141979717034,-1.2101298883217737,-2.8140633420843315,946.25
758,-1.1974800633836011,-1.8666807250141588,-1.8074140655497923,-2.6009142609783162,-1.2101298717821485,-2.6999410841245393,947.5
759,-1.1974800589371482,-1.866680695880637,-1.8074140353403758,-2.600914320176018,-1.2101298668444151,-2.5958188261646598,948.75
760,-1.1974800580176184,-1.8666806688121411,-1.8074140082879018,-2.6009143742101806,-1.210129865475583,-2.501696568204813,950.0
761,-1.197480057195784,-1.8666806446195363,-1.8074139841096082,-2.6009144225034957,-1.210129864252182,-2.417574310244929,951.25
762,-1.1974800623362165,-1.8666806229643416,-1.807413964325427,-2.600914463961491,-1.2101298690462574,-2.3434520522850444,952.5
763,-1.1974800701352217,-1.8666806040372306,-1.8074139480791362,-2.600914499200717,-1.210129876549905,-2.279329794325151,953.75
764,-1.1974800767179559,-1.8666805880618433,-1.8074139343664872,-2.6009145289443123,-1.2101298828833429,-2.225207536365302,955.0
765,-1.197480082084419,-1.8666805750381803,-1.8074139231874795,-2.600914553192277,-1.2101298880465716,-2.1810852784054995,956.25
766,-1.1974800862346107,-1.866680564966239,-1.807413914542115,-2.6009145719446103,-1.2101298920395909,-2.146963020445671,957.5
767,-1.1974800891685313,-1.8666805578460195,-1.8074139084303946,-2.6009145852013127,-1.2101298948624004,-2.122840762485845,958.75
768,-1.197480090886181,-1.8666805536775217,-1.8074139048523177,-2.6009145929623845,-1.2101298965150007,-2.1087185045260086,960.0
769,-1.1984462857421574,-1.8693777592072314,-1.8037015218956933,-2.601936398422173,-1.2110939193740564,-2.1026092782847035,961.25
770,-1.199769559438263,-1.873071784296533,-1.7986171428566342,-2.6033358311740322,-1.2124142197049268,-2.1061191013021614,962.5
771,-1.1998716934953153,-1.8733569056545647,-1.798224714467603,-2.6034438427654485,-1.2125161283257748,-2.117604264406088,963.75
772,-1.1998716919289953,-1.8733569124298866,-1.7982247177711705,-2.6034438399083535,-1.2125161344185496,-2.138751205394345,965.0
773,-1.1998716896219916,-1.8733569224091333,-1.7982247226369343,-2.603443835700191,-1.2125161433924858,-2.1698981463826064,966.25
774,-1.1998716865743042,-1.8733569355923056,-1.7982247290648947,-2.6034438301409604,-1.2125161552475836,-2.211045087370857,967.5
775,-1.1998716826346265,-1.8733569521211595,-1.7982247366212865,-2.6034438248480782,-1.212516168625557,-2.2621920264922637,968.75
776,-1.1998716775574239,-1.8733569722257335,-1.7982247446022073,-2.6034438224462417,-1.2125161813222194,-2.323338961448087,970.0
777,-1.199871672230474,-1.8733569953525957,-1.7982247548582024,-2.603443816354867,-1.2125161947706768,-2.394485894965386,971.25
778,-1.1998716728858112,-1.8733570186505075,-1.7982247777999842,-2.6034437711863103,-1.212516194752252,-2.475632813317244,972.5
