Miguel-LA/TFM_MiguelLerinAlonso/workspace/ros_ur_driver/src/trayectories/data/saved_trajectories/20240522_2029_trajectory.csv
,shoulder_pan_joint,shoulder_lift_joint,elbow_joint,wrist_1_joint,wrist_2_joint,wrist_3_joint,time_from_start
0,5.10011625289917,-2.08994704881777,-2.017874066029684,0.9760626554489136,-5.084230248128073,0.26995664834976196,0.0
1,5.100190348929002,-2.089932659544202,-2.0178353724448015,0.9760098035112871,-5.084304615075472,0.27495664834976197,1.0
2,5.100412637018495,-2.0898894917234987,-2.0177192916901556,0.9758512476984076,-5.08452771591767,0.289956648349762,2.0
3,5.100783117167652,-2.0898175453556602,-2.0175258237657454,0.9755869880102752,-5.084899550654665,0.314956648349762,3.0
4,5.101301789376473,-2.0897168204406857,-2.0172549686715713,0.9752170244468898,-5.08542011928646,0.349956648349762,4.0
5,5.101968653644955,-2.089587316978576,-2.016906726407633,0.9747413570082515,-5.086089421813053,0.39495664834976174,5.0
6,5.102782326813412,-2.0894307372960634,-2.016478681599976,0.9741593085267106,-5.086905414546876,0.449956668381324,6.0
7,5.103742015569299,-2.0892480576777923,-2.015969449097803,0.9734704907124526,-5.087866925368524,0.5149567143040148,7.0
8,5.104848964247507,-2.0890377613895033,-2.0153811923081117,0.9726755780098093,-5.088975797427037,0.5899567667380319,8.0
9,5.1060451358631,-2.08881326962306,-2.0147396421609596,0.9718139433089252,-5.090172863129091,0.6711750221903784,9.0
10,5.1071155101892876,-2.088612775720293,-2.0141647410196137,0.9710425778436946,-5.091243884052872,0.7438757925518629,10.0
11,5.108036676417694,-2.0884424111013304,-2.013665377298409,0.9703767989152852,-5.092164746031743,0.80657661135809,11.0
12,5.108810928100813,-2.0882992175181228,-2.013245655873862,0.9698172034372812,-5.092938741989341,0.8592774301643171,12.0
13,5.109437792003028,-2.088183816631381,-2.0129047202350145,0.9693637038943445,-5.093565208809958,0.9019782599975734,13.0
14,5.109917029101647,-2.0880965225238706,-2.012642137579443,0.9690162560090723,-5.094043811532748,0.9346791120534387,14.0
15,5.11024971433128,-2.088035923166503,-2.0124598533378464,0.9687750585311836,-5.094376056380222,0.9573799641093038,15.0
16,5.110435847691929,-2.088002018559279,-2.0123578675102247,0.9686401114606784,-5.094561943352382,0.9700808161651685,16.0
17,5.1113249711933575,-2.0878407519992908,-2.0118693580531803,0.9679950820389244,-5.095449712933021,0.9729459493209532,17.0
18,5.111513513563103,-2.0878066422578403,-2.0117655971116313,0.9678582484027493,-5.095637945730187,0.9662147050663252,18.0
19,5.111513353402692,-2.0878068699675234,-2.0117652981342156,0.9678582455457101,-5.095637734807717,0.9495539196806916,19.0
20,5.111513097112114,-2.087807234351246,-2.0117648197070266,0.9678582409738421,-5.095637397287093,0.9228931342950581,20.0
21,5.111512743106655,-2.087807732639171,-2.011764164439686,0.9678582238075928,-5.095636919916543,0.8862323568353792,21.0
22,5.11151228950275,-2.087808361539243,-2.011763335433807,0.9678581811160065,-5.095636286945554,0.8395715929586107,22.0
23,5.1115117386857145,-2.0878091252206654,-2.0117623287613386,0.9678581292750659,-5.095635518320767,0.78291082908184,23.0
24,5.111511495971511,-2.0878094793475954,-2.011761891465225,0.9678581242158388,-5.095635174670203,0.7162500726081995,24.0
25,5.1115114937900765,-2.0878095146660476,-2.011761899006233,0.9678581566140799,-5.095635162531789,0.6395893207991998,25.0
26,5.111511491560021,-2.0878095541849135,-2.0117619078613918,0.9678581914211775,-5.095635150785258,0.5529285758297834,26.0
27,5.111511487167822,-2.087809598144252,-2.011761917666993,0.9678582318481919,-5.0956351382096585,0.45626783546556443,27.0
28,5.111511471317591,-2.0878096469654084,-2.0117619273074583,0.9678582895817307,-5.09563512250629,0.34960710422628605,28.0
29,5.111511453992031,-2.0878097003932963,-2.0117619378246623,0.9678583528468195,-5.095635105420149,0.23294637927453965,29.0
30,5.11151142497893,-2.0878097525170283,-2.011761950508358,0.9678584171208893,-5.095635076259006,0.10628566173546328,30.0
31,5.111511387378354,-2.0878098051219567,-2.0117619649773317,0.9678584837316837,-5.095635038232841,-0.03037504993456245,31.0
32,5.1115113389154025,-2.087809853347576,-2.0117619811169325,0.9678585475179171,-5.0956349893607635,-0.17703575924406995,32.0
33,5.1115112795845175,-2.0878098971874675,-2.011761998927931,0.9678586084720533,-5.0956349296399095,-0.3336964635352103,33.0
34,5.111511209063636,-2.087809928653926,-2.011762017446239,0.9678586576719812,-5.095634858817011,-0.49802384900947755,34.0
35,5.111511138161157,-2.0878099525389193,-2.0117620350688457,0.9678586984068163,-5.0956347876715595,-0.6550236700796135,35.0
36,5.111511066979821,-2.087809956406052,-2.011762050176835,0.9678587166488387,-5.095634716402606,-0.8020234911497478,36.0
37,5.11151100013632,-2.087809958064261,-2.0117620641106027,0.9678587315565821,-5.095634649492165,-0.9390233122198782,37.0
38,5.11151093852846,-2.0878099440212594,-2.011762074952416,0.9678587277577807,-5.095634587943621,-1.0660231332900059,38.0
39,5.111510881820701,-2.0878099289391505,-2.011762084654893,0.9678587218326418,-5.095634531307217,-1.183022954360131,39.0
40,5.111510832037209,-2.0878099087628224,-2.011762092281556,0.96785870881879,-5.095634481640272,-1.2900227754302525,40.0
41,5.111510789144935,-2.0878098835938297,-2.011762097852239,0.9678586888370613,-5.095634438908919,-1.3870225965003644,41.0
42,5.111510750674551,-2.0878098610195868,-2.011762102848617,0.9678586709153052,-5.095634400582868,-1.4740224175704804,42.0
43,5.111510718528243,-2.0878098383793975,-2.0117621065384044,0.9678586516855551,-5.095634368586517,-1.5510222386405983,43.0
44,5.111510694148866,-2.0878098136550602,-2.0117621083661392,0.9678586285931199,-5.095634344379576,-1.6180220597107198,44.0
45,5.111510673408214,-2.0878097926209325,-2.0117621099210767,0.9678586089473258,-5.095634323785621,-1.6750218807808435,45.0
46,5.11151065630628,-2.087809775277015,-2.011762111203214,0.9678585927481708,-5.095634306804651,-1.7220217018509674,46.0
47,5.111510642843071,-2.0878097616233076,-2.011762112212555,0.9678585799956576,-5.095634293436667,-1.7590215229210926,47.0
48,5.111510633018584,-2.087809751659809,-2.0117621129490995,0.9678585706897863,-5.09563428368167,-1.7860213439912167,48.0
49,5.111510626832821,-2.087809745386519,-2.011762113412848,0.9678585648305569,-5.0956342775396575,-1.80302116506134,49.0
50,5.110901676342612,-2.088882737948357,-2.00967631693624,0.9668452849405409,-5.095026472411276,-1.8113486047675706,50.0
51,5.109248719110385,-2.0917953309893775,-2.004014526135909,0.9640947944231032,-5.093376624458284,-1.8108266531171076,51.0
52,5.108797539958363,-2.0925903394507928,-2.0024691138058586,0.9633440331003221,-5.092926295739595,-1.80171478779133,52.0
53,5.108797546964092,-2.092590343773315,-2.002469115272071,0.9633440293625737,-5.092926306359078,-1.7836629424593713,53.0
54,5.108797557850712,-2.0925903504903416,-2.002469117550507,0.9633440235542623,-5.092926322861331,-1.7556110971274117,54.0
55,5.108797572618227,-2.0925903596018727,-2.002469120641166,0.9633440156753879,-5.092926345246351,-1.717559251795452,55.0
56,5.108797591265767,-2.092590371107213,-2.002469124544759,0.9633440057234393,-5.09292637350685,-1.6695074065374462,56.0
57,5.108797612957064,-2.092590384336166,-2.0024691299470767,0.9633439912762255,-5.092926400611558,-1.6114555841481528,57.0
58,5.1087976383849,-2.0925903998439366,-2.0024691362799962,0.9633439743403363,-5.092926432385322,-1.543403761758861,58.0
59,5.108797671435218,-2.092590419360188,-2.0024691344200676,0.9633439824147187,-5.092926465741801,-1.4653519522055545,59.0
60,5.108797709906579,-2.092590441912428,-2.0024691295277446,0.9633439999567458,-5.092926502421518,-1.37730014724603,60.0
61,5.108797752735441,-2.092590467121106,-2.002469123997064,0.9633440198963426,-5.092926543168384,-1.2792483540801525,61.0
62,5.108797803070666,-2.0925904858842737,-2.0024691160605532,0.9633440312019392,-5.092926592644707,-1.171196568406681,62.0
63,5.108797859931341,-2.0925905010229595,-2.0024691062940407,0.963344037211591,-5.092926649427254,-1.0531447906214797,63.0
64,5.10879792170777,-2.092590513173631,-2.002469095134861,0.963344038882696,-5.092926711163787,-0.9250930204228796,64.0
65,5.10879798864538,-2.09259051153004,-2.0024690811547994,0.9633440239455134,-5.092926778172539,-0.7870412551699066,65.0
66,5.1087980593140125,-2.0925905054614704,-2.0024690658371536,0.9633440032925571,-5.092926848949503,-0.638989491480501,66.0
67,5.108798130246452,-2.092590481611302,-2.0024690481734213,0.9633439625524516,-5.092926920126829,-0.48093773464742356,67.0
68,5.108798199830966,-2.092590447675938,-2.002469029487124,0.9633439107121096,-5.092926990034152,-0.314634368148459,68.0
69,5.108798259930961,-2.092590403335018,-2.002469011410569,0.9633438490011561,-5.092927050530763,-0.15494535733270584,69.0
70,5.108798306642645,-2.0925903520199913,-2.002468995188993,0.9633437820491306,-5.0929270976827645,-0.005256346516954228,70.0
71,5.1087983448378385,-2.0925902986664955,-2.0024689804564284,0.9633437144650334,-5.092927136327284,0.1344326642987988,71.0
72,5.108798370631561,-2.092590243464732,-2.0024689680364904,0.9633436472226391,-5.092927162574676,0.2641216751145541,72.0
73,5.108798388387682,-2.092590188973174,-2.0024689573613195,0.963343582351709,-5.092927180772328,0.3838106859303119,73.0
74,5.10879840177205,-2.092590138266538,-2.002468948073168,0.9633435226001504,-5.092927194564993,0.4934996967460688,74.0
75,5.1087984028940925,-2.0925900892470954,-2.0024689415246817,0.9633434671467771,-5.092927196072081,0.5931887075618264,75.0
76,5.10879840390358,-2.0925900451448927,-2.0024689356330807,0.9633434172560382,-5.09292719742799,0.6828777183775867,76.0
77,5.108798404174761,-2.0925900059752935,-2.0024689305290604,0.9633433730675758,-5.092927198006335,0.7625667291933472,77.0
78,5.108798395341461,-2.092589971943757,-2.002468927959929,0.9633433364483545,-5.09292718943249,0.8322557400091096,78.0
79,5.108798387775691,-2.092589942795563,-2.0024689257594535,0.9633433050837954,-5.092927182088944,0.8919447508248715,79.0
80,5.1087983814774525,-2.092589918530715,-2.0024689239276316,0.9633432789738972,-5.0929271759757,0.9416337616406301,80.0
81,5.108798376446746,-2.0925898991492096,-2.002468922464466,0.9633432581186612,-5.092927171092757,0.981322772456388,81.0
82,5.10879837268357,-2.092589884651048,-2.0024689213699585,0.9633432425180879,-5.092927167440115,1.0110117832721461,82.0
83,5.108798370187927,-2.092589875036228,-2.0024689206441084,0.9633432321721771,-5.092927165017774,1.0307007940879074,83.0
84,5.1085592426851125,-2.093017992348527,-2.001635995521312,0.9629382450353604,-5.09268850396039,1.0410458804637817,84.0
85,5.106984316572483,-2.0958376780674985,-1.9961502112274723,0.9602709651809959,-5.091116649713914,1.043215841228066,85.0
86,5.106123320400808,-2.0973791767460033,-1.9931511857896105,0.958812788738803,-5.090257333266516,1.0361316851875848,86.0
87,5.106123322438069,-2.097379182075372,-1.9931511882009425,0.9588127877813774,-5.090257336129702,1.0207925149453954,87.0
88,5.106123325803475,-2.097379190879094,-1.9931511921842846,0.958812786199781,-5.090257340859472,0.9954533447032061,88.0
89,5.106123330497024,-2.097379203157168,-1.993151197739636,0.9588127839940142,-5.090257347455824,0.960114174461021,89.0
90,5.106123336518717,-2.0973792189095954,-1.993151204866997,0.9588127811640769,-5.090257355918762,0.9147750042188334,90.0
91,5.106123344490744,-2.0973792383721657,-1.9931512132870988,0.9588127784083667,-5.090257371509502,0.8594358461006839,91.0
92,5.1061233541515705,-2.0973792614457674,-1.99315122311733,0.9588127754333173,-5.0902573920165315,0.7940966924495123,92.0
93,5.106123359149088,-2.0973792933991606,-1.9931512310568293,0.9588127956411094,-5.090257403590898,0.7187575471766887,93.0
94,5.106123358410107,-2.0973793351668952,-1.9931512365123376,0.958812843162119,-5.090257404123356,0.6334184100526665,94.0
95,5.10612335757341,-2.097379381908589,-1.993151242537652,0.9588128965916873,-5.090257404623747,0.5380792831116761,95.0
96,5.1061233511473105,-2.097379432050028,-1.9931512501935318,0.9588129548300981,-5.090257398949474,0.4327401629908978,96.0
97,5.106123334139695,-2.0973794841882016,-1.9931512604200712,0.958813016993264,-5.090257381487204,0.31740105128705437,97.0
98,5.10612331565542,-2.097379540844978,-1.9931512715351045,0.9588130845393329,-5.090257362493307,0.19206194832516577,98.0
99,5.1061232795335165,-2.097379592529799,-1.9931512856626303,0.9588131498763772,-5.090257325928254,0.05672285147912649,99.0
100,5.1061232400403505,-2.0973796476209197,-1.9931513009265125,0.9588132197102165,-5.090257285964196,-0.08861624493334805,100.0
101,5.106123182982408,-2.097379691475912,-1.993151318357648,0.9588132803211655,-5.090257228512435,-0.24395533500154684,101.0
102,5.106123119446537,-2.097379733866838,-1.9931513369346847,0.958813340550965,-5.09025716458918,-0.40907893885681357,102.0
103,5.106123047013329,-2.0973797581757405,-1.9931513550077988,0.9588133821416689,-5.090257091904005,-0.5714821733182712,103.0
104,5.10612297710811,-2.09737977355318,-1.9931513714050673,0.9588134131695418,-5.090257021819473,-0.7238854077796711,104.0
105,5.1061229084890005,-2.0973797752204133,-1.9931513857646284,0.9588134284912482,-5.090256953130432,-0.8662886422410513,105.0
106,5.106122844825633,-2.097379770784289,-1.9931513983135782,0.9588134359623879,-5.090256889449455,-0.9986918767024271,106.0
107,5.106122786233255,-2.097379755212734,-1.993151408377567,0.9588134298882132,-5.09025683093164,-1.1210951111637935,107.0
108,5.106122732427707,-2.0973797409133343,-1.9931514176193486,0.9588134243102774,-5.090256777194564,-1.233498345625154,108.0
109,5.106122687382794,-2.0973797157060305,-1.9931514236450671,0.9588134047207035,-5.090256732311551,-1.3359015800865106,109.0
110,5.1061226470283225,-2.0973796920663266,-1.9931514289066499,0.9588133859792818,-5.090256692110474,-1.4283048145478645,110.0
111,5.106122611041065,-2.0973796709849437,-1.9931514335988136,0.9588133692660796,-5.090256656260009,-1.5107080490092164,111.0
112,5.106122583776186,-2.097379646386548,-1.9931514360383777,0.9588133468797838,-5.090256629166925,-1.5831112834705654,112.0
113,5.1061225613497845,-2.097379623689072,-1.9931514377263926,0.9588133256883655,-5.090256606901301,-1.645514517931917,113.0
114,5.106122542517172,-2.097379604628825,-1.9931514391439045,0.9588133078928306,-5.090256588203701,-1.697917752393273,114.0
115,5.106122527278346,-2.097379589205805,-1.9931514402909136,0.9588132934931797,-5.090256573074125,-1.7403209868546337,115.0
116,5.106122515633309,-2.0973795774200132,-1.9931514411674227,0.9588132824894138,-5.090256561512573,-1.7727242213159933,116.0
117,5.106122507582061,-2.097379569271448,-1.9931514417734313,0.958813274881533,-5.090256553519046,-1.7951274557773507,117.0
118,5.106094275839169,-2.097430912142082,-1.993051461956157,0.9587646176137029,-5.090228378880726,-1.8076230381249139,118.0
119,5.104783489199416,-2.099815323065523,-1.988408697768596,0.9565053223749461,-5.088920242515438,-1.8124179688119257,119.0
120,5.103504583606223,-2.102141749567113,-1.983878842806157,0.9543009722713957,-5.087643923737362,-1.8074592066416615,120.0
121,5.103484608434509,-2.1021780976876485,-1.9838080751036267,0.9542665317351978,-5.087623991524182,-1.794789384512526,121.0
122,5.103484617104651,-2.1021781030332676,-1.983808076928576,0.9542665271385209,-5.0876240047632955,-1.7721863051667655,122.0
123,5.103484629610616,-2.102178110743882,-1.983808079560915,0.954266520508193,-5.087624023859626,-1.7395832258210062,123.0
124,5.103484645952403,-2.1021781208194925,-1.9838080830006433,0.9542665118442144,-5.087624048813173,-1.6969801464752448,124.0
125,5.103484665773825,-2.102178132967157,-1.9838080875492927,0.9542665000818913,-5.087624076596508,-1.6443770778094036,125.0
126,5.1034846889044445,-2.102178147046704,-1.9838080933511462,0.9542664847117663,-5.087624105761008,-1.5817740217412948,126.0
127,5.103484716826783,-2.1021781638618693,-1.9838080974711594,0.9542664746798772,-5.087624138623749,-1.5091709695147841,127.0
128,5.103484752476408,-2.102178184714898,-1.9838080929281299,0.9542664908430797,-5.087624172614503,-1.426567929875913,128.0
129,5.103484792435303,-2.1021782081441263,-1.9838080877896687,0.9542665091836998,-5.087624210664613,-1.3339648970048616,129.0
130,5.103484837140269,-2.102178232899029,-1.9838080817955244,0.954266528229609,-5.0876242534093,-1.2313618712653822,130.0
131,5.103484890707712,-2.1021782471512616,-1.9838080725577965,0.9542665338467272,-5.087624306895393,-1.1187588561327015,131.0
132,5.103484949034357,-2.102178262669871,-1.9838080624988579,0.9542665399645441,-5.087624365148577,-0.996155849125264,132.0
133,5.103485012409593,-2.102178266739053,-1.983808049927328,0.9542665321339885,-5.0876244285481835,-0.8635528481881702,133.0
134,5.103485080701764,-2.1021782650977157,-1.9838080356071628,0.9542665168752571,-5.08762449691416,-0.7209498494237058,134.0
135,5.10348515015859,-2.1021782494130807,-1.9838080192248728,0.9542664855521162,-5.087624566555303,-0.568346855147152,135.0
136,5.103485222233309,-2.102178225270006,-1.9838080012046135,0.9542664441770661,-5.087624638882589,-0.40574386719234823,136.0
137,5.1034852850805,-2.1021781828249706,-1.9838079827165749,0.9542663839757316,-5.087624702120438,-0.24076853754654978,137.0
138,5.103485341403444,-2.1021781390509267,-1.9838079654038738,0.9542663235566479,-5.0876247588391745,-0.08563284256212991,138.0
139,5.103485380596767,-2.10217808444977,-1.9838079502253434,0.9542662542915056,-5.087624798500202,0.059502852422276604,139.0
140,5.103485416116878,-2.102178033041318,-1.9838079362197123,0.9542661893477258,-5.087624834459514,0.19463854740667294,140.0
141,5.103485434450098,-2.1021779769156366,-1.9838079251525866,0.9542661224588797,-5.087624853255136,0.3197742423910668,141.0
142,5.1034854513182495,-2.102177925275146,-1.9838079149698622,0.954266060915336,-5.087624870548739,0.4349099373754524,142.0
143,5.103485457556738,-2.102177875685047,-1.9838079072489048,0.9542660037707942,-5.087624877187453,0.540045632359835,143.0
144,5.103485458612575,-2.1021778295924687,-1.9838079010522056,0.9542659515876927,-5.0876248786113205,0.6351813273442102,144.0
145,5.10348545955743,-2.1021777883448234,-1.983807895506855,0.9542659048897124,-5.087624879885522,0.7203170223285853,145.0
146,5.103485455281376,-2.1021777520649345,-1.9838078916843698,0.9542658648185824,-5.0876248758948766,0.7954527173129602,146.0
147,5.1034854471257765,-2.1021777207205607,-1.9838078893034772,0.9542658310745986,-5.087624867982126,0.8605884122973362,147.0
148,5.103485440222269,-2.102177694188353,-1.9838078872881115,0.9542658025111812,-5.087624861284185,0.9157241072817153,148.0
149,5.103485434570857,-2.102177672468312,-1.9838078856382713,0.9542657791283294,-5.087624855801055,0.9608598022661023,149.0
150,5.1034854301715376,-2.1021776555604355,-1.9838078843539602,0.9542657609260452,-5.087624851532734,0.9959954972504852,150.0
151,5.103485427024313,-2.1021776434647244,-1.983807883435178,0.9542657479043287,-5.087624848479225,1.0211311922348691,151.0
152,5.103485425129182,-2.1021776361811777,-1.9838078828819246,0.9542657400631795,-5.087624846640525,1.0362668872192506,152.0
153,5.102623739732102,-2.1037701807429405,-1.9807044846961226,0.9527542937811928,-5.086764966638489,1.0431987193802228,153.0
154,5.101100927209132,-2.1065846133495105,-1.975220002042388,0.9500831948529304,-5.085245344811457,1.0408411621828875,154.0
155,5.100884021435515,-2.106985500344503,-1.974438802223678,0.9497027269721564,-5.085028894093406,1.0303675864472481,155.0
156,5.100884024048693,-2.1069855071433006,-1.9744388053269981,0.9497027257453755,-5.085028897843587,1.0105196671197698,156.0
157,5.100884027978472,-2.106985517367544,-1.9744388099938677,0.9497027239005041,-5.085028903483227,0.9806717477922927,157.0
158,5.100884033224849,-2.106985531017233,-1.9744388162242865,0.9497027214375424,-5.085028911012326,0.9408238284648133,158.0
159,5.100884039931393,-2.106985548149227,-1.9744388239511101,0.9497027185280801,-5.085028921658099,0.8909759122282902,159.0
160,5.100884048691851,-2.1069855689986774,-1.9744388328966438,0.9497027158817704,-5.085028940496005,0.831128009884442,160.0
161,5.100884058916096,-2.1069855933318675,-1.9744388433368882,0.9497027127932881,-5.085028962481542,0.7612801075405955,161.0
162,5.100884058751682,-2.1069856313953137,-1.9744388486851068,0.9497027546661521,-5.085028964006131,0.6814322209839156,162.0
163,5.100884057979184,-2.1069856747546014,-1.974438854357452,0.9497028041228466,-5.085028964528899,0.5915843383488788,163.0
164,5.1008840571100205,-2.106985723014552,-1.9744388605951433,0.9497028594041612,-5.08502896501802,0.4917364652299436,164.0
165,5.100884043770005,-2.106985772674907,-1.9744388697603756,0.9497029182275052,-5.085028951585993,0.38188860170829714,165.0
166,5.100884026315185,-2.1069858260513064,-1.9744388803001973,0.9497029819348359,-5.085028933650154,0.2620407457268663,166.0
167,5.100884000709245,-2.1069858799555865,-1.9744388926043945,0.9497030478173157,-5.0850289075603,0.1321928967296476,167.0
168,5.100883963176086,-2.1069859321738393,-1.9744389071709656,0.9497031141076275,-5.085028869573058,-0.007654948421387583,168.0
169,5.1008839170350075,-2.106985982141918,-1.9744389232267998,0.9497031795535971,-5.08502882298991,-0.15750279085255992,169.0
170,5.1008838579835665,-2.106986025514008,-1.9744389410968548,0.9497032401002603,-5.085028763540316,-0.3173506266363851,170.0
171,5.100883789506871,-2.1069860583301887,-1.97443895954462,0.9497032905936801,-5.085028694742217,-0.48362518021800843,171.0
172,5.100883719949808,-2.1069860815859522,-1.9744389769719277,0.949703330514799,-5.085028624939564,-0.6415176306192245,172.0
173,5.100883650570842,-2.106986087141247,-1.9744389920589718,0.9497033504333294,-5.085028555457296,-0.7894100810204941,173.0
174,5.100883584940057,-2.1069860887009417,-1.974439005850034,0.9497033651069637,-5.085028489758461,-0.9273025314218032,174.0
175,5.100883524381089,-2.1069860765231554,-1.9744390168033552,0.9497033632856431,-5.08502842924605,-1.0551949818231328,175.0
176,5.100883468639311,-2.1069860617178553,-1.9744390264174045,0.9497033575523935,-5.085028373576003,-1.173087432224493,176.0
177,5.100883419271399,-2.1069860431363585,-1.9744390342204134,0.9497033463051046,-5.085028324315539,-1.2809798826258785,177.0
178,5.100883377042918,-2.1069860184377873,-1.9744390397492626,0.9497033267524438,-5.085028282249666,-1.378872333027297,178.0
179,5.100883339128197,-2.106985996262251,-1.9744390447133169,0.9497033091971415,-5.085028244480943,-1.466764783428734,179.0
180,5.100883306886008,-2.106985974719327,-1.9744390485852643,0.9497032912392944,-5.08502821238447,-1.5446572338301752,180.0
181,5.100883282785139,-2.1069859503742516,-1.9744390504070002,0.9497032685184317,-5.085028188458707,-1.6125496842316314,181.0
182,5.100883262234131,-2.106985929615006,-1.9744390519604094,0.9497032491441652,-5.085028168057012,-1.6704421346330969,182.0
183,5.100883245232982,-2.106985912441592,-1.9744390532454879,0.9497032331164927,-5.085028151179385,-1.7183345850345746,183.0
184,5.100883231781693,-2.1069858988540062,-1.9744390542622403,0.9497032204354172,-5.085028137825826,-1.756227035436055,184.0
185,5.100883221880264,-2.1069858888522504,-1.9744390550106672,0.9497032111009386,-5.085028127996336,-1.7841194858375327,185.0
186,5.100883215528695,-2.1069858824363235,-1.974439055490768,0.9497032051130567,-5.085028121690914,-1.802011936239008,186.0
187,5.100436112388528,-2.107825398730944,-1.972801788966177,0.9489051609703326,-5.084581988928775,-1.8110220424336994,187.0
188,5.098874374718022,-2.110757872922733,-1.9670827523654848,0.946117571455282,-5.083023640965688,-1.8114369556634142,188.0
189,5.098317462240997,-2.1118035953668177,-1.9650433443703272,0.9451235155227407,-5.0824679388930605,-1.8030505593378703,189.0
190,5.098317468713493,-2.111803599354897,-1.9650433457403984,0.9451235121138186,-5.082467948849405,-1.7859805991251343,190.0
191,5.098317478977732,-2.1118036056792904,-1.9650433479130907,0.9451235067078668,-5.082467964638417,-1.7589106389123965,191.0
192,5.098317493033717,-2.1118036143399985,-1.9650433508884042,0.9451234993048852,-5.0824679862601005,-1.721840678699655,192.0
193,5.098317510881448,-2.111803625337021,-1.9650433546663388,0.9451234899048736,-5.082468013714452,-1.6747707184869125,193.0
194,5.098317531804453,-2.111803638065542,-1.9650433598731871,0.9451234762980245,-5.082468040846116,-1.6177007793455014,194.0
195,5.098317556311641,-2.1118036529551625,-1.9650433660640938,0.9451234600539636,-5.082468072027245,-1.5506308423949766,195.0
196,5.098317587724128,-2.1118036715030417,-1.9650433653453514,0.9451234645790219,-5.082468104739531,-1.4735609165794457,196.0
197,5.098317624846178,-2.111803693180238,-1.965043360597583,0.9451234813442432,-5.08246814012964,-1.3864909959847416,197.0
198,5.098317666219292,-2.111803717443249,-1.9650433552190685,0.9451235004462424,-5.082468179477013,-1.2894210879267112,198.0
199,5.098317714430783,-2.111803736838398,-1.9650433477540172,0.9451235128023431,-5.082468226640392,-1.1823511865201977,199.0
200,5.098317769444985,-2.11180375146822,-1.9650433382260508,0.9451235185268099,-5.082468281574473,-1.0652812932011875,200.0
201,5.098317829214695,-2.1118037649677404,-1.965043327564627,0.9451235220348722,-5.082468341289771,-0.938211407834416,201.0
202,5.098317894056305,-2.111803763444684,-1.9650433139099333,0.9451235075276433,-5.082468406202621,-0.8011415280711544,202.0
203,5.098317963063906,-2.1118037596458232,-1.965043299093754,0.9451234896299191,-5.082468475303303,-0.6540716493046151,203.0
204,5.098318031835946,-2.1118037366959084,-1.9650432818259402,0.9451234501664921,-5.082468544319948,-0.49700177748114127,204.0
205,5.098318100752851,-2.111803705839489,-1.9650432634957498,0.9451234017518131,-5.08246861354557,-0.3309569154989981,205.0
206,5.098318159743851,-2.1118036625758316,-1.9650432456054174,0.9451233412929649,-5.082468672937257,-0.17029018914250563,206.0
207,5.098318207101331,-2.1118036139699004,-1.9650432294317497,0.9451232770996566,-5.082468720728714,-0.019623462785999222,207.0
208,5.098318244622543,-2.1118035618354627,-1.9650432148385937,0.9451232108643073,-5.082468758704053,0.12104326357052375,208.0
209,5.09831827154226,-2.111803508770251,-1.9650432023239177,0.9451231456694561,-5.082468786076362,0.25170998992705745,209.0
210,5.098318289003137,-2.1118034554420775,-1.965043191737792,0.9451230820433854,-5.082468803983868,0.3723767162835928,210.0
211,5.098318303579283,-2.1118034061516004,-1.965043182277468,0.9451230235429087,-5.082468818971492,0.4830434426401395,211.0
212,5.098318304681104,-2.1118033580868483,-1.9650431757733549,0.9451229690832051,-5.082468820463339,0.5837101689966955,212.0
213,5.098318305673472,-2.11180331479674,-1.9650431699153401,0.9451229200334006,-5.082468821806989,0.6743768953532554,213.0
214,5.098318306556388,-2.111803276281274,-1.9650431647034274,0.9451228763934965,-5.082468823002442,0.7550436217098205,214.0
215,5.098318298198862,-2.1118032427549673,-1.9650431620604807,0.945122840206468,-5.082468814909159,0.8257103480663827,215.0
216,5.098318290694414,-2.1118032139806897,-1.9650431598609428,0.9451228092139841,-5.0824688076312174,0.8863770744229467,216.0
217,5.098318284426961,-2.1118031899494207,-1.9650431580239627,0.945122783330145,-5.082468801552935,0.9370438007794984,217.0
218,5.098318279396505,-2.111803170661161,-1.9650431565495432,0.9451227625549518,-5.082468796674311,0.9777105271360432,218.0
219,5.098318275603043,-2.1118031561159087,-1.9650431554376855,0.9451227468884053,-5.082468792995348,1.008377253492596,219.0
220,5.098318273046578,-2.111803146313664,-1.965043154688389,0.9451227363305051,-5.082468790516044,1.02904397984915,220.0
221,5.098187441994601,-2.112052715778284,-1.9645560457748639,0.9448851148126632,-5.082338253535712,1.0401246921684437,221.0
222,5.096764099202189,-2.11476792594093,-1.95925661980754,0.9423000060988228,-5.0809181096248475,1.0433141026137978,222.0
223,5.095787553885059,-2.116630817500282,-1.955620718501392,0.940526380302113,-5.07994375940705,1.0370030344405365,223.0
224,5.095787555748168,-2.116630822321573,-1.9556207207217018,0.9405263794290407,-5.079943762136826,1.0227293605493382,224.0
225,5.095787558916553,-2.116630830520614,-1.955620724497539,0.9405263779443022,-5.079943766779056,0.9984556866581424,225.0
226,5.095787563390214,-2.116630842097405,-1.9556207298289037,0.9405263758478974,-5.07994377333374,0.9641820127669463,226.0
227,5.095787569169151,-2.116630857051946,-1.955620736715796,0.9405263731398266,-5.07994378180088,0.9199083388757567,227.0
228,5.0957875767578695,-2.11663087559292,-1.9556207449123302,0.9405263704607582,-5.079943796539617,0.8656346749994934,228.0
229,5.095787586073166,-2.116630897685912,-1.9556207544590563,0.9405263677050353,-5.079943816831056,0.8013610171372039,229.0
230,5.095787592117475,-2.116630927268042,-1.9556207628540028,0.9405263825183625,-5.079943830750783,0.7270873658567358,230.0
231,5.095787591404274,-2.116630967332065,-1.9556207681493447,0.9405264281943176,-5.079943831260648,0.6428137244100972,231.0
232,5.095787590596744,-2.1166310122165517,-1.9556207740138059,0.9405264795750168,-5.079943831746686,0.5485400918769643,232.0
233,5.095787585913293,-2.1166310608427117,-1.9556207811811912,0.9405265359264661,-5.079943827974271,0.4442664662994638,233.0
234,5.095787569475218,-2.1166311109963862,-1.9556207911508057,0.9405265958579504,-5.0799438110853385,0.32999284937066997,234.0
235,5.095787551596463,-2.116631165536953,-1.9556208019949228,0.9405266610265073,-5.079943792699494,0.20571924220644616,235.0
236,5.095787518309426,-2.116631216287124,-1.9556208155646928,0.9405267249112635,-5.079943758959827,0.0714456405546349,236.0
237,5.09578748006031,-2.1166312693629483,-1.955620830474555,0.9405267923929341,-5.079943720241626,-0.07282795994553669,237.0
238,5.0957874263676555,-2.1166313132195227,-1.9556208473887002,0.9405268525207447,-5.0799436661441995,-0.22710155489470105,238.0
239,5.095787365946251,-2.116631356282386,-1.955620865598414,0.9405269130830538,-5.079943605319227,-0.3913587840933829,239.0
240,5.095787294809209,-2.116631379976563,-1.9556208834997852,0.9405269538970211,-5.0799435339272945,-0.5548234327848482,240.0
241,5.095787226688942,-2.1166313971080366,-1.9556208999139006,0.9405269867053945,-5.079943465608297,-0.7082880814763333,241.0
242,5.095787159234744,-2.1166313986736385,-1.9556209141503318,0.9405270018085019,-5.079943398082958,-0.8517527301678334,242.0
243,5.095787096573559,-2.1166313961530396,-1.9556209268544524,0.9405270113507869,-5.079943335388121,-0.9852173788593381,243.0
244,5.095787038905018,-2.1166313808423913,-1.9556209368445407,0.9405270054663052,-5.079943277794614,-1.10868202755085,244.0
245,5.095786985907328,-2.1166313667718297,-1.955620946025475,0.9405270000584319,-5.079943224865879,-1.2221466762423747,245.0
246,5.095786941030139,-2.1166313434180353,-1.955620952301139,0.940526982564557,-5.079943180140423,-1.3256113249339059,246.0
247,5.095786901200149,-2.1166313201562685,-1.9556209575389754,0.9405269641767555,-5.079943140465782,-1.4190759736254368,247.0
248,5.09578686563166,-2.116631299383333,-1.9556209622163996,0.9405269477563057,-5.079943105036023,-1.5025406223169706,248.0
249,5.095786838027088,-2.1166312759615615,-1.9556209648902323,0.940526926770919,-5.079943077598684,-1.5760052710085133,249.0
250,5.095786815770618,-2.1166312535208016,-1.9556209665801072,0.9405269058357689,-5.079943055506067,-1.6394699197000517,250.0
251,5.095786797021054,-2.116631234615989,-1.9556209680037102,0.9405268881993281,-5.079943036894541,-1.6929345683915882,251.0
252,5.095786781778399,-2.116631219247123,-1.9556209691610413,0.9405268738615967,-5.0799430217641035,-1.7363992170831106,252.0
253,5.095786770042652,-2.1166312074142035,-1.9556209700521032,0.9405268628225764,-5.079943010114757,-1.7698638657746373,253.0
254,5.095786761813814,-2.11663119911723,-1.9556209706768952,0.9405268550822669,-5.079943001946501,-1.7933285144661613,254.0
255,5.095785139826849,-2.1166343285933973,-1.955614849110404,0.940523861986424,-5.079941383756881,-1.8067982246517063,255.0
256,5.094696586695595,-2.1187439270743154,-1.9514942903591712,0.9385122512256789,-5.078855363159271,-1.8125073872276614,256.0
257,5.093362208805487,-2.121329941006064,-1.9464431831389135,0.9360463585249609,-5.077524090538753,-1.808546902891981,257.0
258,5.09329027614383,-2.1214693569366805,-1.946170876387427,0.9359134187894806,-5.077452327649488,-1.7968494575926977,258.0
259,5.093290284186602,-2.1214693618893006,-1.9461708780994953,0.9359134145822239,-5.0774523401132186,-1.7753943074090164,259.0
260,5.093290295978019,-2.1214693691502804,-1.9461708806095392,0.9359134084140128,-5.077452358386152,-1.7439391572253298,260.0
261,5.0932903115180785,-2.1214693787196195,-1.9461708839175582,0.9359134002848475,-5.077452382468287,-1.7024840070416547,261.0
262,5.093290330554409,-2.121469390378608,-1.9461708882514104,0.9359133893916887,-5.077452410168252,-1.65102886474423,262.0
263,5.093290352764452,-2.121469403847714,-1.94617089390232,0.9359133747081764,-5.077452438685268,-1.5895737374502479,263.0
264,5.093290379118466,-2.121469419742476,-1.946170899179268,0.9359133614302165,-5.077452471289,-1.5181186121020651,264.0
265,5.093290413430073,-2.121469439746515,-1.9461708947740353,0.935913376866617,-5.077452503995719,-1.4366635010771318,265.0
266,5.093290451948862,-2.1214694622453383,-1.9461708897929995,0.9359133943649415,-5.077452540672695,-1.345208395401627,266.0
267,5.0932904946717255,-2.1214694872624533,-1.9461708842150438,0.9359134140258919,-5.077452581292738,-1.2437532972734968,267.0
268,5.093290546312277,-2.121469501310485,-1.946170875274491,0.9359134197139504,-5.077452632804452,-1.1322982106254798,268.0
269,5.093290602699566,-2.1214695163004693,-1.9461708654642245,0.9359134255362429,-5.077452689115875,-1.0108431312404011,269.0
270,5.093290663964964,-2.121469522278645,-1.946170853464459,0.9359134201771685,-5.077452750388961,-0.8793880583544509,270.0
271,5.093290730073041,-2.121469520763197,-1.9461708394803043,0.9359134053638671,-5.077452816570871,-0.7379329884062871,271.0
272,5.093290797942599,-2.1214695080014243,-1.9461708236505957,0.9359133774992625,-5.077452884606469,-0.586477922237068,272.0
273,5.093290867780333,-2.121469484784108,-1.946170806036083,0.9359133374358013,-5.077452954696247,-0.4250228624956987,273.0
274,5.0932909307068135,-2.1214694457466505,-1.9461707877832009,0.9359132808741746,-5.077453017998858,-0.25932529208635047,274.0
275,5.093290987392699,-2.1214694042955022,-1.946170770514333,0.9359132228232245,-5.077453075075274,-0.10304585596438114,275.0
276,5.093291026341837,-2.1214693512830025,-1.9461707554242902,0.9359131552295223,-5.077453114494513,0.04323358015760882,276.0
277,5.093291062252131,-2.1214693015155985,-1.9461707413944571,0.9359130919032113,-5.0774531508455585,0.1795130162796017,277.0
278,5.093291081159928,-2.121469247014918,-1.9461707302878635,0.9359130266005576,-5.077453170218162,0.305792452401598,278.0
279,5.093291097780995,-2.1214691963693904,-1.9461707201648417,0.9359129661052672,-5.077453187270324,0.4220718885236134,279.0
280,5.0932911055557355,-2.1214691481105357,-1.946170712200198,0.9359129100587891,-5.077453195448792,0.528351324645633,280.0
281,5.093291106595197,-2.1214691027987325,-1.9461707060273923,0.9359128586756646,-5.077453196861846,0.6246307607676553,281.0
282,5.093291107526695,-2.121469062193213,-1.9461707004957147,0.935912812629412,-5.077453198128133,0.7109101968896849,282.0
283,5.093291104444037,-2.1214690263835316,-1.946170696431475,0.9359127727953307,-5.0774531953373065,0.7871896330117126,283.0
284,5.09329109634318,-2.1214689953927084,-1.9461706940470649,0.9359127393984056,-5.077453187484256,0.8534690691337479,284.0
285,5.093291089464552,-2.121468969077668,-1.9461706920224053,0.9359127110402864,-5.077453180816045,0.9097485052557768,285.0
286,5.09329108380815,-2.121468947438412,-1.9461706903574938,0.9359126877209725,-5.077453175332674,0.9560279413777928,286.0
287,5.093291079373978,-2.121468930474938,-1.9461706890523345,0.9359126694404654,-5.077453171034143,0.9923073774998097,287.0
288,5.093291076162033,-2.1214689181872464,-1.946170688106927,0.9359126561987653,-5.07745316792045,1.018586813621831,288.0
289,5.093291074172314,-2.1214689105753366,-1.946170687521271,0.9359126479958718,-5.0774531659915985,1.0348662497438463,289.0
290,5.09264904309464,-2.122732918844061,-1.9436999244508557,0.9347055283625514,-5.076812680691812,1.042674058713594,290.0
291,5.091165469973318,-2.125653738954399,-1.937990601248523,0.931916181203112,-5.07533267953851,1.04150159120015,291.0
292,5.090828242018386,-2.126317670051197,-1.936692823528053,0.9312821377102696,-5.074996264107945,1.0319401758805111,292.0
293,5.090828244427998,-2.126317676253449,-1.936692826410267,0.9312821365834958,-5.074996267711821,1.013321194956602,293.0
294,5.09082824813178,-2.1263176857868458,-1.9366928308404785,0.9312821348515472,-5.074996273251289,0.9847022140326885,294.0
295,5.090828253129732,-2.1263176986513868,-1.9366928368186878,0.9312821325144238,-5.074996280726349,0.9460832331087853,295.0
296,5.090828259465894,-2.126317714866088,-1.9366928443225249,0.9312821296314292,-5.074996290521602,0.8974642529881398,296.0
297,5.090828267878658,-2.126317734749757,-1.9366928529769352,0.9312821271968612,-5.074996309085348,0.838845285577204,297.0
298,5.090828277726582,-2.1263177580254458,-1.9366928631077296,0.9312821243469727,-5.074996330815944,0.770226318166275,298.0
299,5.090828278957867,-2.126317793261901,-1.9366928690691205,0.9312821592300642,-5.074996335149148,0.6916073644122728,299.0
300,5.090828278214514,-2.1263178348073786,-1.9366928745820773,0.9312822066825547,-5.074996335661476,0.6029884150261667,300.0
301,5.090828277374779,-2.1263178811247303,-1.9366928806416162,0.9312822598494703,-5.074996336121697,0.5043694768111486,301.0
302,5.0908282662385655,-2.126317929304238,-1.9366928892377193,0.9312823167567965,-5.074996325107422,0.3957505467546811,302.0
303,5.090828249381236,-2.1263179806153194,-1.9366928995098571,0.9312823781411387,-5.0749963077740174,0.2771316244913184,303.0
304,5.0908282265402995,-2.1263180335839813,-1.9366929112570483,0.9312824425708388,-5.074996284438806,0.14851270966322735,304.0
305,5.090828190233507,-2.126318083835717,-1.9366929254754977,0.9312825065630738,-5.074996247680348,0.009893799492232364,305.0
306,5.0908281473910915,-2.126318133770553,-1.9366929410184035,0.9312825714957289,-5.074996204383978,-0.13872510869809318,306.0
307,5.0908280902030665,-2.126318175527875,-1.9366929584811636,0.9312826300400838,-5.074996146799265,-0.29734401012546435,307.0
308,5.090828024733239,-2.1263182097854822,-1.9366929766859866,0.931282681755921,-5.074996080987562,-0.4637058874935345,308.0
309,5.090827956320658,-2.1263182324857026,-1.93669299398156,0.931282720997646,-5.074996012326258,-0.6228231634885935,309.0
310,5.090827888689702,-2.126318240315861,-1.9366930091523964,0.9312827432822082,-5.074995944570538,-0.7719404394836616,310.0
311,5.0908278240653,-2.1263182417784385,-1.9366930228548402,0.9312827577746032,-5.07499587987682,-0.9110577154787458,311.0
312,5.090827764343747,-2.1263182319154477,-1.9366930340385327,0.9312827584959857,-5.074995820184178,-1.0401749914738418,312.0
313,5.090827709373604,-2.126318217324932,-1.9366930436053997,0.9312827529316493,-5.07499576528634,-1.1592922674689499,313.0
314,5.090827660110007,-2.12631820063649,-1.9366930517026144,0.9312827438630401,-5.07499571611749,-1.268409543464061,314.0
315,5.090827618377663,-2.1263181762965324,-1.9366930572162229,0.9312827246525586,-5.0749956745499905,-1.3675268194591725,315.0
316,5.090827580855718,-2.1263181544122505,-1.9366930621735547,0.9312827073802308,-5.074995637176258,-1.4566440954542903,316.0
317,5.090827548196431,-2.126318134080849,-1.9366930663191857,0.9312826908963916,-5.074995604656614,-1.535761371449413,317.0
318,5.090827524247943,-2.1263181099761055,-1.9366930681461578,0.9312826684183185,-5.074995580886758,-1.6048786474445367,318.0
319,5.090827503764361,-2.1263180893588753,-1.9366930697088005,0.9312826491924098,-5.074995560555962,-1.6639959234396577,319.0
320,5.090827486745685,-2.1263180722291604,-1.9366930710071109,0.931282633218663,-5.074995543664229,-1.7131131994347673,320.0
321,5.090827473191915,-2.1263180585869583,-1.9366930720410922,0.9312826204970807,-5.074995530211556,-1.7522304754298688,321.0
322,5.090827463103052,-2.12631804843227,-1.9366930728107452,0.9312826110276631,-5.0749955201979455,-1.7813477514249705,322.0
323,5.0908274564790945,-2.126318041765095,-1.9366930733160692,0.93128260481041,-5.074995513623397,-1.8004650274200877,323.0
324,5.090551728103944,-2.1268694885754185,-1.935614363199523,0.9307551927944575,-5.074720472037138,-1.810398962926524,324.0
325,5.089104165660277,-2.1297646138159343,-1.929951110433974,0.9279862844058376,-5.073276515237092,-1.8120800499889729,325.0
326,5.088397512919686,-2.131177927543596,-1.9271864839484516,0.9266345868743509,-5.07257162414954,-1.8046525751073095,326.0
327,5.088397518761526,-2.1311779311387613,-1.9271864851990959,0.9266345838393416,-5.07257163327028,-1.7888915197737578,327.0
328,5.0883975283098675,-2.1311779370149706,-1.9271864872432434,0.9266345788786938,-5.072571648177902,-1.7631304644402075,328.0
329,5.088397541564712,-2.1311779451722233,-1.9271864900808937,0.9266345719924078,-5.072571668872411,-1.7273694091066696,329.0
330,5.08839755852606,-2.13117795561052,-1.9271864937120469,0.9266345631804837,-5.072571695353802,-1.6816083537731292,330.0
331,5.088397578615012,-2.131177967814751,-1.9271864986766776,0.9266345505429262,-5.072571722542272,-1.6258473153228004,331.0
332,5.088397602124187,-2.131177982045289,-1.9271865047018455,0.9266345350401249,-5.072571753005511,-1.5600862817684913,332.0
333,5.088397631717747,-2.1311779995466713,-1.927186505436402,0.9266345352214753,-5.072571785258905,-1.4843252571145769,333.0
334,5.088397667414181,-2.1311780203270514,-1.9271865008346234,0.926634551219886,-5.072571819281516,-1.3985642397287252,334.0
335,5.088397707262075,-2.1311780436106145,-1.9271864956235074,0.9266345694275371,-5.072571857175253,-1.3028032332913533,335.0
336,5.088397753161112,-2.131178063951575,-1.927186488715877,0.9266345832180367,-5.07257190178011,-1.1970422336654132,336.0
337,5.088397806261754,-2.131178078065211,-1.9271864794336266,0.9266345886563223,-5.072571954798407,-1.0812812423773956,337.0
338,5.088397863952453,-2.1311780933554196,-1.9271864693427114,0.9266345945172183,-5.072572012415378,-0.9555202595121827,338.0
339,5.088397926641149,-2.1311780919554275,-1.9271864560186265,0.926634580447383,-5.072572075175221,-0.819759283123713,339.0
340,5.088397993947423,-2.1311780904521322,-1.9271864417132663,0.9266345653403764,-5.072572142557903,-0.6739983070852902,340.0
341,5.088398060645157,-2.131178068897917,-1.9271864248814377,0.9266345276895378,-5.072572209495505,-0.5182373378510711,341.0
342,5.088398129139193,-2.1311780416771446,-1.9271864069230853,0.9266344832754827,-5.072572278278244,-0.35283539156608645,342.0
343,5.088398187186115,-2.131177999354255,-1.9271863891553789,0.926634423871314,-5.072572336730727,-0.19086397982514858,343.0
344,5.088398235751932,-2.1311779537135576,-1.9271863729356404,0.9266343626053497,-5.07257238572134,-0.03889256808426397,344.0
345,5.088398272713251,-2.131177902619606,-1.9271863584262658,0.9266342974866859,-5.072572423142632,0.10307884365656698,345.0
346,5.088398301293697,-2.1311778517570747,-1.9271863457040408,0.9266342342990723,-5.072572452173617,0.23505025539730207,346.0
347,5.088398318518214,-2.1311777993919025,-1.9271863351629865,0.9266341716749776,-5.0725724698510675,0.3570216671379931,347.0
348,5.088398334330556,-2.1311777513199677,-1.9271863254861483,0.9266341141852061,-5.072572486079205,0.46899307887862335,348.0
349,5.088398335829075,-2.1311777041171043,-1.9271863189243388,0.9266340605291232,-5.072572487973452,0.5709644906191842,349.0
350,5.088398336808687,-2.1311776614445543,-1.9271863130709113,0.9266340120974166,-5.072572489310474,0.6629359023597001,350.0
351,5.088398337681786,-2.131177623411768,-1.9271863078539204,0.9266339689316612,-5.072572490502122,0.7449073141001874,351.0
352,5.088398330677335,-2.1311775901923298,-1.927186304925059,0.92663393277606,-5.072572483768952,0.8168787258406377,352.0
353,5.088398323192551,-2.1311775616210036,-1.9271863027120915,0.926633901970315,-5.072572476516183,0.8788501375810596,353.0
354,5.088398316915545,-2.1311775376600823,-1.9271863008562162,0.9266338761355295,-5.072572470433756,0.9308215493214637,354.0
355,5.088398311846321,-2.1311775183095665,-1.9271862993574351,0.9266338552717044,-5.07257246552167,0.9727929610618625,355.0
356,5.0883983079848765,-2.1311775035694542,-1.9271862982157497,0.9266338393788404,-5.072572461779925,1.0047643728022586,356.0
357,5.0883983053312125,-2.131177493439746,-1.92718629743116,0.9266338284569372,-5.072572459208519,1.02673578454267,357.0
358,5.088356630981176,-2.131262153439453,-1.9270205607082105,0.9265527304514397,-5.072530892254036,1.0388579412776546,358.0
359,5.087132230763261,-2.1337497285422993,-1.9221510283416852,0.9241701480059719,-5.071309646130995,1.043322605953785,359.0
360,5.086011653741284,-2.136026375342974,-1.9176944049903049,0.9219895964431677,-5.07019195609367,1.0380555290632596,360.0
361,5.086000705365228,-2.1360486264576672,-1.9176508578462976,0.9219682878091013,-5.070181036798522,1.025127803232675,361.0
362,5.08600070830215,-2.136048633976936,-1.9176508613730607,0.9219682864385583,-5.070181041281662,1.0022417234117809,362.0
363,5.086000712522351,-2.1360486447817255,-1.9176508664408318,0.9219682844691606,-5.070181047723697,0.9693556435909039,363.0
364,5.086000718025829,-2.1360486588720353,-1.917650873049611,0.9219682819009083,-5.0701810561246266,0.9264695637700228,364.0
365,5.086000725184341,-2.1360486764153124,-1.9176508810025976,0.9219682792636348,-5.0701810697653364,0.8735834882637576,365.0
366,5.086000734122442,-2.1360486974676602,-1.9176508902338543,0.9219682767348605,-5.070181089745088,0.8106974173180428,366.0
367,5.086000741488213,-2.1360487244026505,-1.9176508992423755,0.9219682851134179,-5.07018110669504,0.7378113506426528,367.0
368,5.086000740802253,-2.1360487627068827,-1.9176509043689025,0.9219683288773113,-5.070181107181,0.6549252959493903,368.0
369,5.0860007400257405,-2.136048805683559,-1.917650910067341,0.9219683781411202,-5.070181107656289,0.5620392484571384,369.0
370,5.086000737448432,-2.1360488528546266,-1.9176509166643232,0.9219684326158397,-5.070181106194436,0.45915320811563626,370.0
371,5.086000721599012,-2.13604890099263,-1.9176509263696089,0.9219684902760213,-5.070181089897603,0.34626717803971907,371.0
372,5.086000704343777,-2.136048953393198,-1.91765093693644,0.921968553037532,-5.070181072141279,0.22338115640461031,372.0
373,5.086000674317932,-2.1360490034201414,-1.9176509498856524,0.9219686156245637,-5.070181041650983,0.09049514079328663,373.0
374,5.086000637340237,-2.1360490544714317,-1.9176509644378266,0.9219686807408967,-5.070181004207104,-0.052390872752871735,374.0
375,5.086000587426225,-2.1360490986970513,-1.917650980801492,0.921968740723014,-5.070180953874682,-0.20527688162177316,375.0
376,5.086000529438814,-2.1360491409152798,-1.9176509985948789,0.9219688000480804,-5.07018089547939,-0.3680523461411872,376.0
377,5.086000462273518,-2.136049165471823,-1.9176510159709472,0.9219688412331969,-5.0701808280465395,-0.5288356058455878,377.0
378,5.086000397896708,-2.1360491854295107,-1.917651032150167,0.921968876660652,-5.070180763443409,-0.6796188655499409,378.0
379,5.086000333276031,-2.1360491868531155,-1.9176510459188039,0.9219688911771329,-5.070180698752252,-0.8204021252542264,379.0
380,5.086000273245433,-2.1360491881756047,-1.9176510587094282,0.9219689046624868,-5.070180638656181,-0.9511853849584565,380.0
381,5.0860002181545525,-2.1360491741744694,-1.917651068426617,0.921968899832182,-5.070180583633328,-1.0719686446625978,381.0
382,5.0860001676377875,-2.1360491607672665,-1.9176510772614732,0.9219688947599514,-5.070180533183731,-1.1827519043666959,382.0
383,5.086000123361064,-2.1360491434683686,-1.9176510842681096,0.9219688840404001,-5.070180489012591,-1.2835351640707486,383.0
384,5.086000085591398,-2.136049121466917,-1.917651089282712,0.9219688667032219,-5.070180451393998,-1.3743184237747397,384.0
385,5.086000051982154,-2.1360491018889824,-1.9176510937449383,0.9219688512757747,-5.070180417919185,-1.4551016834786847,385.0
386,5.086000022533331,-2.1360490847345623,-1.9176510976547936,0.9219688377580606,-5.070180388588153,-1.525884943182617,386.0
387,5.086000001633801,-2.136049063944317,-1.9176510992851492,0.9219688184211632,-5.070180367844765,-1.5866682028865244,387.0
388,5.085999984246498,-2.1360490464724915,-1.9176511006182153,0.921968802135486,-5.070180350588842,-1.6374514625904077,388.0
389,5.08599997028302,-2.1360490324411363,-1.9176511016887796,0.9219687890567073,-5.070180336730874,-1.6782347222942853,389.0
390,5.0859999597433685,-2.136049021850251,-1.9176511024968415,0.9219687791848266,-5.07018032627086,-1.709017981998163,390.0
391,5.085999952627542,-2.136049014699835,-1.9176511030424024,0.9219687725198448,-5.070180319208801,-1.7298012417020554,391.0
392,5.085999948935542,-2.1360490109898875,-1.9176511033254635,0.9219687690617622,-5.070180315544698,-1.7405845014059453,392.0
393,5.086504128844313,-2.135058151754358,-1.9196778870236586,0.9230048955080782,-5.070682818300062,-1.742382309409125,393.0
394,5.08664505118165,-2.1347812063134968,-1.9202443787661378,0.9232944982865643,-5.070823271848604,-1.7353321861538065,394.0
395,5.086785569365919,-2.1345050651130903,-1.920809232087483,0.9235832667494599,-5.070963322574304,-1.7184835810970545,395.0
396,5.087009488035745,-2.1340650283263876,-1.92170933768606,0.9240434253434215,-5.0711864963391085,-1.691634976040308,396.0
397,5.087316807191129,-2.1334610959533875,-1.9229446955618692,0.9246749740684495,-5.071492793143019,-1.6547863709835458,397.0
398,5.08771113520425,-2.132694898710963,-1.9245119790243872,0.9254762256380898,-5.0718858367823625,-1.6079376847474585,398.0
399,5.088190840757848,-2.131765699757009,-1.9264126912424508,0.9264479424519851,-5.072363988967979,-1.5510889734959055,399.0
400,5.088754929148462,-2.130673049612431,-1.9286477491609206,0.9275905895811856,-5.072926250744661,-1.484240262244371,400.0
401,5.089408028509645,-2.12941896070237,-1.9312130483205918,0.9289020849232684,-5.073577266692668,-1.407391432996406,401.0
402,5.090146686808871,-2.12800193232196,-1.9341116494955513,0.930383981139877,-5.074313572513131,-1.32054258989403,402.0
403,5.090976131005396,-2.12642418561163,-1.9373390235800518,0.9320339828568724,-5.075140415324558,-1.2236936138170975,403.0
404,5.091893729406387,-2.1246845845760345,-1.9408974872456772,0.9338532644592111,-5.076055153278817,-1.116844579884581,404.0
405,5.092903414540329,-2.122784758161063,-1.9447837195204123,0.9358401432633882,-5.07706173374159,-0.9999954060284767,405.0
406,5.094006382298798,-2.120725139327953,-1.9489968386895709,0.9379941734949946,-5.0781613566678985,-0.8731460787162247,406.0
407,5.095203120405749,-2.118505882539028,-1.953536530585023,0.9403151967225223,-5.079354511289991,-0.7362966039906065,407.0
408,5.096495788836101,-2.116127798828667,-1.9584011430239316,0.9428023771382901,-5.080643365141702,-0.5894469525997652,408.0
409,5.097886598329218,-2.113591680778986,-1.963589062037553,0.9454548989164633,-5.082030136439395,-0.432597097757575,409.0
410,5.099333025319803,-2.1109785724113634,-1.968934508611544,0.9481880083978389,-5.083472434983526,-0.2707261467011522,410.0
411,5.100707936307018,-2.1085166420609127,-1.9739707338659163,0.950763056188525,-5.084843485415541,-0.11798845253256253,411.0
412,5.102002307773142,-2.1062193322721665,-1.9786702357889197,0.9531659757010508,-5.0861342813824075,0.024749422476686468,412.0
413,5.103215050415907,-2.104086172578647,-1.9830339737710827,0.955397253337277,-5.087343729340248,0.15748745967407715,413.0
414,5.104342931159797,-2.1021159713388897,-1.9870643749788715,0.9574581165699745,-5.0884685850536515,0.28022560699543403,414.0
415,5.1053837250740095,-2.1003079395000377,-1.9907630460708743,0.9593493773749147,-5.089506616129349,0.3929638349432995,415.0
416,5.106338532822263,-2.0986624208438744,-1.9941292878151988,0.9610706832251845,-5.090458926595994,0.49570216524866967,416.0
417,5.107204163826247,-2.097178308164396,-1.9971653542787726,0.9626231728401152,-5.091322315343624,0.5884405507743646,417.0
418,5.107979470190819,-2.0958552226521725,-1.9998720163190287,0.9640072352775513,-5.092095630826582,0.6711789833647893,418.0
419,5.108663898551701,-2.0946929599338464,-2.0022496902042475,0.9652230810608046,-5.092778317766446,0.7439174549133416,419.0
420,5.109256683414575,-2.09369127324896,-2.004298877976765,0.9662709634587664,-5.093369608276173,0.8066559630110157,420.0
421,5.109754983266433,-2.0928492471481803,-2.0060214421436777,0.9671518220575126,-5.093866651962432,0.8593944711087158,421.0
422,5.1101608871075745,-2.092167538812908,-2.0074160459294648,0.9678649828081491,-5.094271544241755,0.9021330069963538,422.0
423,5.11047280018606,-2.0916456463843804,-2.008483710168801,0.9684109604531761,-5.094582685463568,0.9348715580971616,423.0
424,5.110689439323581,-2.0912831661506446,-2.0092252560542594,0.9687901690669939,-5.094798788508261,0.9576101091979765,424.0
425,5.1108108045201375,-2.0910800981117,-2.0096406835858396,0.9690026086496029,-5.0949198533758375,0.9703486602987911,425.0
426,5.111277198023391,-2.0903018708220436,-2.011232797545986,0.9698168047638197,-5.095385096518106,0.9737058140536937,426.0
427,5.111511212193529,-2.0899117282908897,-2.0120309674923766,0.9702249877040044,-5.0956185340816385,0.9682563387556334,427.0
428,5.1115115644718205,-2.0899118448146745,-2.0120307460248545,0.9702248835421037,-5.095618886731382,0.9532626180451046,428.0
429,5.111512151700662,-2.089912039053516,-2.0120303768504857,0.9702247099098542,-5.095619474579414,0.9282688973345757,429.0
430,5.111512973921085,-2.0899123110236886,-2.012029859949323,0.9702244668518075,-5.095620297978296,0.8932751825495446,430.0
431,5.111514031293988,-2.0899126607890035,-2.0120291952431417,0.9702241545424919,-5.095621358309552,0.8482814919755619,431.0
432,5.111515323671596,-2.0899130882908423,-2.012028382803761,0.9702237728213738,-5.0956226543030185,0.7932878014015838,432.0
433,5.111516150813949,-2.0899133767981395,-2.012027864538068,0.9702235451368533,-5.095623483849965,0.7282941191379537,433.0
434,5.111516150031672,-2.089913414055013,-2.0120278693317832,0.9702235872240564,-5.0956234832930924,0.6533004473622598,434.0
435,5.111516149142624,-2.0899134562977304,-2.012027874749285,0.970223634999386,-5.095623482641308,0.5683067791526191,435.0
436,5.111516148146748,-2.089913503526692,-2.012027880790227,0.9702236884645444,-5.095623481894149,0.47331311399711135,436.0
437,5.111516132586921,-2.089913551820654,-2.0120278900211575,0.9702237457587122,-5.095623465944444,0.36831946034040197,437.0
438,5.111516115417579,-2.0899136046795515,-2.012027900154163,0.9702238084923384,-5.095623448338374,0.2533258121536981,438.0
439,5.111516089387445,-2.089913657803707,-2.0120279121395024,0.9702238732402069,-5.09562342186644,0.12833217129643884,439.0
440,5.111516052243919,-2.089913709868911,-2.0120279262738556,0.9702239389510706,-5.095623384288769,-0.006661462862212475,440.0
441,5.111516006866849,-2.0899137602241944,-2.012027941881426,0.9702240043452051,-5.095623338484584,-0.15165509444709646,441.0
442,5.111515948168227,-2.089913803702994,-2.0120279593577015,0.9702240646111753,-5.095623279402103,-0.3066487224859151,442.0
443,5.1115158797680404,-2.089913838667211,-2.0120279777557153,0.9702241172036805,-5.095623210676194,-0.47064591309909176,443.0
444,5.1115158081076455,-2.0899138628859757,-2.0120279954758957,0.9702241583625123,-5.095623138770661,-0.6293262732410343,444.0
445,5.111515737039866,-2.08991387041869,-2.012028010984506,0.9702241806650751,-5.095623067587447,-0.7780066333829397,445.0
446,5.111515669377486,-2.08991387213379,-2.0120280250664635,0.9702241957703232,-5.095622999857426,-0.9166869935248246,446.0
447,5.1115156068841054,-2.089913861033628,-2.0120280364838,0.9702241954753912,-5.095622937399806,-1.0453673536666936,447.0
448,5.111515549362808,-2.089913845736504,-2.0120280463564066,0.9702241894982229,-5.095622879950769,-1.164047713808527,448.0
449,5.111515498031283,-2.0899138275936884,-2.012028054603988,0.9702241791193169,-5.095622828718517,-1.2727280739503433,449.0
450,5.111515454396712,-2.0899138019652117,-2.012028060336452,0.9702241588337652,-5.095622785247375,-1.3714084340921389,450.0
451,5.111515415183947,-2.0899137789338575,-2.0120280654879985,0.9702241406038932,-5.09562274618148,-1.4600887942339225,451.0
452,5.11151538133646,-2.089913757177137,-2.0120280696996162,0.9702241227605966,-5.0956227124753,-1.538769154375711,452.0
453,5.1115153563461,-2.0899137318004213,-2.012028071642561,0.9702240991263782,-5.095622687661399,-1.6074495145174836,453.0
454,5.111515334994388,-2.0899137101186067,-2.0120280733026097,0.9702240789333499,-5.095622666460452,-1.6661298746592754,454.0
455,5.111515317281322,-2.0899136921316948,-2.0120280746797574,0.9702240621815097,-5.095622648872459,-1.7148102348010816,455.0
456,5.111515303206903,-2.0899136778396845,-2.012028075774009,0.97022404887086,-5.0956226348974205,-1.7534905949429038,456.0
457,5.1115152927711325,-2.089913667242575,-2.0120280765853646,0.970224039001401,-5.095622624535337,-1.7821709550847165,457.0
458,5.111515285974008,-2.0899136603403665,-2.0120280771138246,0.9702240325731327,-5.095622617786207,-1.8008513152265262,458.0
459,5.1111456016131775,-2.0905629197942424,-2.010761664531009,0.9696066000911394,-5.0952536268531174,-1.8104436390551004,459.0
460,5.109504616972185,-2.0934449465298828,-2.005140157830669,0.966865879825075,-5.0936157203310115,-1.8116014996365017,460.0
461,5.108802209324144,-2.09467857804044,-2.002733915654453,0.9656927342799295,-5.092914631785272,-1.803755829710128,461.0
462,5.108802215686313,-2.094678581968007,-2.0027339169712586,0.9656927308767581,-5.092914641491491,-1.7873852459150386,462.0
463,5.108802225934825,-2.0946785882947356,-2.002733919092437,0.9656927253947534,-5.092914657126773,-1.76101466211994,463.0
464,5.10880224006968,-2.0946785970206254,-2.0027339220179887,0.9656927178339151,-5.092914678691116,-1.7246440783248396,464.0
465,5.1088022580908765,-2.094678608145676,-2.0027339257479135,0.9656927081942438,-5.09291470618452,-1.6782734945297442,465.0
466,5.108802279309678,-2.094678621108173,-2.002733930856957,0.9656926944389683,-5.092914733816036,-1.62190292986769,466.0
467,5.1088023041442945,-2.0946786362491943,-2.002733936996128,0.9656926778048336,-5.09291476510198,-1.5555323689838376,467.0
468,5.108802335706442,-2.0946786550097176,-2.0027339369872235,0.9656926800307428,-5.0929147984947996,-1.4791618181629846,468.0
469,5.108802373442977,-2.0946786771418213,-2.0027339321406235,0.9656926971583017,-5.092914834477465,-1.3927912737677324,469.0
470,5.108802415537017,-2.094678701928432,-2.0027339266527076,0.9656927166610435,-5.092914874527972,-1.2964207409064277,470.0
471,5.108802464290326,-2.0946787227009405,-2.002733919259895,0.965692730455176,-5.092914922067426,-1.1900502147683778,471.0
472,5.108802520339773,-2.0946787376226275,-2.0027339096025516,0.9656927363471404,-5.092914978036424,-1.0736796968466376,472.0
473,5.108802581234103,-2.0946787526694437,-2.002733898965173,0.9656927414364741,-5.092915038867259,-0.947309187080114,473.0
474,5.108802647355479,-2.0946787510105325,-2.0027338851776375,0.96569272666751,-5.092915105058806,-0.8109386832952887,474.0
475,5.108802718131124,-2.0946787484796983,-2.002733870324904,0.965692710009869,-5.092915175915332,-0.6645681799965284,475.0
476,5.108802788308026,-2.094678724807154,-2.0027338529384657,0.965692669715606,-5.092915246334105,-0.508197683746585,476.0
477,5.108802859657007,-2.09467869439541,-2.002733834464495,0.9656926216207415,-5.09291531797852,-0.34245225812004065,477.0
478,5.108802920388985,-2.094678649478864,-2.0027338163482717,0.9656925593011989,-5.092915379110606,-0.18108202972111,478.0
479,5.108802970251146,-2.0946786001370556,-2.002733799908279,0.9656924941311389,-5.092915429398598,-0.029711801322218498,479.0
480,5.1088030089056735,-2.0946785460272963,-2.002733785170835,0.9656924257914683,-5.092915468507083,0.11165842707662861,480.0
481,5.1088030377986104,-2.094678491621175,-2.002733772400846,0.9656923590240314,-5.092915497848363,0.2430286554754581,481.0
482,5.108803055804114,-2.094678436258002,-2.002733761746506,0.9656922933062477,-5.092915516300839,0.3643988838742662,482.0
483,5.108803071870271,-2.0946783853351705,-2.0027337520483837,0.9656922329559362,-5.092915532777715,0.4757691122730579,483.0
484,5.1088030730114475,-2.094678335400663,-2.0027337455395346,0.9656921766290455,-5.092915534309766,0.5771393406718222,484.0
485,5.108803074040049,-2.0946782903921117,-2.0027337396727685,0.9656921258587048,-5.092915535690683,0.6685095690705742,485.0
486,5.108803074956074,-2.0946782503095154,-2.0027337344480873,0.9656920806449147,-5.092915536920464,0.7498797974693197,486.0
487,5.108803067036716,-2.0946782153717596,-2.002733731684368,0.9656920429360841,-5.092915529267504,0.8212500258680737,487.0
488,5.108803059258108,-2.094678185353601,-2.0027337295099126,0.9656920107272201,-5.092915521716993,0.8826202542668147,488.0
489,5.108803052746989,-2.094678160226766,-2.0027337276897725,0.9656919837666431,-5.092915515396802,0.9339904826655886,489.0
490,5.108803047503359,-2.0946781399912546,-2.0027337262239495,0.9656919620543538,-5.092915510306932,0.9753607110643816,490.0
491,5.1088030435272165,-2.0946781246470647,-2.0027337251124444,0.965691945590353,-5.092915506447385,1.006730939463158,491.0
492,5.108803040818564,-2.0946781141941977,-2.002733724355258,0.9656919343746407,-5.092915503818159,1.0281011678619394,492.0
493,5.10871867643108,-2.094828661994651,-2.002439834011934,0.9655485307405538,-5.0928313035812645,1.039730283146072,493.0
494,5.1072718248551014,-2.0974107008473117,-1.9973995270715919,0.9630892149346847,-5.091387266517502,1.0435614740427157,494.0
495,5.106128383246474,-2.0994512824709632,-1.9934161875539385,0.961145625759529,-5.090246049530005,1.0377417080796318,495.0
496,5.106128003200897,-2.0994519686997255,-1.9934148594035268,0.9611449757932544,-5.0902456710139,1.0240831160140182,496.0
497,5.106128006354749,-2.09945197693116,-1.993414863100511,0.9611449742669633,-5.09024567553025,1.0004258424780674,497.0
498,5.1061280108417435,-2.099451988642047,-1.9934148683602226,0.9611449720955045,-5.090245681955676,0.9667685689421057,498.0
499,5.10612801666188,-2.099452003832386,-1.9934148751826601,0.9611449692788779,-5.0902456902901765,0.9231112954061398,499.0
500,5.106128024288089,-2.099452022687496,-1.9934148833496834,0.9611449663740899,-5.090245704532869,0.8694540311263711,500.0
501,5.1061280337346195,-2.0994520452129635,-1.9934148928547186,0.9611449633979257,-5.090245724804266,0.8057967740440607,501.0
502,5.1061280406020515,-2.0994520748077847,-1.9934149016047755,0.9611449755580479,-5.090245740184411,0.732139522560228,502.0
503,5.106128039877915,-2.099452115827784,-1.993414906826407,0.9611450221043398,-5.090245740710577,0.6484822820043216,503.0
504,5.106128039058262,-2.099452161813538,-1.9934149126176517,0.9611450744812156,-5.090245741223576,0.5548250494976725,504.0
505,5.106128035200335,-2.099452211930472,-1.99341491954092,0.9611451321378414,-5.090245738422393,0.4511678239750942,505.0
506,5.106128018440905,-2.099452263407236,-1.9934149294588175,0.961145193334927,-5.090245721216711,0.33751060782963455,506.0
507,5.106128000204759,-2.099452319411208,-1.9934149402512689,0.9611452599093113,-5.090245702478976,0.21385340080759366,507.0
508,5.1061279672464615,-2.099452372156687,-1.993414953678815,0.9611453256521972,-5.090245669065642,0.08019619946069226,508.0
509,5.1061279282106815,-2.099452426725287,-1.9934149685915192,0.9611453946189312,-5.090245629565139,-0.06346100041543687,509.0
510,5.1061278743543355,-2.0994524728270907,-1.99341498548663,0.96114545696916,-5.090245575300888,-0.21711819513374078,510.0
511,5.106127813144227,-2.099452518028899,-1.9934150037815401,0.9611455197465654,-5.090245513684675,-0.3807753836295899,511.0
512,5.106127740224168,-2.0994525431233315,-1.9934150219517242,0.9611455622142725,-5.090245440507106,-0.5448559024469259,512.0
513,5.10612767046384,-2.099452562260216,-1.993415038720654,0.961145597367852,-5.09024537053877,-0.6989409989522473,513.0
514,5.106127601035382,-2.099452563983936,-1.9934150532262978,0.9611456128846223,-5.09024530103968,-0.8430260954575429,514.0
515,5.106127536493981,-2.0994525625929015,-1.9934150663335517,0.9611456239446402,-5.090245236456186,-0.9771111919627935,515.0
516,5.106127477097528,-2.0994525468085046,-1.9934150765676464,0.9611456178206442,-5.090245177135198,-1.1011962884680389,516.0
517,5.106127422487823,-2.0994525322961737,-1.9934150859769688,0.9611456121901762,-5.090245122594877,-1.2152813849732604,517.0
518,5.106127375945306,-2.0994525089817433,-1.9934150926165353,0.9611455950885621,-5.090245076197679,-1.319366481478458,518.0
519,5.106127334857082,-2.099452484889361,-1.993415098035545,0.961145576045759,-5.090245035265381,-1.41345157798364,519.0
520,5.106127298135992,-2.0994524633576823,-1.9934151028785814,0.961145559026952,-5.090244998683644,-1.4975366744888252,520.0
521,5.106127269249428,-2.0994524395395295,-1.99341510582106,0.9611455379058795,-5.090244969960875,-1.5716217709940015,521.0
522,5.106127246219067,-2.0994524162004637,-1.9934151076187263,0.9611455161778865,-5.09024494709535,-1.635706867499188,522.0
523,5.106127226782421,-2.0994523965032847,-1.9934151091358787,0.9611454978403833,-5.0902449277978175,-1.6897919640043844,523.0
524,5.106127210939491,-2.099452380447994,-1.993415110372517,0.9611454828933701,-5.090244912068281,-1.7338770605096085,524.0
525,5.106127198690276,-2.099452368034589,-1.9934151113286434,0.9611454713368481,-5.090244899906737,-1.7679621570148152,525.0
526,5.106127190034777,-2.0994523592630707,-1.9934151120042582,0.9611454631708172,-5.090244891313188,-1.7920472535200267,526.0
527,5.106127184972994,-2.0994523541334384,-1.9934151123993615,0.9611454583952777,-5.090244886287633,-1.8061323500252355,527.0
528,5.105073066813887,-2.101363786009536,-1.989681007979113,0.9593220553000279,-5.089192893920591,-1.8122812121768488,528.0
529,5.103605721601898,-2.1040245341362076,-1.984483074018369,0.9567838507024573,-5.087728508555485,-1.8088740987262077,529.0
530,5.103489298721547,-2.1042356548966987,-1.9840706426956136,0.9565824535763339,-5.08761232279198,-1.7975978662781753,530.0
531,5.103489306757291,-2.104235659854209,-1.9840706443682277,0.9565824493055889,-5.087612335140005,-1.7766773186318618,531.0
532,5.1034893186341135,-2.1042356671814044,-1.9840706468403502,0.9565824429934324,-5.087612353390373,-1.7457567709855535,532.0
533,5.103489334352014,-2.104235676878284,-1.9840706501119802,0.9565824346398644,-5.087612377543084,-1.7048362233392358,533.0
534,5.10348935368922,-2.1042356887593288,-1.984070654374084,0.9565824235685346,-5.087612405713163,-1.6539156824498513,534.0
535,5.103489376229204,-2.1042357024760934,-1.9840706599853344,0.9565824085091205,-5.087612434360247,-1.5929951580592627,535.0
536,5.103489402761535,-2.104235718575017,-1.9840706658160647,0.9565823930784069,-5.087612467430514,-1.5220746347459926,536.0
537,5.10348943768404,-2.1042357390196833,-1.9840706613157217,0.9565824088661782,-5.087612500725566,-1.4411541267832737,537.0
538,5.103489476917673,-2.1042357620257994,-1.9840706562284678,0.9565824267541372,-5.0876125380964865,-1.3502336234369026,538.0
539,5.103489520457967,-2.1042357876278346,-1.9840706505239454,0.9565824468894594,-5.087612579505121,-1.2493131282651693,539.0
540,5.103489572865863,-2.104235802694677,-1.984070641604331,0.9565824536056909,-5.087612631667458,-1.1383926439479386,540.0
541,5.103489630390638,-2.104235817999424,-1.984070631652656,0.9565824596071322,-5.087612689116385,-1.017472166971464,541.0
542,5.103489692891719,-2.1042358250152784,-1.9840706196373856,0.9565824552800519,-5.087612751617398,-0.8865516966328706,542.0
543,5.103489760377088,-2.104235823357909,-1.9840706055090944,0.9565824401882406,-5.087612819175595,-0.745631229502683,543.0
544,5.103489829967172,-2.1042358112503807,-1.984070589625237,0.9565824129336081,-5.087612888921555,-0.5947107657894792,544.0
545,5.103489901295093,-2.1042357872805617,-1.984070571882787,0.9565823720006241,-5.087612960499017,-0.43379030859064527,545.0
546,5.1034899665106925,-2.1042357479743448,-1.984070553461533,0.9565823150216671,-5.087613026080833,-0.267841703934249,546.0
547,5.10349002480051,-2.104235704993621,-1.9840705360040152,0.9565822552687009,-5.087613084760293,-0.11102351863626964,547.0
548,5.103490065687995,-2.10423565089855,-1.984070520730193,0.9565821864299405,-5.087613126111182,0.0357946666616913,548.0
549,5.103490102634853,-2.1042355993179163,-1.9840705065870834,0.9565821211908121,-5.087613163498208,0.1726128519596208,549.0
550,5.103490122964191,-2.1042355433534485,-1.9840704953169441,0.9565820542798136,-5.087613184288703,0.2994310372575181,550.0
551,5.103490140078799,-2.1042354908576804,-1.9840704851484814,0.9565819918991303,-5.087613201834262,0.4162492225554016,551.0
552,5.103490148864401,-2.1042354410322117,-1.9840704770355508,0.9565819341535278,-5.087613211022693,0.5230674078532612,552.0
553,5.1034901499390966,-2.1042353940412477,-1.9840704708714372,0.9565818811064837,-5.087613212471307,0.6198855931511185,553.0
554,5.103490150902791,-2.1042353519038146,-1.984070465343987,0.9565818335384744,-5.0876132137703,0.7067037784489674,554.0
555,5.103490148273417,-2.1042353147054356,-1.9840704611821949,0.9565817922282087,-5.08761321143403,0.7835219637468125,555.0
556,5.103490139907423,-2.1042352824987622,-1.9840704588348252,0.9565817576550568,-5.087613203316745,0.8503401490446567,556.0
557,5.103490132793483,-2.1042352551121355,-1.9840704568387626,0.9565817282561173,-5.087613196414291,0.9071583343425152,557.0
558,5.103490126931595,-2.104235232545556,-1.9840704551940032,0.9565817040313895,-5.08761319072667,0.9539765196403971,558.0
559,5.103490122321761,-2.104235214799022,-1.9840704539005518,0.956581684980875,-5.087613186253881,0.9907947049382766,559.0
560,5.10349011896398,-2.1042352018725343,-1.9840704529584081,0.9565816711045738,-5.087613182995922,1.0176128902361465,560.0
561,5.103490116858254,-2.104235193766092,-1.984070452367572,0.9565816624024861,-5.087613180952796,1.034431075534014,561.0
562,5.102887686814833,-2.105345113418725,-1.98190051900292,0.9555212496414022,-5.087012009943999,1.0426244062993701,562.0
563,5.101306611394744,-2.1082581090459356,-1.976205527844546,0.9527382059126464,-5.085434238882277,1.0419482341235846,563.0
564,5.100888721793994,-2.109028040063118,-1.9747002978174768,0.9520026249164727,-5.085017223184215,1.0327360526735976,564.0
565,5.100888724194353,-2.1090280462947097,-1.9747003006406814,0.9520026237569882,-5.085017226691839,1.0145712671794207,565.0
566,5.100888727916148,-2.109028055956891,-1.974700305018105,0.9520026219591895,-5.085017232130467,0.9864064816852398,566.0
567,5.100888732959377,-2.1090280690496606,-1.974700310949746,0.9520026195230763,-5.085017239500098,0.9482416961910618,567.0
568,5.100888739333844,-2.109028085577027,-1.9747003184308995,0.9520026164609029,-5.085017248884522,0.9000769109273019,568.0
569,5.100888747878256,-2.1090281058818903,-1.9747003270588395,0.9520026138211977,-5.085017267453203,0.8419121422839513,569.0
570,5.100888757891668,-2.1090281296776743,-1.974700337170141,0.95200261072766,-5.0850172892143135,0.7737473736406041,570.0
571,5.1008887596800125,-2.109028165327679,-1.97470034337285,0.9520026442358627,-5.085017294646483,0.6955826180103699,571.0
572,5.100888758924466,-2.109028207937478,-1.9747003488206067,0.9520026926587192,-5.085017295182572,0.6074178669294843,572.0
573,5.100888758069876,-2.1090282554712636,-1.974700354805833,0.9520027469635496,-5.085017295664805,0.509253127510968,573.0
574,5.100888747371875,-2.1090283051402348,-1.9747003632228464,0.9520028052234377,-5.085017285189064,0.4010883957175094,574.0
575,5.100888730162515,-2.1090283578683877,-1.9747003734499882,0.9520028679742338,-5.085017267508275,0.28292367179188493,575.0
576,5.100888707570062,-2.1090284127536734,-1.9747003850682603,0.9520029341948117,-5.085017244420392,0.15475895541921741,576.0
577,5.100888670488984,-2.10902846445224,-1.9747003992929326,0.9520029996300212,-5.085017206891365,0.016594243929553314,577.0
578,5.100888627419078,-2.109028516549646,-1.9747004148062084,0.9520030666902441,-5.085017163366044,-0.13157046591746793,578.0
579,5.100888568990149,-2.109028559568715,-1.9747004323421156,0.9520031265577446,-5.085017104543801,-0.28973516892442003,579.0
580,5.100888502457126,-2.1090285959115875,-1.9747004507061892,0.9520031805078341,-5.085017037664059,-0.4560555317478515,580.0
581,5.100888432159589,-2.109028619490353,-1.9747004682290037,0.9520032208401592,-5.085016967118726,-0.6156310835626262,581.0
582,5.100888362897125,-2.1090286286323243,-1.9747004837062312,0.952003244730283,-5.085016897724869,-0.7652066353773566,582.0
583,5.100888296466279,-2.109028630245622,-1.9747004976429468,0.9520032595956813,-5.0850168312252615,-0.9047821871920714,583.0
584,5.100888235041878,-2.1090286209507885,-1.9747005091608338,0.9520032612078058,-5.0850167698236035,-1.034357739006734,584.0
585,5.100888178505235,-2.109028605934674,-1.9747005189424893,0.9520032554242639,-5.085016713359599,-1.1539332908213866,585.0
586,5.100888127618801,-2.109028589349401,-1.9747005273570957,0.9520032467656762,-5.085016662563113,-1.263508842636016,586.0
587,5.100888084665039,-2.109028564202403,-1.974700533045688,0.9520032269182414,-5.085016619774487,-1.3630843944506446,587.0
588,5.100888046024961,-2.109028541580826,-1.9747005381629905,0.9520032090640071,-5.085016581282961,-1.4526599462652572,588.0
589,5.100888012109294,-2.1090285209120263,-1.9747005425514546,0.9520031924781658,-5.085016547504191,-1.532235498079868,589.0
590,5.1008879874114355,-2.109028495931218,-1.9747005444874213,0.9520031692311863,-5.085016522985486,-1.6018110498944738,590.0
591,5.100887966263366,-2.1090284745408683,-1.9747005461451343,0.9520031493254637,-5.08501650199082,-1.661386601709091,591.0
592,5.100887948665087,-2.1090284567409774,-1.97470054752459,0.9520031327609966,-5.085016484520194,-1.7109621535237363,592.0
593,5.100887934616598,-2.109028442531544,-1.9747005486257918,0.9520031195377864,-5.08501647057361,-1.7505377053383835,593.0
594,5.100887924117897,-2.1090284319125683,-1.9747005494487408,0.9520031096558336,-5.085016460151065,-1.7801132571530143,594.0
595,5.100887917168987,-2.10902842488405,-1.974700549993437,0.9520031031151379,-5.085016453252561,-1.7996888089676564,595.0
596,5.10064579686214,-2.109481647862277,-1.9738138247433468,0.9515694477656313,-5.084774857157111,-1.809958465534274,596.0
597,5.099131319167403,-2.1123166495674175,-1.9682672202179876,0.9488568873808734,-5.08326365841526,-1.8120555653429673,597.0
598,5.0983221707004915,-2.113831329678594,-1.9653037939674765,0.9474076260889217,-5.082456263253056,-1.8049295409404411,598.0
599,5.098322176542364,-2.113831333280557,-1.965303795190238,0.9474076230050156,-5.082456272295076,-1.789543302318453,599.0
600,5.098322186181052,-2.113831339223549,-1.9653037972077112,0.9474076179167819,-5.0824562872137875,-1.7641570636964696,600.0
601,5.098322199616557,-2.1138313475075696,-1.9653038000198957,0.9474076108242209,-5.082456308009192,-1.7287708250744842,601.0
602,5.098322216848877,-2.1138313581326194,-1.9653038036267914,0.9474076017273323,-5.08245633468129,-1.6833845864524826,602.0
603,5.098322237302955,-2.1138313706051655,-1.9653038085395154,0.9474075888176745,-5.082456362289548,-1.6279983649684204,603.0
604,5.0983222612271115,-2.1138313851383246,-1.9653038145373591,0.9474075728761631,-5.0824563929673765,-1.5626121495861387,604.0
605,5.098322291207936,-2.1138314029612473,-1.965303815626522,0.9474075717836244,-5.0824564258473695,-1.4872259425842844,605.0
606,5.098322327611151,-2.113831424236694,-1.9653038109183887,0.9474075881767843,-5.0824564605497935,-1.4018397435562602,606.0
607,5.098322368267247,-2.1138314480827654,-1.9653038055885697,0.9474076068275852,-5.082456499225822,-1.3064535549031349,607.0
608,5.098322414941304,-2.1138314694114904,-1.9653037986527182,0.9474076215773106,-5.0824565445054,-1.2010673730919523,608.0
609,5.098322469162935,-2.1138314838305106,-1.965303789232741,0.9474076271891978,-5.082456598644697,-1.0856811996896785,609.0
610,5.098322528085856,-2.113831499499943,-1.9653037789954226,0.9474076332896985,-5.082456657494513,-0.9602950350260342,610.0
611,5.098322592115659,-2.1138314985898434,-1.9653037656123429,0.9474076196601993,-5.082456721589508,-0.8249088765861797,611.0
612,5.098322660890279,-2.1138314969387526,-1.96530375115291,0.9474076042594161,-5.082456790439593,-0.6795227186391861,612.0
613,5.0983227292561555,-2.1138314754374856,-1.9653037342513215,0.9474075666027804,-5.082456859037297,-0.5241365670732556,613.0
614,5.098322799764312,-2.113831448082269,-1.9653037161606925,0.9474075219371159,-5.082456929826066,-0.35898081373265567,614.0
615,5.098322859372761,-2.1138314042597783,-1.9653036982321954,0.947407460887861,-5.082456989838741,-0.19663040474035026,615.0
616,5.0983229098251055,-2.113831357594367,-1.9653036818388636,0.9474073984425095,-5.082457040710464,-0.04427999574808391,616.0
617,5.098322947795051,-2.113831304724758,-1.965303667242017,0.9474073314737432,-5.082457079139225,0.0980704132441713,617.0
618,5.098322977763011,-2.1138312524483993,-1.9653036543786118,0.9474072667482114,-5.082457109554411,0.23042082223638038,618.0
619,5.098322995467469,-2.113831198272263,-1.9653036438142581,0.9474072022997575,-5.082457127710997,0.3527712312285717,619.0
620,5.098323011724898,-2.113831148524079,-1.9653036341133479,0.9474071431188317,-5.082457144383599,0.46512164022073443,620.0
621,5.098323013806297,-2.1138310998237917,-1.9653036274829625,0.9474070879084835,-5.082457146859665,0.567472049212899,621.0
622,5.098323014817257,-2.1138310556514543,-1.9653036216507285,0.947407038004036,-5.08245714822785,0.6598224582050431,622.0
623,5.098323015718747,-2.1138310162622416,-1.9653036164500244,0.9474069935034019,-5.082457149447883,0.7421728671971913,623.0
624,5.0983230088876805,-2.1138309818391785,-1.9653036134835813,0.9474069561136083,-5.082457142888719,0.8145232761893377,624.0
625,5.098323001175199,-2.113830952217773,-1.9653036113109712,0.9474069243004895,-5.082457135408655,0.8768736851814741,625.0
626,5.098322994699676,-2.1138309273471645,-1.9653036094868104,0.9474068975896811,-5.082457129128271,0.9292240941736468,626.0
627,5.09832298946111,-2.113830907227352,-1.9653036080111002,0.9474068759811837,-5.08245712404757,0.9715745031658278,627.0
628,5.098322985459501,-2.113830891858335,-1.9653036068838425,0.9474068594749976,-5.08245712016655,1.0039249121579992,628.0
629,5.0983229826948495,-2.113830881240113,-1.965303606105037,0.9474068480711229,-5.0824571174852124,1.026275321150168,629.0
630,5.098295212334143,-2.113883687923049,-1.9652002046025252,0.9473562365233772,-5.082429409430495,1.0387211951302855,630.0
631,5.097041206640837,-2.1162686361784164,-1.9605307419811024,0.9450709669046283,-5.081178215320188,1.0434876442878782,631.0
632,5.095812437252411,-2.1186055946615494,-1.9559552465605445,0.9428316871535493,-5.079952201237524,1.0385046973386853,632.0
633,5.095792272225491,-2.1186439532912757,-1.9558801550595892,0.9427949350972908,-5.0799320822399014,1.0258445402611907,633.0
634,5.095792275184605,-2.1186439609331154,-1.9558801585522596,0.9427949336715011,-5.079932086651838,1.0032551295441399,634.0
635,5.095792279453675,-2.118643971957885,-1.955880163591084,0.9427949316145352,-5.079932093016874,0.9706657188270917,635.0
636,5.095792285032701,-2.1186439863655844,-1.9558801701760622,0.9427949289263932,-5.079932101335007,0.9280763081100324,636.0
637,5.095792292285335,-2.1186440043112587,-1.955880178125391,0.9427949260887553,-5.079932114748379,0.875486904643993,637.0
638,5.095792301388058,-2.1186440258701533,-1.9558801873508398,0.9427949233353841,-5.07993213478189,0.8128975098154235,638.0
639,5.095792309242331,-2.1186440531888424,-1.9558801965390293,0.9427949304254046,-5.0799321525018275,0.7403081188036749,639.0
640,5.095792308543633,-2.1186440925245815,-1.9558802016057726,0.9427949751501626,-5.079932153005254,0.6577187403897329,640.0
641,5.095792307752862,-2.1186441366730393,-1.9558802072414088,0.9427950255043175,-5.07993215350467,0.5651293687337174,641.0
642,5.095792305553639,-2.1186441852715685,-1.9558802136907516,0.942795081286395,-5.079932152511765,0.46254000421672353,642.0
643,5.0957922893578225,-2.1186442347809344,-1.9558802233580048,0.9427951402743199,-5.079932135871837,0.349950650321756,643.0
644,5.095792271721706,-2.1186442886859482,-1.9558802338856236,0.9427952044951589,-5.0799321177383066,0.22736130454279693,644.0
645,5.0957922415041645,-2.1186443404575845,-1.9558802467672995,0.9427952687573395,-5.079932087056221,0.09477196484411202,645.0
646,5.095792203701938,-2.118644393024282,-1.955880261332442,0.9427953353915784,-5.079932048791065,-0.04781737266641663,646.0
647,5.095792153119836,-2.1186444390516064,-1.9558802777162339,0.9427953971878607,-5.079931997790198,-0.20040670569621796,647.0
648,5.09579209378685,-2.1186444826072623,-1.9558802956015346,0.9427954579296622,-5.07993193805207,-0.3629960324055229,648.0
649,5.095792023501878,-2.1186445092351716,-1.955880313599372,0.9427955017776364,-5.079931867490119,-0.5279811307319829,649.0
650,5.095791955529683,-2.1186445300500254,-1.9558803303744379,0.9427955386253399,-5.079931799290194,-0.6831300123046424,650.0
651,5.095791887284628,-2.118644531668897,-1.9558803447545074,0.9427955539179285,-5.07993173097328,-0.8282788938774741,651.0
652,5.095791823765123,-2.1186445321357037,-1.9558803580060118,0.942795566980894,-5.079931667395352,-0.963427775450431,652.0
653,5.095791765310853,-2.11864451661626,-1.9558803681638322,0.9427955610483201,-5.07993160901702,-1.0885766570235058,653.0
654,5.09579171152736,-2.1186445023368994,-1.9558803775099851,0.9427955555897839,-5.079931555303396,-1.2037255385967414,654.0
655,5.095791665179608,-2.11864448084673,-1.9558803843909187,0.9427955405463556,-5.0799315090905495,-1.3088744201700526,655.0
656,5.095791624632592,-2.118644457143009,-1.9558803897844308,0.9427955218661761,-5.0799314687014325,-1.4040233017434849,656.0
657,5.095791588347002,-2.1186444359305145,-1.9558803946110874,0.9427955051492517,-5.079931432557148,-1.4891721833169602,657.0
658,5.095791559144381,-2.1186444132856432,-1.9558803977837993,0.9427954854218626,-5.0799314035135685,-1.564321064890529,658.0
659,5.095791536297702,-2.1186443902193863,-1.9558803995826768,0.9427954639655842,-5.079931380834826,-1.6294699464641265,659.0
660,5.095791516957866,-2.118644370693675,-1.9558804011054352,0.9427954458027273,-5.079931361637147,-1.6846188280377765,660.0
661,5.09579150112487,-2.1186443547085103,-1.955880402352073,0.9427954309332915,-5.0799313459205315,-1.729767709611461,661.0
662,5.095791488798715,-2.118644342263891,-1.955880403322594,0.9427954193572787,-5.079931333684979,-1.7649165911851354,662.0
663,5.0957914799794,-2.1186443333598164,-1.9558804040169977,0.9427954110746886,-5.0799313249304925,-1.7900654727588,663.0
664,5.095791474666928,-2.1186443279962868,-1.9558804044352844,0.9427954060855214,-5.079931319657069,-1.8052143543324477,664.0
665,5.094965797469097,-2.120239715674327,-1.9527545922007223,0.9412645086030579,-5.079107558955537,-1.8121846069881127,665.0
666,5.093506621926216,-2.1230591746314826,-1.9472304901545994,0.938559028408505,-5.077651770879209,-1.8098796044961503,666.0
667,5.093294999005798,-2.123468087878632,-1.9464293210651653,0.9381666460758906,-5.077440641352556,-1.7994686076192081,667.0
668,5.09329500642668,-2.1234680924516987,-1.9464293226271012,0.9381666421854227,-5.077440652922521,-1.7796982640483452,668.0
669,5.093295017601102,-2.1234680993378605,-1.9464293249790772,0.9381666363271245,-5.077440670344666,-1.7499279204774516,669.0
670,5.093295032529067,-2.123468108537116,-1.9464293281210931,0.938166628500996,-5.077440693618992,-1.7101575769065696,670.0
671,5.093295051084205,-2.123468119938178,-1.9464293321691144,0.9381666182973037,-5.077440721648212,-1.6603872373596036,671.0
672,5.093295072713829,-2.1234681330543195,-1.9464293376303257,0.9381666039240545,-5.077440749633276,-1.6006169166457225,672.0
673,5.093295097962242,-2.1234681483648856,-1.9464293440052363,0.9381665871460585,-5.077440782300439,-1.5308465959318884,673.0
674,5.093295131332932,-2.1234681678693064,-1.9464293402096868,0.9381666005523841,-5.077440814586691,-1.4510762906904222,674.0
675,5.093295169143081,-2.1234681899567573,-1.9464293352797415,0.9381666176131587,-5.077440850601749,-1.3613059894209385,675.0
676,5.093295211154997,-2.1234682145790504,-1.946429329733659,0.9381666368932758,-5.077440890540331,-1.2615356978723942,676.0
677,5.093295261244571,-2.123468230615052,-1.9464293213532806,0.9381666450624451,-5.077440940145037,-1.1517654158309647,677.0
678,5.093295316848321,-2.1234682453971807,-1.9464293116492315,0.9381666507734057,-5.077440995670645,-1.0319951413707977,678.0
679,5.093295377260301,-2.1234682542195613,-1.9464293001882744,0.9381666487980596,-5.077441056065719,-0.90222487397487,679.0
680,5.093295442580014,-2.1234682526890905,-1.9464292863932258,0.9381666341500879,-5.077441121458282,-0.7624546105517558,680.0
681,5.093295510573329,-2.1234682433864824,-1.9464292710456377,0.9381666102202042,-5.077441189589306,-0.6126843498512327,681.0
682,5.093295579681337,-2.1234682203385793,-1.94642925370443,0.9381665705906572,-5.077441258946337,-0.45291409577137437,682.0
683,5.093295644768721,-2.1234681844398167,-1.9464292355533939,0.9381665172846787,-5.077441324384592,-0.2866284121640873,683.0
684,5.093295702065001,-2.1234681424409847,-1.9464292182426348,0.9381664586507115,-5.077441382074986,-0.12866420607620566,684.0
685,5.093295744000492,-2.1234680912649893,-1.9464292029537804,0.9381663927212012,-5.077441424466459,0.01930000001177839,685.0
686,5.093295780354372,-2.123468040776272,-1.9464291889150311,0.9381663286700621,-5.07744146126583,0.15726420609990663,686.0
687,5.0932958021865975,-2.123467987002977,-1.946429177478631,0.9381662637932993,-5.077441483557844,0.2852284121881803,687.0
688,5.093295819048423,-2.1234679355249177,-1.9464291673711545,0.938166202484781,-5.07744150085632,0.40319261827656977,688.0
689,5.09329582933762,-2.1234678870454182,-1.9464291590163063,0.9381661458535846,-5.077441511551871,0.5111568243650914,689.0
690,5.093295830395429,-2.1234678408586833,-1.9464291528771724,0.9381660936309554,-5.077441512989209,0.6091210304536998,690.0
691,5.093295831345259,-2.1234677993866065,-1.946429147364704,0.9381660467391106,-5.077441514279824,0.697085236542376,691.0
692,5.093295829897286,-2.1234677626828438,-1.9464291429625034,0.938166005691557,-5.077441513131467,0.7750494426311353,692.0
693,5.093295821590759,-2.1234677308519316,-1.9464291406126564,0.9381659714886413,-5.077441505078642,0.8430136487199352,693.0
694,5.093295814506423,-2.123467703704501,-1.9464291386085566,0.9381659423182154,-5.077441498210681,0.9009778548087988,694.0
695,5.093295808644277,-2.123467681240554,-1.9464291369502014,0.9381659181802771,-5.077441492527581,0.9489420608976787,695.0
696,5.093295804004324,-2.1234676634600884,-1.9464291356375947,0.938165899074829,-5.077441488029345,0.9869062669865705,696.0
697,5.093295800586563,-2.1234676503631045,-1.9464291346707365,0.9381658850018706,-5.07744148471597,1.0148704730754452,697.0
698,5.093295798390993,-2.1234676419496012,-1.946429134049627,0.938165875961402,-5.077441482587459,1.0328346791643104,698.0
699,5.092881878389834,-2.12428016485216,-1.9448360595579994,0.9373850993545391,-5.077028556918266,1.0418987185675315,699.0
700,5.091387279760608,-2.1272140772232038,-1.9390837095398272,0.9345658486642142,-5.075537548622413,1.0424101005646842,700.0
701,5.090832971803487,-2.1283021944715363,-1.9369503087764237,0.9335202592523404,-5.074984572764045,1.0341040366777288,701.0
702,5.090832974002666,-2.128302200121206,-1.9369503113818116,0.9335202581956386,-5.07498457610909,1.0171703764250408,702.0
703,5.090832977500549,-2.1283022091072303,-1.9369503155257841,0.9335202565149121,-5.074984581429515,0.9902367161723487,703.0
704,5.090832982297133,-2.128302221429609,-1.936950321208342,0.9335202542101612,-5.074984588725322,0.9533030559196238,704.0
705,5.090832988392419,-2.1283022370883424,-1.9369503284294853,0.9335202512813858,-5.074984597996511,0.9063693956669233,705.0
706,5.090832996509491,-2.128302256404775,-1.9369503368127927,0.9335202487416011,-5.074984615557707,0.8494357473110177,706.0
707,5.090833006148149,-2.128302279156615,-1.9369503466186573,0.9335202458900461,-5.0749846370407194,0.7825021004120097,707.0
708,5.090833009268566,-2.1283023120780493,-1.93695035341615,0.9335202727509609,-5.074984645282813,0.7055684644153534,708.0
709,5.090833008541327,-2.128302352897104,-1.9369503587064192,0.9335203192106797,-5.074984645804337,0.618634833856096,709.0
710,5.090833007716406,-2.1283023985033194,-1.9369503645223776,0.9335203714087907,-5.074984646262555,0.521701215670369,710.0
711,5.090832999133546,-2.128302446686703,-1.9369503723851167,0.9335204277642417,-5.074984638105741,0.4147676041515852,711.0
712,5.09083298251606,-2.1283024973662816,-1.9369503823507108,0.9335204882148336,-5.074984621021717,0.29783400074711364,712.0
713,5.09083296259531,-2.128302551277715,-1.9369503934236163,0.9335205529549288,-5.074984600595188,0.17090040534440581,713.0
714,5.090832926730285,-2.128302601022982,-1.9369504073064445,0.9335206161113855,-5.07498456428462,0.033966815634852696,714.0
715,5.090832886868895,-2.128302653012848,-1.9369504223121383,0.9335206825889226,-5.074984523956048,-0.11296677315687553,715.0
716,5.090832830289192,-2.1283026944258063,-1.9369504394465054,0.933520740468338,-5.074984466984484,-0.26990035499265363,716.0
717,5.090832766882619,-2.128302732034828,-1.9369504575165526,0.933520795416418,-5.0749844032114675,-0.4358942005302703,717.0
718,5.090832697746404,-2.12830275504807,-1.9369504749055237,0.9335208350573534,-5.074984333824289,-0.5966967689286767,718.0
719,5.090832630236652,-2.128302766398349,-1.936950490455258,0.9335208612360473,-5.074984266161367,-0.7474993373272235,719.0
720,5.090832564830357,-2.1283027679115207,-1.9369505043009925,0.9335208759149103,-5.074984200685028,-0.888301905725886,720.0
721,5.090832504262581,-2.128302760882768,-1.936950516038435,0.9335208800105794,-5.074984140122041,-1.0191044741247164,721.0
722,5.090832448515602,-2.1283027460854167,-1.9369505257707307,0.9335208743978061,-5.074984084448279,-1.139907042523637,722.0
723,5.0908323977597645,-2.1283027313651144,-1.936950534471212,0.9335208678817803,-5.074984033769413,-1.250709610922711,723.0
724,5.090832355318573,-2.1283027065871165,-1.9369505401429783,0.9335208483853549,-5.074983991495607,-1.3515121793218485,724.0
725,5.090832317087708,-2.1283026842671933,-1.9369505452520794,0.9335208308230472,-5.074983953415524,-1.4423147477211105,725.0
726,5.090832283067171,-2.128302664405343,-1.9369505497985178,0.9335208151948584,-5.0749839195291635,-1.5231173161204272,726.0
727,5.090832258245669,-2.1283026400820826,-1.9369505518512993,0.9335207927156697,-5.074983894886789,-1.593919884519812,727.0
728,5.090832237178542,-2.1283026188493124,-1.9369505535179072,0.933520772973533,-5.07498387397656,-1.6547224529192361,728.0
729,5.090832219576257,-2.128302601108628,-1.9369505549104113,0.9335207564783194,-5.074983856505368,-1.705525021318707,729.0
730,5.090832205438813,-2.1283025868600274,-1.9369505560288132,0.9335207432300305,-5.074983842473214,-1.7463275897181822,730.0
731,5.090832194766211,-2.1283025761035117,-1.936950556873114,0.933520733228667,-5.074983831880096,-1.777130158117655,731.0
732,5.090832187558451,-2.1283025688390795,-1.9369505574433143,0.9335207264742286,-5.074983824726016,-1.7979327265171037,732.0
733,5.090716087477102,-2.1285340884730433,-1.9364963124479342,0.9332979413144722,-5.074868013204661,-1.8091244194859915,733.0
734,5.089360839024277,-2.131236773879575,-1.931193686833562,0.9306973033510366,-5.073516132953527,-1.8124862769191152,734.0
735,5.088402247900435,-2.1331484393750393,-1.9274430344826412,0.9288578199190204,-5.072559925509207,-1.8063135176070233,735.0
736,5.088402253124088,-2.133148442592348,-1.927443035588313,0.9288578171995026,-5.072559933713485,-1.7922382847344493,736.0
737,5.088402262058978,-2.133148448095451,-1.9274430374795293,0.9288578125478548,-5.072559947746637,-1.76816305186188,737.0
738,5.088402274705107,-2.1331484558843474,-1.9274430401562894,0.928857805964077,-5.0725599676086635,-1.73408781898928,738.0
739,5.088402291062472,-2.1331484659590387,-1.927443043618594,0.9288577974481693,-5.072559993299565,-1.6900125861166848,739.0
740,5.088402310684655,-2.133148477916031,-1.9274430482895273,0.9288577855080113,-5.072560020901982,-1.6359373664242185,740.0
741,5.088402333620717,-2.133148491799666,-1.9274430541225953,0.9288577703075754,-5.072560050846403,-1.5718621552791596,741.0
742,5.088402361840638,-2.1331485086057813,-1.9274430566160434,0.9288577651147104,-5.072560083397503,-1.4977869503082462,742.0
743,5.088402396834496,-2.133148528995093,-1.9274430520541235,0.9288577807531246,-5.072560116748415,-1.4137117553300595,743.0
744,5.088402435981719,-2.1331485518731474,-1.9274430468917298,0.9288577985246353,-5.072560153987907,-1.3196365691182639,744.0
745,5.08840248038845,-2.1331485740693585,-1.9274430404973315,0.9288578146097329,-5.072560196763487,-1.215561389927387,745.0
746,5.088402532714577,-2.1331485879779595,-1.9274430313220794,0.9288578199403658,-5.072560249005578,-1.1014862196057074,746.0
747,5.088402589629929,-2.133148603106703,-1.927443021341429,0.928857825740974,-5.072560305846998,-0.9774110589097726,747.0
748,5.088402651473815,-2.1331486045511703,-1.9274430085828183,0.9288578150818951,-5.072560367736978,-0.8433359038588223,748.0
749,5.088402718000659,-2.1331486030321316,-1.9274429944660674,0.9288578001390584,-5.072560434339245,-0.6992607501690989,749.0
750,5.088402784845865,-2.1331485849704515,-1.9274429781479916,0.9288577664882317,-5.072560501395053,-0.5451856019004656,750.0
751,5.088402854722067,-2.1331485612521353,-1.9274429604657097,0.9288577258592176,-5.072560571530907,-0.38111482667133195,751.0
752,5.088402913372411,-2.133148518386051,-1.9274429426615707,0.9288576658819065,-5.072560630590397,-0.2174576269172765,752.0
753,5.0884029649846365,-2.133148474660607,-1.9274429262192654,0.9288576063357292,-5.0725606826126635,-0.06380042716308928,753.0
754,5.088403002384462,-2.1331484228511712,-1.9274429117077632,0.9288575405047839,-5.0725607204772025,0.07985677259123716,754.0
755,5.088403033970306,-2.1331483727749934,-1.9274428986364995,0.9288574777835965,-5.072560752508153,0.21351397234569516,755.0
756,5.0884030514328105,-2.1331483195839764,-1.9274428881186256,0.9288574143605327,-5.07256077042914,0.33717117210030717,756.0
757,5.088403067483146,-2.1331482706944542,-1.9274428784513107,0.9288573560664083,-5.07256078690088,0.4508283718550196,757.0
758,5.088403071372837,-2.133148223253556,-1.9274428715155643,0.9288573018234401,-5.072560791189092,0.5544855716098323,758.0
759,5.088403072370541,-2.133148179721375,-1.9274428656893532,0.928857252561027,-5.072560792550195,0.6481427713647532,759.0
760,5.088403073261719,-2.1331481408372293,-1.9274428604852167,0.9288572085584762,-5.0725607937659705,0.7317999711197276,760.0
761,5.0884030677779695,-2.1331481067442644,-1.9274428572333053,0.9288571712237561,-5.072560788561248,0.8054571708747855,761.0
762,5.088403060089795,-2.133148077347241,-1.9274428550486438,0.9288571396201157,-5.072560781111033,0.8691143706298757,762.0
763,5.088403053609367,-2.1331480525682385,-1.927442853207172,0.9288571129811354,-5.072560774831183,0.9227715703850105,763.0
764,5.088403048336685,-2.1331480324072567,-1.9274428517088902,0.9288570913068148,-5.072560769721699,0.9664287701401664,764.0
765,5.08840304427175,-2.133148016864295,-1.9274428505538008,0.9288570745971556,-5.072560765782579,1.000085969895334,765.0
766,5.08840304141456,-2.1331480059393533,-1.9274428497419038,0.9288570628521575,-5.072560763013824,1.0237431696504633,766.0
767,5.088402809489907,-2.13314846614877,-1.9274419333620763,0.9288566065650452,-5.0725605317321465,1.037400494485268,767.0
768,5.0873952843734145,-2.135189615357421,-1.9234345418847643,0.9268898742985628,-5.071555596478802,1.0432689553365693,768.0
769,5.08609170152233,-2.1378305567013043,-1.918249587695805,0.9243452253989883,-5.070255364759385,1.0395130737593428,769.0
770,5.086005445442191,-2.138005310382942,-1.9179065031804103,0.9241768463599591,-5.070169331220973,1.0280121865159473,770.0
771,5.086005448172031,-2.1380053173592772,-1.917906506427287,0.9241768450517348,-5.070169335456419,1.0068123882390743,771.0
772,5.086005452189545,-2.1380053276263684,-1.9179065112057243,0.9241768431264179,-5.070169341689736,0.975612589962183,772.0
773,5.086005457494731,-2.138005341184214,-1.9179065175157215,0.9241768405840081,-5.070169349920923,0.9344127916852732,773.0
774,5.086005464327121,-2.1380053581437224,-1.9179065252274228,0.9241768377788653,-5.070169362263961,0.8832129961665826,774.0
775,5.086005473054396,-2.138005378675135,-1.9179065341415,0.9241768352549304,-5.070169381963801,0.8220132065767124,775.0
776,5.0860054821648175,-2.1380054034426954,-1.9179065439227279,0.9241768362500258,-5.070169402698404,0.7508134185165726,776.0
777,5.086005481493037,-2.1380054410370435,-1.9179065488259899,0.9241768790852851,-5.070169403177833,0.6696136451781242,777.0
778,5.086005480733013,-2.1380054832965842,-1.9179065543008467,0.9241769273478596,-5.070169403667295,0.5784138768646013,778.0
779,5.086005479880489,-2.1380055302485834,-1.917906560322405,0.9241769811550659,-5.0701694041289675,0.4772141164338316,779.0
780,5.086005464939402,-2.1380055779454823,-1.9179065696035522,0.9241770380031543,-5.070169388833491,0.3660143671839939,780.0
781,5.08600544792129,-2.1380056297267114,-1.917906579860068,0.924177099839258,-5.070169371323908,0.24481462524759431,781.0
782,5.0860054208679095,-2.138005680734649,-1.9179065921325198,0.9241771627734248,-5.070169343794174,0.11361488990021121,782.0
783,5.086005384326974,-2.1380057312896215,-1.9179066063462393,0.9241772270612338,-5.070169306793199,-0.0275848423464976,783.0
784,5.086005337430539,-2.138005777609235,-1.9179066221839183,0.9241772886389933,-5.070169259464501,-0.17878457097184425,784.0
785,5.086005280005184,-2.138005819519101,-1.9179066396592606,0.9241773473449344,-5.070169201635831,-0.3399842931427294,785.0
786,5.0860052140660255,-2.1380058477237993,-1.9179066571460397,0.9241773922954115,-5.070169135400653,-0.5024135139929299,786.0
787,5.086005149292695,-2.1380058692021002,-1.917906673517158,0.9241774294291145,-5.070169070388775,-0.6548830453918414,787.0
788,5.086005084424945,-2.138005872684136,-1.9179066875776305,0.9241774462900383,-5.070169005433425,-0.7973525767908367,788.0
789,5.086005023621232,-2.138005874053746,-1.9179067005118873,0.9241774599587189,-5.070168944563499,-0.9298221081898587,789.0
790,5.086004967697972,-2.138005862653822,-1.91790671076859,0.9241774582559981,-5.070168888685587,-1.0522916395889488,790.0
791,5.0860049164130805,-2.1380058490417513,-1.9179067197656718,0.9241774531340767,-5.070168837468781,-1.1647611709880634,791.0
792,5.086004870717147,-2.1380058335089593,-1.9179067273414345,0.9241774447320031,-5.070168791862085,-1.2672307023872036,792.0
793,5.086004832246567,-2.1380058110765994,-1.9179067325078172,0.9241774271096074,-5.07016875354515,-1.359700233786358,793.0
794,5.086004797936338,-2.138005791070161,-1.9179067371154828,0.9241774113929608,-5.070168719371949,-1.4421697651855383,794.0
795,5.086004767786461,-2.1380057734896423,-1.9179067411644357,0.9241773975820651,-5.070168689342485,-1.5146392965847295,795.0
796,5.086004745482416,-2.1380057532360572,-1.9179067432211472,0.9241773791926935,-5.070168667188348,-1.577108827983918,796.0
797,5.086004727518089,-2.13800573516023,-1.9179067446493794,0.9241773623934963,-5.070168649359557,-1.6295783593830606,797.0
798,5.086004712977527,-2.1380057205294176,-1.9179067458054095,0.9241773487960042,-5.070168634928698,-1.6720478907821568,798.0
799,5.086004701860727,-2.1380057093436196,-1.917906746689235,0.9241773384002159,-5.070168623895771,-1.7045174221812933,799.0
800,5.08600469416769,-2.138005701602835,-1.9179067473008593,0.9241773312061333,-5.070168616260776,-1.7269869535804132,800.0
801,5.0860046898984175,-2.1380056973070647,-1.9179067476402818,0.9241773272137564,-5.070168612023714,-1.7394564849795584,801.0
