Miguel-LA/TFM_MiguelLerinAlonso/workspace/ros_ur_driver/src/trayectories/data/saved_trajectories/20240522_1712_trajectory.csv
,shoulder_pan_joint,shoulder_lift_joint,elbow_joint,wrist_1_joint,wrist_2_joint,wrist_3_joint,time_from_start
0,-1.2379263083087366,-2.1446779409991663,-1.9354479948626917,0.9480365514755249,1.2539255619049072,0.33238136768341064,0.0
1,-1.2375797769049015,-2.144617122572001,-1.935492528291979,0.9480228390605588,1.2535783735341093,0.33738136768341065,1.0
2,-1.2365401826933964,-2.1444346672905072,-1.9356261285798415,0.9479817018156611,1.2525368084217154,0.35238136768341066,2.0
3,-1.2348075256742213,-2.1441305751546835,-1.9358487957262787,0.9479131397408311,1.2508008665677253,0.3773813676834107,3.0
4,-1.232381805847376,-2.14370484616453,-1.936160529731291,0.9478171528360694,1.2483705479721394,0.4123813676834107,4.0
5,-1.229263023212861,-2.1431574803200473,-1.9365613305948781,0.9476937411013757,1.2452458526349575,0.45738136768341076,5.0
6,-1.22545232735352,-2.1425061185427805,-1.937014933715949,0.9475242344954271,1.2414284833222728,0.5123819730662135,6.0
7,-1.2209494057732597,-2.1417458250975283,-1.9375314876783896,0.9473138587740165,1.2369179727300497,0.5773828809268542,7.0
8,-1.2157553024223584,-2.140885299884997,-1.9380933023837983,0.9470536909443443,1.2317156820661728,0.6523844099625533,8.0
9,-1.2105406888282872,-2.140039709157491,-1.938619460181753,0.9467730171136053,1.2264934794675126,0.727707949852765,9.0
10,-1.2060201446997874,-2.13932247045208,-1.9390430176417202,0.9465130876124777,1.2219669327414444,0.7930347760727208,10.0
11,-1.2021931102945829,-2.138727586728656,-1.9393762032982544,0.9462800814690038,1.2181352659434832,0.8483621680067581,11.0
12,-1.199057782885032,-2.138240223656872,-1.9396491682133283,0.946089189391516,1.214996143410491,0.8936895599407957,12.0
13,-1.1966161327326936,-2.1378736481511904,-1.9398350989912299,0.9459270571920133,1.2125520272043222,0.9290175514052371,13.0
14,-1.1948660011534333,-2.1376134132916027,-1.939963190840351,0.9458082238939518,1.2108002231595298,0.9543456846955027,14.0
15,-1.193806852821617,-2.1374559238087096,-1.9400407097366008,0.9457363081072203,1.2097400626814847,0.9696738179857681,15.0
16,-1.1916251804452456,-2.1371315338309276,-1.9402003863917163,0.9455881863394882,1.2075563055477208,0.9754774140269651,16.0
17,-1.1887105551190082,-2.1366981676634142,-1.9404137080714459,0.9453903074854552,1.2046388951144231,0.9717530736593972,17.0
18,-1.188710553593968,-2.1366981735264776,-1.9404137083784319,0.9453903136594689,1.204638893635435,0.959302964923965,18.0
19,-1.1887105508440063,-2.1366981840987878,-1.94041370893199,0.9453903247924864,1.2046388909685155,0.936852856188533,19.0
20,-1.1887105468691233,-2.136698199380345,-1.9404137097321208,0.9453903408845078,1.2046388871136637,0.9044027474531009,20.0
21,-1.1887105416692998,-2.136698219371154,-1.9404137107788046,0.9453903619355715,1.204638882070689,0.8619526617410119,21.0
22,-1.1887105352445473,-2.1366982440712152,-1.9404137120720537,0.9453903879456556,1.2046388758397133,0.809502578468413,22.0
23,-1.1887105290305862,-2.1366982735011346,-1.9404137139454904,0.9453904192542212,1.2046388698581119,0.7470524964974504,23.0
24,-1.188710529809183,-2.1366983077582553,-1.9404137179750043,0.9453904574647669,1.2046388709153857,0.6746024210608615,24.0
25,-1.1887105306952468,-2.136698346743753,-1.940413722560693,0.9453905009493655,1.2046388721185928,0.5921523494037968,25.0
26,-1.1887105316887778,-2.1366983904576267,-1.9404137277025506,0.9453905497080194,1.2046388734677362,0.49970228803547156,26.0
27,-1.188710542639941,-2.1366984362594454,-1.9404137351913002,0.9453906027942206,1.2046388848002108,0.39725223497338613,27.0
28,-1.1887105586218703,-2.1366984854699034,-1.940413744131256,0.9453906606813901,1.2046389011955365,0.2848021892748956,28.0
29,-1.1887105789348384,-2.1366985373409793,-1.9404137542896658,0.9453907223974973,1.2046389219472826,0.16235215206417308,29.0
30,-1.1887106136352217,-2.1366985859435266,-1.9404137671299755,0.9453907833844798,1.204638957072491,0.029902122842418447,30.0
31,-1.1887106522946023,-2.136698636852577,-1.9404137810699011,0.9453908477320048,1.2046389961788795,-0.11254790544485077,31.0
32,-1.188710707272266,-2.1366986774883276,-1.940413797310954,0.9453909039587836,1.2046390515344412,-0.26499793063935073,32.0
33,-1.1887107688188432,-2.136698715554334,-1.9404138146549395,0.9453909586558329,1.2046391134438017,-0.42741554830633083,33.0
34,-1.1887108381909548,-2.136698738873217,-1.9404138319946247,0.9453909985497175,1.2046391830658425,-0.5887271330674035,34.0
35,-1.1887109056787397,-2.1366987514050235,-1.9404138477179163,0.9453910260810716,1.2046392507143548,-0.7400387178284717,35.0
36,-1.1887109713367747,-2.1366987529387416,-1.9404138618125857,0.9453910410265094,1.2046393164422513,-0.8813503025895371,36.0
37,-1.1887110321744359,-2.136698746707466,-1.940413874009234,0.945391046374273,1.2046393772825337,-1.012661887350599,37.0
38,-1.1887110881686793,-2.1366987316975314,-1.9404138841886318,0.9453910409937181,1.2046394332039112,-1.1339734721116579,38.0
39,-1.1887111393888907,-2.1366987174374943,-1.9404138934403652,0.9453910354833436,1.204639484353169,-1.2452850568727143,39.0
40,-1.1887111820532557,-2.1366986922828044,-1.9404138996489975,0.9453910161454537,1.2046395268506707,-1.3465966416337674,40.0
41,-1.1887112205064185,-2.1366986696110195,-1.9404139052448,0.9453909987163156,1.2046395651534407,-1.4379082263948133,41.0
42,-1.1887112547483791,-2.136698649422139,-1.940413910227775,0.9453909831959304,1.2046395992614787,-1.5192198111558617,42.0
43,-1.188711280039494,-2.1366986250777105,-1.9404139128441114,0.9453909612542997,1.2046396243771165,-1.5905313959169123,43.0
44,-1.188711301287025,-2.1366986034509567,-1.940413914909647,0.9453909415160168,1.2046396454676922,-1.6518429806779662,44.0
45,-1.188711319069056,-2.1366985853515557,-1.9404139166382883,0.945390924997072,1.2046396631183682,-1.7031545654390219,45.0
46,-1.188711333385587,-2.1366985707795068,-1.9404139180300377,0.9453909116974668,1.2046396773291441,-1.744466150200078,46.0
47,-1.1887113442366177,-2.1366985597348096,-1.9404139190848961,0.9453909016172017,1.2046396881000188,-1.775777734961134,47.0
48,-1.1887113516221481,-2.136698552217464,-1.940413919802864,0.9453908947562774,1.2046396954309928,-1.7970893197221889,48.0
49,-1.1887928266810184,-2.13685683131868,-1.9400988824768288,0.9452341004268174,1.2047209735285356,-1.8086780148125883,49.0
50,-1.190120723561556,-2.139436685749455,-1.9349640866556705,0.9426785710679823,1.2060456605970367,-1.8125267258382316,50.0
51,-1.1911677505811866,-2.14147087141577,-1.9309153641005425,0.9406635676701853,1.2070901554042792,-1.8067299555059984,51.0
52,-1.1911683676214917,-2.141472083207195,-1.930912959476384,0.9406623676971788,1.2070907678214025,-1.7931509984464837,52.0
53,-1.1911683588154371,-2.1414720886632055,-1.930912961214478,0.9406623629721652,1.2070907535992443,-1.7695744208575122,53.0
54,-1.191168346274297,-2.1414720964333815,-1.9309129636897837,0.9406623562430383,1.2070907333447611,-1.7359978432685395,54.0
55,-1.1911683299980707,-2.141472106517723,-1.9309129669023013,0.9406623475097979,1.2070907070579528,-1.6924212656795667,55.0
56,-1.191168310398787,-2.141472118517207,-1.930912971272241,0.9406623352851174,1.2070906783536874,-1.6388446994636685,56.0
57,-1.1911682874983827,-2.1414721324105876,-1.9309129768219766,0.940662319489804,1.2070906474244354,-1.575268142312338,57.0
58,-1.1911682595761537,-2.1414721491549584,-1.930912979539027,0.9406623121282739,1.207090613907844,-1.501691590534054,58.0
59,-1.191168224784646,-2.1414721696165158,-1.9309129746016476,0.9406623274073622,1.2070905807674568,-1.4181150495672057,59.0
60,-1.1911681858395007,-2.1414721925857094,-1.9309129690190203,0.9406623447702045,1.2070905437429726,-1.32453851671533,60.0
61,-1.1911681418657607,-2.14147221553903,-1.9309129623193548,0.9406623612366445,1.20709050152721,-1.2209619909432197,61.0
62,-1.1911680897565524,-2.1414722295279636,-1.9309129528053322,0.9406623663076552,1.207090449503523,-1.1073854746248895,62.0
63,-1.1911680330571603,-2.1414722447495564,-1.9309129424524616,0.9406623718282452,1.2070903928803494,-0.9838089674382837,63.0
64,-1.1911679714481744,-2.1414722470754577,-1.9309129296143122,0.9406623619724246,1.2070903312333572,-0.850232466059297,64.0
65,-1.191167905135356,-2.141472245548009,-1.9309129153455558,0.9406623468673591,1.2070902648457262,-0.7066559663420451,65.0
66,-1.1911678382310305,-2.141472228362788,-1.9309128991786713,0.9406623142433818,1.2070901977406885,-0.5530794717351901,66.0
67,-1.1911677683050261,-2.1414722049043284,-1.9309128816593457,0.9406622740375193,1.2070901275609338,-0.38950298330231004,67.0
68,-1.1911677091250148,-2.1414721620699795,-1.9309128642309568,0.9406622144734933,1.2070900679781364,-0.22535517858970833,68.0
69,-1.1911676565912668,-2.141472118512911,-1.9309128481335232,0.9406621554501414,1.207090015041568,-0.0711989719820063,69.0
70,-1.1911676190502716,-2.141472065999451,-1.9309128342092325,0.940662089505557,1.2070899770377421,0.07295723462569875,70.0
71,-1.1911675865586655,-2.1414720156880147,-1.930912821607528,0.9406620270288292,1.2070899441057874,0.20711344123340567,71.0
72,-1.1911675690192487,-2.141471961743513,-1.9309128117729233,0.9406619635380847,1.2070899261095238,0.33126964784111207,72.0
73,-1.1911675528925216,-2.1414719121439054,-1.9309128027304256,0.9406619051611171,1.2070899095627463,0.4454258544488212,73.0
74,-1.1911675482852968,-2.141471864179935,-1.9309127963217478,0.9406618509308049,1.2070899045590435,0.5495820610565292,74.0
75,-1.1911675472802532,-2.1414718199739347,-1.930912791104162,0.9406618016047583,1.2070899031914535,0.6437382676642389,75.0
76,-1.1911675463819518,-2.1414717804629007,-1.9309127864407127,0.9406617575174562,1.2070899019691108,0.7278944742719481,76.0
77,-1.1911675514086955,-2.1414717457808696,-1.930912783583361,0.9406617199942341,1.2070899067165617,0.8020506808796593,77.0
78,-1.1911675591578206,-2.14147171585406,-1.9309127818429728,0.9406616883055673,1.2070899142277058,0.8662068874873715,78.0
79,-1.191167565699093,-2.14147169059193,-1.9309127803738564,0.9406616615561987,1.2070899205680914,0.9203630940950825,79.0
80,-1.191167571032513,-2.1414716699944796,-1.9309127791760115,0.9406616397461279,1.2070899257377183,0.9645193007027902,80.0
81,-1.1911675751580795,-2.141471654061708,-1.930912778249441,0.9406616228753563,1.2070899297365862,0.9986755073104961,81.0
82,-1.191167578075794,-2.1414716427936145,-1.930912777594145,0.9406616109438836,1.2070899325646953,1.0228317139182066,82.0
83,-1.1911675797856551,-2.1414716361901998,-1.9309127772101233,0.9406616039517098,1.2070899342220456,1.036987920525916,83.0
84,-1.1921109583357683,-2.1433339607349313,-1.9272044943944442,0.9388152544338674,1.2080309533687978,1.043225234504308,84.0
85,-1.193468630110289,-2.146014150196452,-1.9218676804289225,0.9361580649769209,1.2093852293195109,1.039948765815013,85.0
86,-1.1935918744096248,-2.1462574540301316,-1.9213832207212318,0.9359168518241405,1.2095081644155534,1.0288240745623858,86.0
87,-1.1935918717004042,-2.1462574609017127,-1.9213832238025903,0.9359168502970141,1.2095081599063704,1.0081130836119663,87.0
88,-1.1935918676830757,-2.146257471091136,-1.9213832283717385,0.9359168480325368,1.209508153219994,0.9774020926615516,88.0
89,-1.1935918623576396,-2.1462574845984026,-1.9213832344286756,0.9359168450307088,1.2095081443564248,0.9366911017111366,89.0
90,-1.193591855519066,-2.1462575015302114,-1.921383241849682,0.9359168416431939,1.2095081315066254,0.885980112245783,90.0
91,-1.1935918467233404,-2.1462575221176325,-1.9213832503668273,0.9359168386315593,1.2095081107529229,0.8252691268290429,91.0
92,-1.193591836968315,-2.146257546507482,-1.921383260009266,0.9359168369638671,1.2095080876536044,0.7545581421475255,92.0
93,-1.1935918376350525,-2.1462575842646223,-1.921383264322364,0.9359168794220423,1.209508087152971,0.6738471729986157,93.0
94,-1.193591838389745,-2.146257626730926,-1.9213832691412298,0.9359169272748807,1.2095080866377819,0.5831362082400985,94.0
95,-1.1935918392386229,-2.1462576739426273,-1.9213832744325154,0.9359169806786843,1.2095080861633494,0.4824252519896919,95.0
96,-1.1935918534327898,-2.146257722103274,-1.9213832828851378,0.9359170372208444,1.2095081006200894,0.3717143063478548,96.0
97,-1.1935918703889112,-2.146257774195777,-1.9213832923966059,0.9359170986235819,1.2095081180644582,0.2510033681097949,97.0
98,-1.1935918965955743,-2.1462578259714054,-1.9213833038532113,0.9359171615205943,1.2095081447492275,0.12029243662090348,98.0
99,-1.193591933021306,-2.1462578768586136,-1.9213833173970882,0.9359172254709507,1.2095081816300581,-0.020418491472393004,99.0
100,-1.1935919790616785,-2.1462579242225877,-1.9213833325896124,0.9359172874542641,1.2095082281036482,-0.1711294162530412,100.0
101,-1.1935920363291659,-2.146257966424898,-1.9213833495881443,0.9359173459765646,1.2095082857702881,-0.3318403345210964,101.0
102,-1.1935921032585106,-2.1462579963999544,-1.9213833672568377,0.9359173928652152,1.2095083530066693,-0.497867625036228,102.0
103,-1.193592169984393,-2.14625801874029,-1.9213833840149086,0.9359174312256014,1.209508419976487,-0.6548911374806121,103.0
104,-1.1935922369609069,-2.146258022297273,-1.921383398692758,0.9359174487565176,1.209508487042278,-0.8019146499249291,104.0
105,-1.1935922998709998,-2.146258023725547,-1.9213834122621714,0.9359174630967664,1.2095085500204559,-0.9389381623692385,105.0
106,-1.1935923578575394,-2.146258010437747,-1.921383423110671,0.9359174600800279,1.2095086079493274,-1.0659616748135456,106.0
107,-1.1935924112320428,-2.146257996129147,-1.9213834328603079,0.9359174549936153,1.209508661253617,-1.182985187257847,107.0
108,-1.1935924581045159,-2.1462579770802317,-1.9213834406857933,0.9359174433196631,1.209508708010968,-1.2900086997021456,108.0
109,-1.19359249847907,-2.1462579533036332,-1.9213834465894404,0.9359174250730489,1.2095087482255997,-1.3870322121464411,109.0
110,-1.1935925346923093,-2.14625793197764,-1.9213834518846045,0.9359174087070706,1.2095087842954002,-1.474055724590733,110.0
111,-1.193592564973385,-2.1462579106283197,-1.92138345591288,0.9359173911126527,1.2095088144275354,-1.5510792370350241,111.0
112,-1.1935925879255835,-2.146257887304421,-1.9213834581549594,0.9359173698375831,1.209508837207952,-1.6181027494793134,112.0
113,-1.1935926074532826,-2.14625786746048,-1.9213834600625168,0.9359173517367828,1.2095088565894994,-1.6751262619236067,113.0
114,-1.1935926235564829,-2.146257851096498,-1.9213834616355498,0.9359173368102502,1.2095088725721779,-1.7221497743679062,114.0
115,-1.1935926362351834,-2.1462578382124735,-1.9213834628740627,0.9359173250579877,1.209508885155987,-1.759173286812205,115.0
116,-1.1935926454893842,-2.146257828808406,-1.9213834637780547,0.9359173164799951,1.2095088943409265,-1.7861967992565024,116.0
117,-1.1935926513190855,-2.1462578228842966,-1.921383464347526,0.9359173110762725,1.2095089001269963,-1.8032203117008005,117.0
118,-1.1941173082640382,-2.147310196933845,-1.9192870632351997,0.9348730809583645,1.2100321998160295,-1.8116047140207605,118.0
119,-1.1955668970465634,-2.150217853783783,-1.9134948271954884,0.931987940070733,1.211478038295963,-1.811208981993308,119.0
120,-1.1959849580197037,-2.151056429758847,-1.9118243356277975,0.9311558582175709,1.2118950156970667,-1.8022389675537376,120.0
121,-1.1959849514372158,-2.1510564338356124,-1.9118243369344108,0.9311558547098969,1.2118950049922639,-1.7844150559234553,121.0
122,-1.1959849411616625,-2.151056440199623,-1.911824338974092,0.9311558492342634,1.2118949882815946,-1.7565911442931745,122.0
123,-1.1959849271930436,-2.1510564488508797,-1.9118243417468408,0.9311558417906703,1.2118949655650595,-1.7187672326628913,123.0
124,-1.1959849095313588,-2.1510564597893813,-1.9118243452526573,0.9311558323791176,1.2118949368426581,-1.6709433210326077,124.0
125,-1.1959848889148443,-2.1510564722827406,-1.9118243502678305,0.9311558182600781,1.211894908658919,-1.613119426605706,125.0
126,-1.195984864749111,-2.1510564869206377,-1.9118243561673345,0.931155801639272,1.2118948757445356,-1.5452955325084972,126.0
127,-1.1959848337358472,-2.1510565052554553,-1.9118243542562683,0.9311558079048288,1.2118948435484385,-1.467471650577787,127.0
128,-1.1959847976057865,-2.151056526481274,-1.9118243491025504,0.9311558237308705,1.2118948091425612,-1.3796477732286447,128.0
129,-1.195984757376117,-2.1510565502147703,-1.9118243432778237,0.9311558417502138,1.211894770946899,-1.2818239081929916,129.0
130,-1.1959847101900445,-2.1510565682168714,-1.911824335262121,0.9311558521340784,1.2118947246506382,-1.174000050384394,130.0
131,-1.1959846567691859,-2.151056582560073,-1.9118243254602905,0.9311558572910568,1.2118946713126781,-1.056176200532614,131.0
132,-1.1959845987302034,-2.1510565944887685,-1.911824314399159,0.9311558588162316,1.2118946133205457,-0.928352358429043,132.0
133,-1.1959845358259837,-2.151056593081896,-1.9118243007972349,0.9311558444666737,1.2118945503442238,-0.7905285215429321,133.0
134,-1.1959844692947776,-2.151056587961659,-1.911824285997137,0.9311558252499803,1.211894483707173,-0.6427046862101929,134.0
135,-1.195984402625302,-2.1510565656847005,-1.9118242692116612,0.9311557869261131,1.211894416792199,-0.484880857696626,135.0
136,-1.195984336898707,-2.1510565343229744,-1.911824251592022,0.931155738691154,1.2118943507454718,-0.3186240419590719,136.0
137,-1.195984280255037,-2.1510564926421107,-1.9118242347368826,0.931155680826911,1.2118942937041168,-0.158717309703386,137.0
138,-1.1959842359008503,-2.15105644468596,-1.911824219792431,0.931155618482029,1.2118942489112219,-0.00881057744770904,138.0
139,-1.1959841998984473,-2.1510563944528496,-1.9118242063730375,0.9311555553025317,1.2118942124587502,0.13109615480796216,139.0
140,-1.195984175239708,-2.1510563426482214,-1.911824195198435,0.9311554926810146,1.2118941873471523,0.26100288706362096,140.0
141,-1.1959841585024145,-2.151056291286301,-1.911824185766968,0.9311554321618423,1.2118941701678512,0.3809096193192768,141.0
142,-1.195984145574173,-2.151056243560895,-1.9118241775639682,0.9311553764608621,1.2118941568312736,0.4908163515749262,142.0
143,-1.1959841445219608,-2.151056197309243,-1.9118241720666675,0.931155324812581,1.2118941553937268,0.5907230838305686,143.0
144,-1.195984143575068,-2.151056155687076,-1.9118241671196041,0.9311552783339476,1.2118941541000687,0.6806298160862092,144.0
145,-1.1959841430997409,-2.151056118702587,-1.9118241628019779,0.9311552371085144,1.211894153316946,0.76053654834185,145.0
146,-1.1959841514448766,-2.1510560865425425,-1.9118241609190936,0.931155203040894,1.2118941614023675,0.83044328059749,146.0
147,-1.1959841585962594,-2.1510560589829195,-1.9118241593055516,0.9311551738465698,1.211894168331188,0.8903500128531359,147.0
148,-1.1959841645538896,-2.15105603602372,-1.911824157961349,0.9311551495255401,1.211894174103407,0.9402567451087839,148.0
149,-1.195984169317767,-2.151056017664942,-1.9118241568864889,0.9311551300778065,1.211894178719025,0.9801634773644351,149.0
150,-1.1959841728878917,-2.1510560039065854,-1.9118241560809714,0.9311551155033695,1.2118941821780416,1.0100702096200818,150.0
151,-1.1959841752642635,-2.15105599474865,-1.9118241555447975,0.9311551058022286,1.211894184480457,1.0299769418757312,151.0
152,-1.19617009741569,-2.151434904910265,-1.911069015431122,0.9307788089958261,1.2120796092543795,1.040495882478417,152.0
153,-1.197535838854177,-2.15421834452576,-1.9055218953088822,0.9280146372460798,1.2134416972969095,1.0429834543039784,153.0
154,-1.1983450186871931,-2.155867492822954,-1.902235312591178,0.9263769081345973,1.2142487119582421,1.0361527603826266,154.0
155,-1.1983450167525063,-2.155867497706362,-1.9022353148012976,0.9263769070477984,1.2142487086816458,1.0212325459445926,155.0
156,-1.1983450135211318,-2.155867505862786,-1.9022353184927097,0.9263769052325928,1.2142487032089713,0.99631233150656,156.0
157,-1.1983450089930687,-2.155867517292225,-1.9022353236654137,0.9263769026889799,1.2142486955402179,0.9613921170685249,157.0
158,-1.1983450031683176,-2.1558675319946787,-1.9022353303194104,0.9263768994169602,1.214248685675386,0.9164719026304876,158.0
159,-1.1983449955107108,-2.155867550259204,-1.9022353381189951,0.9263768963782051,1.2142486688341818,0.8615516896734932,159.0
160,-1.1983449861984166,-2.1558675719897478,-1.9022353471757225,0.9263768932531522,1.2142486466050921,0.796631477368922,160.0
161,-1.1983449809049802,-2.1558676016222877,-1.9022353545174464,0.9263769100571554,1.214248633048219,0.7217112726050432,161.0
162,-1.1983449815988403,-2.1558676408009174,-1.9022353590215477,0.9263769541576471,1.214248632529886,0.6367910764682181,162.0
163,-1.1983449823866845,-2.1558676846633813,-1.902235363990703,0.9263770037547019,1.2142486320607326,0.5418708901924065,163.0
164,-1.1983449878443322,-2.1558677318765445,-1.9022353703786095,0.9263770579283526,1.2142486367551246,0.4369507108326545,164.0
165,-1.1983450037945942,-2.1558677807745537,-1.902235379370761,0.9263771156345583,1.2142486531622243,0.32203053996772285,165.0
166,-1.1983450211347562,-2.155867833925417,-1.9022353891475923,0.9263771783542328,1.214248671014471,0.19711037833029965,166.0
167,-1.1983450544056264,-2.155867882754766,-1.9022354018614203,0.9263772394602341,1.2142487047318165,0.06219022267067928,167.0
168,-1.1983450914784621,-2.1558679344151965,-1.9022354157156114,0.9263773044851484,1.2142487422740593,-0.0827299321456063,168.0
169,-1.1983451444537154,-2.15586797610117,-1.9022354318354335,0.9263773616562555,1.2142487956472194,-0.23765008101504512,169.0
170,-1.1983452036928497,-2.1558680166382884,-1.9022354491658489,0.9263774188261096,1.2142488552800434,-0.4024591356367007,170.0
171,-1.198345272065003,-2.1558680394384178,-1.9022354664239147,0.9263774581253265,1.214248923905794,-0.5652713106229583,171.0
172,-1.198345337851147,-2.155868054626736,-1.9022354822570593,0.9263774884295024,1.214248989879416,-0.7180834856092388,172.0
173,-1.1983454026485911,-2.1558680560539063,-1.9022354963040216,0.9263775032231625,1.214249054748177,-0.8608956605955707,173.0
174,-1.1983454627962442,-2.1558680524364267,-1.902235508777569,0.9263775114570969,1.2142491149206358,-0.9937078355819373,174.0
175,-1.1983455181534173,-2.1558680375930517,-1.9022355189404028,0.9263775062261241,1.2142491702042033,-1.1165200105683348,175.0
176,-1.1983455690031262,-2.1558680239583046,-1.9022355282757177,0.92637750142108,1.2142492209863005,-1.2293321855547625,176.0
177,-1.1983456117661424,-2.1558680005608517,-1.9022355347614601,0.926377484107121,1.214249263592528,-1.3321443605412147,177.0
178,-1.1983456499352734,-2.1558679781071235,-1.9022355403708682,0.926377466906785,1.2142493016085656,-1.4249565355276972,178.0
179,-1.198345683991892,-2.1558679580726627,-1.90223554537589,0.9263774515596889,1.214249335528586,-1.5077687105141995,179.0
180,-1.1983457100433912,-2.155867935033105,-1.902235548321919,0.9263774312380111,1.2142493614109842,-1.580580885500713,180.0
181,-1.1983457313014645,-2.155867913463959,-1.9022355504091195,0.9263774115752217,1.2142493825078813,-1.6433930604872407,181.0
182,-1.1983457491751508,-2.1558678953287256,-1.902235552164025,0.9263773950428416,1.214249400246051,-1.6962052354737747,182.0
183,-1.1983457636644501,-2.1558678806274045,-1.9022355535866373,0.9263773816408715,1.214249414625494,-1.739017410460309,183.0
184,-1.1983457747693618,-2.1558678693599944,-1.902235554676958,0.9263773713693122,1.2142494256462095,-1.7718295854468478,184.0
185,-1.198345782489886,-2.155867861526496,-1.902235555434987,0.9263773642281641,1.2142494333081977,-1.7946417604333764,185.0
186,-1.1983583925331505,-2.155893959840845,-1.9021835141630612,0.9263514170434368,1.2142620084597844,-1.8075025902425301,186.0
187,-1.1994529047707343,-2.158160371898244,-1.8976649055453854,0.9240988566536004,1.215353494020251,-1.8127307766505585,187.0
188,-1.2006361837815862,-2.1606106040938893,-1.8927798156560904,0.9216636034053645,1.216533499833696,-1.8082220323568758,188.0
189,-1.2006758591956128,-2.160692772303958,-1.8926160010988164,0.921581937889092,1.2165730626917854,-1.7960765767755598,189.0
190,-1.2006758511628592,-2.160692777276738,-1.892616002702652,0.9215819336373942,1.2165730495364522,-1.7740811666720342,190.0
191,-1.2006758394780923,-2.160692784510344,-1.8926160050356562,0.9215819274527032,1.2165730304001745,-1.7420857565685028,191.0
192,-1.2006758241413116,-2.160692794004776,-1.892616008097829,0.9215819193350189,1.216573005282952,-1.7000903464649746,192.0
193,-1.2006758054304993,-2.1606928054774492,-1.8926160121906583,0.9215819082239187,1.2165729766746434,-1.6480949412138886,193.0
194,-1.2006757835779354,-2.1606928186922345,-1.892616017566068,0.9215818932333146,1.2165729466557695,-1.586099543295764,194.0
195,-1.2006757574938167,-2.1606928343699177,-1.8926160219167147,0.9215818812944895,1.2165729130606677,-1.5141041481591424,195.0
196,-1.200675724152641,-2.160692853928974,-1.8926160171432014,0.9215818958250237,1.2165728813089114,-1.432108766185095,196.0
197,-1.200675686752093,-2.160692875916131,-1.89261601174751,0.9215819123118992,1.2165728457466545,-1.340113390331467,197.0
198,-1.200675645151067,-2.160692899934505,-1.8926160056365164,0.9215819303349292,1.2165728061812378,-1.2381180218025456,198.0
199,-1.2006755949666978,-2.1606929134125306,-1.8926159963811127,0.9215819351378614,1.2165727560818747,-1.1261226645658453,199.0
200,-1.2006755402996903,-2.1606929280948406,-1.8926159862982974,0.921581940372349,1.216572701493841,-1.004127314936765,200.0
201,-1.2006754809026496,-2.160692933072597,-1.8926159740986124,0.9215819337998068,1.2165726420823884,-0.872131971687069,201.0
202,-1.2006754168521034,-2.1606929316842005,-1.892615960177302,0.9215819191643828,1.216572577957209,-0.7301366311295304,202.0
203,-1.2006753513881647,-2.160692918287018,-1.8926159445734938,0.9215818908752087,1.2165725123180118,-0.5781412947136697,203.0
204,-1.2006752837571868,-2.160692895779317,-1.8926159274579615,0.9215818520039966,1.216572444434395,-0.41614596462643605,204.0
205,-1.200675223743845,-2.160692857001915,-1.8926159101110112,0.9215817965829669,1.2165723840381388,-0.2507621683734947,205.0
206,-1.2006751696202282,-2.1606928166015456,-1.8926158938431583,0.921581740559434,1.2165723295233626,-0.09502910562574979,206.0
207,-1.2006751325586358,-2.160692765020195,-1.892615879957442,0.9215816755794753,1.216572291992052,0.0507039571220087,207.0
208,-1.2006750980401595,-2.1606927169782906,-1.8926158670245334,0.9215816150583482,1.2165722570360893,0.18643701986976652,208.0
209,-1.2006750806959814,-2.160692663873091,-1.89261585720033,0.9215815524121966,1.2165722392276033,0.31217008261753965,209.0
210,-1.200675064731766,-2.1606926149912375,-1.8926158481575497,0.9215814947482815,1.2165722228360059,0.42790314536531093,210.0
211,-1.2006750580031036,-2.160692568226197,-1.8926158413421807,0.921581441327701,1.2165722157063885,0.5336362081131042,211.0
212,-1.2006750570081186,-2.1606925245170996,-1.8926158361096412,0.9215813924799342,1.2165722143415567,0.6293692708608951,212.0
213,-1.2006750561170667,-2.160692485373732,-1.8926158314236718,0.9215813487346621,1.2165722131192913,0.7151023336086848,213.0
214,-1.200675059591622,-2.160692450888486,-1.892615828210555,0.9215813110656921,1.2165722163059964,0.790835396356484,214.0
215,-1.200675067347816,-2.160692421059542,-1.8926158264520399,0.9215812794538368,1.2165722238176095,0.856568459104279,215.0
216,-1.2006750739240564,-2.1606923957684887,-1.8926158249610472,0.9215812526511067,1.2165722301864776,0.9123015218520739,216.0
217,-1.200675079320344,-2.1606923750153273,-1.8926158237375756,0.9215812306575006,1.2165722354126012,0.9580345845998528,217.0
218,-1.2006750835366784,-2.160692358800056,-1.8926158227816285,0.9215812134730206,1.2165722394959793,0.9937676473476359,218.0
219,-1.2006750865730595,-2.1606923471226747,-1.892615822093206,0.9215812010976665,1.2165722424366125,1.0195007100954232,219.0
220,-1.2006750884294872,-2.160692339983184,-1.892615821672308,0.9215811935314384,1.2165722442345006,1.035233772843208,220.0
221,-1.2013435971155075,-2.162098773486555,-1.8898106327686173,0.9201822338718827,1.2172388423704783,1.0426666783817002,221.0
222,-1.202708662245317,-2.164970659995348,-1.8840825535447203,0.9173256228773583,1.2186000060854207,1.0410033743476856,222.0
223,-1.2029748932065785,-2.165530774572906,-1.8829653928035042,0.9167684900006448,1.218865475263784,1.0311028370678603,223.0
224,-1.2029748907570872,-2.1655307807255646,-1.8829653956148342,0.9167684886283877,1.2188654710424243,1.012048368425567,224.0
225,-1.2029748870220747,-2.165530790107207,-1.882965399901582,0.9167684865359547,1.2188654646056476,0.9829938997832766,225.0
226,-1.2029748820015416,-2.165530802717834,-1.882965405663747,0.9167684837233456,1.2188654559534535,0.943939431140989,226.0
227,-1.202974875621045,-2.1655308185990165,-1.8829654128529565,0.9167684803300757,1.2188654444152507,0.8948849636616978,227.0
228,-1.202974867232871,-2.165530838112458,-1.882965421048317,0.9167684775700438,1.2188654241563275,0.8358305058463558,228.0
229,-1.2029748574242838,-2.1655308609302133,-1.8829654306314412,0.9167684743426412,1.2188654004668549,0.7667760480310067,229.0
230,-1.2029748566862501,-2.1655308957629265,-1.8829654355844188,0.9167685097476111,1.2188653969003709,0.6877216043435739,230.0
231,-1.2029748574087458,-2.1655309363050397,-1.8829654402597553,0.9167685554784504,1.2188653963899687,0.5986671648573547,231.0
232,-1.2029748582260216,-2.1655309814765418,-1.8829654453878422,0.916768606676751,1.21886539594616,0.49961273609293877,232.0
233,-1.2029748696252938,-2.165531028240598,-1.8829654531488078,0.9167686613242882,1.2188654073177583,0.39055831599565716,233.0
234,-1.2029748859563663,-2.165531078193486,-1.882965462405299,0.9167687203425978,1.21886542412974,0.271503903629241,234.0
235,-1.2029749087434398,-2.165531129346179,-1.8829654731975851,0.9167687820012675,1.218865447409052,0.14244949860424921,235.0
236,-1.2029749439003912,-2.1655311782149234,-1.8829654864054286,0.916768843613574,1.218865483017469,0.003395098047927838,236.0
237,-1.2029749860093673,-2.165531226116046,-1.8829655009996888,0.9167689055735744,1.2188655255752177,-0.14565930018984827,237.0
238,-1.2029750413665339,-2.16553126667084,-1.8829655176014912,0.916768962071203,1.2188655813291371,-0.304713691751645,238.0
239,-1.2029751050490107,-2.1655312989836166,-1.8829655350472996,0.9167690110989598,1.218865645346109,-0.4710751931013214,239.0
240,-1.2029751709083776,-2.1655313208574727,-1.882965551759111,0.9167690489507349,1.2188657114532782,-0.6297509747494887,240.0
241,-1.2029752362244661,-2.1655313274935644,-1.8829655665977763,0.9167690697261681,1.2188657768870579,-0.7784267563976681,241.0
242,-1.2029752984132838,-2.1655313288196427,-1.8829655801506342,0.9167690839487179,1.2188658391454705,-0.9171025380458616,242.0
243,-1.202975355853724,-2.165531318462397,-1.882965591333892,0.9167690841903968,1.2188658965516814,-1.0457783196940567,243.0
244,-1.2029754087247606,-2.1655313042803614,-1.8829656010917697,0.9167690792371945,1.218865949351672,-1.164454101342276,244.0
245,-1.2029754559098977,-2.165531287528764,-1.8829656093283549,0.916769070257788,1.2188659964385762,-1.2731298829904993,245.0
246,-1.2029754960192607,-2.1655312639565256,-1.8829656152542547,0.91676905223437,1.2188660363850572,-1.3718056646387358,246.0
247,-1.2029755320638622,-2.165531242773148,-1.8829656205796057,0.9167690360374785,1.2188660722832838,-1.4604814462869773,247.0
248,-1.2029755631829635,-2.1655312227821724,-1.8829656249810625,0.9167690201586255,1.2188661032615336,-1.5391572279352168,248.0
249,-1.2029755861559646,-2.165531199506856,-1.8829656272487503,0.9167689989535319,1.2188661260581104,-1.6078330095834616,249.0
250,-1.202975605783827,-2.1655311796206984,-1.8829656291862358,0.9167689808361489,1.218866145535238,-1.6665087912317,250.0
251,-1.2029756220665515,-2.165531163123702,-1.8829656307935159,0.916768965806474,1.2188661616929173,-1.7151845728799309,251.0
252,-1.2029756350041372,-2.165531150015865,-1.8829656320705945,0.9167689538645103,1.218866174531147,-1.7538603545281561,252.0
253,-1.2029756445965842,-2.165531140297187,-1.8829656330174722,0.9167689450102575,1.2188661840499277,-1.7825361361763892,253.0
254,-1.2029756508438925,-2.1655311339676673,-1.8829656336341487,0.9167689392437157,1.2188661902492588,-1.8012119178246158,254.0
255,-1.2032778623855445,-2.166177091909673,-1.8816767250630662,0.9161259042980403,1.2191675094059793,-1.8108347094015433,255.0
256,-1.2046346661416303,-2.169077217738079,-1.8758900020620461,0.9132389283560437,1.2205203066274422,-1.8121297711535946,256.0
257,-1.2052458511958906,-2.1703836150853855,-1.8732833059248837,0.9119384553501084,1.221129685157417,-1.804424436350133,257.0
258,-1.2052458453833381,-2.1703836186818655,-1.8732833070924955,0.9119384522935511,1.2211296755699999,-1.788331696726099,258.0
259,-1.2052458359588758,-2.1703836245131916,-1.8732833089856595,0.9119384473376546,1.221129660024979,-1.762238957102066,259.0
260,-1.2052458229225034,-2.1703836325793633,-1.873283311604375,0.9119384404824189,1.221129638522354,-1.7261462174780342,260.0
261,-1.205245806274221,-2.170383642880381,-1.873283314948643,0.9119384317278438,1.221129611062125,-1.680053477854011,261.0
262,-1.2052457865869097,-2.1703836548193554,-1.8732833196594911,0.911938418827547,1.2211295828281907,-1.6239607408027528,262.0
263,-1.2052457635365987,-2.1703836687338343,-1.8732833253744112,0.911938403051883,1.2211295508889983,-1.557868004363978,263.0
264,-1.2052457345807444,-2.1703836858902297,-1.873283325394619,0.9119384036731437,1.2211295186863476,-1.4817752771603094,264.0
265,-1.2052456999760512,-2.1703837061678724,-1.8732833204164963,0.9119384186971341,1.2211294857351642,-1.3956825565219928,265.0
266,-1.205245661365071,-2.1703837288815717,-1.8732833147837469,0.9119384358146576,1.2211294490769045,-1.2995898473899503,266.0
267,-1.2052456167585184,-2.1703837483156914,-1.8732833074269197,0.9119384481894541,1.221129405693321,-1.193497145036647,267.0
268,-1.2052455653393788,-2.1703837621316,-1.873283297892061,0.9119384530691066,1.2211293543595942,-1.077404450959625,268.0
269,-1.205245509475461,-2.170383776532269,-1.8732832874625547,0.9119384576914623,1.2211292985683593,-0.951311765238926,269.0
270,-1.2052454487979118,-2.17038377526041,-1.8732832742027075,0.9119384438022936,1.221129237819004,-0.8152190858556869,270.0
271,-1.2052453837052535,-2.170383773728186,-1.8732832599588107,0.9119384287149729,1.2211291726478426,-0.6691264070162433,271.0
272,-1.2052453192933936,-2.1703837523784135,-1.8732832435695568,0.9119383916949927,1.2211291079918964,-0.5130337351731323,272.0
273,-1.2052452534519227,-2.1703837253778415,-1.873283226217672,0.9119383480873028,1.2211290418565754,-0.347438166924968,273.0
274,-1.2052451975234053,-2.1703836844644124,-1.8732832093985805,0.9119382910213079,1.22112898552435,-0.18580464186687642,274.0
275,-1.205245151214247,-2.1703836398464107,-1.8732831942297257,0.9119382318065241,1.2211289387888584,-0.03417111680876743,275.0
276,-1.205245115613668,-2.1703835904210544,-1.873283180818929,0.9119381694385789,1.221128902730904,0.10746240824934526,276.0
277,-1.2052450885921149,-2.1703835409223227,-1.8732831692535976,0.9119381087524154,1.2211288752594842,0.2390959333074722,277.0
278,-1.205245072009821,-2.1703834902574517,-1.8732831598093322,0.9119380489133119,1.2211288582272308,0.3607294583656094,278.0
279,-1.205245056840971,-2.170383443744502,-1.8732831511507926,0.9119379939891518,1.2211288426453468,0.47236298342375393,279.0
280,-1.2052450557983911,-2.170383397972614,-1.8732831456307193,0.9119379427941976,1.2211288412094863,0.5739965084818961,280.0
281,-1.2052450548583935,-2.17038335670435,-1.8732831406537773,0.911937896636453,1.2211288399149038,0.6656300335400507,281.0
282,-1.205245054020978,-2.170383319939707,-1.8732831362199687,0.9119378555159188,1.2211288387616,0.7472635585982048,282.0
283,-1.205245061069328,-2.1703832878418736,-1.8732831340301486,0.911937821214275,1.2211288455415397,0.8188970836563644,283.0
284,-1.2052450682585438,-2.170383260248463,-1.8732831323918302,0.9119377919586066,1.2211288525010848,0.8805306087145238,284.0
285,-1.205245074281314,-2.170383237132067,-1.8732831310193259,0.9119377674496508,1.2211288583314484,0.9321641337726707,285.0
286,-1.2052450791376388,-2.1703832184926846,-1.873283129912637,0.911937747687408,1.22112886303263,0.9737976588308103,286.0
287,-1.2052450828275176,-2.170383204330315,-1.8732831290717646,0.9119377326718792,1.22112886660463,1.005431183888954,287.0
288,-1.205245085350951,-2.1703831946449585,-1.873283128496709,0.911937722403064,1.2211288690474484,1.0270647089470986,288.0
289,-1.2053001283564917,-2.170502716785752,-1.8730445372539382,0.9118186393949886,1.2211837441276605,1.0389119529802966,289.0
290,-1.2064684528762732,-2.173039827301982,-1.8679801604815438,0.9092910780474552,1.2223485051511258,1.043118118772487,290.0
291,-1.2074799794056603,-2.175236444222925,-1.8635954574121276,0.9071027334801263,1.2233569459179998,1.0376166071233477,291.0
292,-1.2074861460897102,-2.1752498435118137,-1.8635687211339294,0.9070893878779176,1.2233630925257166,1.0244754673494225,292.0
293,-1.2074861431434285,-2.1752498508755855,-1.8635687245323493,0.9070893862302452,1.2233630873589132,1.001360161321936,293.0
294,-1.2074861389225446,-2.1752498614250264,-1.8635687294009724,0.9070893838697669,1.2233630799568793,0.9682448552944458,294.0
295,-1.2074861334270588,-2.175249875160137,-1.8635687357397988,0.907089380796483,1.2233630703196154,0.9251295492669656,295.0
296,-1.2074861262828072,-2.175249892297323,-1.8635687432964398,0.9070893777425342,1.2233630550419554,0.8720142526466863,296.0
297,-1.2074861174040077,-2.1752499128862004,-1.8635687520130313,0.9070893748757729,1.2233630333432215,0.80889896495008,297.0
298,-1.2074861103509915,-2.1752499394061524,-1.863568760245112,0.9070893835532348,1.223363015552967,0.7357836818148011,298.0
299,-1.2074861110155712,-2.17524997672179,-1.8635687645923897,0.9070894256439335,1.223363015061207,0.6526684100391985,299.0
300,-1.2074861117694058,-2.1752500185785975,-1.8635687694137695,0.9070894730217098,1.2233630145955887,0.55955314584984,300.0
301,-1.2074861145846543,-2.1752500644111907,-1.86356877511606,0.9070895253335698,1.2233630163741773,0.456437888838731,301.0
302,-1.2074861299199973,-2.1752501112216445,-1.8635687838562576,0.9070895807091834,1.2233630321602842,0.3433226418083814,302.0
303,-1.2074861466128088,-2.175250162168436,-1.8635687933712264,0.9070896409728456,1.2233630493578125,0.22020740349503296,303.0
304,-1.207486176005965,-2.1752502105753955,-1.863568805358235,0.907089700984391,1.223363079213219,0.08709217119324902,304.0
305,-1.2074862117713343,-2.175250260167528,-1.8635688188694512,0.9070897636147618,1.2233631154439084,-0.05602305909579287,305.0
306,-1.2074862603759466,-2.1752503027631835,-1.8635688343507735,0.9070898210976132,1.223363164463745,-0.20913828455529115,306.0
307,-1.2074863164914156,-2.1752503437533837,-1.8635688512734476,0.9070898783407206,1.22336322098695,-0.3722535038167081,307.0
308,-1.2074863831684461,-2.1752503675441446,-1.8635688684881837,0.9070899185969704,1.2233632879334186,-0.5368102030453481,308.0
309,-1.207486447293382,-2.1752503858749392,-1.86356888451575,0.9070899522432545,1.2233633522782013,-0.6914229684917672,309.0
310,-1.2074865113978368,-2.175250387195309,-1.863568898563696,0.9070899669314231,1.2233634164555875,-0.836035733938197,310.0
311,-1.2074865710271714,-2.1752503865686927,-1.8635689114155751,0.9070899785274789,1.223363476136745,-0.9706484993846451,311.0
312,-1.2074866259044066,-2.1752503718407774,-1.8635689216000553,0.9070899734313675,1.2233635309394661,-1.0952612648311053,312.0
313,-1.207486676377823,-2.1752503582947615,-1.8635689309672372,0.9070899687442086,1.2233635813443484,-1.2098740302775715,313.0
314,-1.207486719638375,-2.1752503373572516,-1.863568937912764,0.907089954333935,1.223363624465611,-1.314486795724052,314.0
315,-1.2074867576541102,-2.1752503150348628,-1.8635689435606708,0.9070899372991901,1.2233636623250632,-1.4090995611705297,315.0
316,-1.207486791651812,-2.1752502950718178,-1.8635689486116227,0.9070899220649129,1.2233636961830006,-1.49371232661702,316.0
317,-1.2074868187114554,-2.1752502734191657,-1.8635689519625656,0.9070899035175153,1.2233637230816297,-1.5683250920635126,317.0
318,-1.207486840077144,-2.175250251802,-1.8635689540834681,0.9070898838356907,1.2233637442811451,-1.6329378575100035,318.0
319,-1.2074868581361038,-2.175250233530483,-1.8635689558761215,0.9070898671999855,1.2233637621996505,-1.687550622956484,319.0
320,-1.2074868728883354,-2.1752502186046176,-1.8635689573405245,0.9070898536103995,1.2233637768371461,-1.7321633884029513,320.0
321,-1.2074868843338384,-2.175250207024401,-1.8635689584766801,0.9070898430669341,1.2233637881936312,-1.7667761538494158,321.0
322,-1.2074868924726123,-2.1752501987898336,-1.863568959284588,0.9070898355695891,1.2233637962691055,-1.791388919295895,322.0
323,-1.2074868973046575,-2.175250193900915,-1.8635689597642484,0.9070898311183647,1.2233638010635695,-1.8060016847423745,323.0
324,-1.2082823037613777,-2.177005017085801,-1.8600647630769331,0.9053402774994438,1.2241567021430995,-1.8126395341481416,324.0
325,-1.2095437106505909,-2.17978794289427,-1.8545075620254547,0.9025657151972049,1.2254141351430308,-1.8098937757086866,325.0
326,-1.2096994519728836,-2.180131551067405,-1.8538214190805742,0.9022231400327747,1.2255693833745043,-1.7992091133404342,326.0
327,-1.209699444785487,-2.180131555511829,-1.8538214205335555,0.9022231362766547,1.2255693714330742,-1.779091764034413,327.0
328,-1.209699434025355,-2.180131562165502,-1.8538214227087892,0.9022231306534302,1.225569353555758,-1.748974414728404,328.0
329,-1.209699419692488,-2.180131571028425,-1.8538214256062757,0.9022231231631008,1.2255693297425552,-1.7088570654224033,329.0
330,-1.209699401925221,-2.1801315819528355,-1.8538214293857604,0.9022231132481321,1.225569301257956,-1.6587397180247097,330.0
331,-1.2096993811781287,-2.180131594453187,-1.853821434572171,0.9022230990764503,1.2255692722571074,-1.5986223776016826,331.0
332,-1.209699356979937,-2.1801316090328644,-1.8538214406212967,0.9022230825474317,1.2255692384322183,-1.5285050371786277,332.0
333,-1.2096993252060357,-2.180131627639785,-1.8538214361897978,0.9022230958310751,1.2255692079968301,-1.4483877121952058,333.0
334,-1.2096992894002039,-2.180131648626892,-1.8538214309888494,0.9022231114258058,1.2255691739399224,-1.3582703911147864,334.0
335,-1.2096992496321841,-2.1801316720094475,-1.8538214251471115,0.9022231290385554,1.2255691362059,-1.2581530794603835,335.0
336,-1.2096992020863417,-2.180131686876205,-1.853821416538953,0.9022231357886803,1.2255690890657425,-1.1480357777097367,336.0
337,-1.2096991494929639,-2.180131701016317,-1.8538214067303866,0.902223140737612,1.2255690365542296,-1.027918483520376,337.0
338,-1.2096990923517215,-2.1801317089498107,-1.8538213952182625,0.9022231378026033,1.225568979426873,-0.8978011963742136,338.0
339,-1.2096990305955946,-2.1801317077009097,-1.8538213816460456,0.9022231236386352,1.2255689175964717,-0.7576839131287907,339.0
340,-1.209698966498319,-2.1801316984478243,-1.8538213666319434,0.9022231000678108,1.2255688533542766,-0.6075666329081639,340.0
341,-1.2096989011834158,-2.180131676887094,-1.8538213499184693,0.9022230625257444,1.2255687877883599,-0.44744935920331597,341.0
342,-1.2096988402141573,-2.180131642602284,-1.8538213326666133,0.9022230116987855,1.2255687264615946,-0.28124496217123296,342.0
343,-1.209698786305101,-2.180131603281247,-1.8538213163626795,0.9022229567180563,1.2255686721580572,-0.12363828497796675,343.0
344,-1.2096987473533924,-2.180131554790174,-1.8538213022417902,0.9022228946087382,1.2255686327466029,0.023968392215242024,344.0
345,-1.2096987131627954,-2.180131507438479,-1.8538212892888304,0.9022228347541486,1.2255685981107978,0.16157506940838873,345.0
346,-1.2096986931570983,-2.180131456660417,-1.853821279020476,0.9022227740137626,1.225568577643851,0.2891817466014679,346.0
347,-1.2096986773090266,-2.1801314083415013,-1.853821269942686,0.9022227168744636,1.2255685613599634,0.40678842379447844,347.0
348,-1.2096986681061608,-2.180131362708887,-1.8538212626227764,0.9022226641039313,1.2255685517511088,0.5143951009874359,348.0
349,-1.209698667117744,-2.180131319341291,-1.8538212573528199,0.9022226155570982,1.2255685503843885,0.6120017781803245,349.0
350,-1.2096986662305933,-2.180131280416796,-1.8538212526227744,0.9022225719839829,1.2255685491576918,0.6996084553731785,350.0
351,-1.2096986679195196,-2.180131245985458,-1.853821248976541,0.9022225339522144,1.225568550548669,0.7772151325659903,351.0
352,-1.209698675716071,-2.180131216118713,-1.8538212471902549,0.9022225022717928,1.2255685580929199,0.8448218097587816,352.0
353,-1.2096986823594003,-2.1801311906696887,-1.8538212456681855,0.902222475277361,1.2255685645212668,0.9024284869515528,353.0
354,-1.2096986878495075,-2.180131169638388,-1.8538212444103306,0.902222452968918,1.225568569833711,0.9500351641443029,354.0
355,-1.2096986921863926,-2.180131153024808,-1.8538212434166939,0.9022224353464656,1.2255685740302522,0.9876418413370465,355.0
356,-1.209698695370056,-2.1801311408289488,-1.853821242687275,0.9022224224100033,1.2255685771108902,1.0152485185298015,356.0
357,-1.2096986974004966,-2.1801311330508097,-1.8538212422220748,0.9022224141595313,1.225568579075625,1.032855195722564,357.0
358,-1.2101018250277065,-2.1810346716594093,-1.8520162793244859,0.9013209090224301,1.2259703957038097,1.0416916863965928,358.0
359,-1.2114176447449447,-2.183983866559846,-1.84612481660883,0.8983783767332295,1.2272819362649603,1.041938894072197,359.0
360,-1.211883192856845,-2.1850273217542258,-1.8440403637925484,0.8973372812468295,1.2277459695730641,1.0334612112643127,360.0
361,-1.2118831906950143,-2.1850273271300193,-1.8440403662994653,0.8973372800385545,1.227745965715171,1.0163571578790753,361.0
362,-1.211883187269254,-2.185027335648807,-1.8440403702720678,0.8973372781238533,1.2277459596017342,0.9892531044938443,362.0
363,-1.2118831825795646,-2.185027347310588,-1.8440403757103558,0.897337275502726,1.2277459512327542,0.9521490511086269,363.0
364,-1.2118831766259466,-2.1850273621153637,-1.8440403826143295,0.8973372721751727,1.2277459406082307,0.9050449977234054,364.0
365,-1.2118831687308884,-2.185027380468936,-1.8440403905095006,0.8973372695242766,1.2277459214995468,0.8479409652616672,365.0
366,-1.2118831593802428,-2.1850274020802996,-1.8440403997361319,0.8973372665582081,1.2277458983733338,0.7808369348277127,366.0
367,-1.211883156546052,-2.185027433408765,-1.8440404057435018,0.8973372923944305,1.2277458899996618,0.7037329152087083,367.0
368,-1.211883157235118,-2.185027471995976,-1.8440404102701196,0.8973373359665779,1.2277458894918798,0.6166289005475168,368.0
369,-1.211883158019343,-2.1850275151008383,-1.844040415232355,0.8973373849202317,1.2277458890746784,0.5195248987253827,369.0
370,-1.2118831663686689,-2.1850275605245786,-1.8440404222335003,0.8973374376936454,1.2277458970728334,0.41242090354067407,370.0
371,-1.2118831820628424,-2.1850276083272737,-1.8440404312308976,0.8973374943128438,1.2277459132390471,0.29531691645060176,371.0
372,-1.2118832011368934,-2.1850276590115323,-1.8440404413054041,0.8973375548387568,1.2277459328214753,0.16821293738514842,372.0
373,-1.2118832350079467,-2.1850277058627103,-1.844040454175408,0.8973376141119178,1.2277459671393416,0.031108964037870807,373.0
374,-1.2118832728980211,-2.185027754566192,-1.8440404681388007,0.8973376762841803,1.2277460054959237,-0.11599500813033839,374.0
375,-1.211883326328083,-2.1850277934809883,-1.8440404843453346,0.897337730765948,1.2277460593195335,-0.2730989734272591,375.0
376,-1.2118833856509375,-2.1850278281979767,-1.8440405013458139,0.8973377817889625,1.227746119004937,-0.437424421172515,376.0
377,-1.211883449150929,-2.185027849116362,-1.8440405176426014,0.8973378182906822,1.2277461827506913,-0.5939860613459848,377.0
378,-1.211883510879574,-2.1850278599551496,-1.8440405323735742,0.8973378431843251,1.2277462446349987,-0.7405477015194097,378.0
379,-1.211883570724921,-2.1850278611428005,-1.8440405455644564,0.8973378569244788,1.227746304549553,-0.87710934169275,379.0
380,-1.2118836260518604,-2.185027856274182,-1.8440405570612075,0.8973378629733857,1.2277463598881688,-1.003670981866038,380.0
381,-1.2118836767987406,-2.1850278426455465,-1.844040566534002,0.8973378583030911,1.227746410565432,-1.120232622039256,381.0
382,-1.211883723191971,-2.1850278301861352,-1.8440405751941047,0.8973378540334644,1.227746456895018,-1.2267942622124177,382.0
383,-1.2118837621195593,-2.1850278094179134,-1.8440405812537222,0.8973378389491631,1.2277464956787876,-1.323355902385533,383.0
384,-1.2118837965044367,-2.1850277892431063,-1.844040586392041,0.8973378235841807,1.2277465299205854,-1.409917542558604,384.0
385,-1.2118838269170156,-2.1850277713989885,-1.8440405909367532,0.8973378099942302,1.2277465602066142,-1.4864791827316284,385.0
386,-1.2118838515509331,-2.185027753386927,-1.8440405942015254,0.8973377950181356,1.2277465847068325,-1.5530408229046302,386.0
387,-1.2118838700416896,-2.185027734702732,-1.8440405960478636,0.8973377780180125,1.2277466030519624,-1.609602463077609,387.0
388,-1.2118838852633123,-2.18502771932187,-1.8440405975677725,0.8973377640234818,1.2277466181537051,-1.6561641032505776,388.0
389,-1.211883897215802,-2.1850277072443425,-1.84404059876125,0.8973377530345423,1.2277466300120612,-1.6927257434235399,389.0
390,-1.2118839058991575,-2.1850276984701478,-1.844040599628298,0.8973377450511948,1.22774663862703,-1.7192873835965092,390.0
391,-1.2118839113133795,-2.1850276929992867,-1.8440406001689174,0.8973377400734402,1.2277466439986113,-1.7358490237694866,391.0
392,-1.2117977610666557,-2.184840529671584,-1.8444302580859806,0.8975402431157993,1.2276608453757902,-1.742685514185818,392.0
393,-1.2113357013531814,-2.1838367347507073,-1.8465200978327703,0.8986263333879536,1.22720067161578,-1.7408273172875557,393.0
394,-1.2112520444986863,-2.1836550067325966,-1.8468984514619111,0.8988229672573842,1.2271173562302433,-1.7298216174884276,394.0
395,-1.21109237534509,-2.183308156985358,-1.8476205848016078,0.8991982666119905,1.226958338811163,-1.7088159176892839,395.0
396,-1.2108566938923926,-2.182796185508991,-1.84868649785186,0.8997522314517721,1.2267236193585385,-1.677810217890153,396.0
397,-1.2105443069559254,-2.1821195369063418,-1.8500953391667125,0.9004844563392436,1.226412500998057,-1.6368044868617369,397.0
398,-1.210152248742673,-2.181280113897084,-1.8518434648406847,0.9013932061028967,1.226022002148926,-1.585798613651431,398.0
399,-1.2096833252218444,-2.1802761170933933,-1.853934320785494,0.9024801215769774,1.2255549437146818,-1.524792740441169,399.0
400,-1.2091361962083287,-2.1791083763451082,-1.8563663220663043,0.903744449918845,1.2250099794759686,-1.4537868086963655,400.0
401,-1.2085088460727145,-2.177778140091971,-1.8591370842340593,0.9051850584918755,1.224385084726832,-1.3727807469267663,401.0
402,-1.207802464062633,-2.1762846537384726,-1.8622480513772603,0.9068026352619468,1.2236814535967513,-1.2817746204478688,402.0
403,-1.2070143105702882,-2.1746295822363257,-1.865696048570765,0.9085956756382291,1.2228963333265188,-1.1807683328220135,403.0
404,-1.2061439180521398,-2.1728131573733025,-1.869480641945113,0.9105639783918323,1.2220292543764888,-1.0697618789490926,404.0
405,-1.2051910993699728,-2.1708354732992605,-1.8736016550229906,0.9127074615816394,1.22108002883989,-0.9487552706978636,405.0
406,-1.2041532578420722,-2.168698015163106,-1.8780562702198615,0.9150247979066326,1.2200460481355997,-0.8177484246654732,406.0
407,-1.2030284433937246,-2.16640182739554,-1.8828425178301769,0.9175150660567107,1.218925353720422,-0.6767412909142314,407.0
408,-1.2018162219859347,-2.1639470786707387,-1.8879600910568026,0.9201781288878645,1.217717510095931,-0.5257338822737115,408.0
409,-1.2005158687163366,-2.1613371434429247,-1.8934021571193331,0.923010531778516,1.2164217800701806,-0.3648732529968804,409.0
410,-1.1992245442654719,-2.1587692554560416,-1.8987575520749647,0.9257983259907892,1.2151349722751372,-0.20629087561740844,410.0
411,-1.1980061367657568,-2.156367810028374,-1.9037667359558652,0.9284063509776967,1.2139207599491026,-0.05770819747835203,411.0
412,-1.1968624669869443,-2.1541317742596915,-1.908431666953597,0.9308355284202277,1.2127809721550553,0.08087472969361892,412.0
413,-1.195795398414364,-2.1520601341237815,-1.9127542602602954,0.9330867557182708,1.2117174805770112,0.20945785652907162,413.0
414,-1.194804000246482,-2.150153295777086,-1.9167337662925799,0.9351596915016576,1.210729350993684,0.32804121955942744,414.0
415,-1.1938919278660107,-2.1484093715871087,-1.9203737325130419,0.9370559880425852,1.2098202541894547,0.4366247129235895,415.0
416,-1.193061276016515,-2.1468273266846962,-1.923676095134924,0.9387765422673866,1.2089922934159223,0.5352082888876105,416.0
417,-1.1923092863921694,-2.145408466503164,-1.9266384227474829,0.9403202341234411,1.2082426995511004,0.6237920320588526,417.0
418,-1.1916419421449997,-2.144149896388168,-1.9292661193913951,0.9416895602637205,1.2075774796345053,0.7023757830353864,418.0
419,-1.1910552563859156,-2.1430535026113304,-1.9315556719578537,0.9428829024192107,1.2069926311488408,0.7709596575190618,419.0
420,-1.1905538259349848,-2.1421171067855465,-1.9335111383152064,0.9439021301981194,1.206492768955949,0.8295435410878269,420.0
421,-1.1901378034535646,-2.1413406347838793,-1.9351326569045924,0.9447473075904194,1.20607804632857,0.8781274294574164,421.0
422,-1.1898049389160115,-2.1407251307049813,-1.9364182872454574,0.9454175430912719,1.2057462045605671,0.9167113907558384,422.0
423,-1.1895583445607705,-2.1402691499249324,-1.937370714281736,0.9459140702743938,1.2055003678985299,0.9452953520542492,423.0
424,-1.1893980203878416,-2.1399726924437323,-1.937989938013429,0.9462368891397854,1.2053405363424576,0.9638793133526629,424.0
425,-1.189313343234218,-2.1398161713176105,-1.9383168743284194,0.9464073321471919,1.2052561192582174,0.9724917534009305,425.0
426,-1.1887116767654238,-2.1387069112549417,-1.9406340545531076,0.9476154514716811,1.2046562949556427,0.9721865066085151,426.0
427,-1.1887100351482638,-2.138704310954964,-1.9406395150418165,0.9476183124252548,1.204654657518184,0.9631076941375012,427.0
428,-1.1887096498307954,-2.1387044961568638,-1.940639188281048,0.9476181714591807,1.2046542716018194,0.9440343171878025,428.0
429,-1.1887090624948435,-2.138704778458453,-1.9406386902025465,0.9476179565858616,1.2046536833529755,0.9149609402381027,429.0
430,-1.188708273015049,-2.138705157925486,-1.940638020727788,0.9476176680103836,1.2046528916492227,0.8758875817392987,430.0
431,-1.188707281393464,-2.1387056345568816,-1.9406371798580304,0.9476173057291446,1.2046518965099078,0.8268142353045099,431.0
432,-1.1887060877025977,-2.138706208314605,-1.9406361676386874,0.9476168696234641,1.20465069858448,0.7677408888697517,432.0
433,-1.1887058881995913,-2.138706332550018,-1.9406360011346582,0.9476168278093202,1.2046504982018886,0.6986675584154453,433.0
434,-1.1887058889825748,-2.13870637004915,-1.9406360053658753,0.9476168696192683,1.204650498757988,0.6195942307799811,434.0
435,-1.1887058898696699,-2.1387064123210333,-1.9406360101044031,0.9476169168477658,1.2046504994291132,0.5305209094189178,435.0
436,-1.1887058962482318,-2.138706457867827,-1.9406360163886496,0.9476169687408342,1.2046505058214771,0.4314475930668693,436.0
437,-1.1887059117516021,-2.1387065056953736,-1.9406360249044756,0.9476170248562195,1.2046505217362247,0.32237428415820546,437.0
438,-1.1887059286770514,-2.138706557907102,-1.9406360342017872,0.9476170861136423,1.2046505391162396,0.20330098293039972,438.0
439,-1.188705960495716,-2.13870660654623,-1.9406360462665844,0.9476171463952573,1.2046505713593942,0.07422769021237291,439.0
440,-1.1887059969310838,-2.1387066576827825,-1.940636059583427,0.9476172103695433,1.204650608241126,-0.06484559822021918,440.0
441,-1.1887060473253108,-2.1387067009405074,-1.940636074992013,0.9476172684285928,1.204650659029326,-0.21391888551496735,441.0
442,-1.188706104690789,-2.138706743440616,-1.9406360917933791,0.9476173270524226,1.2046507167884541,-0.372992166140775,442.0
443,-1.1887061743435572,-2.138706768610708,-1.9406361092971818,0.9476173689559791,1.2046507867053853,-0.5368261666981398,443.0
444,-1.1887062415622822,-2.1387067881807096,-1.940636125672068,0.9476174041668115,1.2046508541408558,-0.691422874184496,444.0
445,-1.1887063087456875,-2.138706789784165,-1.940636140070887,0.9476174194710141,1.2046509213956282,-0.836019581670818,445.0
446,-1.188706371237381,-2.138706789274044,-1.9406361532448488,0.9476174314895003,1.2046509839375124,-0.9706162891571302,446.0
447,-1.188706428747029,-2.1387067738583165,-1.9406361637308793,0.9476174259955306,1.2046510413724345,-1.0952129966434136,447.0
448,-1.1887064816410164,-2.138706759679843,-1.9406361733753024,0.9476174209424966,1.2046510941976938,-1.209809704129705,448.0
449,-1.188706526964415,-2.138706737623245,-1.9406361805537862,0.947617405639321,1.2046511393820492,-1.3144064116159717,449.0
450,-1.1887065668003245,-2.138706714114484,-1.9406361864114223,0.9476173876227728,1.2046511790623977,-1.4090031191022168,450.0
451,-1.188706602425105,-2.138706693090881,-1.9406361916498323,0.9476173715107866,1.2046512145480621,-1.4935998265884605,451.0
452,-1.1887066307638463,-2.1387066702368434,-1.9406361951451876,0.9476173519043002,1.204651242726547,-1.5681965340746942,452.0
453,-1.1887066531494175,-2.138706647423034,-1.9406361973846313,0.9476173311436256,1.2046512649470127,-1.6327932415609245,453.0
454,-1.1887066720695536,-2.1387066281409544,-1.9406361992773933,0.9476173135968403,1.204651283727603,-1.687389949047171,454.0
455,-1.188706687524255,-2.1387066123906053,-1.940636200823472,0.9476172992639444,1.2046512990683178,-1.7319866565334388,455.0
456,-1.1887066995135207,-2.1387066001719854,-1.940636202022871,0.9476172881449395,1.2046513109691568,-1.7665833640196962,456.0
457,-1.188706708037351,-2.1387065914850947,-1.94063620287559,0.9476172802398257,1.2046513194301194,-1.791180071505951,457.0
458,-1.1887067130957458,-2.1387065863299326,-1.9406362033816285,0.947617275548603,1.2046513244512058,-1.8057767789922172,458.0
459,-1.1896016769034023,-2.1404401726401585,-1.9371751978753653,0.945889482036919,1.2055441303716452,-1.8123469331629065,459.0
460,-1.1910050142082018,-2.1431585151934236,-1.931748191481397,0.9431802297192639,1.2069440833203462,-1.8095061037837392,460.0
461,-1.1911637200757776,-2.143465947327211,-1.9311344274519773,0.9428738259810124,1.2071024039945233,-1.7987034855758812,461.0
462,-1.1911637124871557,-2.1434659520323294,-1.9311344289316026,0.9428738219011099,1.2071023916681451,-1.778412364241535,462.0
463,-1.1911637011586609,-2.1434659590562557,-1.9311344311404266,0.9428738158105239,1.2071023732670025,-1.7481212429072006,463.0
464,-1.1911636860902932,-2.1434659683989885,-1.9311344340784493,0.9428738077092542,1.207102348791096,-1.7078301215728429,464.0
465,-1.1911636674453239,-2.14346597990015,-1.931134437914661,0.9428737969981723,1.2071023196728803,-1.657539004874342,465.0
466,-1.1911636457002057,-2.143465993091727,-1.931134443142208,0.9428737819289135,1.2071022900925152,-1.5972479038796172,466.0
467,-1.1911636203461218,-2.1434660084723594,-1.931134449230809,0.9428737643779465,1.2071022556097506,-1.5269568029406673,467.0
468,-1.1911635869231367,-2.1434660281450295,-1.9311344444392264,0.9428737790116661,1.2071022237749056,-1.446665718129022,468.0
469,-1.1911635493418142,-2.1434660502955865,-1.9311344390253904,0.942873795587307,1.2071021880138786,-1.35637463718113,469.0
470,-1.191163507609197,-2.1434660749685097,-1.9311344329484195,0.9428738142963571,1.2071021483888418,-1.2560835653103521,470.0
471,-1.191163457635021,-2.1434660903565663,-1.931134424026234,0.9428738212802417,1.2071020987956382,-1.1457925035556784,471.0
472,-1.1911634024447344,-2.143466105172779,-1.931134413919155,0.9428738266224739,1.2071020436856457,-1.0255014492923709,472.0
473,-1.1911633424810262,-2.143466113099823,-1.9311344020507866,0.9428738233404252,1.2071019837329344,-0.8952104019353568,473.0
474,-1.1911632776866043,-2.1434661115747957,-1.93113438813125,0.942873808570754,1.2071019188655285,-0.7549193582556135,474.0
475,-1.191163210527955,-2.1434661012214518,-1.9311343727393704,0.9428737835419165,1.20710185156122,-0.6046283176388503,475.0
476,-1.1911631420073652,-2.143466078163226,-1.9311343556615181,0.9428737441614847,1.2071017827923587,-0.4443372835718984,476.0
477,-1.1911630783207507,-2.143466041348186,-1.9311343380970596,0.942873690514667,1.2071017187495405,-0.27817392697865545,477.0
478,-1.1911630218831737,-2.143465999597964,-1.9311343215284873,0.9428736328631593,1.2071016619218793,-0.12073229209773806,478.0
479,-1.1911629813559004,-2.143465947948463,-1.931134307248289,0.942873567455246,1.2071016209377903,0.02670934278314672,479.0
480,-1.191162945563868,-2.143465897779139,-1.9311342941358238,0.9428735046432362,1.2071015847051767,0.1641509776639936,480.0
481,-1.1911629248853814,-2.1434658438821974,-1.9311342838211913,0.9428734407520666,1.2071015635690008,0.2915926125448154,481.0
482,-1.1911629082945963,-2.1434657927605176,-1.931134274679255,0.9428733807610139,1.2071015465467512,0.4090342474256314,482.0
483,-1.1911628988983103,-2.1434657444419147,-1.9311342673724607,0.942873325328071,1.2071015367481865,0.5164758823064091,483.0
484,-1.191162897858054,-2.14346569861503,-1.931134262113099,0.9428732743427383,1.2071015353333188,0.6139175171871869,484.0
485,-1.1911628969245547,-2.1434656574911566,-1.9311342573934753,0.9428732285897996,1.2071015340636526,0.7013591520679509,485.0
486,-1.1911628988582332,-2.1434656211352743,-1.9311342538066103,0.942873188698505,1.2071015357025667,0.7788007869487261,486.0
487,-1.1911629070039589,-2.1434655896261248,-1.9311342520710721,0.9428731554313281,1.2071015435985144,0.8462424218294893,487.0
488,-1.191162913941866,-2.1434655627890375,-1.9311342505928732,0.9428731270968868,1.2071015503236793,0.9036840567102636,488.0
489,-1.1911629196719549,-2.143465540624014,-1.93113424937201,0.9428731036951796,1.2071015558780624,0.9511256915910712,489.0
490,-1.191162924194225,-2.1434655231310513,-1.9311342484084866,0.9428730852262088,1.2071015602616628,0.9885673264718617,490.0
491,-1.1911629275086768,-2.1434655103101505,-1.9311342477023037,0.9428730716899741,1.207101563474481,1.0160089613526566,491.0
492,-1.1911629296153097,-2.1434655021613116,-1.9311342472534605,0.9428730630864758,1.207101565516517,1.033450596233449,492.0
493,-1.191636086243682,-2.144396831541747,-1.9292741802923958,0.9419441407892979,1.2075735416405675,1.0421320161979823,493.0
494,-1.193107982452392,-2.1472940309921595,-1.9234878697264512,0.9390544543778397,1.2090417655105403,1.0421365671063785,494.0
495,-1.1935872179166,-2.1482373368662464,-1.9216038985830988,0.9381135972017918,1.2095198045470898,1.0334570495927364,495.0
496,-1.1935872156294427,-2.1482373426565164,-1.9216039011591612,0.9381135958848159,1.2095198006845838,1.0160318049735908,496.0
497,-1.193587212029731,-2.148237351769707,-1.921603905213574,0.938113593812054,1.2095197946054626,0.9886065603544482,497.0
498,-1.1935872071174656,-2.1482373642058175,-1.921603910746338,0.9381135909835057,1.2095197863097262,0.9511813157353013,498.0
499,-1.193587200892646,-2.148237379964849,-1.9216039177574527,0.9381135873991712,1.209519775797375,0.9037560711161435,499.0
500,-1.1935871925905774,-2.148237399454121,-1.9216039257757356,0.9381135844110511,1.2095197563212239,0.8463308314368132,500.0
501,-1.1935871827899647,-2.148237422365382,-1.9216039351577678,0.9381135809959791,1.2095197329874017,0.7789055920740316,501.0
502,-1.1935871801819027,-2.1482374559262287,-1.921603941024478,0.9381136095060627,1.2095197253199146,0.7014803643685126,502.0
503,-1.1935871809040224,-2.1482374968980182,-1.921603945567087,0.9381136554567564,1.2095197247754157,0.6140551414249772,503.0
504,-1.1935871817252928,-2.1482375426505866,-1.9216039505423517,0.9381137070703505,1.2095197243155633,0.5166299312281415,504.0
505,-1.1935871909434022,-2.1482375907535536,-1.921603957687355,0.9381137626205693,1.2095197331981073,0.4092047277919142,505.0
506,-1.193587207437316,-2.148237641522771,-1.9216039667789415,0.9381138222884992,1.2095197501617139,0.29177953237952553,506.0
507,-1.193587227966933,-2.1482376950600464,-1.9216039770380324,0.9381138858312998,1.2095197711935208,0.1643543448176219,507.0
508,-1.1935872635417406,-2.148237744860166,-1.9216039901029138,0.9381139482274045,1.2095198072122482,0.026929162668737107,508.0
509,-1.1935873037969442,-2.148237796155644,-1.9216040043287936,0.9381140132279083,1.2095198479272473,-0.12049601822774506,509.0
510,-1.1935873598928999,-2.148237837591445,-1.9216040208369642,0.9381140705078379,1.2095199044135947,-0.2779211922354814,510.0
511,-1.193587423179201,-2.148237874163093,-1.9216040383384456,0.9381141238517277,1.2095199680567212,-0.44408045013233965,511.0
512,-1.19358749130039,-2.1482378970411506,-1.9216040553578577,0.9381141629964929,1.2095200364265608,-0.6043896888931191,512.0
513,-1.193587558058867,-2.1482379073378044,-1.921604070699167,0.93811418792046,1.2095201033290697,-0.7546989276538756,513.0
514,-1.1935876224765471,-2.1482379088324683,-1.9216040845712414,0.9381142026147046,1.209520167816355,-0.8950081664146152,514.0
515,-1.1935876820933595,-2.1482379009848085,-1.9216040963909977,0.9381142059824359,1.2095202274217154,-1.0253174051753162,515.0
516,-1.193587736965621,-2.1482378862746243,-1.921604106444022,0.9381142007836165,1.209520282221899,-1.145626643935999,516.0
517,-1.1935877866973568,-2.148237871003261,-1.921604115341295,0.9381141939223936,1.2095203318723702,-1.255935882696665,517.0
518,-1.193587828438504,-2.1482378463987497,-1.921604121508543,0.9381141750992638,1.2095203734484314,-1.3562451214573152,518.0
519,-1.1935878660184058,-2.148237824247106,-1.9216041270609625,0.9381141581526415,1.2095204108797053,-1.446554360217962,519.0
520,-1.1935878994370615,-2.1482378045483292,-1.9216041319985568,0.9381141430825287,1.2095204441661904,-1.5268635989785997,520.0
521,-1.1935879235266311,-2.1482377800680212,-1.9216041344235029,0.9381141208245333,1.2095204680759895,-1.5971728377392413,521.0
522,-1.1935879441791504,-2.1482377590543735,-1.9216041364995788,0.9381141017132898,1.209520488574173,-1.6574820764998872,522.0
523,-1.1935879614072336,-2.148237741525043,-1.9216041382314129,0.9381140857709196,1.2095205056735105,-1.7077913152605548,523.0
524,-1.1935879752108796,-2.1482377274800295,-1.9216041396190087,0.9381140729974243,1.209520519374002,-1.7481005540212236,524.0
525,-1.193587985590088,-2.1482377169193327,-1.9216041406623667,0.9381140633928043,1.2095205296756468,-1.7784097927818818,525.0
526,-1.1935879925448594,-2.1482377098429515,-1.921604141361487,0.9381140569570598,1.2095205365784452,-1.7987190315425448,526.0
527,-1.1937426722529216,-2.1485470718805733,-1.920986039330285,0.9378052608132228,1.2096748170742337,-1.8095432895148964,527.0
528,-1.195107662838492,-2.151277171892385,-1.9155313900751998,0.9350802162059044,1.2110362848618668,-1.8124309351311856,528.0
529,-1.195980295483645,-2.153022521397962,-1.9120442443652694,0.9333381001292753,1.2119066638915281,-1.80590219641812,529.0
530,-1.195980290107979,-2.153022524729902,-1.9120442454193163,0.9333380972592423,1.2119066550999684,-1.7913643156709116,530.0
531,-1.1959802810346174,-2.153022530353744,-1.9120442471983972,0.9333380924150335,1.2119066402610628,-1.766826434923701,531.0
532,-1.1959802682635603,-2.1530225382694885,-1.912044249702513,0.9333380855966493,1.2119066193748114,-1.7322885541764885,532.0
533,-1.1959802517948077,-2.153022548477135,-1.9120442529316632,0.9333380768040891,1.2119065924412133,-1.687750673429274,533.0
534,-1.1959802321055306,-2.1530225604966824,-1.9120442573949343,0.9333380642381066,1.2119065636904918,-1.6332128040384224,534.0
535,-1.1959802090814335,-2.1530225744431037,-1.9120442629703867,0.9333380483296669,1.2119065321093978,-1.5686749406933997,535.0
536,-1.1959801806903336,-2.1530225913979875,-1.9120442646136744,0.9333380439842438,1.2119064988474315,-1.4941370842330552,536.0
537,-1.1959801459122787,-2.153022611841699,-1.9120442596063527,0.9333380591529998,1.2119064657254868,-1.409599236958313,537.0
538,-1.1959801070312581,-2.153022634771589,-1.912044253943664,0.9333380764086916,1.2119064287831867,-1.3150613990816216,538.0
539,-1.1959800627374588,-2.1530226564072303,-1.912044246935687,0.9333380912706416,1.2119063860467216,-1.2105235681782622,539.0
540,-1.1959800108080616,-2.153022670350163,-1.912044237379469,0.9333380962542773,1.2119063342039533,-1.0959857458384568,540.0
541,-1.1959799543426004,-2.153022685511509,-1.9120442269876268,0.9333381016765244,1.2119062778149732,-0.9714479331161533,541.0
542,-1.19597989298584,-2.153022686166544,-1.9120442139666984,0.9333380899608271,1.2119062164056364,-0.8369101261447964,542.0
543,-1.1959798270182591,-2.153022684658362,-1.9120441997256483,0.933338074901695,1.2119061503625035,-0.6923723202778103,543.0
544,-1.1959797609868317,-2.1530226656765925,-1.912044183536235,0.9333380404551582,1.2119060841138232,-0.5378345201165324,544.0
545,-1.1959796922739425,-2.153022641030952,-1.9120441661475909,0.9333379991844648,1.211906015134939,-0.37334195550191945,545.0
546,-1.1959796344669873,-2.1530225983944966,-1.9120441490936857,0.933337940179021,1.2119059569227502,-0.21014921867164804,546.0
547,-1.1959795842831304,-2.1530225542217267,-1.9120441334960478,0.9333378810170654,1.2119059063277957,-0.05695648184140846,547.0
548,-1.1959795474355135,-2.1530225027041276,-1.9120441199304452,0.9333378164175578,1.2119058690202444,0.08623625498879867,548.0
549,-1.1959795170350787,-2.15302245250208,-1.9120441078859995,0.933337754585029,1.2119058381765768,0.21942899181896702,549.0
550,-1.1959794998391897,-2.153022399634604,-1.912044098363614,0.9333376924766895,1.2119058205272608,0.3426217286491306,550.0
551,-1.195979484039153,-2.153022351058577,-1.9120440896141866,0.9333376354099052,1.2119058043106044,0.45581446547926074,551.0
552,-1.1959794808469173,-2.153022303768008,-1.9120440836969599,0.933337582326909,1.2119058007237475,0.5590072023093828,552.0
553,-1.1959794798652925,-2.1530222605504425,-1.9120440787023394,0.9333375342086031,1.2119057993832323,0.6521999391394873,553.0
554,-1.1959794789890006,-2.153022221970318,-1.9120440742436602,0.9333374912536061,1.2119057981865606,0.7353926759696021,554.0
555,-1.1959794848247058,-2.1530221881787,-1.9120440717471836,0.9333374549701052,1.2119058037475958,0.8085854127996944,555.0
556,-1.195979492368152,-2.1530221590611616,-1.9120440701325827,0.9333374242157169,1.2119058110566292,0.8717781496298042,556.0
557,-1.195979498717878,-2.1530221345513594,-1.912044068773484,0.9333373983280877,1.2119058172090373,0.9249708864599229,557.0
558,-1.1959795038738834,-2.1530221146492927,-1.9120440676698882,0.9333373773072179,1.2119058222048198,0.9681636232900628,558.0
559,-1.1959795078361686,-2.1530220993549603,-1.9120440668217977,0.9333373611531084,1.2119058260439766,1.0013563601201927,559.0
560,-1.1959795106047328,-2.1530220886683624,-1.9120440662292117,0.9333373498657593,1.211905828726508,1.02454909695032,560.0
561,-1.1959840796809216,-2.153031365040748,-1.91202551296146,0.9333280714330036,1.21191038556381,1.0377589114256063,561.0
562,-1.1970394682049437,-2.1551762111452013,-1.9077385855282811,0.9311856359405306,1.212962957415259,1.0432789700003549,562.0
563,-1.1982810111499371,-2.157699382394127,-1.902695504977441,0.9286653077039465,1.2142011864988131,1.0390996680830151,563.0
564,-1.1983403475340182,-2.1578199778397744,-1.9024544793399898,0.9285448510871327,1.2142603634136016,1.0272492995184388,564.0
565,-1.1983403447194458,-2.1578199849316295,-1.9024544825241172,0.9285448494726671,1.2142603585790583,1.005615379626373,565.0
566,-1.198340340603874,-2.157819995301602,-1.9024544871800662,0.9285448471119357,1.21426035150981,0.9739814597343033,566.0
567,-1.1983403351873023,-2.1578200089496926,-1.902454493307837,0.9285448440049384,1.2142603422058564,0.9323475398422152,567.0
568,-1.198340328196743,-2.157820026026406,-1.9024545007329992,0.9285448406556807,1.2142603282333113,0.8807136208361527,568.0
569,-1.1983403193274018,-2.157820046699781,-1.9024545092607992,0.9285448376268908,1.214260306874709,0.819079703367855,569.0
570,-1.1983403105769164,-2.1578200720259564,-1.9024545182831822,0.9285448399251245,1.2142602855378868,0.7474457881269606,570.0
571,-1.1983403112437103,-2.1578201097556278,-1.9024545224938372,0.9285448822782966,1.214260285036395,0.6658118868254154,571.0
572,-1.198340311999175,-2.1578201521463125,-1.9024545271837636,0.9285449299890103,1.2142602845362085,0.574177991129599,572.0
573,-1.198340312846779,-2.1578201992174697,-1.9024545323348303,0.9285449831413342,1.2142602840684698,0.472544102778564,573.0
574,-1.198340328281583,-2.157820246822302,-1.9024545409064468,0.9285450391447038,1.2142602999383527,0.36091022611365925,574.0
575,-1.198340345165032,-2.1578202986716413,-1.9024545502605807,0.9285451001479849,1.21426031731614,0.23927635669240632,575.0
576,-1.1983403726625639,-2.157820349337306,-1.9024545617652486,0.9285451619645841,1.2142603452852279,0.10764249373219434,576.0
577,-1.1983404088943548,-2.1578203999291192,-1.902454575138636,0.9285452254517861,1.2142603819752211,-0.03399136636921844,577.0
578,-1.198340456017947,-2.1578204456266095,-1.9024545902979626,0.9285452857272503,1.2142604295244164,-0.18562522256911157,578.0
579,-1.1983405129355265,-2.157820487545153,-1.9024546071322819,0.9285453438048521,1.2142604868437008,-0.34725907237510695,579.0
580,-1.1983405799383557,-2.1578205152587984,-1.9024546245456415,0.9285453881785969,1.214260554138905,-0.5128592066084587,580.0
581,-1.1983406454902243,-2.1578205371858723,-1.9024546410055745,0.9285454258386417,1.2142606199335437,-0.6689576579766897,581.0
582,-1.1983407117320946,-2.1578205388545486,-1.9024546553620014,0.9285454411684702,1.2142606862496863,-0.8150561093448755,582.0
583,-1.1983407734824574,-2.157820540244954,-1.9024546687266348,0.9285454552756952,1.214260748067907,-0.9511545607130658,583.0
584,-1.1983408303341938,-2.1578205256273986,-1.9024546792645056,0.9285454506301143,1.2142608048493955,-1.0772530120812314,584.0
585,-1.1983408826643716,-2.1578205115951787,-1.9024546889001235,0.9285454457137327,1.2142608571100935,-1.1933514634493534,585.0
586,-1.1983409281988,-2.15782049174409,-1.902454696435346,0.9285454329602597,1.2142609025202717,-1.29944991481748,586.0
587,-1.1983409677187664,-2.1578204684734605,-1.9024547023039269,0.9285454151900077,1.2142609418819605,-1.39554836618558,587.0
588,-1.1983410031262884,-2.157820447624373,-1.9024547075618172,0.9285453992689241,1.2142609771476758,-1.4816468175536774,588.0
589,-1.198341032190736,-2.1578204260820746,-1.902454711385719,0.92854538128824,1.214261006058751,-1.5577452689217646,589.0
590,-1.1983410545606157,-2.157820403355755,-1.9024547136458985,0.9285453606320282,1.2142610282592765,-1.6238437202898555,590.0
591,-1.1983410735461684,-2.1578203840676884,-1.9024547155641363,0.9285453431008833,1.214261047101096,-1.6799421716579652,591.0
592,-1.1983410891473942,-2.157820368217876,-1.9024547171404302,0.9285453286948043,1.2142610625842103,-1.7260406230261003,592.0
593,-1.1983411013642922,-2.157820355806316,-1.902454718374783,0.928545317413793,1.2142610747086187,-1.7621390743942253,593.0
594,-1.198341110196863,-2.1578203468330086,-1.9024547192671952,0.9285453092578497,1.214261083474321,-1.7882375257623402,594.0
595,-1.1983411156451063,-2.1578203412979544,-1.902454719817667,0.9285453042269745,1.2142610888813175,-1.8043359771304597,595.0
596,-1.1989735730138271,-2.1591263266871534,-1.8998434734611056,0.9272398480747651,1.2148918012192969,-1.8120448201343364,596.0
597,-1.2003670755089062,-2.1620038421833923,-1.8940900502972122,0.9243635094142661,1.2162814584147876,-1.8107447770350134,597.0
598,-1.2006711855725198,-2.1626318239955094,-1.8928344424896835,0.9237357848282503,1.2165847271166907,-1.8011114908277526,598.0
599,-1.2006711787316353,-2.162631828233992,-1.8928344438388114,0.9237357812008176,1.2165847158511214,-1.7824026343185726,599.0
600,-1.2006711682342552,-2.162631834737969,-1.8928344459090565,0.9237357756344995,1.2165846985640354,-1.7536937778094046,600.0
601,-1.2006711540803798,-2.1626318435074423,-1.8928344487004196,0.9237357681292963,1.216584675255433,-1.7149849213002204,601.0
602,-1.2006711363167295,-2.1626318544942684,-1.8928344522642948,0.9237357585041921,1.2165846463437868,-1.6662760656265792,602.0
603,-1.2006711155968994,-2.1626318670249645,-1.8928344573196854,0.9237357442268512,1.2165846176833668,-1.607567221130405,603.0
604,-1.2006710913478178,-2.1626318816900403,-1.8928344632361713,0.9237357275176211,1.2165845841411576,-1.5388583766342356,604.0
605,-1.2006710599725035,-2.162631900184346,-1.8928344603044047,0.9237357365064776,1.2165845524820575,-1.4601495456222562,605.0
606,-1.2006710239043827,-2.1626319213747163,-1.892834455075728,0.9237357522327356,1.2165845181517747,-1.3714407189041264,606.0
607,-1.2006709837837188,-2.162631945035338,-1.8928344491811568,0.9237357700834063,1.2165844800720664,-1.2727319033888167,607.0
608,-1.2006709363710732,-2.1626319618402383,-1.8928344408933322,0.92373577902866,1.2165844333633302,-1.1640230961350762,608.0
609,-1.2006708831783715,-2.162631976127212,-1.8928344310536072,0.9237357840922911,1.2165843802534582,-1.0453142966809739,609.0
610,-1.2006708253868228,-2.1626319864899144,-1.8928344197946878,0.9237357838484065,1.2165843224965336,-0.916605504698544,610.0
611,-1.200670762819664,-2.1626319851032303,-1.8928344062178755,0.9237357695431976,1.2165842598565846,-0.7778967174197784,611.0
612,-1.2006706971242473,-2.1626319782916528,-1.8928343913651031,0.9237357485796872,1.216584194040594,-0.6291879322662456,612.0
613,-1.2006706308662585,-2.1626319561729592,-1.892834374684484,0.923735710516419,1.2165841275354543,-0.4704791538169712,613.0
614,-1.2006705668482385,-2.162631923467065,-1.892834357303629,0.9237356611624927,1.2165840631832814,-0.3041173857326519,614.0
615,-1.2006705111793299,-2.162631882528409,-1.892834340795668,0.9237356043770114,1.2165840071186342,-0.14509779409139667,615.0
616,-1.2006704688818317,-2.1626318341436606,-1.8928343263257603,0.9237355420576077,1.2165839643750738,0.003921797549847814,616.0
617,-1.2006704335279224,-2.1626317848382475,-1.892834313242731,0.9237354801334374,1.2165839285737559,0.14294138919106136,617.0
618,-1.200670410667715,-2.1626317332231553,-1.8928343025823067,0.9237354181957209,1.2165839052582206,0.27196098083224973,618.0
619,-1.2006703942502472,-2.1626316828596175,-1.8928342934435776,0.9237353589613809,1.2165838884018911,0.3909805724733971,619.0
620,-1.2006703827767744,-2.162631635771612,-1.8928342857307516,0.9237353043704482,1.2165838765216717,0.5000001641145275,620.0
621,-1.2006703817475135,-2.162631590484015,-1.892834280459248,0.9237352539084119,1.216583875110438,0.5990197557556494,621.0
622,-1.200670380822198,-2.1626315497700217,-1.8928342757201086,0.9237352085425405,1.2165838738417254,0.6880393473967599,622.0
623,-1.2006703812085167,-2.1626315136564,-1.8928342717754028,0.9237351685489706,1.2165838739245611,0.767058939037853,623.0
624,-1.2006703893522954,-2.1626314822860424,-1.8928342700238505,0.9237351354015211,1.2165838818119132,0.8360785306789456,624.0
625,-1.2006703963161511,-2.162631455460823,-1.8928342685260746,0.9237351070566859,1.2165838885564957,0.8950981223200494,625.0
626,-1.2006704021000845,-2.162631433180743,-1.892834267282071,0.9237350835144638,1.2165838941583078,0.94411771396118,626.0
627,-1.200670406704095,-2.1626314154458015,-1.8928342662918443,0.9237350647748563,1.2165838986173503,0.9831373056023139,627.0
628,-1.2006704101281829,-2.1626314022559976,-1.892834265555394,0.9237350508378637,1.2165839019336224,1.012156897243445,628.0
629,-1.200670412372348,-2.1626313936113317,-1.8928342650727208,0.9237350417034862,1.2165839041071247,1.0311764888845731,629.0
630,-1.20093724000393,-2.1631912140277034,-1.8917145256368049,0.9231750474650826,1.2168499708064235,1.0410418705438829,630.0
631,-1.2023018626222455,-2.166054308564157,-1.8859878778314743,0.9203111092188502,1.2182107019372281,1.0426628615123559,631.0
632,-1.2029702134449483,-2.1674565705680666,-1.883183135859534,0.9189084367943231,1.2188771461359886,1.0351922968775733,632.0
633,-1.2029702114113836,-2.1674565756675044,-1.8831831381709458,0.9189084356314576,1.218877142583076,1.0194246205388349,633.0
634,-1.2029702080881142,-2.1674565840010507,-1.8831831419482754,0.9189084337310922,1.2188771367768747,0.9936569442000923,634.0
635,-1.2029702034751402,-2.1674565955687064,-1.8831831471915228,0.9189084310932272,1.2188771287173843,0.9578892678613528,635.0
636,-1.2029701975724616,-2.16745661037047,-1.883183153900688,0.9189084277178626,1.2188771184046054,0.912121591522602,636.0
637,-1.2029701897844765,-2.1674566287461965,-1.8831831616810217,0.9189084247524915,1.2188771004732337,0.8563539237825262,637.0
638,-1.202970180413344,-2.1674566505234716,-1.8831831707327868,0.9189084216149703,1.2188770776451832,0.7905862584857744,638.0
639,-1.2029701760609677,-2.1674566809515383,-1.8831831774624335,0.9189084419649134,1.218877065941743,0.7148186020403701,639.0
640,-1.2029701767539638,-2.1674567200524533,-1.8831831818546847,0.9189084859013101,1.218877065423202,0.6290509527949217,640.0
641,-1.20297017754176,-2.167456763789631,-1.8831831866862454,0.9189085352948022,1.21887706497126,0.5332833145530953,641.0
642,-1.2029701841509512,-2.167456810485813,-1.8831831931685783,0.9189085889679934,1.2188770709768229,0.4275156831273998,642.0
643,-1.2029702000305074,-2.1674568591508043,-1.8831832020127899,0.9189086462943097,1.2188770873188637,0.3117480600382585,643.0
644,-1.2029702173336287,-2.1674569119879576,-1.883183211630572,0.9189087085423182,1.218877105138033,0.18598044538570502,644.0
645,-1.2029702516592362,-2.167456959798925,-1.883183224367462,0.9189087686374121,1.2188771399039002,0.05021283723438867,645.0
646,-1.2029702885130558,-2.167457011131275,-1.8831832380426212,0.9189088331581517,1.218877177229998,-0.0955547705312258,646.0
647,-1.2029703423798968,-2.1674570512911737,-1.8831832541266385,0.9189088887602048,1.218877231487543,-0.25132237149483744,647.0
648,-1.202970402087451,-2.1674570898169576,-1.8831832712842422,0.9189089437435723,1.2188772915773167,-0.4167280092356422,648.0
649,-1.2029704693101053,-2.167457112212293,-1.8831832882529995,0.9189089823592937,1.2188773590525288,-0.5786905663887262,649.0
650,-1.2029705343946073,-2.1674571254808246,-1.8831833037401406,0.9189090104063029,1.2188774243102163,-0.7306531235419005,650.0
651,-1.2029705980564556,-2.1674571268691194,-1.88318331759139,0.9189090249745804,1.2188774880432,-0.8726156806952274,651.0
652,-1.2029706570910481,-2.167457121877235,-1.8831833297329807,0.9189090315136805,1.2188775470905204,-1.004578237848687,652.0
653,-1.2029707114255437,-2.1674571073016784,-1.8831833397906608,0.9189090264526786,1.2188776013521072,-1.1265407950022963,653.0
654,-1.202970761305027,-2.16745709392121,-1.8831833490236807,0.9189090218066367,1.2188776511646595,-1.2385033521560256,654.0
655,-1.2029708028700383,-2.1674570699092013,-1.8831833552779242,0.9189090036577025,1.2188776925648483,-1.3404659093098499,655.0
656,-1.2029708402500345,-2.1674570479196404,-1.8831833608582085,0.9189089868973894,1.2188777297932663,-1.432428466463775,656.0
657,-1.202970873565334,-2.1674570283212233,-1.8831833658316903,0.9189089719595899,1.2188777629734702,-1.5143910236177647,657.0
658,-1.2029708985581353,-2.167457005183331,-1.8831833686185258,0.9189089513897697,1.2188777877934074,-1.5863535807718046,658.0
659,-1.2029709192851117,-2.1674569841564337,-1.8831833707239343,0.9189089322903315,1.2188778083614393,-1.648316137925902,659.0
660,-1.2029709366670078,-2.167456966523022,-1.8831833724895533,0.9189089162733081,1.2188778256100428,-1.7002786950800282,660.0
661,-1.2029709507038233,-2.1674569522830955,-1.8831833739153843,0.9189089033387,1.2188778395392168,-1.7422412522341766,661.0
662,-1.2029709613955575,-2.1674569414366522,-1.8831833750014286,0.9189088934865085,1.2188778501489619,-1.7742038093883288,662.0
663,-1.202970968742211,-2.1674569339836935,-1.8831833757476866,0.9189088867167337,1.2188778574392776,-1.7961663665424428,663.0
664,-1.2030123437494875,-2.1675451207775565,-1.8830069177048145,0.9188206048659086,1.2189191105151287,-1.808289248221389,664.0
665,-1.2041699378684902,-2.170012771985986,-1.8780694679511891,0.9163505106298108,1.220073293750701,-1.81279660875958,665.0
666,-1.2052292491985501,-2.1722709226504056,-1.8735512069690246,0.9140901271907446,1.2211294825442034,-1.8075684322169623,666.0
667,-1.205241163164988,-2.172296332569765,-1.8735003717308718,0.9140646925779639,1.2211413583314954,-1.794714258798184,667.0
668,-1.2052411549178677,-2.1722963376771607,-1.873500373367145,0.9140646882336246,1.2211413446541863,-1.7719085459963997,668.0
669,-1.2052411430544954,-2.172296345024081,-1.8735003757209014,0.9140646819843505,1.2211413249795602,-1.7391028331945848,669.0
670,-1.2052411275748716,-2.172296354610526,-1.873500378792142,0.9140646738301421,1.221141299307617,-1.6962971203927748,670.0
671,-1.2052411088091441,-2.172296366087926,-1.8735003829554686,0.9140646624566859,1.2211412706258404,-1.6434914090111197,671.0
672,-1.2052410868784993,-2.1722963793283316,-1.8735003883483845,0.9140646473815427,1.2211412400308332,-1.5806856991741478,672.0
673,-1.2052410604355077,-2.1722963951588676,-1.8735003918089626,0.9140646379148887,1.2211412065845193,-1.5078799933783384,673.0
674,-1.2052410271527845,-2.172296414678721,-1.873500386972095,0.914064652321364,1.2211411748938215,-1.4250742993403183,674.0
675,-1.2052409898589618,-2.172296436605546,-1.8735003815040203,0.9140646686820664,1.2211411394515523,-1.3322686125080885,675.0
676,-1.2052409480536561,-2.172296459506869,-1.8735003751256987,0.9140646853331733,1.2211410995151937,-1.2294629329119224,676.0
677,-1.205240898091571,-2.172296472932315,-1.8735003658337537,0.9140646900473199,1.2211410496394823,-1.1166572636529137,677.0
678,-1.205240843698588,-2.1722964875488735,-1.8735003557169378,0.9140646951825566,1.2211409953255181,-0.9938516028193256,678.0
679,-1.2052407845981195,-2.1722964911432263,-1.8735003433619042,0.9140646870657934,1.2211409361985561,-0.8610459481188326,679.0
680,-1.2052407209284652,-2.1722964897779478,-1.8735003294710322,0.9140646724826934,1.2211408724536064,-0.718240295646455,680.0
681,-1.205240656286247,-2.172296474916724,-1.8735003138540256,0.9140646427129092,1.2211408076222334,-0.565434647817736,681.0
682,-1.2052405891051794,-2.172296452580637,-1.8735002968493732,0.9140646041214254,1.2211407401869783,-0.4026290062115264,682.0
683,-1.2052405308923826,-2.1722964128409514,-1.8735002798243232,0.9140645480442775,1.2211406815797543,-0.2378202963391626,683.0
684,-1.205240478832696,-2.1722963719688773,-1.8735002639996359,0.9140644919724444,1.2211406291217681,-0.08289976760895967,684.0
685,-1.2052404424062924,-2.172296321293273,-1.8735002504465519,0.9140644282224266,1.2211405922280605,0.06202076112135474,685.0
686,-1.205240409708766,-2.1722962733998346,-1.8735002380105972,0.9140643683272164,1.2211405590905162,0.1969412898518574,686.0
687,-1.20524039267846,-2.1722962212687094,-1.8735002284789164,0.9140643069415414,1.2211405415987677,0.32186181858246965,687.0
688,-1.205240377011446,-2.172296173310732,-1.8735002197102468,0.9140642504698415,1.2211405255072496,0.4367823473132089,688.0
689,-1.2052403714982427,-2.1722961271672085,-1.8735002133362535,0.914064198096932,1.2211405195946239,0.5417028760440656,689.0
690,-1.2052403705244261,-2.1722960843446115,-1.873500208314811,0.9140641503434653,1.2211405182540398,0.6366234047749866,690.0
691,-1.2052403696532021,-2.1722960460334333,-1.8735002038223787,0.9140641076208862,1.2211405170546885,0.7215439335060069,691.0
692,-1.20524037381962,-2.172296012339513,-1.873500200935653,0.9140640710595578,1.2211405209371782,0.7964644622370853,692.0
693,-1.205240381392061,-2.172295983227858,-1.8735001992986602,0.9140640402857618,1.2211405282680525,0.8613849909681996,693.0
694,-1.2052403877980848,-2.1722959586004023,-1.8735001979138197,0.9140640142521907,1.2211405344697197,0.9163055196993831,694.0
695,-1.205240393037692,-2.172295938457146,-1.8735001967811296,0.9140639929588443,1.2211405395421795,0.9612260484305628,695.0
696,-1.205240397110882,-2.1722959227980883,-1.873500195900594,0.914063976405724,1.2211405434854319,0.996146577161768,696.0
697,-1.205240400017655,-2.1722959116232285,-1.8735001952722126,0.9140639645928299,1.2211405462994764,1.021067105892942,697.0
698,-1.205240401758011,-2.1722959049325676,-1.873500194895985,0.9140639575201618,1.2211405479843138,1.0359876346240988,698.0
699,-1.2059997545087926,-2.1739405241882466,-1.8702083771400162,0.9124165849476744,1.2218975894243147,1.0428329802400786,699.0
700,-1.2072961425453295,-2.1767482733321546,-1.8645884881479577,0.9096041464361198,1.2231900312898145,1.040377221089541,700.0
701,-1.207481458621787,-2.1771496414957534,-1.8637851321216325,0.9092021104561568,1.2233747822636833,1.0299001166947432,701.0
702,-1.2074814560864395,-2.177149647822519,-1.8637851350178727,0.9092021090094365,1.223374777757979,1.0100720380973247,702.0
703,-1.2074814522724269,-2.177149657340096,-1.8637851393747893,0.909202106833084,1.2233747709798894,0.9802439594998877,703.0
704,-1.207481447179749,-2.177149670048485,-1.8637851451923824,0.9092021039270994,1.2233747619294144,0.9404158809024397,704.0
705,-1.2074814406793035,-2.1771496860239226,-1.8637851523818771,0.9092021005508589,1.2233747494316223,0.8905878057105441,705.0
706,-1.2074814322369969,-2.1771497055818054,-1.8637851605760196,0.9092020977773942,1.2233747286258523,0.8307597455759388,706.0
707,-1.2074814223835957,-2.1771497284087036,-1.8637851701397774,0.9092020945403573,1.2233747043424887,0.7609316854413652,707.0
708,-1.2074814225154853,-2.177149763895712,-1.8637851744923666,0.9092021330512396,1.2233747027068493,0.6811036405546456,708.0
709,-1.2074814232375486,-2.177149804319473,-1.8637851790404172,0.9092021785910815,1.2233747022091075,0.5912755996377449,709.0
710,-1.2074814240526668,-2.177149849312305,-1.8637851840291992,0.909202229498894,1.223374701772212,0.4914475684705265,710.0
711,-1.207481436456486,-2.1771498955516626,-1.863785191861865,0.9092022836123685,1.2233747142911757,0.38161954687396116,711.0
712,-1.2074814527029376,-2.177149945231463,-1.863785200961524,0.9092023422018924,1.223374731023774,0.2617915328747984,712.0
713,-1.20748147652179,-2.177149995393725,-1.8637852117621747,0.909202402863486,1.223374755329673,0.13196352597910027,713.0
714,-1.2074815114653021,-2.177150043945767,-1.863785224800464,0.9092024639922762,1.2233747907272934,-0.007864476892269934,714.0
715,-1.2074815544069277,-2.1771500903990364,-1.863785239332779,0.9092025244361964,1.2233748341114257,-0.157692476947977,715.0
716,-1.2074816093908325,-2.177150130656667,-1.8637852557719534,0.9092025804773143,1.2233748894942758,-0.31752047042976766,716.0
717,-1.2074816731450473,-2.1771501610857005,-1.8637852730005826,0.9092026274050334,1.2233749535712484,-0.48379152353587407,717.0
718,-1.2074817379262044,-2.177150182579911,-1.8637852894437554,0.9092026646183009,1.2233750185992744,-0.6416915009367922,718.0
719,-1.2074818025371319,-2.1771501876093433,-1.8637853039931864,0.9092026835054834,1.223375083315175,-0.7895914783378648,719.0
720,-1.2074818636650528,-2.177150188897559,-1.8637853173669283,0.9092026975195051,1.2233751445125387,-0.9274914557390747,720.0
721,-1.2074819200719833,-2.177150177423988,-1.8637853282797403,0.9092026963844153,1.2233752008745467,-1.0553914331404455,721.0
722,-1.2074819719922534,-2.177150163488333,-1.863785337943931,0.9092026915905824,1.2233752527244164,-1.1732914105419312,722.0
723,-1.2074820179838373,-2.1771501460717486,-1.8637853459325346,0.909202681709322,1.2233752986099744,-1.28119138794352,723.0
724,-1.2074820573197664,-2.1771501229513195,-1.8637853518375338,0.9092026641215143,1.2233753377844228,-1.3790913653452237,724.0
725,-1.2074820926377257,-2.1771501021925306,-1.8637853571393603,0.9092026483302111,1.223375372957396,-1.4669913427469856,725.0
726,-1.2074821226838381,-2.177150082053167,-1.8637853613701878,0.9092026321418546,1.2233754028588222,-1.5448913201488375,726.0
727,-1.2074821451361415,-2.1771500593069515,-1.8637853636636699,0.9092026114943446,1.2233754251367497,-1.6127912975507308,727.0
728,-1.2074821642817712,-2.1771500399106953,-1.8637853656193784,0.9092025938877059,1.2233754441336855,-1.67069127495267,728.0
729,-1.2074821801207287,-2.1771500238643995,-1.8637853672373097,0.9092025793219369,1.2233754598496298,-1.7185912523546494,729.0
730,-1.2074821926530128,-2.1771500111680626,-1.8637853685174681,0.9092025677970399,1.223375472284582,-1.7564912297566257,730.0
731,-1.2074822018786233,-2.1771500018216847,-1.8637853694598538,0.9092025593130145,1.2233754814385422,-1.7843912071585994,731.0
732,-1.2074822077975609,-2.1771499958252662,-1.8637853700644667,0.9092025538698609,1.2233754873115106,-1.8022911845605487,732.0
733,-1.2078607896791418,-2.177983035165021,-1.8621174099302855,0.9083675561030626,1.2237528791301446,-1.8113493438507773,733.0
734,-1.2091931966756544,-2.1809149241063297,-1.8562470300925844,0.9054287939072027,1.2250810975418542,-1.8118885050276792,734.0
735,-1.2096947623091916,-2.1820186004991724,-1.854037196501707,0.904322530795379,1.2255810845422261,-1.803628227015658,735.0
736,-1.2096947562892244,-2.1820186042252057,-1.8540371977036458,0.9043225276440997,1.225581074486713,-1.7867983164103174,736.0
737,-1.2096947466923118,-2.1820186101651746,-1.854037199619753,0.9043225226203923,1.2255810584564129,-1.7599684058049534,737.0
738,-1.2096947335184538,-2.182018618319079,-1.8540372022500282,0.9043225157242569,1.225581036451326,-1.7231384951995798,738.0
739,-1.2096947167676502,-2.1820186286869183,-1.854037205594472,0.9043225069556936,1.225581008471452,-1.6763085845942114,739.0
740,-1.2096946970560836,-2.18201864060195,-1.8540372103744183,0.9043224937944423,1.225580980149191,-1.61947868201743,740.0
741,-1.2096946739648273,-2.182018654517474,-1.8540372160994512,0.9043224779539591,1.2255809476552262,-1.5526487804729368,741.0
742,-1.2096946447495212,-2.182018671781213,-1.854037215282771,0.9043224807677678,1.22558091585468,-1.4758188892258641,742.0
743,-1.2096946102466926,-2.1820186919963507,-1.8540372102433589,0.9043224956458285,1.2255808830061747,-1.388989003318937,743.0
744,-1.209694571784942,-2.1820187146263264,-1.8540372045405236,0.9043225126119179,1.2255808465101266,-1.2921591299294706,744.0
745,-1.2096945270614021,-2.1820187330572223,-1.854037196950256,0.904322523770741,1.2255808028572799,-1.185329263214394,745.0
746,-1.209694475908917,-2.182018746811321,-1.8540371873825154,0.9043225285560175,1.2255807517902921,-1.0684994046441272,746.0
747,-1.2096944203347277,-2.182018759912681,-1.8540371767811563,0.9043225317026142,1.2255806962789302,-0.9416695542027349,747.0
748,-1.2096943600283774,-2.182018758664607,-1.8540371635492114,0.9043225178639801,1.2255806359001626,-0.8048397096695296,748.0
749,-1.2096942957247072,-2.1820187557517654,-1.8540371492612806,0.9043225013492755,1.2255805715057715,-0.6580098661768825,749.0
750,-1.2096942317516646,-2.1820187345691786,-1.8540371329767003,0.9043224645985447,1.225580507287213,-0.501180029575528,750.0
751,-1.2096941673306445,-2.182018706442575,-1.8540371158086995,0.9043224200379834,1.2255804425600334,-0.33523102200232624,751.0
752,-1.2096941122978153,-2.182018666207888,-1.8540370993077344,0.9043223639594258,1.225580387125074,-0.1743369274468762,752.0
753,-1.209694067784398,-2.182018621286721,-1.8540370845596137,0.904322304844486,1.2255803421790372,-0.02344283289130934,753.0
754,-1.2096940327773673,-2.1820185727046826,-1.854037071460557,0.904322243623827,1.2255803067168163,0.11745126166443264,754.0
755,-1.209694007310398,-2.18201852342546,-1.854037060353404,0.904322183598147,1.2255802807978218,0.2483453562202774,755.0
756,-1.2096939910194415,-2.182018473662943,-1.8540370511833493,0.9043221249299896,1.2255802640595097,0.3692394507763095,756.0
757,-1.2096939771024506,-2.1820184277410504,-1.8540370429634128,0.9043220710203426,1.225580249730768,0.4801335453323953,757.0
758,-1.209693976080651,-2.182018382834923,-1.854037037657608,0.9043220209021572,1.225580248318483,0.5810276398886114,758.0
759,-1.209693975160126,-2.182018342379616,-1.8540370328776774,0.9043219757513754,1.225580247046175,0.6719217344449095,759.0
760,-1.209693974340875,-2.1820183063751277,-1.8540370286236236,0.9043219355679981,1.2255802459138438,0.7528158290012903,760.0
761,-1.2096939819290426,-2.182018274993406,-1.8540370267179145,0.9043219022581604,1.2255802532371476,0.8237099235577174,761.0
762,-1.2096939889513203,-2.182018248048691,-1.8540370251917013,0.9043218737626243,1.2255802600324994,0.8846040181141993,762.0
763,-1.2096939948204026,-2.182018225528826,-1.8540370239161192,0.9043218499466106,1.2255802657119221,0.935498112670695,763.0
764,-1.2096939995362899,-2.1820182074338104,-1.8540370228911707,0.9043218308101204,1.2255802702754153,0.9763922072272351,764.0
765,-1.2096940030989822,-2.1820181937636423,-1.8540370221168572,0.9043218163531542,1.2255802737229788,1.0072863017837579,765.0
766,-1.209694005508479,-2.1820181845183226,-1.8540370215931783,0.9043218065757123,1.2255802760546128,1.0281803963402638,766.0
767,-1.2097902261632176,-2.1822332852612156,-1.8536061805391992,0.9041060491786511,1.2256761843777804,1.039446375621062,767.0
768,-1.2109856345471368,-2.1849057096464137,-1.848253510067797,0.9014255908199525,1.2268677129208432,1.0429705100960953,768.0
769,-1.2118784795643238,-2.186901736591934,-1.8442556212835528,0.8994235672582078,1.2277576594983537,1.036910093559167,769.0
770,-1.2118784977685335,-2.186901785554696,-1.84425553393868,0.8994235215123891,1.2277576762227866,1.0230935683635554,770.0
771,-1.2118784947489005,-2.18690179305247,-1.8442555374066703,0.8994235197909615,1.2277576707640137,0.9992771322975369,771.0
772,-1.2118784904613897,-2.186901803698395,-1.8442555423307936,0.899423517346744,1.2277576630132216,0.9654606962314931,772.0
773,-1.211878484906001,-2.1869018174924713,-1.8442555487110504,0.8994235141797366,1.2277576529704104,0.9216442601654451,773.0
774,-1.2118784776618392,-2.186901834691905,-1.8442555562471104,0.8994235111711331,1.2277576367661187,0.86782783750242,774.0
775,-1.2118784687424538,-2.1869018552884163,-1.8442555649486425,0.8994235082925641,1.2277576145249174,0.8040114244310921,775.0
776,-1.2118784624514793,-2.186901882412684,-1.8442555726740395,0.899423519816768,1.227757598140353,0.7301950169889576,776.0
777,-1.211878463114337,-2.1869019196103867,-1.844255576909682,0.8994235617020032,1.227757597648831,0.6463786196895541,777.0
778,-1.211878463866956,-2.1869019613033256,-1.8442555815956723,0.8994236088322496,1.2277575971976833,0.5525622309248533,778.0
779,-1.21187846761645,-2.186902006646588,-1.8442555873474058,0.8994236606462515,1.2277576000427701,0.44874584925837124,779.0
780,-1.211878482869461,-2.1869020531949097,-1.8442555959399234,0.8994237156138015,1.227757615750284,0.33492947674578016,780.0
781,-1.21187849946446,-2.186902103830849,-1.8442556052897034,0.8994237754026183,1.2277576328548334,0.21111311366212848,781.0
782,-1.2118785297140027,-2.186902151306014,-1.844255617268859,0.8994238344615866,1.2277576635614402,0.07729675638148337,782.0
783,-1.2118785652429045,-2.186902200551418,-1.8442556306027584,0.8994238965708461,1.2277576995580806,-0.06651959928269097,783.0
784,-1.21187861450024,-2.1869022418305306,-1.8442556460200932,0.8994239526678525,1.2277577492248055,-0.2203359496880923,784.0
785,-1.2118786700786413,-2.186902282404844,-1.8442556627335462,0.8994240092909334,1.2277578052119846,-0.3837588489589355,785.0
786,-1.211878734833712,-2.1869023039628828,-1.8442556792838622,0.8994240466720994,1.2277578702187246,-0.5436081028693645,786.0
787,-1.2118787963583233,-2.186902321178459,-1.8442556946372066,0.8994240785560975,1.227757931953903,-0.6934573567798475,787.0
788,-1.2118788576435395,-2.186902322423502,-1.8442557081232993,0.8994240926341135,1.2277579933098897,-0.8333066106904229,788.0
789,-1.2118789145264317,-2.1869023226968958,-1.8442557205403634,0.899424104719985,1.2277580502507595,-0.9631558646010093,789.0
790,-1.2118789667038592,-2.1869023086823303,-1.844255730308941,0.8994240999455622,1.2277581023567055,-1.0830051185116292,790.0
791,-1.2118790145277005,-2.186902295837117,-1.8442557392624404,0.8994240955695056,1.2277581501150299,-1.192854372422322,791.0
792,-1.2118790560545285,-2.1869022782311225,-1.8442557463037095,0.8994240845960351,1.2277581915285831,-1.2927036263330114,792.0
