Miguel-LA/TFM_MiguelLerinAlonso/workspace/ros_ur_driver/src/trayectories/data/saved_trajectories/20240523_1854_trajectory.csv
,shoulder_pan_joint,shoulder_lift_joint,elbow_joint,wrist_1_joint,wrist_2_joint,wrist_3_joint,time_from_start
0,4.867531776428223,-2.1400511900531214,-1.951303784047262,0.9575706720352173,-4.851537768040792,-0.7084220091449183,0.0
1,4.868211470937008,-2.139855661776122,-1.9515743547504243,0.9576506405489293,-4.852217324606578,-0.7034220091449183,0.25
2,4.870250554463366,-2.139269076945124,-1.952386066859912,0.9578905460900657,-4.854255994303931,-0.6884220091449184,0.5
3,4.8736490270072945,-2.138291435560128,-1.9537389203757243,0.9582903886586261,-4.857653777132854,-0.6634220091449183,0.75
4,4.878406888893784,-2.1369227382214167,-1.9556329139977073,0.9588501675677872,-4.862410673423996,-0.6284220093124662,1.0
5,4.884530777045331,-2.135174320809206,-1.9580433980456746,0.9595568212708816,-4.868533428076634,-0.5834220274365685,1.25
6,4.892033305113889,-2.133067713362431,-1.9609235542051557,0.9603855406891544,-4.876034859839074,-0.5284220452954095,1.5
7,4.900925124782216,-2.1306211270596354,-1.964233785797422,0.961315345568952,-4.884925794012497,-0.46342206459379653,1.75
8,4.911216567960566,-2.1278567493668756,-1.9679265722092794,0.9623213875435894,-4.895216799601508,-0.388422094796817,2.0
9,4.922919358804294,-2.12480024849585,-1.9719470005250663,0.9633749819727093,-4.906919877235462,-0.30342212627543663,2.25
10,4.936044401452039,-2.121481369794404,-1.9762321777861835,0.9644436158766769,-4.920046262605909,-0.20842216599368202,2.5
11,4.9506028601906,-2.117933649226467,-1.9807115096584482,0.9654909404354459,-4.934607497600875,-0.10342221250354697,2.75
12,4.966602932978094,-2.11419525957057,-1.9853059006859937,0.9664768140467057,-4.9506122132160115,0.011577732476149294,3.0
13,4.984051246146697,-2.1103085673752275,-1.989928256625813,0.9673573590556224,-4.968067498977989,0.13657674889645688,3.25
14,5.001522905725189,-2.1066139135229154,-1.9941552094204837,0.9680381741030359,-4.985548132091376,0.26138517382614157,3.5
15,5.017629866587359,-2.103381736293075,-1.9976988392021298,0.9684896379720893,-5.001665109106561,0.37619360752410247,3.75
16,5.032355711119321,-2.1005721997545344,-2.0006438998937988,0.9687558139370704,-5.016401538599354,0.4810020515301541,4.0
17,5.045689592804212,-2.098147882489826,-2.003068715536841,0.9688768289577041,-5.029746147720751,0.5758104975731229,4.25
18,5.057623660703523,-2.0960744813816206,-2.0050444892450088,0.9688888828772022,-5.041690709350035,0.6606189534708503,4.5
19,5.068152393604173,-2.094320914175144,-2.0066352880682956,0.9688243370615712,-5.052229367870309,0.7354274131878715,4.75
20,5.077273657423795,-2.092859177340925,-2.0078980178924333,0.9687115413885667,-5.061359722711226,0.8002358823774105,5.0
21,5.084986342830591,-2.0916648175149373,-2.0088821548776146,0.9685750404442732,-5.0690804382945736,0.8550443521441558,5.25
22,5.091289811779328,-2.0907171151103316,-2.009629533860931,0.9684355447975097,-5.075390689307089,0.8998528285470581,5.5
23,5.096185270398426,-2.0899987578414514,-2.0101746085863823,0.9683098605871674,-5.080291551090323,0.9346613103151429,5.75
24,5.099673662741374,-2.089496297116572,-2.0105441414779825,0.9682110411720632,-5.083783866205371,0.9594697958553362,6.0
25,5.101776862276984,-2.089196461665423,-2.010760719391482,0.9681484109704424,-5.085889454752334,0.9742814478270715,6.25
26,5.1064954322593525,-2.0885240901766564,-2.011246013991658,0.9680076179702053,-5.090613386737851,0.9793537464999618,6.5
27,5.111271841742125,-2.087843482234598,-2.0117372569329097,0.9678651041866662,-5.095395223913144,0.9744403803386006,6.75
28,5.111511464032961,-2.0878093444407417,-2.0117619011301833,0.9678579610007751,-5.095635118452231,0.9613692472277828,7.0
29,5.1115114672927975,-2.0878093561979028,-2.0117619007260785,0.9678579723589057,-5.095635121631072,0.938511141011376,7.25
30,5.111511471978753,-2.0878093730986054,-2.0117619001451854,0.9678579886860087,-5.095635126200596,0.9056530347949706,7.5
31,5.11151147809115,-2.0878093951431214,-2.0117618993872135,0.9678580099831123,-5.095635132163546,0.8627949565445237,7.75
32,5.1115114856297925,-2.087809422331288,-2.0117618984523404,0.9678580362495914,-5.095635139518244,0.8099368821702498,8.0
33,5.111511492903106,-2.0878094544549444,-2.0117618982598167,0.9678580681809101,-5.095635146568759,0.7470788095537547,8.25
34,5.111511492077316,-2.0878094905502156,-2.01176190306668,0.9678581089984784,-5.095635145462535,0.6742207458491317,8.5
35,5.111511491138177,-2.08780953159969,-2.0117619085332867,0.9678581554184431,-5.095635144204446,0.5913626852514215,8.75
36,5.111511490085686,-2.087809577603393,-2.0117619146596115,0.9678582074409101,-5.095635142794431,0.4985046326367759,9.0
37,5.1115114783220985,-2.0878096257426035,-2.0117619232590602,0.9678582639579018,-5.095635130647427,0.3956465834093455,9.25
38,5.111511461473402,-2.0878096775136683,-2.0117619333689722,0.9678583255575274,-5.095635113382722,0.28278853891138916,9.5
39,5.111511439741672,-2.0878097318827087,-2.011761944814989,0.9678583910359857,-5.095635091210846,0.15993050109365145,9.75
40,5.111511403185562,-2.0878097830162177,-2.011761958888273,0.967858455762043,-5.0956350542277775,0.02707246931018823,10.0
41,5.111511362111912,-2.0878098362074646,-2.011761974153222,0.9678585236871331,-5.095635012707525,-0.1157855580046567,10.25
42,5.111511304221358,-2.08780987898312,-2.011761991531953,0.9678585831612478,-5.095634954437711,-0.26864357940988004,10.5
43,5.11151123914215,-2.087809918521327,-2.0117620099703237,0.9678586403912129,-5.095634888998592,-0.4314207947448927,10.75
44,5.111511166405954,-2.087809943024058,-2.01176202804869,0.9678586821796122,-5.0956348160131455,-0.5924810341522605,11.0
45,5.111511095513844,-2.087809955698201,-2.0117620442288118,0.9678587102850489,-5.095634744965206,-0.7435412735596348,11.25
46,5.111511026689229,-2.087809957405554,-2.0117620585755542,0.9678587256346314,-5.095634676071665,-0.8846015129670193,11.5
47,5.111510962937737,-2.0878099505132015,-2.0117620707760797,0.9678587303081949,-5.0956346123221845,-1.0156617523744083,11.75
48,5.111510904261964,-2.0878099349076735,-2.0117620808152807,0.967858724177429,-5.095634553720243,-1.1367219917818026,12.0
49,5.111510850715522,-2.0878099197231728,-2.0117620898556883,0.9678587175202402,-5.095634500248507,-1.2477822311892,12.25
50,5.111510806027774,-2.087809893500604,-2.0117620956595608,0.9678586967020751,-5.095634455728418,-1.3488424705966071,12.5
51,5.111510765761919,-2.0878098698727845,-2.01176210088913,0.9678586779438838,-5.09563441561363,-1.4399027100040227,12.75
52,5.111510729917954,-2.0878098488397114,-2.0117621055443995,0.9678586612456673,-5.095634379904143,-1.5209629494114356,13.0
53,5.1115107036091345,-2.087809823249188,-2.0117621076568977,0.9678586375539981,-5.095634353772932,-1.5920231888188516,13.25
54,5.111510681391007,-2.0878098007166805,-2.0117621093226026,0.9678586165087236,-5.0956343317119535,-1.6530834282262667,13.5
55,5.111510662811601,-2.087809781874384,-2.0117621107155075,0.9678585989100885,-5.095634313263959,-1.704143667633681,13.75
56,5.111510647870919,-2.0878097667222963,-2.0117621118356155,0.9678585847580949,-5.095634298428953,-1.7452039070410923,14.0
57,5.111510636568958,-2.0878097552604187,-2.011762112682927,0.9678585740527429,-5.095634287206931,-1.7762641464485052,14.25
58,5.11151062890572,-2.0878097474887496,-2.0117621132574426,0.9678585667940327,-5.0956342795978955,-1.7973243858559176,14.5
59,5.11139925216685,-2.0880059873218406,-2.011380634696445,0.9676732409844587,-5.095523112363769,-1.808714663475852,14.75
60,5.109895926972918,-2.0906549173194673,-2.0062313760151467,0.9651717372401211,-5.094022614731871,-1.8122439172022193,15.0
61,5.108797538221569,-2.0925903383791926,-2.0024691134423693,0.9633440340269498,-5.092926293106912,-1.8061900331497758,15.25
62,5.108797543651493,-2.092590341729446,-2.002469114578785,0.9633440311299366,-5.092926301337745,-1.7921986061551076,15.5
63,5.108797552962308,-2.0925903474742036,-2.002469116527424,0.9633440261623603,-5.092926315451346,-1.768207179160439,15.75
64,5.108797566154017,-2.092590355613466,-2.002469119288287,0.9633440191242211,-5.092926335447716,-1.7342157521657713,16.0
65,5.108797583226618,-2.0925903661472325,-2.0024691228613722,0.9633440100155186,-5.092926361326856,-1.6902243251711049,16.25
66,5.108797603698915,-2.0925903786898643,-2.002469127641292,0.9633439974424978,-5.092926389042891,-1.636232911877372,16.5
67,5.10879762760956,-2.0925903932723395,-2.0024691335963487,0.963343981517115,-5.092926418920823,-1.5722415078253655,16.75
68,5.108797657061121,-2.092590410936774,-2.0024691362456766,0.9633439758717596,-5.092926452034715,-1.4982501099138035,17.0
69,5.108797693759234,-2.092590432442361,-2.002469131584764,0.9633439925764098,-5.092926487029901,-1.4142587223515688,17.25
70,5.108797734818413,-2.0925904565753073,-2.002469126310769,0.9633440115548112,-5.092926526122339,-1.32026734329257,17.5
71,5.108797781358124,-2.0925904801035062,-2.002469119789869,0.9633440289073821,-5.092926570964574,-1.216275971198418,17.75
72,5.108797836262186,-2.092590494721215,-2.002469110359624,0.9633440347095817,-5.092926625786683,-1.1022846080877453,18.0
73,5.108797895985169,-2.092590510622041,-2.0024691001011496,0.9633440410228438,-5.09292668543843,-0.9782932544409743,18.25
74,5.108797960881222,-2.0925905122117845,-2.002469086953385,0.9633440301411997,-5.092926750378872,-0.8443019063731818,18.5
75,5.108798030698774,-2.092590510497359,-2.0024690723719436,0.963344014560835,-5.092926820270629,-0.7003105595927328,18.75
76,5.108798100903735,-2.092590491477432,-2.0024690554804034,0.9633439794054661,-5.092926890682815,-0.5463192181849481,19.0
77,5.108798174353522,-2.0925904664728354,-2.002469037150091,0.9633439368724667,-5.0929269643885755,-0.3823293459487375,19.25
78,5.108798235981682,-2.0925904210044535,-2.0024690186139074,0.9633438735923874,-5.092927026423436,-0.21857991679569885,19.5
79,5.108798290353275,-2.0925903747740286,-2.0024690014720883,0.9633438108721885,-5.0929270812017675,-0.06483048764266032,19.75
80,5.108798329658711,-2.092590319869674,-2.0024689863112894,0.9633437413235879,-5.092927120969589,0.07891894151037904,20.0
81,5.108798362998353,-2.0925902668901983,-2.002468972625655,0.9633436751101085,-5.092927154751657,0.21266837066349556,20.25
82,5.108798381356847,-2.092590210550026,-2.002468961588336,0.9633436080384505,-5.092927173566661,0.33641779981659664,20.5
83,5.1087983982318175,-2.0925901587626208,-2.002468951442917,0.9633435463867468,-5.0929271908612535,0.45016722896967576,20.75
84,5.108798402452068,-2.0925901085580905,-2.002468944104429,0.9633434889923906,-5.09292719547837,0.5539166581227423,21.0
85,5.108798403507258,-2.092590062459282,-2.002468937946106,0.9633434368429898,-5.092927196895664,0.6476660872757952,21.25
86,5.108798404449893,-2.0925900212777124,-2.0024689324446694,0.9633433902562238,-5.092927198161779,0.7314155164288353,21.5
87,5.108798398775304,-2.092589985173122,-2.002468928958649,0.963343350683652,-5.0929271927654725,0.8051649455818701,21.75
88,5.108798390694863,-2.092589954042087,-2.0024689266084836,0.9633433171854802,-5.092927184922374,0.868914374734897,22.0
89,5.108798383881955,-2.092589927794396,-2.002468924626973,0.9633432889419699,-5.092927178309576,0.9226638038879169,22.25
90,5.1087983783365765,-2.092589906430049,-2.0024689230141175,0.9633432659531211,-5.092927172927079,0.9664132330409354,22.5
91,5.108798374058731,-2.0925898899490454,-2.0024689217699194,0.9633432482189349,-5.092927168774883,1.0001626621939534,22.75
92,5.108798371048415,-2.0925898783513848,-2.002468920894379,0.9633432357394112,-5.092927165852988,1.0239120913469768,23.0
93,5.108798338485457,-2.092589926816328,-2.0024688130346093,0.9633431763178123,-5.092927133401333,1.0376615202093127,23.25
94,5.1076761132602035,-2.094599111623911,-1.9985598786734364,0.9614425851932203,-5.091807097055883,1.043539778219919,23.5
95,5.1062160130288134,-2.0972132212785297,-1.9934740540202143,0.9589697730868771,-5.090349844903122,1.0397890952286741,23.75
96,5.106123321450701,-2.0973791794924677,-1.9931511870322787,0.9588127882453984,-5.090257334742045,1.0282267190733232,24.0
97,5.106123324276824,-2.0973791868854565,-1.9931511903773187,0.9588127869172415,-5.090257338713903,1.0069479671683945,24.25
98,5.106123328431092,-2.0973791977527982,-1.9931511952943683,0.958812784964914,-5.090257344552345,0.9756692152634678,24.5
99,5.106123333913502,-2.0973792120944927,-1.993151201783428,0.958812782388416,-5.090257352257371,0.9343904633585434,24.75
100,5.106123340990108,-2.0973792300113656,-1.99315120972508,0.9588127794863861,-5.090257364078706,0.8831117168410049,25.0
101,5.106123350050576,-2.0973792516510876,-1.9931512189444243,0.9588127766962175,-5.090257383311354,0.821832981527097,25.25
102,5.106123359424426,-2.0973792778368265,-1.993151229024149,0.9588127779351497,-5.090257403392507,0.7505542478808171,25.5
103,5.106123358720606,-2.097379317617261,-1.9931512342200857,0.9588128231951197,-5.090257403899632,0.669275529094061,25.75
104,5.106123357924827,-2.097379362330435,-1.9931512400217852,0.9588128741876263,-5.090257404423583,0.5779968153373409,26.0
105,5.106123357033213,-2.0973794120041,-1.993151246405039,0.9588129310311783,-5.090257404931439,0.4767181092413558,26.25
106,5.106123341223444,-2.0973794624729383,-1.9931512561606337,0.9588129911029335,-5.0902573887613025,0.3654394144182809,26.5
107,5.106123323338643,-2.0973795172948746,-1.9931512669150007,0.9588130564629578,-5.09025737038836,0.2441607268444272,26.75
108,5.106123294793738,-2.097379571242467,-1.9931512797646986,0.9588131228922288,-5.090257341370563,0.1128820457509386,27.0
109,5.106123256403896,-2.0973796247945424,-1.9931512946020904,0.9588131907753823,-5.090257302522836,-0.02839663240616717,27.25
110,5.106123207024348,-2.0973796737648187,-1.9931513111121315,0.9588132556473763,-5.09025725271416,-0.1796753069390367,27.5
111,5.106123146703092,-2.09737971820198,-1.9931513292911314,0.9588133175539517,-5.090257191992015,-0.3409539749763461,27.75
112,5.106123075886419,-2.0973797484858037,-1.993151347803555,0.9588133655629186,-5.090257120877533,-0.5067455255090317,28.0
113,5.106123006102312,-2.09737977190566,-1.9931513652156732,0.9588134056325219,-5.090257050850673,-0.6632091783077136,28.25
114,5.106122935770169,-2.0973797745575635,-1.993151380055644,0.9588134223997385,-5.090256980439403,-0.8096728311063872,28.5
115,5.106122870013132,-2.0973797761552606,-1.993151393816267,0.9588134370823798,-5.0902569146153525,-0.9461364839050512,28.75
116,5.106122809446988,-2.0973797613820326,-1.9931514043903134,0.9588134322947429,-5.0902568541158315,-1.072600136703711,29.0
117,5.106122753697786,-2.097379746566085,-1.9931514139659443,0.9588134265153128,-5.090256798437575,-1.1890637895023628,29.25
118,5.106122705015045,-2.097379726035028,-1.9931514213461,0.9588134129094719,-5.090256749876778,-1.2955274423010095,29.5
119,5.106122662887302,-2.0973797013565374,-1.993151426838892,0.9588133933445088,-5.0902567079091705,-1.3919910950996535,29.75
120,5.106122625126772,-2.0973796792363695,-1.993151431762262,0.9588133758077639,-5.090256670292175,-1.4784547478982937,30.0
121,5.10612259390811,-2.0973796566409404,-1.9931514352757569,0.9588133564537614,-5.0902566392262125,-1.5549184006969328,30.25
122,5.106122570022482,-2.0973796324665983,-1.9931514370736065,0.9588133338834719,-5.090256615511823,-1.6213820534955707,30.5
123,5.106122549730641,-2.097379611929484,-1.9931514386009546,0.9588133147090667,-5.090256595365456,-1.677845706294215,30.75
124,5.106122533032586,-2.097379595029598,-1.9931514398577983,0.9588132989305442,-5.090256578787113,-1.7243093590928638,31.0
125,5.106122519928322,-2.097379581766939,-1.993151440844142,0.9588132865479072,-5.090256565776794,-1.7607730118915117,31.25
126,5.106122510417845,-2.0973795721415076,-1.993151441559985,0.958813277561155,-5.090256556334499,-1.787236664690159,31.5
127,5.1061225045011565,-2.0973795661533035,-1.9931514420053276,0.9588132719702878,-5.090256550460228,-1.8037003174888055,31.75
128,5.10545230967632,-2.0985986909925236,-1.9907776405812607,0.9576581137468925,-5.089587710709795,-1.8116328675658928,32.0
129,5.10385625103012,-2.1015020381294276,-1.9851244432123636,0.9549071155935053,-5.0879948794908465,-1.8105978725438399,32.25
130,5.103484606009027,-2.102178096192205,-1.983808074593095,0.9542665330211233,-5.087623987820526,-1.801112621275665,32.5
131,5.103484613121664,-2.1021781005775373,-1.9838080760902101,0.9542665292501937,-5.087623998681364,-1.7825699602671925,32.75
132,5.1034846240701235,-2.1021781073278643,-1.983808078394715,0.9542665234456131,-5.0876240153994186,-1.7540272992587227,33.0
133,5.1034846388544075,-2.102178116443188,-1.9838080815066097,0.9542665156073818,-5.087624037974691,-1.715484638250249,33.25
134,5.10348465743653,-2.102178127892268,-1.983808085458049,0.9542665056219617,-5.087624066084337,-1.666941978469996,33.5
135,5.103484679066904,-2.1021781410586193,-1.9838080908835956,0.9542664912487391,-5.087624093357235,-1.6083993407391755,33.75
136,5.103484704392085,-2.102178156473989,-1.9838080972359107,0.9542664744203448,-5.08762412528877,-1.539856703008359,34.0
137,5.103484737480747,-2.1021781759432785,-1.9838080948391101,0.954266484044189,-5.087624158316629,-1.4613140788774133,34.25
138,5.103484775692299,-2.10217819830738,-1.9838080899591894,0.9542665014192544,-5.087624194738985,-1.3727714591504299,34.5
139,5.103484818208286,-2.1021782232861095,-1.9838080844500636,0.9542665211357317,-5.087624235179385,-1.274228850638721,34.75
140,5.103484868383438,-2.1021782412116323,-1.983808076407627,0.9542665315057888,-5.087624284605022,-1.1656862501955332,35.0
141,5.1034849247774625,-2.1021782562159776,-1.9838080666822107,0.9542665374201296,-5.087624340920984,-1.0471436575518709,35.25
142,5.103484986047155,-2.1021782673725995,-1.983808055455302,0.9542665380240167,-5.087624402157255,-0.9186010723472263,35.5
143,5.103485052394804,-2.1021782657780754,-1.9838080415428163,0.9542665232000953,-5.087624468576607,-0.7800584918134437,35.75
144,5.103485122158534,-2.1021782587923408,-1.9838080262254958,0.9542665016257625,-5.08762453845712,-0.6315159131825585,36.0
145,5.103485192433455,-2.102178235252148,-1.9838080086552314,0.9542664612839034,-5.087624608978313,-0.4729733413388947,36.25
146,5.103485260604975,-2.1021782008285217,-1.9838079901077814,0.9542664090824604,-5.087624677481035,-0.3066146786371603,36.5
147,5.103485319779412,-2.102178157301369,-1.9838079722380657,0.9542663483819596,-5.087624737051681,-0.14741856531545144,36.75
148,5.103485365008275,-2.10217810616647,-1.9838079562623516,0.9542662818405621,-5.087624782725689,0.001777548006249751,37.0
149,5.103485402597638,-2.102178053799834,-1.983807941704986,0.9542662154100479,-5.087624820763615,0.14097366132794012,37.25
150,5.10348542718271,-2.102177999164161,-1.9838079295396551,0.9542661489739809,-5.087624845804449,0.2701697746496217,37.5
151,5.103485444645741,-2.102177945702495,-1.9838079189978268,0.9542660852600208,-5.087624863707934,0.3893658879713008,37.75
152,5.103485457096343,-2.1021778957835764,-1.983807909950956,0.9542660265250767,-5.087624876566579,0.49856200129297334,38.0
153,5.103485458197244,-2.1021778477237527,-1.9838079034897818,0.9542659721147866,-5.087624878051218,0.5977581146146409,38.25
154,5.103485459187162,-2.1021778045088624,-1.9838078976799554,0.9542659231896172,-5.0876248793861905,0.6869542279363017,38.5
155,5.10348545895031,-2.1021777661657226,-1.9838078927554539,0.9542658799988752,-5.08762487945456,0.7661503412579662,38.75
156,5.103485450286307,-2.1021777328674087,-1.9838078902261418,0.9542658441513643,-5.087624871048545,0.8353464545796304,39.0
157,5.103485442874398,-2.1021777043812597,-1.9838078880623575,0.9542658134844204,-5.087624863857341,0.8945425679012974,39.25
158,5.103485436714582,-2.102177680707278,-1.983807886264098,0.9542657879980418,-5.087624857880947,0.9437386812229693,39.5
159,5.1034854318068605,-2.1021776618454613,-1.9838078848313665,0.9542657676922305,-5.087624853119362,0.9829347945446419,39.75
160,5.103485428151234,-2.1021776477958096,-1.9838078837641644,0.9542657525669868,-5.087624849572588,1.0121309078663123,40.0
161,5.103485425747699,-2.102177638558323,-1.9838078830624908,0.9542657426223106,-5.087624847240624,1.0313270211879852,40.25
162,5.103199272766253,-2.1027064935944315,-1.982777293585091,0.9537638113665322,-5.087339293830782,1.041303559222581,40.5
163,5.101647593960552,-2.105574273662019,-1.9771888491104435,0.9510420794325277,-5.085790866083134,1.043003249711475,40.75
164,5.1008840207502875,-2.1069854985617202,-1.9744388014099246,0.9497027272938433,-5.085028893110032,1.0355721129843452,41.0
165,5.10088402282887,-2.1069855039696437,-1.9744388038783784,0.949702726318033,-5.085028896093015,1.0197846119941574,41.25
166,5.100884026224054,-2.106985512803013,-1.9744388079103816,0.9497027247241321,-5.085028900965456,0.9939971110039673,41.5
167,5.100884030935838,-2.1069855250618277,-1.9744388135059339,0.9497027225121409,-5.085028907727356,0.9582096100137785,41.75
168,5.100884036964221,-2.1069855407460887,-1.9744388206650356,0.9497027196820592,-5.085028916378713,0.9124221090235889,42.0
169,5.100884044958226,-2.1069855601128387,-1.9744388290841417,0.9497027170096026,-5.085028932467467,0.8566346212119162,42.25
170,5.1008840545881124,-2.1069855830314848,-1.974438838917471,0.9497027141006609,-5.085028953174934,0.7908471372053584,42.5
171,5.100884059039529,-2.1069856151761455,-1.9744388465542224,0.9497027361942424,-5.085028963799491,0.7150596622953447,42.75
172,5.100884058305201,-2.1069856565531087,-1.974438851990354,0.9497027833182068,-5.0850289643266535,0.6292721947664581,43.0
173,5.100884057473435,-2.1069857028361594,-1.9744388579870473,0.9497028362900044,-5.0850289648135085,0.5334847380400393,43.25
174,5.1008840504411825,-2.106985752272765,-1.9744388657322345,0.9497028938755059,-5.08502895843749,0.4276972880978338,43.5
175,5.100884033578591,-2.106985803841559,-1.97443887591418,0.9497029554273078,-5.085028941116702,0.3119098464860471,43.75
176,5.10088401518316,-2.106985859818642,-1.9744388869871075,0.9497030222536823,-5.085028922209376,0.18612241323003165,44.0
177,5.100883978739744,-2.106985910520819,-1.974438901130697,0.9497030866195477,-5.085028885324929,0.05033498633116092,44.25
178,5.100883939612516,-2.1069859649567744,-1.9744389163160179,0.9497031557248762,-5.085028845724557,-0.09545244034238254,44.5
179,5.100883882406393,-2.1069860075759324,-1.9744389337060606,0.9497032150590276,-5.085028788127807,-0.2512398601449447,44.75
180,5.100883819007478,-2.1069860484669345,-1.9744389521533288,0.9497032736622951,-5.085028724346984,-0.41665968110282964,45.0
181,5.100883747661664,-2.106986072320748,-1.9744389700288096,0.9497033146100415,-5.085028652749264,-0.5786125498413339,45.25
182,5.100883678578332,-2.1069860864756604,-1.974438986173726,0.9497033441714542,-5.085028583493823,-0.7305654185798666,45.5
183,5.1008836110149645,-2.106986088081279,-1.9744390003708885,0.9497033592771745,-5.0850285158604045,-0.872518287318446,45.75
184,5.100883548364272,-2.1069860828932123,-1.9744390126668594,0.9497033657524018,-5.08502845319837,-1.004471156057062,46.0
185,5.100883490702652,-2.1069860675779903,-1.974439022612037,0.9497033598216909,-5.085028395610952,-1.1264240247956894,46.25
186,5.10088343776922,-2.106986053518603,-1.9744390317417142,0.9497033543772888,-5.085028342745637,-1.2383768935343584,46.5
187,5.100883393669269,-2.1069860281621984,-1.9744390375724241,0.9497033344507884,-5.085028298811995,-1.3403297622730521,46.75
188,5.100883354002981,-2.1069860049622045,-1.974439042765809,0.9497033160844751,-5.08502825929845,-1.4322826310117667,47.0
189,5.100883318650454,-2.1069859842852425,-1.9744390473944027,0.9497032997155219,-5.085028224082055,-1.5142354997504985,47.25
190,5.1008832921430365,-2.1069859598269702,-1.9744390496996556,0.9497032773405,-5.085028197748614,-1.5861883684892337,47.5
191,5.100883270150637,-2.1069859376117277,-1.9744390513620167,0.9497032566073755,-5.085028175916001,-1.648141237227988,47.75
192,5.100883251708097,-2.106985918982316,-1.9744390527560487,0.9497032392208459,-5.0850281576074545,-1.700094105966748,48.0
193,5.100883236815417,-2.106985903938734,-1.9744390538817527,0.9497032251809119,-5.085028142822976,-1.7420469747055147,48.25
194,5.100883225472595,-2.1069858924809814,-1.974439054739131,0.949703214487575,-5.0850281315625665,-1.773999843444284,48.5
195,5.100883217679634,-2.106985884609058,-1.9744390553281832,0.9497032071408348,-5.085028123826225,-1.7959527121830474,48.75
196,5.100835890979237,-2.107074737536213,-1.9742657624180653,0.9496187360168049,-5.084980899862329,-1.8080627349052547,49.0
197,5.099510183518647,-2.1095640138078173,-1.9694110667497278,0.9472524451900549,-5.0836580696365905,-1.8124738712743254,49.25
198,5.0983257698918845,-2.111787992208884,-1.9650737721137619,0.9451383476788389,-5.08247622767222,-1.8071564123039072,49.5
199,5.098317465628157,-2.111803597453843,-1.9650433450873073,0.9451235137387973,-5.082467944103374,-1.7941175763865456,49.75
200,5.09831747435279,-2.1118036028295952,-1.9650433469341018,0.9451235091437231,-5.082467957524079,-1.7711080345110957,50.0
201,5.098317486869168,-2.1118036105416618,-1.9650433495835176,0.9451235025516191,-5.082467976777455,-1.7380984926356473,50.25
202,5.098317503177292,-2.111803620590043,-1.9650433530355544,0.9451234939624852,-5.082468001863499,-1.6950889507602003,50.5
203,5.098317522896556,-2.111803632653449,-1.965043357622911,0.9451234822024304,-5.082468029512371,-1.642079420510644,50.75
204,5.098317545920079,-2.111803646641651,-1.9650433634390194,0.9451234669417861,-5.082468058805793,-1.5790699018973806,51.0
205,5.098317573868056,-2.1118036634118726,-1.9650433671174894,0.9451234583212829,-5.08246809152992,-1.5060603877779635,51.25
206,5.098317609258957,-2.111803684078175,-1.9650433625911288,0.945123474304675,-5.082468125269646,-1.423050885520489,51.5
207,5.098317648906246,-2.111803707289028,-1.9650433574706865,0.9451234924483982,-5.082468163012669,-1.3300413905843826,51.75
208,5.09831769343439,-2.111803731254888,-1.965043351390341,0.9451235106177945,-5.082468205676435,-1.2270319027586543,52.0
209,5.09831774653988,-2.1118037453770775,-1.965043342193106,0.9451235161431019,-5.082468258699886,-1.1140224250595083,52.25
210,5.098317804346642,-2.1118037607496385,-1.9650433321811327,0.9451235221593906,-5.08246831643309,-0.9910129559013281,52.5
211,5.098317867157461,-2.111803764076517,-1.965043319574428,0.9451235135458518,-5.082468379274224,-0.8580034926988749,52.75
212,5.09831793480882,-2.1118037624873467,-1.9650433053281435,0.9451234984094814,-5.082468446999916,-0.7149940314494224,53.0
213,5.0983180033836435,-2.1118037461907244,-1.9650432889699652,0.9451234664932636,-5.082468515766452,-0.5619845749503304,53.25
214,5.0983180747562855,-2.111803722372966,-1.965043271049163,0.9451234255375311,-5.0824685873929285,-0.3989751247137772,53.5
215,5.098318136233787,-2.111803679817976,-1.9650432527353705,0.9451233653880228,-5.082468649267502,-0.23432174201574257,53.75
216,5.0983181911047275,-2.111803636196632,-1.965043235653319,0.945123305338097,-5.082468704538502,-0.07959459732200436,54.0
217,5.098318229709009,-2.111803582557304,-1.9650432206389281,0.9451232371908308,-5.0824687436100175,0.06513254737175349,54.25
218,5.098318264039349,-2.111803531685282,-1.9650432068727577,0.9451231730094758,-5.082468778381536,0.19985969206551876,54.5
219,5.098318282087782,-2.111803476562621,-1.9650431959304138,0.9451231072423976,-5.082468796891627,0.3245868367592933,54.75
220,5.098318298689182,-2.111803425859425,-1.9650431858653636,0.9451230467481935,-5.0824688139176715,0.4393139814530681,55.0
221,5.098318304246917,-2.111803377027394,-1.9650431783363858,0.945122990543765,-5.082468819875457,0.5440411261468613,55.25
222,5.098318305283728,-2.1118033317985794,-1.965043172216029,0.9451229392973156,-5.082468821279281,0.6387682708406597,55.5
223,5.098318306211086,-2.1118032913444096,-1.9650431667417712,0.9451228934607651,-5.082468822534908,0.7234954155344597,55.75
224,5.0983183015990905,-2.111803255792448,-1.9650431630570806,0.9451228542490063,-5.08246881820676,0.7982225602282601,56.0
225,5.09831829359237,-2.11180322509231,-1.9650431607103276,0.9451228211821983,-5.082468810441704,0.862949704922059,56.25
226,5.098318286822645,-2.111803199135181,-1.965043158726134,0.9451227932240358,-5.08246880387631,0.9176768496158564,56.5
227,5.098318281289917,-2.111803177921061,-1.9650431571044993,0.9451227703745184,-5.0824687985105745,0.962403994309643,56.75
228,5.098318276994183,-2.1118031614499495,-1.9650431558454264,0.9451227526336476,-5.082468794344499,0.9971311390034272,57.0
229,5.098318273935446,-2.1118031497218452,-1.965043154948915,0.9451227400014234,-5.082468791378083,1.0218582836972194,57.25
230,5.098318272113704,-2.111803142736749,-1.965043154414965,0.9451227324778457,-5.082468789611327,1.0365854283910092,57.5
231,5.097418981286296,-2.1135186528379277,-1.9616948939608776,0.9434894180252998,-5.081571519898133,1.0432234666784985,57.75
232,5.095961425398084,-2.1162991328192002,-1.9562680826424619,0.9408421707529653,-5.080117239944458,1.0404792745877225,58.0
233,5.09578755483427,-2.116630819956618,-1.9556207196325883,0.9405263798573029,-5.079943760797808,1.0297309285850456,58.25
234,5.095787557472658,-2.1166308267841507,-1.9556207227768163,0.9405263786209265,-5.079943764663501,1.0095176730310853,58.5
235,5.095787561416323,-2.116630836989434,-1.9556207274765718,0.9405263767728838,-5.07994377044165,0.9793044174771248,58.75
236,5.095787566665264,-2.1166308505724674,-1.955620733731855,0.9405263743131751,-5.079943778132253,0.9390911619231705,59.0
237,5.0957875733891855,-2.1166308676034475,-1.9556207414599545,0.940526371457308,-5.0799437892016375,0.8888779098757374,59.25
238,5.095787582115998,-2.116630888300739,-1.9556207504035767,0.940526368875675,-5.079943808211189,0.8286646703506905,59.5
239,5.09578759229213,-2.1166309124353626,-1.9556207608325238,0.9405263658652935,-5.079943830377776,0.7584514308256431,59.75
240,5.0957875917040685,-2.116630950491125,-1.955620765923444,0.9405264089943983,-5.079943831046326,0.678238207632619,60.0
241,5.095787590936658,-2.116630993405845,-1.9556207715679275,0.9405264580053234,-5.079943831557853,0.5880249882385893,60.25
242,5.095787590073949,-2.1166310411476776,-1.9556207777756007,0.9405265127495017,-5.079943832037111,0.4878117779311394,60.5
243,5.095787576323225,-2.116631090102655,-1.955620786997522,0.9405265708908404,-5.07994381812117,0.3775985776496351,60.75
244,5.095787559029471,-2.1166311428619835,-1.9556207974865307,0.9405266339330127,-5.079943800343353,0.25738538484744733,61.0
245,5.095787533083395,-2.116631195786213,-1.9556208098057106,0.9405266988458247,-5.079943773915101,0.1271721989255098,61.25
246,5.09578749591074,-2.116631247368341,-1.9556208242958975,0.9405267644285902,-5.079943736286413,-0.013040983347141804,61.5
247,5.095787449667484,-2.1166312961567106,-1.9556208403067816,0.940526828650841,-5.079943689603388,-0.16325416264964032,61.75
248,5.095787391200892,-2.1166313389726734,-1.9556208580775327,0.9405268885479382,-5.079943630736925,-0.32346733535921235,62.0
249,5.095787323169054,-2.1166313705305244,-1.9556208763631373,0.9405269376259232,-5.079943562388756,-0.4896558063961082,62.25
250,5.095787254616814,-2.116631393363764,-1.9556208936140442,0.9405269769568891,-5.0799434935908865,-0.6471808734248163,62.5
251,5.0957871860570005,-2.116631398051097,-1.955620908489408,0.940526995802955,-5.079943424933502,-0.7947059404535519,62.75
252,5.095787121395472,-2.1166313995518844,-1.9556209221364298,0.9405270102807756,-5.079943360203777,-0.9322310074822947,63.0
253,5.095787061757619,-2.116631386909618,-1.955620932885719,0.9405270077981784,-5.07994330061748,-1.0597560745110355,63.25
254,5.095787006863368,-2.1166313723355294,-1.955620942395203,0.940527002196782,-5.079943245794652,-1.1772811415397975,63.5
255,5.095786958419252,-2.116631353573738,-1.9556209500143855,0.9405269905923658,-5.079943197461714,-1.28480620856856,63.75
256,5.0957869168589145,-2.1166313293014003,-1.9556209554797739,0.9405269714057376,-5.079943156063473,-1.3823312755973352,64.0
257,5.095786879560077,-2.116631307517896,-1.955620960384747,0.94052695418646,-5.079943118910114,-1.4698563426261089,64.25
258,5.095786848065216,-2.1166312860828054,-1.955620964128064,0.9405269362131021,-5.079943087562908,-1.54738140965488,64.5
259,5.095786824384792,-2.1166312622063037,-1.9556209659260557,0.9405269139385376,-5.079943064056824,-1.6149064766836605,64.75
260,5.0957868042112775,-2.116631241865748,-1.955620967457777,0.9405268949626834,-5.079943044031829,-1.6724315437124353,65.0
261,5.095786787544671,-2.1166312250611403,-1.9556209687232249,0.9405268792855372,-5.079943027487923,-1.719956610741196,65.25
262,5.0957867743849725,-2.1166312117924786,-1.955620969722403,0.9405268669071023,-5.079943014425108,-1.7574816777699578,65.5
263,5.095786764732184,-2.116631202059763,-1.9556209704553118,0.9405268578273782,-5.0799430048433845,-1.7850067447987237,65.75
264,5.095786758586303,-2.1166311958629933,-1.9556209709219508,0.940526852046365,-5.07994299874275,-1.802531811827487,66.0
265,5.095305030147855,-2.117564771415678,-1.9537974667549853,0.9396366355472237,-5.079462391063033,-1.8112739316340185,66.25
266,5.093785719791534,-2.120509178547363,-1.9480463288191336,0.9368289962400345,-5.077946615644787,-1.811343082918196,66.5
267,5.0932902739482,-2.1214693555846442,-1.9461708759200427,0.9359134199380369,-5.077452324246963,-1.8027065870938122,66.75
268,5.0932902804688664,-2.121469359599974,-1.9461708773080995,0.9359134165270097,-5.077452334351914,-1.785311855247366,67.0
269,5.093290290738176,-2.1214693659236628,-1.9461708794941317,0.935913411155028,-5.077452350266068,-1.7579171234009172,67.25
270,5.09329030475613,-2.1214693745557116,-1.9461708824781394,0.9359134038220922,-5.077452371989425,-1.7205223915544772,67.5
271,5.093290322522728,-2.12146938549612,-1.9461708862601224,0.935913394528202,-5.077452399521984,-1.6731276597080382,67.75
272,5.093290343310445,-2.1214693981144057,-1.9461708914969333,0.9359133809584135,-5.077452426546611,-1.6157329493433759,68.0
273,5.093290367667068,-2.121469412885289,-1.9461708976939982,0.9359133648557532,-5.077452457819771,-1.5483382403866366,68.25
274,5.093290398990177,-2.1214694313278994,-1.9461708966279592,0.9359133703702727,-5.0774524902312335,-1.470943543038818,68.5
275,5.0932904358036515,-2.1214694527912292,-1.9461708919009402,0.9359133869349572,-5.077452525322151,-1.383548850463912,68.75
276,5.093290476816668,-2.1214694768071136,-1.9461708865462248,0.9359134058090405,-5.077452564316506,-1.2861541706730168,69.0
277,5.09329052474258,-2.1214694955764664,-1.9461708790270142,0.9359134174873727,-5.0774526112686456,-1.1787594976069737,69.25
278,5.093290579243867,-2.1214695100649843,-1.9461708695451228,0.9359134231140601,-5.077452665689698,-1.0613648325703986,69.5
279,5.093290638456378,-2.12146952286336,-1.946170858860445,0.9359134258928873,-5.077452724851889,-0.9339701753938583,69.75
280,5.093290702666846,-2.1214695213914876,-1.946170845277634,0.9359134115051269,-5.077452789134064,-0.7965755236479584,70.0
281,5.093290770820301,-2.1214695170181406,-1.9461708304913934,0.9359133930583735,-5.077452857386279,-0.6491808731340658,70.25
282,5.093290838901695,-2.121469494384711,-1.9461708133198714,0.9359133540024644,-5.077452925713391,-0.49178622951300965,70.5
283,5.093290906654561,-2.1214694633346896,-1.9461707951105076,0.935913305505631,-5.0774529937809,-0.3256358399249138,70.75
284,5.093290964813249,-2.121469420806563,-1.9461707773929688,0.9359132459464151,-5.077453052340266,-0.1652959854657096,71.0
285,5.0932910110085645,-2.1214693725330993,-1.9461707614148587,0.9359131822691087,-5.077453098973045,-0.014956131006494927,71.25
286,5.093291047988799,-2.121469321282883,-1.9461707469670142,0.9359131170560042,-5.077453136407163,0.1253837234527364,71.5
287,5.093291074003048,-2.121469268822426,-1.946170734646742,0.9359130526492817,-5.0774531628756545,0.2557235779119714,71.75
288,5.093291091204513,-2.1214692164083804,-1.9461707241702333,0.9359129900415284,-5.077453180523269,0.37606343237121453,72.0
289,5.093291105102852,-2.1214691678524593,-1.946170714889631,0.9359129324459293,-5.077453194833137,0.486403286830469,72.25
290,5.09329110618615,-2.1214691206297083,-1.9461707084564983,0.9359128788958109,-5.077453196305784,0.5867431412897288,72.5
291,5.0932911071614875,-2.1214690781132415,-1.9461707026644952,0.935912830682565,-5.077453197631666,0.6770829957489908,72.75
292,5.093291108028859,-2.1214690403030554,-1.946170697513625,0.9359127878061925,-5.07745319881078,0.7574228502082597,73.0
293,5.093291099485084,-2.1214690074124456,-1.9461706949718542,0.9359127523513451,-5.077453190530049,0.827762704667527,73.25
294,5.09329109211018,-2.1214689791988413,-1.9461706928011213,0.9359127219472602,-5.077453183380743,0.8881025591267981,73.5
295,5.093291085957503,-2.121468955661022,-1.9461706909901368,0.9359126965819804,-5.077453177416277,0.9384424135860594,73.75
296,5.093291081027054,-2.1214689367989843,-1.9461706895389028,0.9359126762555068,-5.077453172636651,0.9787822680453111,74.0
297,5.093291077318833,-2.1214689226127295,-1.9461706884474208,0.9359126609678403,-5.077453169041865,1.0091221225045675,74.25
298,5.093291074832839,-2.1214689131022566,-1.9461706877156908,0.9359126507189806,-5.077453166631918,1.0294619769638245,74.5
299,5.093136586932804,-2.1217730571180127,-1.945576167429366,0.9356221866589616,-5.077299050713547,1.0402981429016191,74.75
300,5.091731758254381,-2.1245388445806253,-1.940169882769776,0.932980891057498,-5.075897604318783,1.0431828071516982,75.0
301,5.090828241409411,-2.1263176684837184,-1.9366928227996387,0.9312821379950362,-5.074996263197148,1.036645702014635,75.25
302,5.090828243293537,-2.126317673333386,-1.9366928250533009,0.9312821371139887,-5.074996266015091,1.0220871394279611,75.5
303,5.0908282464718315,-2.126317681514199,-1.9366928288549605,0.9312821356277663,-5.0749962707686285,0.9975285768412906,75.75
304,5.090828250944297,-2.126317693026156,-1.9366928342046181,0.9312821335363692,-5.074996277457757,0.9629700142546156,76.0
305,5.09082825671093,-2.1263177078692577,-1.936692841102273,0.9312821308397973,-5.074996286082477,0.9184114516679509,76.25
306,5.090828264289664,-2.126317726267126,-1.9366928492848514,0.9312821282354794,-5.074996301165813,0.8638528979106864,76.5
307,5.090828273554854,-2.1263177481655124,-1.9366928588161723,0.9312821255542284,-5.074996321610536,0.7992943488369892,76.75
308,5.090828279235097,-2.126317777735353,-1.9366928670042378,0.9312821415098159,-5.074996334951842,0.7247358067851845,77.0
309,5.090828278527482,-2.126317817366016,-1.9366928722747376,0.9312821867397783,-5.074996335455456,0.640177274052268,77.25
310,5.090828277726014,-2.1263178617516045,-1.9366928781070971,0.9312822376113821,-5.074996335929201,0.5456187506388155,77.5
311,5.09082827267733,-2.1263179097042646,-1.936692885314337,0.9312822933081815,-5.074996331725361,0.4410602341633805,77.75
312,5.090828256397864,-2.126317959259706,-1.9366928952340485,0.9312823525941873,-5.074996314992495,0.32650172625453994,78.0
313,5.0908282386952335,-2.1263180131389374,-1.936692906021717,0.9312824170479719,-5.074996296780607,0.2019432278989777,78.25
314,5.090828205291413,-2.1263180629942875,-1.936692919578506,0.9312824800229754,-5.074996262925526,0.06738473523873612,78.5
315,5.090828167428966,-2.1263181153991284,-1.9366929344062722,0.9312825467567334,-5.074996224592286,-0.07717375641410464,78.75
316,5.090828113858553,-2.126318158255204,-1.9366929512578,0.9312826058235557,-5.074996170618835,-0.23173224233840886,79.0
317,5.090828053738926,-2.1263182001610037,-1.936692969352975,0.9312826651181427,-5.074996110098704,-0.3962430579490895,79.25
318,5.090827983580569,-2.1263182234404945,-1.9366929870899092,0.9312827053612553,-5.074996039685276,-0.5594207522813728,79.5
319,5.090827916255945,-2.126318239691984,-1.9366930033074663,0.9312827371003174,-5.074995972166349,-0.7125984466136863,79.75
320,5.090827849745352,-2.1263182411972483,-1.936693017409848,0.9312827520157043,-5.074995905584416,-0.8557761409459949,80.0
321,5.090827787981244,-2.1263182381894596,-1.9366930299247191,0.9312827608886831,-5.074995843790582,-0.9889538352786136,80.25
322,5.090827731137303,-2.126318223101587,-1.9366930398177016,0.9312827551346742,-5.074995787021412,-1.1121315296111696,80.5
323,5.090827678908153,-2.126318209238604,-1.9366930489075287,0.9312827498477915,-5.074995734860961,-1.2253092239436576,80.75
324,5.090827634815025,-2.126318185883454,-1.9366930550445458,0.9312827322191033,-5.0749956909224245,-1.3284869182760757,81.0
325,5.090827595583483,-2.1263181630020647,-1.9366930602277497,0.9312827141598043,-5.074995651845848,-1.4216646126084498,81.25
326,5.090827560562339,-2.1263181425763493,-1.9366930648546783,0.93128269803866,-5.074995616963038,-1.5048423069407835,81.5
327,5.0908275335542115,-2.1263181193430944,-1.936693067436205,0.9312826771531912,-5.074995590123611,-1.5780200012730774,81.75
328,5.090827511663733,-2.126318097309788,-1.9366930691061768,0.9312826566067678,-5.074995568396414,-1.6411976956053484,82.0
329,5.09082749323816,-2.126318078763996,-1.9366930705118173,0.9312826393125072,-5.0749955501082775,-1.694375389937604,82.25
330,5.090827478277493,-2.1263180637057184,-1.936693071653127,0.93128262527041,-5.074995535259202,-1.7375530842698514,82.5
331,5.090827466781733,-2.126318052134953,-1.9366930725301081,0.9312826144804774,-5.074995523849188,-1.7707307786020925,82.75
332,5.090827458750879,-2.1263180440517018,-1.9366930731427607,0.9312826069427096,-5.074995515878236,-1.7939084729343522,83.0
333,5.090822232896218,-2.1263284820214703,-1.9366726464260617,0.9312726153420295,-5.074990303062615,-1.8071050359422924,83.25
334,5.089724672406859,-2.1285235988992572,-1.9323787010681654,0.9291731950023658,-5.073895476336847,-1.812602726657851,83.5
335,5.088453345852906,-2.131066257966876,-1.9274049225865,0.9267413879151238,-5.072627317234479,-1.8083946778757607,83.75
336,5.0883975159425425,-2.1311779294039117,-1.9271864845955966,0.9266345853038871,-5.072571628869061,-1.7964970268976077,84.0
337,5.088397523985889,-2.131177934353922,-1.9271864863175487,0.9266345811251293,-5.0725716414269675,-1.7747963899011965,84.25
338,5.088397535735739,-2.1311779415849754,-1.9271864888330037,0.926634575020733,-5.072571659771757,-1.7430957529047972,84.5
339,5.088397551192091,-2.131177951097073,-1.9271864921419615,0.9266345669906985,-5.0725716839034325,-1.7013951159084029,84.75
340,5.088397570089792,-2.1311779626542773,-1.9271864964917484,0.9266345561647656,-5.072571711495272,-1.6496944869519237,85.0
341,5.088397592147391,-2.13117797600615,-1.9271865021448917,0.9266345416191855,-5.072571740077558,-1.5879938717347715,85.25
342,5.088397618411659,-2.1311779918006435,-1.9271865071517464,0.9266345292579592,-5.072571772576746,-1.5162932588529159,85.5
343,5.088397652418019,-2.1311780115971612,-1.9271865027678423,0.9266345444989132,-5.072571804988532,-1.4345926598042207,85.75
344,5.088397690581182,-2.131178033857422,-1.9271864978104123,0.9266345617798946,-5.0725718413187035,-1.342892066446693,86.0
345,5.088397732909564,-2.131178058568925,-1.9271864922559094,0.9266345811441079,-5.072571881560919,-1.24119148040408,86.25
346,5.088397784147347,-2.131178072187393,-1.927186483299388,0.9266345863912876,-5.072571932716835,-1.129490906010723,86.5
347,5.088397839973868,-2.131178087025703,-1.9271864735402442,0.9266345921101371,-5.072571988467222,-1.0077903389055478,86.75
348,5.088397900630102,-2.131178092536318,-1.9271864615471097,0.926634586285296,-5.072572049134653,-0.8760897782382693,87.0
349,5.088397966061445,-2.131178091074973,-1.9271864476401839,0.9266345715994472,-5.072572114640268,-0.7343892203877644,87.25
350,5.088398033100076,-2.131178078020313,-1.9271864318619434,0.9266345434883717,-5.072572181849557,-0.5826886664798915,87.5
351,5.08839810220733,-2.1311780551333346,-1.9271864143486968,0.9266345038510181,-5.072572251209857,-0.42098811895874233,87.75
352,5.088398164048789,-2.1311780162240277,-1.9271863962375346,0.9266344475496349,-5.072572313431747,-0.25542528954279525,88.0
353,5.0883982199670985,-2.1311779754531464,-1.9271863791213724,0.926634390323848,-5.072572369740743,-0.09939345946473532,88.25
354,5.088398258019348,-2.1311779229319106,-1.9271863641944438,0.9266343233744913,-5.0725724082658665,0.04663837061325687,88.5
355,5.088398293434335,-2.131177873975553,-1.9271863502920836,0.9266342609801604,-5.072572444121583,0.18267020069117051,88.75
356,5.088398311694629,-2.1311778201366485,-1.927186339338884,0.9266341964838529,-5.072572462848049,0.30870203076902386,89.0
357,5.0883983280803715,-2.1311777703214805,-1.9271863293111362,0.9266341369093309,-5.07257247966467,0.42473386084681924,89.25
358,5.088398335400907,-2.1311777227683932,-1.9271863214827492,0.9266340816976186,-5.072572487389067,0.5307656909245617,89.5
359,5.088398336423769,-2.1311776782119036,-1.9271863153709032,0.9266340311277163,-5.0725724887851165,0.6267975210022378,89.75
360,5.088398337340116,-2.1311776382951804,-1.9271863098954913,0.9266339858237639,-5.0725724900357925,0.7128293510798784,90.0
361,5.088398334061239,-2.1311776031095504,-1.9271863059255514,0.9266339467034712,-5.07257248704796,0.7888611811574818,90.25
362,5.088398326086045,-2.131177572666207,-1.9271863035675882,0.9266339138793083,-5.072572479319984,0.8548930112350533,90.5
363,5.088398319318631,-2.131177546833269,-1.9271863015667192,0.9266338860261056,-5.07257247276235,0.9109248413126143,90.75
364,5.088398313758997,-2.1311775256107355,-1.9271862999229423,0.9266338631438624,-5.072572467375055,0.9569566713901556,91.0
365,5.088398309407143,-2.131177508998607,-1.927186298636261,0.92663384523258,-5.072572463158103,0.9929885014676942,91.25
366,5.08839830626307,-2.1311774969968815,-1.9271862977066754,0.9266338322922587,-5.072572460111491,1.019020331545241,91.5
367,5.088398304326776,-2.13117748960556,-1.9271862971341855,0.9266338243228985,-5.0725724582352205,1.0350521616227955,91.75
368,5.0877405893340715,-2.132513744605565,-1.9245705171396088,0.9253539634987167,-5.071916437555382,1.0426856753596738,92.0
369,5.086304416612153,-2.1354315756417104,-1.918858746719183,0.9225592897051925,-5.070483964582655,1.0412861452872502,92.25
370,5.0860007045390345,-2.136048624342401,-1.9176508568541741,0.9219682881946528,-5.070181035537357,1.031565950027481,92.5
371,5.086000706954891,-2.1360486305276107,-1.9176508597552235,0.9219682870672695,-5.070181039225105,1.0127402885437335,92.75
372,5.086000710654027,-2.136048639998341,-1.917650864197281,0.9219682853410318,-5.070181044871746,0.9839146270599926,93.0
373,5.086000715636441,-2.1360486527545923,-1.917650870180346,0.9219682830159395,-5.070181052477283,0.9450889655762582,93.25
374,5.086000721960821,-2.136048668822798,-1.9176508776733512,0.9219682801756354,-5.070181062559652,0.8962633048034405,93.5
375,5.086000730321809,-2.136048688515841,-1.9176508863085657,0.9219682778101386,-5.0701810812493555,0.8374376521948759,93.75
376,5.0860007401041125,-2.1360487115565805,-1.9176508964117136,0.921968275042522,-5.070181103116192,0.7686119995862896,94.0
377,5.0860007410907615,-2.136048746596497,-1.9176509022127353,0.9219683104706452,-5.0701811069766105,0.689786360901343,94.25
378,5.0860007403535885,-2.136048787659089,-1.9176509076943316,0.9219683574286769,-5.070181107479105,0.6009607265055189,94.5
379,5.086000739521149,-2.136048833425066,-1.9176509137196456,0.9219684100196942,-5.070181107928994,0.5021351030562002,94.75
380,5.086000728203844,-2.136048880932372,-1.9176509223251839,0.921968466247644,-5.070181096688883,0.3933094880074366,95.0
381,5.086000711519566,-2.136048931602293,-1.917650932542054,0.9219685269382975,-5.0701810795263835,0.27448388071930396,95.25
382,5.0860006885937,-2.136048983711038,-1.917650944267617,0.9219685904853097,-5.070181056106826,0.14565828081507406,95.5
383,5.0860006526667885,-2.1360490333116555,-1.9176509584062067,0.9219686537515012,-5.070181019726828,0.0068326854683337344,95.75
384,5.086000609970617,-2.1360490822834195,-1.9176509738837595,0.9219687176585727,-5.0701809765776575,-0.1419929077443628,96.0
385,5.086000553390317,-2.136049123477183,-1.9176509912453827,0.921968775544062,-5.070180919599364,-0.30081849423067697,96.25
386,5.086000489496391,-2.136049156473433,-1.9176510090550316,0.9219688256199885,-5.070180855369821,-0.4647567355595884,96.5
387,5.086000423713555,-2.1360491782176383,-1.9176510257670207,0.9219688633485952,-5.07018078934435,-0.6196004136011078,96.75
388,5.08600035896123,-2.1360491862872655,-1.9176510404460951,0.9219688854071733,-5.070180724465465,-0.764444091642413,97.0
389,5.086000297066867,-2.136049187650812,-1.9176510536338327,0.9219688993112077,-5.0701806625035974,-0.8992877696836037,97.25
390,5.08600023996814,-2.1360491799638206,-1.9176510646116443,0.9219689020224147,-5.070180605417912,-1.024131447724756,97.5
391,5.08600018759984,-2.136049166065216,-1.917651073770319,0.9219688967642792,-5.070180553119242,-1.1389751257659047,97.75
392,5.086000139884744,-2.1360491530936847,-1.9176510820742934,0.9219688916251643,-5.07018050547018,-1.243818803807043,98.0
393,5.086000100425775,-2.136049130108185,-1.9176510873131818,0.9219688735125546,-5.070180466169038,-1.3386624818481732,98.25
394,5.086000065127225,-2.1360491095462013,-1.917651091999696,0.9219688573096768,-5.0701804310116785,-1.423506159889293,98.5
395,5.086000033989096,-2.136049091407733,-1.9176510961338367,0.921968843016531,-5.070180399998097,-1.4983498379303961,98.75
396,5.086000009671125,-2.136049072020711,-1.917651098668936,0.9219688259492574,-5.070180375821358,-1.5631935159715034,99.0
397,5.085999990893605,-2.136049053151911,-1.9176511001085885,0.9219688083614453,-5.0701803571857225,-1.618037194012636,99.25
398,5.08599997553991,-2.136049037723581,-1.91765110128574,0.9219687939805319,-5.070180341948042,-1.6628808720537798,99.5
399,5.085999963610043,-2.1360490257357214,-1.9176511022003884,0.9219687828065162,-5.070180330108317,-1.6977245500949216,99.75
400,5.0859999551040005,-2.1360490171883306,-1.9176511028525358,0.9219687748393993,-5.070180321666546,-1.7225682281360597,100.0
401,5.085999950021783,-2.1360490120814095,-1.9176511032421828,0.9219687700791815,-5.070180316622731,-1.7374119061772022,100.25
402,5.086211872388663,-2.1356325187272245,-1.9185030293661218,0.9224042877362796,-5.070391534036933,-1.7427449442637843,100.5
403,5.086611802081289,-2.134846546230419,-1.920110724429025,0.923226170534865,-5.07079013335725,-1.7393188656244616,100.75
404,5.086718456179469,-2.1346369534944123,-1.9205394513009626,0.9234453474346601,-5.070896432651727,-1.726530678904962,101.0
405,5.086908510763207,-2.1342634651721086,-1.921303430450132,0.9238359144655214,-5.071085854985309,-1.7037424921854605,101.25
406,5.0871819658325,-2.133726081263508,-1.9224026618765326,0.9243978716274486,-5.071358400357996,-1.6709543054659644,101.5
407,5.087540442260492,-2.133025534251032,-1.9238356513035475,0.9251304610284885,-5.071715696571322,-1.6281660806866487,101.75
408,5.087985884852214,-2.1321627033182433,-1.9256006051803198,0.9260327729837179,-5.072159696744345,-1.575377787772332,102.0
409,5.0885157102809515,-2.1311364211948307,-1.9276999047574985,0.9271060152542525,-5.072687806508437,-1.5125894948580485,102.25
410,5.089132380655968,-2.1299477584320745,-1.9301313665830704,0.9283490802228441,-5.073302496722205,-1.4398011374842987,102.5
411,5.089836504681668,-2.128596979961447,-1.932894450312515,0.9297616937828637,-5.074004378253888,-1.3570127127191727,102.75
412,5.090628677638175,-2.127084317699513,-1.9359886834819138,0.9313436173829657,-5.074794049327574,-1.2642242169752231,103.0
413,5.091509844819604,-2.1254101743866998,-1.9394132448489767,0.9330944347765657,-5.075672458858455,-1.1614356395268643,103.25
414,5.092483020395234,-2.12357577297816,-1.943165641527723,0.9350128831718904,-5.076642632262435,-1.048646918165217,103.5
415,5.093547258486393,-2.1215806895925615,-1.9472467381963994,0.9370994011811569,-5.077703619867373,-0.9258580893973609,103.75
416,5.094704659088724,-2.1194257576693682,-1.951654836271334,0.9393531287400972,-5.07885752932544,-0.7930691187230946,104.0
417,5.095958344523555,-2.1171121698073123,-1.9563875059355726,0.9417728362995214,-5.080107494024912,-0.6502799545733328,104.25
418,5.097309670920425,-2.1146403761239396,-1.9614438312358766,0.9443580615221591,-5.081454874432685,-0.4974905908464552,104.5
419,5.098752053855211,-2.1120253379837886,-1.966793211910724,0.9470931649544988,-5.08289311357773,-0.33559854204563067,104.75
420,5.100159880559041,-2.109496620317035,-1.971966048224101,0.9497380474392181,-5.084296964557139,-0.17880049826492372,105.0
421,5.101487673748047,-2.107132728321456,-1.9768017431236604,0.9522105898840165,-5.085621068953527,-0.03200226671913306,105.25
422,5.102733324915729,-2.1049328332548756,-1.981301985468254,0.9545116472930621,-5.086863310622929,0.10479611733752162,105.5
423,5.103894673229324,-2.1028961244916466,-1.9854684265961124,0.9566420550352236,-5.088021521175223,0.23159462133319153,105.75
424,5.104971268892127,-2.1010224052700046,-1.9893014677764964,0.9586020165867495,-5.089095249044362,0.3483932425791996,106.0
425,5.105962047693373,-2.099311256491146,-1.9928019630638993,0.9603919643353508,-5.090083426156838,0.4551919645325711,106.25
426,5.106862608160024,-2.097761184010961,-1.9959729537018611,0.9620134340458607,-5.090981636746038,0.5519907268635007,106.5
427,5.107675962963286,-2.096373167601361,-1.9988124461552266,0.9634654198452088,-5.091792902964454,0.6387895777911783,106.75
428,5.108396231794909,-2.0951452626882827,-2.0013243976074198,0.964749919041109,-5.0925113257715875,0.7155884370178855,107.0
429,5.109027381524915,-2.094078747127052,-2.0035062082276953,0.9658656200887802,-5.093140884434337,0.7823873634528176,107.25
430,5.109564046243906,-2.093171892149928,-2.0053613952423657,0.9668142973372356,-5.09367619627362,0.8391862898877547,107.5
431,5.110007040840445,-2.0924249541234845,-2.006889437174981,0.9675956878397216,-5.094118078680906,0.8859852266515694,107.75
432,5.1103576391246275,-2.0918383336750663,-2.0080895191087387,0.9682093806879895,-5.094467809378431,0.9227841960896446,108.0
433,5.110612963467844,-2.0914111254214394,-2.0089634826886167,0.9686563045050478,-5.094722501898836,0.9495831655276982,108.25
434,5.110773013870096,-2.0911433293626036,-2.0095113279146166,0.9689364592908974,-5.0948821562421225,0.9663821349657656,108.5
435,5.110938953440185,-2.090866168816847,-2.0100783423105653,0.969226423026823,-5.095047686041568,0.9733822881998823,108.75
436,5.111511136221826,-2.0899117031615795,-2.0120310152536636,0.9702250101673724,-5.095618458029829,0.9714898575850031,109.0
437,5.111511393100367,-2.089911788129801,-2.0120308537613014,0.9702249342133396,-5.095618715179229,0.9605565552117269,109.25
438,5.111511884929456,-2.089911950813078,-2.0120305445620916,0.9702247887889579,-5.0956192075269175,0.9396232528384505,109.5
439,5.111512611709094,-2.0899121912114116,-2.0120300876560337,0.9702245738942274,-5.095619935072893,0.9086899504651669,109.75
440,5.111513573618094,-2.0899125093957225,-2.0120294829562035,0.9702242897232259,-5.0956208993531575,0.8677566719172275,110.0
441,5.111514770573961,-2.089912905333281,-2.0120287305026823,0.9702239361862034,-5.095622099657907,0.8168233996804971,110.25
442,5.1115161511018075,-2.089913363088436,-2.0120278627740866,0.9702235296496954,-5.095623484054881,0.7558901281212337,110.5
443,5.111516150361888,-2.0899133983280924,-2.012027867308254,0.9702235694581509,-5.09562348352816,0.6849568746827923,110.75
444,5.111516149517066,-2.0899134385400266,-2.0120278724779403,0.9702236148969227,-5.095623482922234,0.6040236221223144,111.0
445,5.111516148563758,-2.0899134837502285,-2.0120278782606675,0.9702236660767611,-5.095623482207012,0.5130903753040805,111.25
446,5.111516139131986,-2.0899135316697084,-2.012027886158443,0.9702237218428811,-5.09562347265452,0.4121571352913753,111.5
447,5.1115161225692045,-2.0899135826624278,-2.012027895933386,0.970223782362366,-5.095623455672726,0.30122390210273553,111.75
448,5.11151610368384,-2.0899136377640133,-2.0120279066992532,0.9702238479483226,-5.095623436329955,0.18029067560762618,112.0
449,5.111516067657534,-2.089913688263189,-2.01202792040845,0.9702239116827933,-5.0956233998825144,0.049357458361488485,112.25
450,5.111516028879741,-2.0899137426191743,-2.0120279351647246,0.9702239802847046,-5.095623360651551,-0.09157575515948077,112.5
451,5.111515972459001,-2.0899137857105132,-2.0120279521256395,0.9702240396717975,-5.095623303851724,-0.24250896812869685,112.75
452,5.111515910117395,-2.0899138284101677,-2.0120279702509243,0.9702240997722377,-5.095623241129367,-0.40344217291633955,113.0
453,5.111515836660196,-2.0899138532361885,-2.0120279884154235,0.9702241419630836,-5.095623167420884,-0.5661012681478064,113.25
454,5.111515765906366,-2.0899138696869866,-2.01202800497678,0.9702241742207889,-5.0956230964828055,-0.7188420466269854,113.5
455,5.111515696262902,-2.0899138714523007,-2.012028019471047,0.9702241897683047,-5.09562302676972,-0.8615828251061229,113.75
456,5.111515631623689,-2.0899138676128355,-2.0120280322376454,0.9702241980461362,-5.095622962108312,-0.9943236035852516,114.0
457,5.1115155721344125,-2.0899138517923483,-2.012028042448028,0.9702241918644727,-5.095622902693767,-1.1170643820643447,114.25
458,5.111515517491877,-2.0899138372607995,-2.0120280518265377,0.970224186186441,-5.0956228481198735,-1.229805160543417,114.5
459,5.111515471580965,-2.089913812058269,-2.012028058078882,0.9702241668226614,-5.095622802367266,-1.3325459390224763,114.75
460,5.111515430572762,-2.0899137879723746,-2.012028063466306,0.9702241477580976,-5.095622761512656,-1.4252867175015054,115.0
461,5.111515393986367,-2.0899137664836016,-2.012028068272813,0.9702241307492148,-5.0956227250632935,-1.5080274959805484,115.25
462,5.111515366054461,-2.0899137416588762,-2.012028070887758,0.9702241083079003,-5.095622697301209,-1.5807682744595795,115.5
463,5.111515343225307,-2.0899137184767773,-2.012028072662674,0.970224086717605,-5.095622674633252,-1.6435090529386025,115.75
464,5.111515324034798,-2.0899136989895806,-2.012028074154691,0.9702240685684984,-5.095622655578248,-1.6962498314176613,116.0
465,5.111515308482936,-2.0899136831972855,-2.0120280753638102,0.9702240538605813,-5.0956226401362,-1.738990609896729,116.25
466,5.1115152965697215,-2.089913671099892,-2.0120280762900338,0.9702240425938551,-5.095622628307105,-1.7717313883757941,116.5
467,5.111515288295155,-2.089913662697399,-2.012028076933361,0.9702240347683194,-5.095622620090964,-1.7944721668548567,116.75
468,5.111498191924909,-2.08994367580031,-2.0119695263433672,0.9701954843296619,-5.095605555812185,-1.8072675374322198,117.0
469,5.110193304790111,-2.0922354174373847,-2.0074993911980807,0.9680161048558313,-5.094303116237936,-1.8123367015110068,117.25
470,5.1088345492262865,-2.0946217765343116,-2.00284470707601,0.9657467506899584,-5.092946910229446,-1.8076512821935493,117.5
471,5.108802212634369,-2.094678580083946,-2.002733916339584,0.965692732509266,-5.092914636835398,-1.7952382470932982,117.75
472,5.108802221304862,-2.0946785854365144,-2.0027339181341537,0.9656927278713545,-5.092914650063233,-1.772928081635452,118.0
473,5.1088022338617,-2.094678593188244,-2.002733920733096,0.9656927211546098,-5.092914669220129,-1.740617916177611,118.25
474,5.108802250304879,-2.094678603339135,-2.002733924136412,0.9656927123590315,-5.092914694306087,-1.6983077507197537,118.5
475,5.108802270293908,-2.094678615611491,-2.0027339286282384,0.9656927004776984,-5.092914722458223,-1.6459975950920236,118.75
476,5.108802293609192,-2.094678629826215,-2.002733934391827,0.9656926848612067,-5.092914751830157,-1.583687452545424,119.0
477,5.108802321631028,-2.0946786467546272,-2.002733938794965,0.9656926736423058,-5.092914785073564,-1.5113773133667634,119.25
478,5.1088023575935075,-2.0946786678462646,-2.002733934176211,0.9656926899646705,-5.092914819364626,-1.429067187308764,119.5
479,5.108802397918856,-2.0946786915499938,-2.002733928953087,0.9656927084815143,-5.092914857768799,-1.3367570676138079,119.75
480,5.108802442906984,-2.0946787170082017,-2.0027339229442087,0.9656927282074937,-5.092914900716185,-1.2344469550550672,120.0
481,5.108802497000265,-2.0946787314090805,-2.0027339136240268,0.9656927338934388,-5.092914954728261,-1.122136853449792,120.25
482,5.10880255591195,-2.094678747092857,-2.0027339034731746,0.9656927400874598,-5.09291501356625,-0.9998267596666912,120.5
483,5.108802619922756,-2.0946787516987904,-2.002733890897869,0.9656927327949286,-5.0929150775969685,-0.8675166720312828,120.75
484,5.108802688924028,-2.094678749967506,-2.002733876509923,0.9656927173821845,-5.09291514667147,-0.7252065867193571,121.0
485,5.108802759272096,-2.0946787346017484,-2.0027338601321643,0.9656926863874935,-5.092915217198102,-0.5728965057019991,121.25
486,5.108802832114592,-2.0946787100300304,-2.0027338420853122,0.9656926445626933,-5.09291529029164,-0.4105864310523028,121.5
487,5.10880289618309,-2.0946786673812143,-2.002733823568844,0.9656925841398504,-5.092915354745239,-0.24539923385388518,121.75
488,5.1088029537752755,-2.094678623200472,-2.0027338061898745,0.9656925232598236,-5.092915412729234,-0.08996858711772579,122.0
489,5.108802993540034,-2.0946785675365756,-2.0027337910291485,0.9656924529573104,-5.092915452960991,0.05546205961839522,122.25
490,5.108803030064144,-2.0946785154030496,-2.0027337769775366,0.9656923872538454,-5.092915489921895,0.19089270635447053,122.5
491,5.1088030486720175,-2.094678458187711,-2.0027337659667603,0.9656923193374867,-5.092915508991695,0.31632335309054904,122.75
492,5.108803065796374,-2.0946784055338887,-2.0027337558338143,0.9656922568357791,-5.092915526541147,0.4317539998265931,123.0
493,5.108803072561656,-2.094678355082161,-2.0027337481049727,0.9656921988300775,-5.092915533705913,0.5371846465626136,123.25
494,5.108803073635968,-2.094678308073465,-2.0027337419774955,0.9656921458035455,-5.0929155351481965,0.6326152932986181,123.5
495,5.108803074597705,-2.0946782659907255,-2.0027337364921,0.965692098333563,-5.092915536439346,0.7180459400346161,123.75
496,5.108803070556968,-2.094678228956645,-2.00273373266843,0.9656920575123851,-5.092915532684531,0.7934765867706154,124.0
497,5.108803062263707,-2.0946781969524046,-2.0027337303501067,0.9656920231724966,-5.092915524634456,0.8589072335066162,124.25
498,5.108803055237933,-2.0946781698394874,-2.0027337283861004,0.9656919940808957,-5.092915517814704,0.9143378802426212,124.5
499,5.108803049479651,-2.094678147617894,-2.002733726776409,0.9656919702375819,-5.092915512225273,0.9597685269786599,124.75
500,5.108803044988855,-2.094678130287623,-2.0027337255210362,0.9656919516425564,-5.092915507866164,0.9951991737146961,125.0
501,5.108803041765549,-2.0946781178486744,-2.0027337246199814,0.9656919382958195,-5.092915504737376,1.02062982045073,125.25
502,5.1088030398097315,-2.0946781103010474,-2.002733724073245,0.965691930197371,-5.09291550283891,1.0360604671867613,125.5
503,5.107962115072299,-2.096178813828296,-1.9998042488060148,0.9642625495330633,-5.092076213939186,1.0432029019089188,125.75
504,5.106380371271614,-2.099001584355804,-1.9942940238935782,0.9615739483702017,-5.090497547179076,1.0411181840430068,126.0
505,5.106128002300855,-2.099451966350649,-1.9934148583484854,0.9611449762288254,-5.090245669725029,1.0308343997191953,126.25
506,5.106128004913395,-2.0994519731692804,-1.993414861410938,0.9611449749644994,-5.090245673466216,1.0112375445204909,126.5
507,5.106128008859078,-2.0994519834673637,-1.9934148660361166,0.9611449730550057,-5.090245679116476,0.9816406893217895,126.75
508,5.106128014137903,-2.0994519972448997,-1.9934148722240224,0.9611449705003443,-5.0902456866758135,0.9420438341230697,127.0
509,5.1061280208760085,-2.099452014551315,-1.9934148799164724,0.9611449674490778,-5.090245697210856,0.8924469814996755,127.25
510,5.1061280297199865,-2.0994520356399815,-1.9934148888152228,0.9611449646627501,-5.09024571618923,0.8328501427546182,127.5
511,5.106128040047934,-2.0994520602672027,-1.9934148992071314,0.9611449614088932,-5.090245738352063,0.7632533040095572,127.75
512,5.106128040182382,-2.0994520985806746,-1.9934149046309402,0.9611450025336665,-5.0902457404893475,0.6836564806789793,128.0
513,5.106128039403696,-2.0994521425349144,-1.9934149102041934,0.9611450524780982,-5.090245741026228,0.5940596613561796,128.25
514,5.106128038526815,-2.099452191473576,-1.993414916330742,0.9611451083328697,-5.090245741527195,0.4944628518292998,128.5
515,5.106128025423746,-2.0994522419593675,-1.993414925326511,0.9611451678370726,-5.090245728385483,0.3848660516043839,128.75
516,5.106128007787291,-2.0994522961251767,-1.9934149357637831,0.9611452322283177,-5.090245710270521,0.26526925895946385,129.0
517,5.10612798232097,-2.0994523510838166,-1.9934149479199985,0.9611452990190095,-5.090245684319723,0.1356724733648466,129.25
518,5.106127944388502,-2.099452404110121,-1.9934149624111457,0.9611453660367248,-5.090245645935519,-0.003924308256218402,129.5
519,5.106127898140555,-2.099452455261693,-1.9934149783772308,0.9611454325738947,-5.09024559924493,-0.15352108733716813,129.75
520,5.106127838449099,-2.0994524993420174,-1.993414996218242,0.9611454937937549,-5.090245539157434,-0.3131178597297963,130.0
521,5.106127769401424,-2.099452533299705,-1.9934150147087455,0.9611455454660787,-5.090245469785689,-0.47943634828989934,130.25
522,5.106127698868195,-2.0994525570473845,-1.9934150322179476,0.9611455859532332,-5.090245399007514,-0.6375818631324797,130.5
523,5.106127628645189,-2.099452563298459,-1.9934150474577998,0.9611456067140259,-5.090245328677575,-0.7857273779750232,130.75
524,5.10612756207876,-2.099452564951126,-1.9934150613654749,0.9611456215911501,-5.090245262043425,-0.9238728928175549,131.0
525,5.106127500637758,-2.0994525530642374,-1.9934150725116309,0.9611456202477298,-5.090245200645519,-1.0520184076600483,131.25
526,5.106127444084432,-2.0994525380353943,-1.993415082255845,0.9611456144168686,-5.090245144164047,-1.1701639225025295,131.5
527,5.106127393875466,-2.099452519495226,-1.9934150902517758,0.9611456033984983,-5.090245094059796,-1.278309437344987,131.75
528,5.106127351014005,-2.099452494363091,-1.9934150959046555,0.9611455835338687,-5.0902450513609905,-1.3764549521874272,132.0
529,5.106127312519676,-2.09945247179166,-1.9934151009815597,0.961145565693234,-5.090245013012744,-1.4646004670298665,132.25
530,5.106127279626565,-2.099452450055765,-1.9934151050110585,0.9611455476961893,-5.090244980263741,-1.5427459818722888,132.5
531,5.106127255137006,-2.0994524252379403,-1.9934151069226245,0.961145524591515,-5.090244955949459,-1.6108914967147205,132.75
532,5.106127234241161,-2.099452404062003,-1.9934151085536782,0.9611455048773317,-5.090244935203174,-1.669037011557164,133.0
533,5.106127216939032,-2.0994523865279535,-1.9934151099042157,0.9611454885536372,-5.09024491802488,-1.717182526399632,133.25
534,5.106127203230618,-2.0994523726357905,-1.9934151109742415,0.9611454756204338,-5.0902449044145825,-1.7553280412420988,133.5
535,5.1061271931159204,-2.099452362385514,-1.9934151117637562,0.9611454660777218,-5.090244894372278,-1.7834735560845487,133.75
536,5.106127186594938,-2.0994523557771236,-1.9934151122727588,0.9611454599255009,-5.09024488789797,-1.8016190709270172,134.0
537,5.1056998926752835,-2.100227160797651,-1.991901476530365,0.9604063330519651,-5.089818455694875,-1.8108135424342426,134.25
538,5.104095291000954,-2.1031367929011053,-1.9862173299443693,0.9576307060305443,-5.088217090131225,-1.8114596631327269,134.5
539,5.103489296555155,-2.104235653560182,-1.9840706422446863,0.9565824547277019,-5.087612319463024,-1.803237924784724,134.75
540,5.103489303031262,-2.1042356575555017,-1.984070643592667,0.9565824512858555,-5.08761232941445,-1.786377795475663,135.0
541,5.103489313348447,-2.104235663920506,-1.9840706457401558,0.9565824458025975,-5.087612345268221,-1.7595176661666,135.25
542,5.103489327506709,-2.1042356726551947,-1.984070648687152,0.956582438277928,-5.087612367024333,-1.7226575368575419,135.5
543,5.103489345506048,-2.1042356837595686,-1.9840706524336564,0.9565824287118468,-5.087612394682789,-1.6757974075484747,135.75
544,5.103489366630872,-2.104235696635004,-1.984070657595863,0.9565824149219584,-5.0876124221612935,-1.6189372988092607,136.0
545,5.1034893913684405,-2.104235711689115,-1.984070663754195,0.9565823983942932,-5.0876124536013885,-1.5520771927559291,136.25
546,5.1034894229836345,-2.104235730413632,-1.9840706632101126,0.9565824022204168,-5.087612486710227,-1.4752170975373802,136.5
547,5.103489460469458,-2.104235752358941,-1.9840706583794434,0.9565824191670136,-5.087612522449143,-1.388357007911911,136.75
548,5.10348950225854,-2.1042357769264286,-1.9840706529083811,0.9565824384730872,-5.087612562196708,-1.2914969305000972,137.0
549,5.10348955086699,-2.1042357968418184,-1.9840706454099397,0.9565824513111272,-5.0876126097021785,-1.1846368597628292,137.25
550,5.103489606459189,-2.1042358116323188,-1.984070635792833,0.9565824571101269,-5.087612665214026,-1.0677767971499539,137.5
551,5.103489666856855,-2.1042358256546314,-1.9840706250879034,0.9565824611020949,-5.087612725554438,-0.9409167425435432,137.75
552,5.103489732397732,-2.1042358240450945,-1.9840706113666313,0.9565824464454723,-5.087612791166042,-0.8040566936437143,138.0
553,5.103489802270332,-2.1042358205579323,-1.984070596514679,0.956582428828004,-5.087612861127809,-0.6571966455762694,138.25
554,5.1034898717984785,-2.1042357971929277,-1.9840705792199194,0.9565823889278597,-5.087612930899215,-0.5003366044886217,138.5
555,5.103489941781538,-2.1042357662086966,-1.9840705608677907,0.9565823403715523,-5.087613001186376,-0.3343710064764038,138.75
556,5.103490001580628,-2.1042357221150905,-1.9840705429582584,0.9565822790714325,-5.087613061385196,-0.17349240284115763,139.0
557,5.10349004991517,-2.1042356729186205,-1.984070526767963,0.9565822142808968,-5.087613110150446,-0.022613799205929323,139.25
558,5.103490087958518,-2.1042356198072003,-1.9840705122051263,0.9565821471056366,-5.0876131486470255,0.11826480442925989,139.5
559,5.103490115596732,-2.1042355659517105,-1.984070499694238,0.9565820811333086,-5.087613176735729,0.24914340806442425,139.75
560,5.103490133306218,-2.1042355116312685,-1.984070489172339,0.956582016584371,-5.087613194891146,0.3700220116995533,140.0
561,5.103490148396343,-2.104235461497977,-1.9840704797201798,0.9565819572568703,-5.087613210391784,0.48090061533467976,140.25
562,5.1034901495161105,-2.1042354125362777,-1.9840704732975523,0.9565819019851081,-5.087613211901152,0.5817792189697907,140.5
563,5.103490150524875,-2.104235368428108,-1.9840704675115894,0.9565818521923812,-5.087613213260896,0.6726578226048909,140.75
564,5.10349015142264,-2.1042353291734663,-1.984070462362294,0.956581807878691,-5.08761321447102,0.753536426239997,141.0
565,5.103490143153387,-2.104235294994789,-1.9840704597455927,0.9565817710692655,-5.0876132064662105,0.8244150298750854,141.25
566,5.10349013553106,-2.1042352656510217,-1.9840704576068853,0.9565817395693794,-5.087613199070485,0.8852936335101869,141.5
567,5.103490129160786,-2.1042352411273013,-1.9840704558194813,0.956581713243705,-5.087613192889591,0.9361722371453167,141.75
568,5.103490124042565,-2.1042352214236275,-1.9840704543833843,0.9565816920922436,-5.0876131879235285,0.9770508407804489,142.0
569,5.103490120176399,-2.1042352065399994,-1.984070453298595,0.9565816761149953,-5.087613184172298,1.0079294444155713,142.25
570,5.103490117562286,-2.104235196476417,-1.9840704525651132,0.9565816653119605,-5.0876131816358985,1.0288080480506916,142.5
571,5.103372453007135,-2.1044519752770925,-1.9836466326856,0.9563745462902797,-5.0874957630244095,1.0400507026638561,142.75
572,5.101923514898297,-2.107121516580813,-1.9784275981046942,0.9538240931698106,-5.086049853041695,1.0434279913184468,143.0
573,5.10088872119656,-2.1090280385121134,-1.9747002971147987,0.9520026252050613,-5.085017222311189,1.0372571564625788,143.25
574,5.1008887230603595,-2.109028043350742,-1.9747002993069254,0.9520026243047592,-5.085017225034746,1.0231527893056478,143.5
575,5.100888726245596,-2.10902805161996,-1.9747003030532708,0.9520026227661427,-5.085017229689305,0.9990484221487272,143.75
576,5.100888730752269,-2.1090280633197676,-1.9747003083538344,0.9520026205892118,-5.085017236274868,0.9649440549917956,144.0
577,5.100888736580375,-2.109028078450164,-1.9747003152086169,0.9520026177739666,-5.085017244791433,0.9208396878348596,144.25
578,5.100888744231726,-2.1090280972163105,-1.9747003233766622,0.9520026149477542,-5.08501725952858,0.8667353309170408,144.5
579,5.100888753648663,-2.1090281195946345,-1.9747003328856567,0.9520026120384916,-5.08501727999343,0.8026309806109537,144.75
580,5.1008887599619035,-2.109028149408852,-1.9747003413346262,0.9520026261545265,-5.085017294442471,0.7285266366277252,145.0
581,5.100888759242252,-2.109028190048774,-1.974700346538104,0.95200267231522,-5.085017294963303,0.6444223027983607,145.25
582,5.100888758427373,-2.109028235586651,-1.974700352302058,0.952002724246434,-5.085017295463074,0.5503179776265672,145.5
583,5.100888753943537,-2.109028285003882,-1.974700359317561,0.9520027812587974,-5.085017291938314,0.4462136594125389,145.75
584,5.10088873732635,-2.109028335920917,-1.9747003691925145,0.9520028418560882,-5.085017274872077,0.332109350048837,146.0
585,5.100888719250636,-2.1090283912982626,-1.9747003799349507,0.9520029077566208,-5.085017256291274,0.20800505026446708,146.25
586,5.10088868586908,-2.1090284430092683,-1.9747003933929568,0.9520029724895741,-5.085017222457214,0.07390075602685042,146.5
587,5.100888647193948,-2.1090284969302138,-1.9747004082292174,0.9520030407373388,-5.085017183315104,-0.07020353698508927,146.75
588,5.100888593160204,-2.1090285417731907,-1.974700425088112,0.9520031017925983,-5.085017128876553,-0.22430782455233664,147.0
589,5.10088853225838,-2.1090285859158366,-1.9747004432777344,0.9520031634097392,-5.0850170675703605,-0.38840662304898993,147.25
590,5.100888460172116,-2.109028610094563,-1.974700461246424,0.9520032047683264,-5.085016995229997,-0.5520425932010102,147.5
591,5.100888391229452,-2.1090286279442645,-1.9747004777623087,0.9520032383902852,-5.085016926086522,-0.7056785633530072,147.75
592,5.100888322866055,-2.1090286296044924,-1.9747004921044646,0.9520032536881374,-5.085016857652363,-0.8493145335049745,148.0
593,5.100888259347785,-2.109028627406431,-1.9747005049555584,0.9520032636942317,-5.085016794098283,-0.9829505036569113,148.25
594,5.100888200891334,-2.109028611880414,-1.9747005150693733,0.9520032577143008,-5.085016735716937,-1.1065864738088307,148.5
595,5.1008881471629905,-2.109028597610185,-1.9747005243651479,0.9520032522180375,-5.085016682057624,-1.2202224439607081,148.75
596,5.100888101585893,-2.1090285741086063,-1.9747005308047703,0.9520032347367778,-5.085016636630289,-1.3238584141125944,149.0
597,5.100888061194279,-2.109028550461602,-1.9747005361540406,0.9520032160732211,-5.085016596393961,-1.4174943842644667,149.25
598,5.10088802511635,-2.109028529340019,-1.9747005409320235,0.952003199402866,-5.085016560454734,-1.5011303544163213,149.5
599,5.1008879970117444,-2.1090285056415126,-1.9747005437348912,0.952003178267524,-5.085016532516156,-1.5747663245681962,149.75
600,5.100887974422313,-2.1090284827932866,-1.974700545505587,0.9520031570051112,-5.085016510090583,-1.6384022947200516,150.0
601,5.10088795538267,-2.1090284635355188,-1.9747005469980268,0.9520031390839546,-5.08501649118905,-1.6920382648719352,150.25
602,5.100887939892817,-2.10902844786821,-1.9747005482122113,0.9520031245040542,-5.085016475811557,-1.7356742350238425,150.5
603,5.100887927952753,-2.1090284357913585,-1.9747005491481426,0.9520031132654112,-5.085016463958105,-1.7693102051757257,150.75
604,5.1008879195624806,-2.109028427304964,-1.974700549805821,0.9520031053680253,-5.085016455628693,-1.7929461753276137,151.0
605,5.100887477519786,-2.109029240822529,-1.97469894898126,0.9520023177450451,-5.085016014567658,-1.806582774564045,151.25
606,5.099792446003379,-2.1110790627396714,-1.97068852471073,0.9500410231800874,-5.083923353815779,-1.8124092253972464,151.5
607,5.098405037476817,-2.113676204996337,-1.965607289184637,0.9475560508890944,-5.082538949857335,-1.8085903992947452,151.75
608,5.098322173712478,-2.1138313315357142,-1.9653037945979146,0.9474076244989041,-5.082456267914991,-1.79699661817761,152.0
609,5.098322181809499,-2.1138313365281505,-1.9653037962927016,0.9474076202245114,-5.08245628044752,-1.7756707978928719,152.25
610,5.098322193703337,-2.113831343861616,-1.9653037987822002,0.9474076139457911,-5.0824562988567425,-1.7443449776081463,152.5
611,5.0983222093939915,-2.1138313535361095,-1.9653038020664098,0.9474076056627433,-5.082456323142656,-1.703019157323404,152.75
612,5.098322228633201,-2.1138313653385676,-1.9653038063659873,0.9474075945946383,-5.0824563511723655,-1.6516933447403042,153.0
613,5.098322251071691,-2.1138313789692322,-1.9653038119913708,0.9474075796430788,-5.082456379945132,-1.5903675476952681,153.25
614,5.098322277643709,-2.113831395033788,-1.9653038173808224,0.947407565675358,-5.082456412916875,-1.5190417523901405,153.5
615,5.098322312315821,-2.1138314152975117,-1.965303812896578,0.9474075812889646,-5.0824564459690755,-1.437715971699376,153.75
616,5.098322351246205,-2.113831438091249,-1.965303807826805,0.9474075989864765,-5.082456483041467,-1.3463901961678144,154.0
617,5.098322394431363,-2.113831463441355,-1.9653038021480378,0.947407618880647,-5.082456524103814,-1.2450644283222498,154.25
618,5.098322446579889,-2.1138314778250447,-1.9653037931561546,0.9474076248517378,-5.082456576094846,-1.1337386718059594,154.5
619,5.098322503594014,-2.1138314929868023,-1.9653037832506561,0.9474076307539705,-5.082456633033057,-1.0124129225647782,154.75
620,5.098322565540629,-2.113831499227767,-1.965303771199638,0.9474076256108714,-5.082456694985322,-0.8810871798456597,155.0
621,5.098322632394477,-2.113831497622866,-1.965303757143968,0.9474076106405447,-5.082456761912523,-0.739761440114892,155.25
622,5.098322701103583,-2.1138314848623505,-1.965303741283934,0.9474075827517985,-5.0824568307847535,-0.5884357040705951,155.5
623,5.098322771738031,-2.113831461215486,-1.9653037236391904,0.9474075422341137,-5.082456901670009,-0.42710997448149746,155.75
624,5.098322835611981,-2.1138314217280496,-1.9653037053787537,0.947407485222969,-5.08245696591683,-0.2613456031986645,156.0
625,5.098322893039656,-2.1138313795088077,-1.965303688106162,0.9474074264071961,-5.0824570237339435,-0.10493477586913041,156.25
626,5.098322932699311,-2.1138313257441674,-1.9653036730452993,0.9474073580985679,-5.082457063861073,0.04147605146037113,156.5
627,5.098322969084957,-2.113831275080552,-1.9653036590575002,0.9474072939240765,-5.08245710068639,0.1778868787898551,156.75
628,5.0983229884532095,-2.113831219736092,-1.9653036479997086,0.9474072278333362,-5.082457120517611,0.3042977061193068,157.0
629,5.098323005298193,-2.1138311681899746,-1.9653036379482032,0.9474071665135732,-5.0824571377927725,0.4207085334487411,157.25
630,5.098323013364556,-2.1138311191249803,-1.965303630031367,0.9474071097143274,-5.0824571462618335,0.527119360778144,157.5
631,5.098323014419965,-2.1138310730104926,-1.9653036239427069,0.9474070576157058,-5.0824571476901745,0.623530188107555,157.75
632,5.098323015365905,-2.1138310316791324,-1.9653036184855737,0.9474070109208969,-5.082457148970364,0.7099410154369417,158.0
633,5.098323012372367,-2.1138309952228513,-1.9653036144652198,0.9474069704875501,-5.082457146268395,0.7863518427663405,158.25
634,5.0983230041576295,-2.1138309636724237,-1.9653036121511234,0.9474069366026796,-5.082457138301209,0.8527626700957366,158.5
635,5.098322997179849,-2.1138309368727928,-1.9653036101854782,0.9474069078201202,-5.0824571315337055,0.9091734974251477,158.75
636,5.0983229914390265,-2.1138309148239585,-1.9653036085682818,0.9474068841398706,-5.082457125965883,0.9555843247545814,159.0
637,5.098322986935162,-2.1138308975259195,-1.9653036072995378,0.9474068655619327,-5.082457121597741,0.9919951520840125,159.25
638,5.098322983668254,-2.113830884978676,-1.9653036063792464,0.9474068520863062,-5.082457118429283,1.0184059794134341,159.5
639,5.098322981638304,-2.113830877182228,-1.9653036058074072,0.9474068437129909,-5.082457116460506,1.0348168067428531,159.75
640,5.097680315595773,-2.115053136703803,-1.9629105527552286,0.9462356631214139,-5.081815891346436,1.0427135625653126,160.0
641,5.096151222984486,-2.1179612675177077,-1.9572167634132522,0.9434490826507151,-5.080290227185817,1.0416517886357424,160.25
642,5.095792271397901,-2.1186439511540467,-1.9558801540827775,0.9427949354960481,-5.079932081005994,1.0321622269891864,160.5
643,5.0957922738251185,-2.1186439574222753,-1.955880156947645,0.9427949343265424,-5.079932084624891,1.0136332346093746,160.75
644,5.095792277562292,-2.1186439670734334,-1.955880161358666,0.9427949325258602,-5.079932090196886,0.9851042422295442,161.0
645,5.0957922826094215,-2.118643980107522,-1.9558801673158412,0.9427949300940022,-5.079932097721981,0.9465752498497028,161.25
646,5.095792289004403,-2.118643996540697,-1.9558801748002241,0.9427949270811641,-5.079932107527618,0.8980462582694934,161.5
647,5.095792297516596,-2.1186440167009826,-1.9558801834271824,0.9427949245064149,-5.079932126261477,0.8395172817781414,161.75
648,5.095792307483146,-2.118644040305764,-1.9558801935281043,0.9427949214917556,-5.07993214819612,0.7709883052868284,162.0
649,5.0957923088375345,-2.118644075978298,-1.955880199474485,0.9427949563370288,-5.079932152793491,0.6924593423619906,162.25
650,5.095792308086922,-2.1186441181540796,-1.9558802048956663,0.9427950043260128,-5.079932153318632,0.6039303838447478,162.5
651,5.09579230723863,-2.118644165180004,-1.955880210852303,0.9427950581049169,-5.079932153791047,0.5054014365710107,162.75
652,5.095792296107463,-2.1186442141478032,-1.9558802193291571,0.9427951156909797,-5.0799321428065625,0.39687249735005203,163.0
653,5.0957922790563375,-2.118644266268158,-1.9558802295072693,0.9427951777876237,-5.0799321252809575,0.278343565933001,163.25
654,5.095792256096683,-2.1186443201656227,-1.9558802411448621,0.9427952430348491,-5.079932101827535,0.1498146419639412,163.5
655,5.095792219370905,-2.118644371235478,-1.955880255295189,0.9427953077718816,-5.079932064651859,0.011285722680715801,163.75
656,5.095792176169811,-2.1186444221308918,-1.955880270768058,0.9427953735905874,-5.079932020997571,-0.13724319470242324,164.0
657,5.095792118318573,-2.118644464598808,-1.9558802882067083,0.942795432815451,-5.079931962751299,-0.29577210529960407,164.25
658,5.095792052158932,-2.1186444996596654,-1.9558803064248338,0.9427954853421225,-5.07993189624969,-0.4621296353356369,164.5
659,5.09579198287471,-2.118644522810391,-1.9558803237707227,0.942795525078297,-5.079931826717613,-0.6213389352455198,164.75
660,5.0957919144280135,-2.118644531025016,-1.955880339035064,0.9427955478355448,-5.079931758145246,-0.7705482351555222,165.0
661,5.095791848975585,-2.1186445325776457,-1.9558803528266855,0.9427955625023485,-5.079931692623901,-0.9097575350656747,165.25
662,5.095791788482503,-2.1186445227682675,-1.955880364137207,0.9427955634000305,-5.079931632158566,-1.03896683497596,165.5
663,5.0957917328024775,-2.118644507985381,-1.955880373812931,0.9427955577490152,-5.079931576550876,-1.1581761348863557,165.75
664,5.095791682859842,-2.1186444911825673,-1.955880382039116,0.9427955486917132,-5.079931526701934,-1.2673854347969127,166.0
665,5.095791640582508,-2.1186444664673045,-1.9558803876627942,0.9427955292143696,-5.0799314845892365,-1.3665947347075016,166.25
666,5.095791602566601,-2.1186444442432677,-1.955880392719617,0.9427955117002811,-5.079931446721371,-1.4558040346182335,166.5
667,5.095791569422136,-2.118644423662178,-1.9558803969745602,0.9427954950741363,-5.0799314137157765,-1.5350133345289914,166.75
668,5.095791545151535,-2.1186443991583115,-1.955880398885553,0.9427954722805905,-5.079931389623576,-1.6042226344398274,167.0
669,5.0957915243877725,-2.11864437819499,-1.955880400520428,0.9427954527804671,-5.07993136901244,-1.66343193435071,167.25
670,5.095791507130852,-2.1186443607722163,-1.9558804018791816,0.9427954365737641,-5.079931351882367,-1.712641234261617,167.5
671,5.095791493380773,-2.1186443468899876,-1.9558804029618178,0.9427954236604836,-5.079931338233358,-1.7518505341725517,167.75
672,5.0957914831375355,-2.118644336548303,-1.9558804037683368,0.9427954140406262,-5.079931328065413,-1.7810598340834618,168.0
673,5.095791476401139,-2.1186443297471644,-1.9558804042987383,0.9427954077141915,-5.079931321378533,-1.800269133994355,168.25
674,5.095517401149782,-2.1191738947318326,-1.9548428327432614,0.9422872441396278,-5.079657882302424,-1.8102679170383853,168.5
675,5.094030931241676,-2.1220460885437986,-1.9492154060540563,0.9395311596086792,-5.078174862764606,-1.8120204392512664,168.75
676,5.09329499706408,-2.123468086682062,-1.9464293206564753,0.9381666470938547,-5.077440638325207,-1.8046416351537886,169.0
677,5.0932950029608675,-2.1234680903159155,-1.946429321897622,0.9381666440024081,-5.07744064751894,-1.7889317099201636,169.25
678,5.093295012611195,-2.1234680962628643,-1.9464293239288089,0.9381666389431312,-5.077440662564855,-1.763221784686544,169.5
679,5.093295026015065,-2.1234681045229067,-1.9464293267500352,0.9381666319160241,-5.07744068346295,-1.727511859452886,169.75
680,5.093295043172477,-2.123468115096044,-1.9464293303613018,0.9381666229210868,-5.077440710213228,-1.6818019342192474,170.0
681,5.093295063494921,-2.1234681274640006,-1.946429335302666,0.9381666100501735,-5.077440737705573,-1.6260920265856351,170.25
682,5.093295087273955,-2.1234681418835386,-1.9464293413065765,0.9381665942486053,-5.077440768471608,-1.5603821242090183,170.5
683,5.093295117181572,-2.1234681596117837,-1.946429342046983,0.9381665942041828,-5.077440801098127,-1.4846722306995432,170.75
684,5.09329515328449,-2.1234681806783566,-1.9464293373596775,0.9381666103996997,-5.077440835510122,-1.3989623445904331,171.0
685,5.093295193588631,-2.1234682042837756,-1.9464293320526322,0.9381666288317154,-5.077440873840884,-1.3032524693189371,171.25
686,5.093295239992841,-2.123468224965383,-1.9464293250620255,0.9381666428802081,-5.077440918926873,-1.1975426008594456,171.5
687,5.093295293710631,-2.123468239246031,-1.9464293156873762,0.9381666483965492,-5.07744097256225,-1.0818327407476014,171.75
688,5.0932953520729045,-2.1234682547616286,-1.9464293055016009,0.9381666543919079,-5.077441030850629,-0.9561228890715948,172.0
689,5.0932954154939365,-2.12346825332377,-1.9464292921135735,0.9381666402243252,-5.077441094341991,-0.820413043857266,172.25
690,5.09329548358943,-2.123468251728146,-1.9464292777324015,0.9381666249533809,-5.077441162513445,-0.6747031989693021,172.5
691,5.093295551099006,-2.123468229870943,-1.9464292608765703,0.9381665869810134,-5.07744123026102,-0.5189933608350651,172.75
692,5.093295620468638,-2.1234682022520595,-1.9464292428951038,0.9381665421520913,-5.07744129991736,-0.3536230470890878,173.0
693,5.0932956792377,-2.123468159173658,-1.9464292251393827,0.9381664820109583,-5.077441359090667,-0.19159842266401744,173.25
694,5.093295728487114,-2.123468112810164,-1.9464292089445654,0.938166420053897,-5.077441408762974,-0.03957379823884419,173.5
695,5.0932957659109235,-2.123468060835513,-1.9464291944926477,0.9381663541176731,-5.077441446645386,0.10245082618646563,173.75
696,5.09329579493196,-2.1234680091509173,-1.946429181827273,0.9381662901706971,-5.077441476115341,0.23447545061194963,174.0
697,5.093295812374182,-2.1234679559009413,-1.9464291713718929,0.9381662267518937,-5.077441494009244,0.35650007503754194,174.25
698,5.093295828387002,-2.1234679070148412,-1.9464291617733316,0.9381661685303022,-5.07744151043673,0.4685246994632351,174.5
699,5.093295829978935,-2.1234678590439087,-1.94642915529435,0.9381661141927096,-5.077441512423281,0.5705493238890635,174.75
700,5.093295830972608,-2.1234678156574835,-1.9464291495274293,0.9381660651363434,-5.077441513773473,0.6625739483149428,175.0
701,5.0932958318583035,-2.1234677769857138,-1.946429144387177,0.9381660214107631,-5.077441514976943,0.7445985727409337,175.25
702,5.0932958248161775,-2.123467743211852,-1.9464291415251003,0.9381659847696086,-5.077441508205549,0.8166231971669575,175.5
703,5.09329581723558,-2.1234677141627314,-1.9464291393806126,0.9381659535557811,-5.077441500856483,0.8786478215930359,175.75
704,5.093295810877175,-2.1234676897970943,-1.9464291375818707,0.9381659273744424,-5.07744149469228,0.9306724460191567,176.0
705,5.09329580574096,-2.1234676701149393,-1.9464291361288755,0.9381659062255927,-5.077441489712939,0.9726970704452866,176.25
706,5.093295801826938,-2.1234676551162655,-1.946429135021629,0.9381658901092329,-5.077441485918461,1.0047216948714284,176.5
707,5.093295799135107,-2.1234676448010736,-1.9464291342601308,0.938165879025363,-5.077441483308846,1.026746319297532,176.75
708,5.093255351314432,-2.1235470356820065,-1.9462734656376872,0.9380895792924259,-5.077401132692027,1.038912811932707,177.0
709,5.092000353238493,-2.126010606940049,-1.941443282117579,0.9357222847818815,-5.076149149334433,1.0434077181575545,177.25
710,5.0908445189017835,-2.1282795250041557,-1.9369947521840176,0.9335420417045946,-5.074996091848163,1.0381677232542466,177.5
711,5.090832972953102,-2.128302197424886,-1.9369503101383831,0.9335202586999521,-5.074984574512658,1.0252520102006575,177.75
712,5.090832975923656,-2.128302205056211,-1.9369503136576263,0.9335202572726058,-5.074984579030996,1.0023787682852185,178.0
713,5.090832980192914,-2.12830221602389,-1.9369503187154544,0.933520255221235,-5.0749845855247155,0.9695055263697543,178.25
714,5.090832985760873,-2.1283022303279244,-1.9369503253118674,0.9335202525458397,-5.0749845939938165,0.9266322844542715,178.5
715,5.090832993006858,-2.1283022481368876,-1.9369503332493982,0.9335202497778399,-5.0749846077509035,0.8737590490134881,178.75
716,5.090833002060803,-2.128302269508525,-1.9369503424604062,0.9335202470992696,-5.074984627930685,0.8108858204516907,179.0
717,5.090833009539977,-2.1283022968441427,-1.9369503514417914,0.9335202554119263,-5.074984645088177,0.7380125961576759,179.25
718,5.090833008846704,-2.1283023357566577,-1.9369503564849673,0.9335202997016461,-5.074984645585342,0.6551393839356497,179.5
719,5.090833008061849,-2.128302379416448,-1.9369503620898558,0.9335203495583991,-5.07498464607281,0.562266178867102,179.75
720,5.090833005475069,-2.1283024273456532,-1.9369503685821532,0.9335204046937329,-5.074984644623694,0.4593929809293402,180.0
721,5.090832989435141,-2.1283024762659335,-1.9369503782011779,0.9335204630471198,-5.074984628137514,0.34651979327697147,180.25
722,5.0908329719723175,-2.1283025295185496,-1.936950388674215,0.9335205265637667,-5.074984610174718,0.22364661403588065,180.5
723,5.0908329416088165,-2.128302580386264,-1.9369504015471757,0.9335205899110851,-5.074984579347968,0.09077344080133495,180.75
724,5.090832904188151,-2.128302632289169,-1.936950416032261,0.9335206558065597,-5.074984541462664,-0.052099730389701567,181.0
725,5.09083285369767,-2.1283026772922,-1.936950432357579,0.933520716522134,-5.074984490555082,-0.20497289691541204,181.25
726,5.090832794976555,-2.128302720272551,-1.9369504501404322,0.9335207765921628,-5.07498443142729,-0.3678460571656798,181.5
727,5.090832725300147,-2.128302745876306,-1.9369504679752767,0.933520819258744,-5.0749843614780525,-0.5326100585035334,181.75
728,5.090832658120358,-2.128302765753262,-1.9369504845526067,0.9335208549782219,-5.074984294074933,-0.6874730452392614,182.0
729,5.090832590827898,-2.1283027673100676,-1.9369504987976245,0.9335208700803914,-5.07498422671041,-0.8323360319751056,182.25
730,5.090832528215484,-2.1283027672407733,-1.9369505118567412,0.9335208824222291,-5.074984164043485,-0.9671990187111034,182.5
731,5.090832470594738,-2.128302751946051,-1.936950521916162,0.9335208766208009,-5.074984106498416,-1.092062005447258,182.75
732,5.090832417588707,-2.1283027378762536,-1.9369505311699378,0.9335208712839916,-5.074984053562003,-1.2069249921835068,183.0
733,5.090832372043765,-2.1283027163516115,-1.9369505379078527,0.9335208560684916,-5.0749840081548365,-1.311787978919873,183.25
734,5.090832332103332,-2.1283026930336066,-1.9369505432454204,0.9335208377208516,-5.074983968371927,-1.406650965656331,183.5
735,5.090832296373226,-2.128302672173676,-1.9369505480203226,0.9335208213073292,-5.0749839327827395,-1.4915139523928649,183.75
736,5.090832267788863,-2.1283026497003115,-1.9369505510963427,0.9335208016586569,-5.07498390435891,-1.5663769391294813,184.0
737,5.090832245314866,-2.1283026270496093,-1.9369505528742477,0.9335207805981328,-5.074983882052289,-1.6312399258661299,184.25
738,5.09083222630571,-2.1283026078909915,-1.9369505543780496,0.933520762784533,-5.074983863184704,-1.6861029126028177,184.5
739,5.090832210761396,-2.128302592224459,-1.9369505556077478,0.9335207482178566,-5.074983847756156,-1.7309658993395387,184.75
740,5.090832198681923,-2.128302580050011,-1.9369505565633451,0.9335207368981056,-5.074983835766645,-1.7658288860762572,185.0
741,5.090832190067292,-2.1283025713676467,-1.936950557244842,0.9335207288252797,-5.074983827216172,-1.7906918728129586,185.25
742,5.0908321849175024,-2.1283025661773665,-1.9369505576522377,0.933520723999379,-5.074983822104736,-1.805554859549657,185.5
743,5.089988121325591,-2.1299858234160833,-1.9336480307616815,0.9319010198079536,-5.0741418562555,-1.8123247060456629,185.75
744,5.088583868018859,-2.1327862421727106,-1.9281536574984348,0.9292063409538329,-5.072741093518987,-1.8097548642201506,186.0
745,5.088402250555543,-2.1331484410103516,-1.9274430350446385,0.9288578185367282,-5.072559929679325,-1.799159277415074,186.25
746,5.088402257983516,-2.1331484455853262,-1.9274430366168906,0.928857814669606,-5.07255994134571,-1.77914446287975,186.5
747,5.088402269122726,-2.133148452446095,-1.9274430389746873,0.9288578088703539,-5.072559958840969,-1.7491296483444025,186.75
748,5.088402283973174,-2.133148461592658,-1.927443042118028,0.9288578011389718,-5.072559982165104,-1.709114833809053,187.0
749,5.08840230239346,-2.133148472897212,-1.9274430461809215,0.9288577910028427,-5.072560010077321,-1.6591000236315498,187.25
750,5.088402323876073,-2.133148485901047,-1.9274430516443504,0.9288577767656518,-5.072560038124178,-1.599085230823729,187.5
751,5.088402348938239,-2.133148501071654,-1.9274430580181268,0.9288577601561807,-5.072560070844358,-1.5290704380159343,187.75
752,5.088402382123622,-2.133148520423743,-1.9274430539718836,0.9288577741789783,-5.072560102728209,-1.4490556609846728,188.0
753,5.088402419586208,-2.1331485422782914,-1.927443049065109,0.9288577910286826,-5.072560138404725,-1.3590408878524833,188.25
754,5.0884024612007615,-2.1331485666316437,-1.9274430435487078,0.9288578100546666,-5.072560177957452,-1.2590261241601972,188.5
755,5.088402510914854,-2.1331485821834617,-1.9274430351446048,0.928857817719557,-5.072560227240865,-1.1490113702604958,188.75
756,5.088402565966745,-2.1331485968167585,-1.9274430254910009,0.9288578233292832,-5.072560282214381,-1.028996623905345,189.0
757,5.088402625779228,-2.133148605137809,-1.9274430140351662,0.9288578208529952,-5.0725603420132686,-0.8989818845520308,189.25
758,5.08840269043117,-2.133148603661655,-1.9274430003161962,0.9288578063316142,-5.072560406738497,-0.7589671490500408,189.5
759,5.088402757593706,-2.133148594024464,-1.9274429850188595,0.9288577821125783,-5.07256047404325,-0.6089524164416688,189.75
760,5.0884028259795375,-2.133148571304572,-1.9274429677772829,0.928857742905263,-5.072560542679106,-0.44893769041294196,190.0
761,5.088402889990065,-2.1331485354756277,-1.9274429497596128,0.9288576897932793,-5.072560607044936,-0.28270343709266904,190.25
762,5.088402946511821,-2.1331484941652783,-1.9274429326016285,0.9288576319927123,-5.07256066396099,-0.12498581900129965,190.5
763,5.088402987512503,-2.1331484434530803,-1.9274429174782324,0.9288575666823169,-5.072560705420451,0.022731799090200865,190.75
764,5.088403023366013,-2.133148393785736,-1.9274429035667098,0.9288575035731844,-5.072560741719459,0.1604494171818839,191.0
765,5.0884030445125905,-2.1331483406630554,-1.9274428922867561,0.9288574394944715,-5.072560763327228,0.2881670352736484,191.25
766,5.088403061136326,-2.1331482900269467,-1.9274428822740783,0.9288573791177832,-5.072560780387423,0.40588465336558865,191.5
767,5.088403070937319,-2.133148242256252,-1.9274428740588243,0.9288573233274995,-5.0725607905949435,0.5136022714575972,191.75
768,5.088403071978277,-2.133148196836773,-1.9274428679800262,0.9288572719293627,-5.0725607920150555,0.6113198895497203,192.0
769,5.08840307291271,-2.1331481560653316,-1.9274428625233,0.928857225791087,-5.072560793289839,0.6990375076419411,192.25
770,5.088403071244447,-2.1331481199989266,-1.9274428582183354,0.9288571854733478,-5.072560791920433,0.7767551257343224,192.5
771,5.088403063065877,-2.1331480887267937,-1.9274428558943235,0.9288571518538475,-5.072560783995002,0.8444727438267222,192.75
772,5.088403056095054,-2.133148062072681,-1.9274428539135036,0.9288571231990079,-5.072560777239936,0.9021903619191097,193.0
773,5.088403050331977,-2.1331480400365903,-1.927442852275871,0.9288570995088274,-5.072560771655234,0.9499079800114473,193.25
774,5.088403045776646,-2.1331480226185198,-1.9274428509814312,0.9288570807833081,-5.072560767240898,0.987625598103768,193.5
775,5.088403042429062,-2.1331480098184685,-1.9274428500301837,0.9288570670224499,-5.072560763996925,1.0153432161961147,193.75
776,5.088403040289223,-2.1331480016364375,-1.9274428494221285,0.9288570582262529,-5.0725607619233175,1.0330608342884726,194.0
777,5.087970853611872,-2.134023565874094,-1.9257238467725228,0.9280134096236461,-5.072129686212164,1.0419478483321274,194.25
778,5.0865160164109255,-2.1369709321007577,-1.9199372855363828,0.9251735064749723,-5.070678588753086,1.0422331473939053,194.5
779,5.086005444701335,-2.138005308489624,-1.9179065022992354,0.9241768467150001,-5.07016933007151,1.0337656324605458,194.75
780,5.0860054469083265,-2.1380053141297743,-1.9179065049242345,0.9241768456573413,-5.070169333495736,1.0166262525208833,195.0
781,5.086005450402991,-2.138005323060681,-1.9179065090807943,0.9241768439825898,-5.070169338917833,0.9894868725811885,195.25
782,5.086005455185328,-2.1380053352823425,-1.917906514768914,0.9241768416907455,-5.070169346337801,0.9523474926415035,195.5
783,5.086005461255338,-2.13800535079476,-1.917906521988594,0.9241768387818085,-5.070169355755641,0.9052081127018431,195.75
784,5.086005469338797,-2.1380053699339787,-1.9179065303463716,0.9241768363294842,-5.070169373576682,0.8480687406800158,196.0
785,5.086005478913075,-2.1380053924580125,-1.9179065401255808,0.9241768335605957,-5.0701693951884375,0.7809293694272884,196.25
786,5.086005481775784,-2.1380054252138696,-1.9179065467622443,0.9241768610562517,-5.070169402976045,0.7037900093567927,196.5
787,5.0860054810548645,-2.13800546555816,-1.917906552024169,0.9241769070248145,-5.070169403490544,0.6166506543553739,196.75
788,5.086005480236808,-2.1380055106246445,-1.9179065578056496,0.9241769586659422,-5.070169403936008,0.5195113120453387,197.0
789,5.0860054714481,-2.138005558139177,-1.9179065656811036,0.9241770143494887,-5.070169395525882,0.4123719763773471,197.25
790,5.086005455000933,-2.1380056081864303,-1.917906575593184,0.9241770741169358,-5.070169378610024,0.2952326487877283,197.5
791,5.086005434966339,-2.1380056612292275,-1.917906586648532,0.9241771379694199,-5.0701693580701725,0.16809332914721867,197.75
792,5.086005399476176,-2.1380057103304746,-1.9179066004534606,0.9241772004088142,-5.070169322133046,0.030954015099654363,198.0
793,5.086005359730736,-2.1380057613342274,-1.9179066153976514,0.9241772658415058,-5.0701692819213235,-0.11618529786950872,198.25
794,5.086005303751852,-2.1380058021884323,-1.9179066324328182,0.9241773230687125,-5.070169225549274,-0.2733246039193026,198.5
795,5.086005241579404,-2.138005838600593,-1.9179066501921738,0.9241773765223503,-5.070169163015357,-0.43764994685676195,198.75
796,5.086005175081094,-2.1380058606508796,-1.9179066669992766,0.9241774146449628,-5.0701690962721475,-0.594179896592777,199.0
797,5.086005110424042,-2.138005872098506,-1.9179066820470598,0.924177440445437,-5.070169031460836,-0.7407098463288047,199.25
798,5.086005047756592,-2.138005873510094,-1.917906695377778,0.9241774545330879,-5.070168968725142,-0.8772397960649442,199.5
799,5.086004989823431,-2.138005868526377,-1.9179067068870441,0.9241774604657094,-5.070168910781672,-1.0037697458010812,199.75
800,5.086004936687034,-2.138005854422877,-1.9179067162089452,0.9241774551588764,-5.070168857715819,-1.1202996955372708,200.0
