Miguel-LA/TFM_MiguelLerinAlonso/workspace/ros_ur_driver/src/trayectories/data/saved_trajectories/20240615_2009_trajectory.csv
,shoulder_pan_joint,shoulder_lift_joint,elbow_joint,wrist_1_joint,wrist_2_joint,wrist_3_joint,time_from_start
0,-1.3916020832739133,-2.0444246390418033,-1.8687532913321137,-2.2848132380466244,-1.73509037945674,6.357858274132014e-05,0.0
1,-1.3911926176528435,-2.043825209292637,-1.8687335162981102,-2.286331416833339,-1.7343398674509367,-0.004936421417258666,1.25
2,-1.3899642207896346,-2.0420269200451386,-1.8686741911961,-2.2908859531934844,-1.7320883314335274,-0.019936421417258602,2.5
3,-1.3879168926842862,-2.0390297712993077,-1.8685753160260832,-2.2984768471270587,-1.728335771404512,-0.04493642141725848,3.75
4,-1.3850506333367987,-2.0348337630551443,-1.8684368907880597,-2.3091040986340636,-1.72308218736389,-0.0799364214172583,5.0
5,-1.381334769512828,-2.0294445975758504,-1.8682595010218315,-2.3226908715035552,-1.7161419519803385,-0.12493638525439407,6.25
6,-1.3766964653700997,-2.0228758116814483,-1.8680445369866356,-2.3390547261612946,-1.7070742888166164,-0.1799362538656743,7.5
7,-1.3710771544935847,-2.015138291633958,-1.8677931166330444,-2.358048959630041,-1.6955247711416286,-0.24493596888073685,8.75
8,-1.3644106785628747,-2.006240849314453,-1.8675211542921095,-2.3794243045197754,-1.6811211851960608,-0.3199354906023574,10.0
9,-1.356618018339099,-1.996192066401686,-1.8672558239288297,-2.402836473765241,-1.6634346549104095,-0.40493479014649625,11.25
10,-1.3476187629810248,-1.9850017009085132,-1.8670309742732478,-2.4278746242507574,-1.6420421503405542,-0.49993379354200296,12.5
11,-1.3373259864426,-1.9726791171520603,-1.8668982363239315,-2.453985626861557,-1.616516195529532,-0.6049324605832299,13.75
12,-1.3256658066012472,-1.9592373016535414,-1.8669247250773773,-2.480475843306319,-1.5865356047212846,-0.7199307520661505,15.0
13,-1.3125732643007937,-1.9446945667638693,-1.8671861889401484,-2.506553850769973,-1.551841672701489,-0.8449286167449706,16.25
14,-1.298014616503501,-1.929077990085438,-1.867775497734381,-2.531261687759249,-1.5123794755026843,-0.9799260321819685,17.5
15,-1.2820031635815514,-1.9124272084327885,-1.8687959850993283,-2.5535241140760983,-1.4683627881542787,-1.1249229946322394,18.75
16,-1.2653181683896921,-1.8955041851905083,-1.870286353068346,-2.571534103361694,-1.422279222120789,-1.2736505128085645,20.0
17,-1.24960636231766,-1.8798343725778355,-1.8721046358063704,-2.5838398778766125,-1.3790907711446825,-1.4128114521541797,21.25
18,-1.2350562150798543,-1.8654478529207412,-1.8741671528433317,-2.5913046356346667,-1.3396085634565573,-1.5419727857184338,22.5
19,-1.2217501360203695,-1.8523171552700104,-1.8763911408738727,-2.5948621426133247,-1.3041997724391114,-1.6611371433007842,23.75
20,-1.209716685983658,-1.8404113783820994,-1.878695970008357,-2.595389881225621,-1.2729419724517679,-1.7703032611891643,25.0
21,-1.1989603398987692,-1.8297000913681927,-1.8810066276899715,-2.593688978949086,-1.2457906312780738,-1.8694698978508915,26.25
22,-1.189457228730976,-1.8201534322643234,-1.883251905631763,-2.590491030228265,-1.222552762750941,-1.958634907331847,27.5
23,-1.1811649519351484,-1.811746912570347,-1.885370295378056,-2.5864065324528203,-1.2029062495224259,-2.0378233723675776,28.75
24,-1.1757241808258687,-1.8062176158985905,-1.8867886687819793,-2.583494996103079,-1.19012871019966,-2.1137625530024615,30.0
25,-1.174436165358725,-1.8049088550663297,-1.8871242927282887,-2.5828060340778656,-1.1871041522749128,-2.1910413510581717,31.25
26,-1.1744362329284193,-1.804909235621361,-1.8871240414451138,-2.5828065499465036,-1.1871047296616517,-2.275404556242158,32.5
27,-1.1744362966824144,-1.8049096707540266,-1.8871237323114665,-2.5828072327852216,-1.1871052750448705,-2.3697677522201714,33.75
28,-1.1744363067183519,-1.8049097824422906,-1.8871236922596055,-2.582807335556655,-1.1871053548684571,-2.4741309392173005,35.0
29,-1.1744363034847396,-1.8049098196505935,-1.8871237187259342,-2.582807293912396,-1.187105319336093,-2.5884941188592423,36.25
30,-1.1744363066433923,-1.8049098576838292,-1.8871237513250447,-2.5828072366643897,-1.1871052966588693,-2.7128572902331767,37.5
31,-1.1744363264545576,-1.8049098938227188,-1.8871237929388522,-2.582807157753008,-1.1871053163024028,-2.8472204534375467,38.75
32,-1.1744363518936027,-1.8049099308826484,-1.887123837134053,-2.5828070755625436,-1.1871053419423518,-2.9915836078670357,40.0
33,-1.174436394237676,-1.804909964075726,-1.8871238823044059,-2.582806997899647,-1.187105384967447,-3.1459467554894136,41.25
34,-1.1744364461351726,-1.8049099946759337,-1.8871239279278358,-2.582806922528988,-1.1871054375052048,-3.3103098999482627,42.5
35,-1.174436511488118,-1.8049100193590775,-1.887123972008196,-2.582806854814396,-1.1871055033903164,-3.483184761942523,43.75
36,-1.174436583234022,-1.8049100331270502,-1.8871240075381115,-2.5828068066272727,-1.1871055755087072,-3.6498322615832746,45.0
37,-1.1744366539112123,-1.804910042359125,-1.8871240383597792,-2.5828067676544624,-1.1871056464841312,-3.806479761224024,46.25
38,-1.1744367251004666,-1.804910038836948,-1.8871240570321666,-2.5828067535561305,-1.1871057177707687,-3.9531272608647647,47.5
39,-1.1744367917549705,-1.8049100347808544,-1.8871240737833586,-2.5828067418437244,-1.1871057845044468,-4.089774760505498,48.75
40,-1.174436853195973,-1.8049100211097915,-1.8871240796395825,-2.5828067505358248,-1.187105845861096,-4.216422260146232,50.0
41,-1.174436909754232,-1.8049100075907674,-1.8871240841286805,-2.582806760370608,-1.1871059023269028,-4.333069759786968,51.25
42,-1.174436959241433,-1.8049099911849122,-1.8871240836396512,-2.5828067779565576,-1.187105951660706,-4.439717259427704,52.5
43,-1.1744370020238137,-1.8049099725589448,-1.8871240789294375,-2.5828068018773935,-1.1871059942400923,-4.536364759068442,53.75
44,-1.1744370403795548,-1.8049099558601887,-1.8871240747065778,-2.582806823323171,-1.187106032413843,-4.6230122587091795,55.0
45,-1.174437072200529,-1.8049099394356012,-1.8871240687222781,-2.582806846159522,-1.1871060640431086,-4.6996597583499184,56.25
46,-1.1744370965002962,-1.8049099225116887,-1.8871240599242722,-2.582806872195266,-1.187106088127074,-4.766307257990658,57.5
47,-1.17443711715405,-1.8049099081270936,-1.8871240524463466,-2.5828068943245253,-1.1871061085974057,-4.822954757631395,58.75
48,-1.1744371341617912,-1.8049098962818175,-1.887124046288498,-2.5828069125473005,-1.1871061254541049,-4.869602257272131,60.0
49,-1.174437147523519,-1.804909886975858,-1.8871240414507309,-2.5828069268635914,-1.1871061386971697,-4.906249756912867,61.25
50,-1.1744371572392334,-1.8049098802092145,-1.8871240379330445,-2.582806937273397,-1.1871061483266008,-4.932897256553605,62.5
51,-1.174437163308934,-1.8049098759818876,-1.8871240357354395,-2.582806943776718,-1.1871061543423977,-4.949544756194341,63.75
52,-1.1751400139468036,-1.8066688411107508,-1.884827702335013,-2.5833494482895967,-1.187808027966899,-4.957526284071356,65.0
53,-1.1767788339911338,-1.8107702009958038,-1.8794733756981463,-2.584614391878632,-1.1894445705448908,-4.9563755760706,66.25
54,-1.1771428370538088,-1.8116811763202865,-1.8782841007989897,-2.5848953557145693,-1.189808070529588,-4.946597639888752,67.5
55,-1.1771428309647298,-1.811681181782691,-1.8782841009623206,-2.584895358250202,-1.1898080700717237,-4.92764211628181,68.75
56,-1.1771428216633526,-1.8116811901267909,-1.8782841012118174,-2.5848953621235093,-1.1898080693723125,-4.898686592674865,70.0
57,-1.1771428091496772,-1.811681201352586,-1.8782841015474796,-2.584895367334492,-1.189808068431355,-4.859731069067923,71.25
58,-1.1771427934760965,-1.8116812154228072,-1.8782841020786207,-2.584895373476526,-1.1898080676954395,-4.810775546019098,72.5
59,-1.1771427751945478,-1.8116812319448354,-1.8782841039568239,-2.584895376265967,-1.1898080718692245,-4.751820028442956,73.75
60,-1.1771427538120938,-1.8116812512693203,-1.8782841061536066,-2.5848953795285525,-1.1898080767509647,-4.682864510866813,75.0
61,-1.1771427205229337,-1.8116812671853777,-1.87828411011331,-2.5848953619901263,-1.1898080484013336,-4.603909007421159,76.25
62,-1.1771426815425434,-1.8116812840775847,-1.8782841148275473,-2.584895338627518,-1.1898080107511035,-4.5149535081083805,77.5
63,-1.1771426381491628,-1.8116813028507144,-1.8782841201379854,-2.5848953123469065,-1.1898079686114567,-4.415998018844847,78.75
64,-1.1771425868972525,-1.8116813175383923,-1.8782841186286359,-2.5848952979403235,-1.1898079177491185,-4.307042538093629,80.0
65,-1.1771425295705629,-1.8116813312147588,-1.8782841140766307,-2.584895287951417,-1.1898078604519733,-4.188087064950359,81.25
66,-1.1771424673042814,-1.811681342414146,-1.8782841055841737,-2.584895284318577,-1.1898077981780708,-4.059131598872898,82.5
67,-1.1771423999458484,-1.8116813464877417,-1.8782840885981698,-2.584895296240489,-1.1898077307372983,-3.9201761369598143,83.75
68,-1.1771423293641874,-1.8116813469218642,-1.878284067087142,-2.5848953162678687,-1.189807660009172,-3.7712206771658083,85.0
69,-1.177142258091957,-1.811681337584007,-1.878284035901292,-2.5848953557013443,-1.189807588434431,-3.6122652242613307,86.25
70,-1.1771421896251768,-1.8116813207798903,-1.8782839983583082,-2.5848954089787135,-1.189807519552269,-3.4458842164826984,87.5
71,-1.177142129963428,-1.8116812982221069,-1.8782839579804391,-2.58489547095958,-1.1898074594024823,-3.2870765581910404,88.75
72,-1.1771420850325058,-1.811681269445392,-1.8782839161584126,-2.584895540805612,-1.1898074139163326,-3.1382688998993826,90.0
73,-1.177142047199578,-1.8116812397632431,-1.8782838756651468,-2.584895610331657,-1.1898073755290957,-2.999461241607721,91.25
74,-1.1771420231639609,-1.811681207403101,-1.8782838368660082,-2.5848956810398223,-1.1898073509263352,-2.8706535833160602,92.5
75,-1.1771420056580797,-1.8116811755264624,-1.8782838005638416,-2.5848957488663387,-1.1898073328751138,-2.7518459250243996,93.75
76,-1.1771419938005176,-1.8116811453365023,-1.8782837676496968,-2.5848958117072627,-1.1898073205112674,-2.6430382667327352,95.0
77,-1.177141992792765,-1.8116811155918309,-1.8782837385378237,-2.5848958704638147,-1.189807319027759,-2.544230608441071,96.25
78,-1.1771419918870036,-1.8116810888575254,-1.8782837123722627,-2.584895923273809,-1.1898073176943913,-2.4554229501494063,97.5
79,-1.177141992637319,-1.8116810650396054,-1.8782836895449015,-2.584895969862261,-1.189807318067111,-2.376615291857739,98.75
80,-1.1771420014291767,-1.8116810437519395,-1.8782836716659193,-2.584896009099313,-1.1898073265390305,-2.307807633566071,100.0
81,-1.17714200894329,-1.8116810255580669,-1.8782836563853371,-2.5848960426339405,-1.189807333779703,-2.248999975274402,101.25
82,-1.1771420151796597,-1.8116810104579903,-1.8782836437031518,-2.5848960704661423,-1.1898073397891293,-2.200192316982736,102.5
83,-1.1771420201382852,-1.8116809984517066,-1.878283633619367,-2.584896092595919,-1.1898073445673094,-2.161384658691075,103.75
84,-1.1771420238191668,-1.8116809895392152,-1.8782836261339828,-2.5848961090232705,-1.1898073481142424,-2.132577000399411,105.0
85,-1.1771420262223042,-1.8116809837205161,-1.8782836212469998,-2.584896119748197,-1.189807350429929,-2.1137693421077444,106.25
86,-1.1775177774808572,-1.812632898749959,-1.877033386204791,-2.5851971665449915,-1.1901825468902358,-2.1041049601078514,107.5
87,-1.1791361741679212,-1.8167329136386048,-1.871648497400102,-2.5864937852360486,-1.1917985544960055,-2.1030813389112946,108.75
88,-1.1798098317911283,-1.8184395493305758,-1.8694070367256899,-2.5870335015361725,-1.1924712207327646,-2.1111541245921552,110.0
89,-1.1798098305632194,-1.818439554897104,-1.8694070395630105,-2.5870334986543075,-1.192471226141775,-2.12790881486247,111.25
90,-1.179809828602436,-1.8184395637860018,-1.8694070440937791,-2.587033494052408,-1.1924712347791406,-2.1546635051327843,112.5
91,-1.179809825908778,-1.8184395759972698,-1.8694070503179963,-2.587033487730473,-1.1924712466448624,-2.191418195403102,113.75
92,-1.179809822482245,-1.8184395915309077,-1.8694070582356614,-2.587033479688503,-1.1924712617389397,-2.2381728856734195,115.0
93,-1.1798098178726015,-1.818439610840398,-1.86940706646977,-2.5870334751870314,-1.1924712761791543,-2.2949275652822148,116.25
94,-1.179809812377082,-1.818439633626363,-1.8694070759293862,-2.5870334707531857,-1.1924712925284495,-2.361682243325999,117.5
95,-1.179809810646348,-1.8184396577696749,-1.8694070942690055,-2.587033439940818,-1.1924712989786153,-2.4384369108390427,118.75
96,-1.179809811381067,-1.8184396838526065,-1.8694071193751207,-2.5870333900322433,-1.1924712990266966,-2.525191572571097,120.0
97,-1.1798098121677147,-1.8184397129210783,-1.8694071474514957,-2.5870333340375504,-1.1924712988074766,-2.6219462230198696,121.25
98,-1.1798098206657905,-1.8184397431288162,-1.869407179241993,-2.5870332727751695,-1.192471306992406,-2.7287008668332176,122.5
99,-1.179809837757293,-1.8184397742620155,-1.869407214835883,-2.5870332063245245,-1.192471324574945,-2.8454555025657013,123.75
100,-1.1798098579454959,-1.818439807352623,-1.8694072532980426,-2.58703313509399,-1.1924713453033293,-2.9722101304701813,125.0
101,-1.1798098949890883,-1.8184398364282885,-1.8694072930813899,-2.5870330668686647,-1.1924713828953621,-3.1089647529116706,126.25
102,-1.1798099358703997,-1.8184398668446342,-1.8694073353620628,-2.5870329948670667,-1.1924714243551993,-3.2557193746851825,127.5
103,-1.179809994396668,-1.8184398889943663,-1.8694073751063267,-2.5870329339097875,-1.192471483362938,-3.4124739893142686,128.75
104,-1.1798100598231183,-1.8184399084598533,-1.8694074143917305,-2.5870328761909915,-1.1924715492428368,-3.578403232215308,130.0
105,-1.1798101315691407,-1.8184399178857493,-1.8694074458919099,-2.587032836362779,-1.1924716212953221,-3.73941200195363,131.25
106,-1.179810201552212,-1.8184399202058656,-1.869407469939914,-2.5870328110460497,-1.1924716914673188,-3.890420771691947,132.5
107,-1.1798102694823187,-1.8184399161223648,-1.8694074871275699,-2.587032798944475,-1.192471759479422,-4.031429541430249,133.75
108,-1.179810332419036,-1.8184399071395525,-1.869407498000584,-2.587032797968411,-1.1924718224089006,-4.162438311168545,135.0
109,-1.1798103903648451,-1.8184398933306294,-1.8694075026308465,-2.587032807973011,-1.192471880259412,-4.283447080906838,136.25
110,-1.1798104432156593,-1.8184398801047839,-1.8694075062408728,-2.587032818340359,-1.192471933013208,-4.394455850645123,137.5
111,-1.1798104873741118,-1.8184398609104961,-1.8694075013456963,-2.587032843034651,-1.1924719769602727,-4.495464620383404,138.75
112,-1.179810527160821,-1.818439843616471,-1.8694074969351449,-2.587032865284178,-1.1924720165565224,-4.586473390121684,140.0
113,-1.1798105625757866,-1.8184398282227068,-1.8694074930092204,-2.5870328850889375,-1.1924720518019551,-4.66748215985996,141.25
114,-1.179810588546889,-1.8184398107480393,-1.8694074841207438,-2.58703291179026,-1.1924720775497408,-4.738490929598234,142.5
115,-1.1798106105146315,-1.81843979546278,-1.8694074761125221,-2.5870329353683603,-1.1924720993205205,-4.7994996993365096,143.75
116,-1.1798106288816228,-1.8184397826829428,-1.8694074694169323,-2.5870329550817552,-1.1924721175228332,-4.850508469074793,145.0
117,-1.1798106436478628,-1.8184397724085262,-1.8694074640339764,-2.5870329709304434,-1.1924721321566791,-4.89151723881308,146.25
118,-1.179810654813351,-1.8184397646395283,-1.8694074599636559,-2.5870329829144243,-1.1924721432220575,-4.922526008551363,147.5
119,-1.1798106623780873,-1.8184397593759505,-1.8694074572059707,-2.5870329910336984,-1.1924721507189686,-4.943534778289647,148.75
120,-1.17994115338246,-1.8187743969359755,-1.8689653263332409,-2.587141424798027,-1.192602437515636,-4.954917381063832,150.0
121,-1.1814241958288267,-1.8225777320928687,-1.863940330378304,-2.5883737737235144,-1.1940831595029342,-4.958163716786935,151.25
122,-1.1824414840271806,-1.8251866272184418,-1.8604934413380099,-2.589219101824874,-1.1950988577884711,-4.9518291405295125,152.5
123,-1.1824414794040305,-1.825186631358334,-1.86049344143531,-2.5892191038490426,-1.1950988573439518,-4.937313250068722,153.75
124,-1.1824414715959906,-1.825186638350198,-1.8604934415996404,-2.589219107267662,-1.1950988565932028,-4.9127973596079295,155.0
125,-1.1824414606030618,-1.8251866481940349,-1.8604934418310006,-2.5892191120807313,-1.1950988555362247,-4.878281469147138,156.25
126,-1.1824414464252437,-1.825186660889844,-1.860493442129391,-2.589219118288251,-1.195098854173017,-4.833765578686343,157.5
127,-1.1824414294638914,-1.8251866761574091,-1.8604934433181803,-2.5892191228477413,-1.195098855960567,-4.779249691915975,158.75
128,-1.1824414096300129,-1.825186694058863,-1.8604934452148043,-2.5892191264338056,-1.1950988601323635,-4.71473380717849,160.0
129,-1.182441382648393,-1.825186711803407,-1.8604934481567228,-2.589219120360423,-1.1950988492839807,-4.640217929385263,161.25
130,-1.1824413460768146,-1.8251867276334,-1.8604934525943815,-2.5892190985031087,-1.1950988140225267,-4.555702061094719,162.5
131,-1.1824413051531366,-1.8251867453210424,-1.8604934576132872,-2.5892190738143075,-1.1950987743800918,-4.461186201509867,163.75
132,-1.1824412585829611,-1.8251867626238547,-1.8604934604038408,-2.5892190518867126,-1.1950987287688095,-4.35667034866546,165.0
133,-1.18244120407693,-1.825186775588744,-1.8604934560484905,-2.5892190424465777,-1.1950986742964764,-4.242154504390372,166.25
134,-1.182441144809807,-1.8251867896872627,-1.8604934513083016,-2.5892190321993005,-1.1950986150552017,-4.117638669503104,167.5
135,-1.182441080451813,-1.8251867949001839,-1.8604934363010142,-2.589219041043922,-1.1950985506299727,-3.9831228399837677,168.75
136,-1.1824410112610844,-1.8251867990364485,-1.8604934187329702,-2.589219053457252,-1.1950984813536167,-3.838607011296368,170.0
137,-1.182440942017869,-1.825186791995557,-1.8604933902532996,-2.5892190879243295,-1.1950984118461978,-3.6840911883790217,171.25
138,-1.1824408699476792,-1.8251867815210314,-1.8604933575439766,-2.589219130002241,-1.195098339450652,-3.5196158217881095,172.5
139,-1.1824408093735697,-1.82518675857698,-1.860493316267158,-2.589219193253723,-1.1950982783755122,-3.3563720128849592,173.75
140,-1.18244075674746,-1.8251867340915686,-1.8604932759687958,-2.589219257182486,-1.1950982252408906,-3.2031282039818185,175.0
141,-1.1824407181848122,-1.82518670381177,-1.8604932344117882,-2.589219328358028,-1.1950981861071586,-3.059884395078687,176.25
142,-1.1824406863320491,-1.8251866739008358,-1.8604931953089752,-2.5892193968117714,-1.1950981537038596,-2.9266405861755636,177.5
143,-1.1824406683945772,-1.8251866412293054,-1.8604931578588333,-2.5892194665735135,-1.1950981352017542,-2.803396777272448,178.75
144,-1.1824406519125519,-1.8251866112087494,-1.860493123447388,-2.5892195306747885,-1.1950981182009097,-2.690152968369339,180.0
145,-1.1824406486192967,-1.8251865810470578,-1.860493093015467,-2.589219591134273,-1.195098114415294,-2.5869091594662317,181.25
146,-1.1824406476786407,-1.825186553322846,-1.8604930656941852,-2.589219646087643,-1.1950981130266114,-2.493665350563126,182.5
147,-1.1824406468388657,-1.8251865285719409,-1.8604930413029905,-2.589219695147498,-1.1950981117868593,-2.410421541660026,183.75
148,-1.1824406530161453,-1.8251865063809305,-1.8604930215978754,-2.589219737073399,-1.1950981176206255,-2.337177732756922,185.0
149,-1.1824406609966045,-1.8251864870614694,-1.8604930052550586,-2.5892197728004724,-1.1950981253076918,-2.273933923853821,186.25
150,-1.1824406677152075,-1.8251864707967695,-1.8604929914963368,-2.5892198028784437,-1.1950981317792928,-2.220690114950712,187.5
151,-1.1824406731719543,-1.8251864575868297,-1.8604929803217118,-2.5892198273073124,-1.1950981370354286,-2.1774463060475986,188.75
152,-1.1824406773668452,-1.8251864474316486,-1.8604929717311849,-2.5892198460870794,-1.1950981410760986,-2.1442024971444895,190.0
153,-1.1824406802998797,-1.8251864403312261,-1.8604929657247562,-2.589219859217745,-1.1950981439013033,-2.120958688241381,191.25
154,-1.1824480323005113,-1.8252055186886629,-1.860467602273957,-2.589226196935555,-1.195105483675906,-2.107691380570182,192.5
155,-1.1836517816567738,-1.8283306063015428,-1.8563144393167006,-2.590262888262868,-1.1963072408540452,-2.1023552816410165,193.75
156,-1.1849915830544206,-1.8318089085272633,-1.8516918696435525,-2.5914167469875515,-1.1976448266641502,-2.106811060129802,195.0
157,-1.1850351626064144,-1.8319220531856637,-1.851541510831205,-2.591454277195785,-1.1976883388928148,-2.1191900769669667,196.25
158,-1.1850351609723107,-1.8319220605026398,-1.851541514526768,-2.591454273589373,-1.1976883458842553,-2.141431930398008,197.5
159,-1.1850351586035095,-1.8319220711093491,-1.8515415198838667,-2.5914542683615087,-1.197688356019067,-2.1736737838290496,198.75
160,-1.1850351555000107,-1.831922085005791,-1.851541526902501,-2.591454261512191,-1.19768836929725,-2.2159156372600965,200.0
161,-1.185035151454105,-1.8319221023974173,-1.8515415349577646,-2.591454255414387,-1.1976883839095096,-2.268157488988111,201.25
162,-1.1850351463191522,-1.831922123429274,-1.851541543608481,-2.591454251743383,-1.197688398578506,-2.3303993383815866,202.5
163,-1.185035141693579,-1.831922147238382,-1.851541555835935,-2.5914542399713842,-1.19768841214826,-2.4026411845739117,203.75
164,-1.1850351423815548,-1.83192217165807,-1.8515415795135666,-2.5914541930558075,-1.1976884121760685,-2.4848830175319083,205.0
165,-1.1850351431371582,-1.8319221990361492,-1.8515416061095613,-2.5914541402652693,-1.197688412072393,-2.5771248445471175,206.25
166,-1.1850351447507674,-1.8319222291772386,-1.851541635716069,-2.5914540816218303,-1.1976884126890839,-2.679366664733589,207.5
167,-1.1850351609815397,-1.8319222587473465,-1.8515416697502234,-2.59145401828074,-1.1976884293891232,-2.7916084738810207,208.75
168,-1.1850351786598121,-1.831922290951005,-1.8515417068193765,-2.5914539492861612,-1.197688447589543,-2.913850275439251,210.0
169,-1.1850352084732214,-1.8319223211563118,-1.8515417457133143,-2.5914538806868412,-1.197688477945602,-3.0460920710380157,211.25
170,-1.185035246532546,-1.8319223510490226,-1.8515417868708748,-2.5914538102875104,-1.1976885165746645,-3.188333864433318,212.5
171,-1.1850352969670503,-1.831922376301173,-1.8515418273607014,-2.5914537453694915,-1.197688567529164,-3.3405756535675484,213.75
172,-1.1850353568008951,-1.8319223989812423,-1.8515418682754268,-2.59145368273246,-1.1976886278607015,-3.5028174362091997,215.0
173,-1.1850354275700232,-1.8319224108323025,-1.8515419020176613,-2.5914536382299476,-1.1976886989762998,-3.6680672796302662,216.25
174,-1.1850354962930618,-1.8319224192091794,-1.8515419317205137,-2.5914536012006812,-1.1976887679851476,-3.823585499336229,217.5
175,-1.185035565536369,-1.831922415091977,-1.851541949362353,-2.5914535886993413,-1.197688837313372,-3.969103719042235,218.75
176,-1.1850356300125269,-1.8319224109998509,-1.8515419655368104,-2.5914535775691334,-1.1976889018644232,-4.104621938748273,220.0
177,-1.185035689380521,-1.8319223968919376,-1.8515419703135036,-2.5914535877481293,-1.1976889611341761,-4.230140158454331,221.25
178,-1.1850357440186865,-1.8319223839080025,-1.8515419747096327,-2.5914535971161685,-1.1976890156819275,-4.3456583781604285,222.5
179,-1.1850357912909812,-1.8319223672466065,-1.8515419732026648,-2.5914536159444013,-1.1976890627882262,-4.451176597866571,223.75
180,-1.185035832536539,-1.831922349346925,-1.8515419685981027,-2.5914536390149836,-1.197689103834578,-4.546694817572765,225.0
181,-1.1850358694640157,-1.8319223333212022,-1.8515419644755964,-2.5914536596702593,-1.1976891405837042,-4.632213037278953,226.25
182,-1.1850358994097743,-1.8319223170773324,-1.8515419579547092,-2.5914536828371153,-1.1976891703323105,-4.707731256985142,227.5
183,-1.1850359227113785,-1.8319223008804495,-1.851541949400482,-2.591453707891163,-1.1976891934229863,-4.7732494766913405,228.75
184,-1.1850359424564754,-1.831922287155686,-1.851541942151879,-2.5914537291212287,-1.1976892129893486,-4.828767696397528,230.0
185,-1.1850359586450652,-1.8319222759030434,-1.8515419362089,-2.591453746527314,-1.1976892290313976,-4.874285916103706,231.25
186,-1.1850359712771472,-1.831922267122519,-1.8515419315715476,-2.5914537601094167,-1.197689241549133,-4.909804135809889,232.5
187,-1.1850359803527217,-1.831922260814113,-1.8515419282398213,-2.591453769867538,-1.1976892505425545,-4.935322355516072,233.75
188,-1.1850359858717885,-1.8319222569778253,-1.8515419262137216,-2.591453775801677,-1.197689256011662,-4.950840575222256,235.0
189,-1.1858637937042613,-1.8340978485799078,-1.8486338453333695,-2.59219215009214,-1.1985156174192266,-4.957978396333434,236.25
190,-1.1873695921192335,-1.8380553094362166,-1.8433439731647365,-2.5935352674587233,-1.2000187855170388,-4.955776287722034,237.5
191,-1.1875949667722967,-1.8386476387072213,-1.8425522203789861,-2.5937362977680296,-1.2002437693148766,-4.945233469763099,238.75
192,-1.1875949604786327,-1.8386476443331219,-1.8425522204776152,-2.5937363006474565,-1.2002437685812133,-4.9253022238618955,240.0
193,-1.1875949510272814,-1.8386476527816766,-1.8425522206257297,-2.5937363049715634,-1.2002437674794533,-4.895370977960692,241.25
194,-1.187594938418243,-1.8386476640528857,-1.8425522208233285,-2.5937363107403497,-1.2002437660095966,-4.855439732059499,242.5
195,-1.1875949227620743,-1.8386476780708538,-1.8425522212937147,-2.593736317134225,-1.2002437651338211,-4.805508488520665,243.75
196,-1.1875949044953695,-1.8386476945358705,-1.8425522229187221,-2.5937363209165776,-1.2002437686518244,-4.7455772552282545,245.0
197,-1.1875948831807204,-1.8386477137482051,-1.842552224814875,-2.593736325330046,-1.2002437727568342,-4.675646021935842,246.25
198,-1.1875948493674242,-1.838647728771885,-1.8425522289133052,-2.5937363058359466,-1.2002437411845162,-4.595714804585986,247.5
199,-1.1875948109203034,-1.838647745379673,-1.8425522336252684,-2.5937362827902968,-1.2002437040747096,-4.505783591012609,248.75
200,-1.1875947681725065,-1.838647763817527,-1.8425522389217308,-2.5937362569198177,-1.2002436626224247,-4.405852386496742,250.0
201,-1.1875947172786447,-1.8386477774402934,-1.84255223645903,-2.5937362447045746,-1.200243611998186,-4.29592119165331,251.25
202,-1.1875946608910337,-1.8386477908166399,-1.8425522319198029,-2.5937362350130133,-1.2002435556407172,-4.17599000424865,252.5
203,-1.187594599647462,-1.8386478006696843,-1.842552222388056,-2.5937362337780145,-1.2002434943797693,-4.04605882364148,253.75
204,-1.1875945334686153,-1.8386478045854355,-1.842552205466426,-2.593736245808187,-1.2002434281174228,-3.9061276466324513,255.0
205,-1.1875944646813479,-1.8386478036484495,-1.8425521829613931,-2.593736268221136,-1.2002433591629245,-3.756196472301694,256.25
206,-1.1875943947173488,-1.8386477943939115,-1.8425521519203016,-2.5937363074449156,-1.200243288894843,-3.596265304706967,257.5
207,-1.187594329100268,-1.8386477766256237,-1.8425521138829088,-2.5937363622200578,-1.2002432228447648,-3.4299980925295026,258.75
208,-1.1875942712496894,-1.8386477546840272,-1.842552074184404,-2.593736422934146,-1.2002431645103622,-3.272173046088524,260.0
209,-1.187594229181548,-1.8386477257147789,-1.8425520325371414,-2.593736492841133,-1.2002431218788459,-3.1243479996475205,261.25
210,-1.187594192528557,-1.8386476969202585,-1.8425519927606127,-2.593736560784119,-1.2002430846772227,-2.9865229532065154,262.5
211,-1.187594170809661,-1.8386476648922288,-1.8425519544948923,-2.593736630664142,-1.2002430623899507,-2.858697906765496,263.75
212,-1.1875941538683685,-1.838647634034882,-1.842551918877867,-2.5937366967994793,-1.2002430449098123,-2.740872860324467,265.0
213,-1.1875941437886048,-1.83864760450933,-1.8425518867216466,-2.59373675824852,-1.2002430343279324,-2.6330478138834383,266.25
214,-1.1875941428123262,-1.8386475757835214,-1.84255185820726,-2.5937368153943328,-1.2002430328825464,-2.53522276744239,267.5
215,-1.187594141935846,-1.838647549994166,-1.8425518326077026,-2.593736866698512,-1.2002430315849122,-2.4473977210013502,268.75
216,-1.187594143637357,-1.83864752699464,-1.842551810556617,-2.5937369117106877,-1.200243032916286,-2.3695726745603025,270.0
217,-1.1875941520905469,-1.8386475065380157,-1.8425517931211517,-2.5937369496723655,-1.2002430410555154,-2.3017476281192546,271.25
218,-1.1875941592974142,-1.8386474890974782,-1.8425517782563394,-2.5937369820370435,-1.200243047994712,-2.2439225816782074,272.5
219,-1.1875941652579591,-1.8386474746730315,-1.842551765962177,-2.5937370088047214,-1.2002430537338755,-2.1960975352371754,273.75
220,-1.187594169972181,-1.838647463264671,-1.8425517562386677,-2.5937370299753995,-1.200243058273006,-2.158272488796142,275.0
221,-1.18759417344008,-1.838647454872397,-1.8425517490858123,-2.593737045549078,-1.2002430616121034,-2.1304474423551043,276.25
222,-1.1875941756616561,-1.8386474494962088,-1.8425517445036101,-2.593737055525756,-1.200243063751168,-2.1126223959140655,277.5
223,-1.1880686017263502,-1.8399096960278642,-1.8408548553588129,-2.5941750482631507,-1.2007166160448506,-2.1037043570319347,278.75
224,-1.1896083144243796,-1.8440062365732153,-1.835347728982579,-2.595596507054455,-1.202253493558161,-2.1035877162607055,280.0
225,-1.1901182714227168,-1.8453630264791407,-1.833523752955417,-2.596067297136446,-1.2027625147043919,-2.1123294295567345,281.25
226,-1.190118270127863,-1.845363032207535,-1.8335237558251136,-2.5960672944454544,-1.202762520086507,-2.129916385733976,282.5
227,-1.190118268096751,-1.8453630411931132,-1.8335237603265293,-2.596067290224358,-1.2027625285289103,-2.1575033419112213,283.75
228,-1.1901182653293807,-1.8453630534358743,-1.8335237664596633,-2.596067284473154,-1.202762540031601,-2.1950902980884597,285.0
229,-1.1901182618257526,-1.845363068935819,-1.8335237742245167,-2.5960672771918447,-1.2027625545945801,-2.2426772542656983,286.25
230,-1.1901182570898086,-1.8453630881758274,-1.8335237821505452,-2.596067273930413,-1.2027625678528926,-2.300264208231984,287.5
231,-1.1901182515046858,-1.84536311078294,-1.833523791373544,-2.5960672704022514,-1.202762583177872,-2.3678511620872573,288.75
232,-1.1901182503135967,-1.8453631343649477,-1.8335238105780842,-2.5960672368604847,-1.202762587756976,-2.445438103884264,290.0
233,-1.19011825103689,-1.8453631600467206,-1.8335238356743047,-2.5960671873010686,-1.2027625877633368,-2.5330250409013164,291.25
234,-1.1901182518111173,-1.8453631886379616,-1.8335238637175406,-2.596067131732199,-1.2027625875013226,-2.6306119660056018,292.5
235,-1.190118261379876,-1.8453632180445698,-1.833523895559606,-2.5960670711017038,-1.202762596883772,-2.738198884183494,293.75
236,-1.1901182781796602,-1.845363248645646,-1.8335239310355624,-2.5960670052920403,-1.2027626141800711,-2.855785794433011,295.0
237,-1.1901182993440584,-1.8453632805784537,-1.833523969196639,-2.5960669355367085,-1.202762635885616,-2.983372697081166,296.25
238,-1.1901183357128304,-1.8453633091526669,-1.8335240088059135,-2.596066867974606,-1.2027626728045058,-3.120959594698271,297.5
239,-1.1901183770985473,-1.8453633381556722,-1.8335240504161232,-2.5960667980597174,-1.2027627147583988,-3.268546491198707,298.75
240,-1.1901184345119566,-1.8453633599421337,-1.833524089955695,-2.596066737653008,-1.2027627726546792,-3.426133380690739,300.0
241,-1.190118499432915,-1.845363377926958,-1.8335241281102566,-2.596066682534756,-1.202762838012926,-3.5923449348157623,301.25
242,-1.1901185690764722,-1.8453633871556003,-1.8335241591199198,-2.5960666433640003,-1.2027629079610804,-3.752514728694388,302.5
243,-1.1901186374277588,-1.845363388414658,-1.8335241818674324,-2.5960666203836587,-1.2027629764838708,-3.9026845225730273,303.75
244,-1.1901187033169713,-1.8453633845344015,-1.833524198774486,-2.5960666083320723,-1.202763042455163,-4.04285431645167,305.0
245,-1.1901187643037023,-1.8453633749994434,-1.833524208565207,-2.596066608962565,-1.2027631034207362,-4.173024110330324,306.25
246,-1.1901188204519844,-1.8453633616918053,-1.8335242131148335,-2.596066618524026,-1.202763159475522,-4.2931939042090015,307.5
247,-1.1901188712707207,-1.8453633482947782,-1.8335242158994232,-2.5960666298599198,-1.2027632101875325,-4.403363698087685,308.75
248,-1.1901189139993513,-1.8453633297807452,-1.8335242110947214,-2.5960666537669406,-1.202763252707948,-4.503533491966357,310.0
249,-1.1901189524623634,-1.8453633131149807,-1.8335242067696704,-2.5960666752873127,-1.2027632909835309,-4.593703285845044,311.25
250,-1.190118986579744,-1.8453632982346184,-1.8335242028371346,-2.5960666945696693,-1.2027633249330645,-4.673873079723734,312.5
251,-1.190119011232158,-1.8453632811174645,-1.8335241937217082,-2.596066721123912,-1.2027633493601781,-4.744042873602426,313.75
252,-1.1901190323713209,-1.8453632664397013,-1.8335241859053346,-2.596066743893871,-1.202763370306148,-4.804212667481119,315.0
253,-1.1901190499972323,-1.8453632542013305,-1.8335241793880108,-2.596066762879546,-1.202763387770975,-4.854382461359798,316.25
254,-1.1901190641098922,-1.8453632444023504,-1.83352417416974,-2.596066778080938,-1.202763401754658,-4.894552255238471,317.5
255,-1.1901190747093002,-1.8453632370427606,-1.8335241702505223,-2.5960667894980456,-1.2027634122571973,-4.924722049117149,318.75
256,-1.1901190817954566,-1.845363232122561,-1.8335241676303582,-2.5960667971308693,-1.2027634192785928,-4.944891842995826,320.0
257,-1.1903139445931141,-1.8458880791264451,-1.8328146050432248,-2.5962528795826905,-1.2029579043678233,-4.955624745583348,321.25
258,-1.1917646147604353,-1.8497954326689678,-1.8275321261459856,-2.597638180664954,-1.2044057629390774,-4.95810699613544,322.5
259,-1.1926090887806169,-1.8520700174740092,-1.8244570439543208,-2.59844460453285,-1.2052486020737974,-4.9511972086295435,323.75
260,-1.1926090840196313,-1.8520700217226194,-1.82445704400497,-2.598444606797676,-1.20524860142394,-4.935989837324222,325.0
261,-1.1926090761279364,-1.852070028765013,-1.824457044088925,-2.5984446105517964,-1.2052486003467522,-4.910782466018897,326.25
262,-1.1926090651055326,-1.8520700386011897,-1.8244570442061854,-2.598444615795211,-1.2052485988422337,-4.87557509471357,327.5
263,-1.1926090509524194,-1.8520700512311503,-1.8244570443567514,-2.598444622527921,-1.2052485969103848,-4.830367723408258,328.75
264,-1.1926090341088529,-1.8520700663572622,-1.8244570454171345,-2.5984446275548665,-1.2052485984224268,-4.775160363516003,330.0
265,-1.1926090144035644,-1.852070084095311,-1.824457047046355,-2.5984446321189867,-1.2052486018723816,-4.709953008155388,331.25
266,-1.1926089871033319,-1.8520701011329301,-1.8244570499489876,-2.5984446251155786,-1.2052485883473578,-4.634745660959959,332.5
267,-1.1926089511247489,-1.8520701166597147,-1.824457054367528,-2.5984446036383115,-1.2052485537004076,-4.549538322185426,333.75
268,-1.1926089108982152,-1.8520701339911496,-1.8244570593682117,-2.5984445793672952,-1.2052485147692678,-4.454330993149606,335.0
269,-1.1926088648424797,-1.8520701503902504,-1.8244570614693534,-2.598444559187884,-1.2052484696032253,-4.349123670877868,336.25
270,-1.192608811330865,-1.8520701630514544,-1.8244570571330088,-2.59844455004332,-1.2052484161262085,-4.2339163570399645,337.5
271,-1.19260875317314,-1.852070176812984,-1.8244570524162007,-2.5984445401203358,-1.2052483579958222,-4.108709051985394,338.75
272,-1.192608690019466,-1.8520701811010387,-1.824457036731048,-2.5984445505835483,-1.2052482947667498,-3.973501752815599,340.0
273,-1.1926086221741812,-1.8520701850796069,-1.8244570192579028,-2.598444563076423,-1.205248226834809,-3.828294453992864,341.25
274,-1.1926085546659497,-1.8520701772159347,-1.8244569901741903,-2.5984445989917533,-1.2052481590475668,-3.6730871613869653,342.5
275,-1.1926084849097593,-1.852070165957062,-1.8244569570216265,-2.598444642327862,-1.205248088951725,-3.5080569936223114,343.75
276,-1.1926084260466268,-1.8520701436121367,-1.8244569163365754,-2.5984447044152015,-1.205248029590845,-3.345511426446163,345.0
277,-1.1926083759604584,-1.8520701190642161,-1.8244568762411992,-2.5984447682412517,-1.2052479789902089,-3.1929658592700108,346.25
278,-1.1926083385079917,-1.8520700896369582,-1.8244568353042265,-2.598444837964047,-1.2052479409711392,-3.0504202920938503,347.5
279,-1.192608308674485,-1.8520700601130233,-1.8244567966757599,-2.598444905588832,-1.2052479105863452,-2.917874724917673,348.75
280,-1.192608291265444,-1.8520700284118639,-1.824456759813463,-2.5984449738047486,-1.2052478926178103,-2.795329157741486,350.0
281,-1.1926082752770217,-1.8520699992975986,-1.8244567259592075,-2.5984450364540894,-1.2052478761155496,-2.6827835905652986,351.25
282,-1.1926082730554213,-1.852069969847741,-1.824456696117037,-2.5984450956321608,-1.2052478734051442,-2.5802380233890996,352.5
283,-1.192608272141609,-1.8520699430114806,-1.8244566692737363,-2.598445149224508,-1.2052478720483717,-2.487692456212895,353.75
284,-1.1926082713265387,-1.852069919075012,-1.8244566453309825,-2.5984451970259412,-1.2052478708382048,-2.4051468890366867,355.0
285,-1.192608277982484,-1.8520698976060572,-1.8244566261873765,-2.5984452376793428,-1.2052478771561734,-2.3326013218604764,356.25
286,-1.1926082856826783,-1.852069878981451,-1.824456610187819,-2.598445272367778,-1.2052478845674421,-2.270055754684266,357.5
287,-1.1926082921517391,-1.8520698633346127,-1.824456596746324,-2.5984453015101066,-1.205247890793772,-2.217510187508067,358.75
288,-1.1926082973896666,-1.8520698506655409,-1.8244565858628916,-2.5984453251063293,-1.2052478958351625,-2.174964620331876,360.0
289,-1.1926083013964603,-1.8520698409742349,-1.8244565775375243,-2.598445343156446,-1.205247899691614,-2.14241905315568,361.25
290,-1.1926083041721207,-1.852069834260694,-1.824456571770222,-2.598445355660456,-1.2052479023631268,-2.1198734859794843,362.5
291,-1.1926343006988176,-1.852140714224797,-1.8243602040840414,-2.5984710245313867,-1.2052738458824375,-2.1072391148609086,363.75
292,-1.193853978293677,-1.855466558027948,-1.8198388087831108,-2.599675074880223,-1.206491039101635,-2.102451959219068,365.0
293,-1.1950466591602606,-1.8587187921486883,-1.8154174899637214,-2.600852472007216,-1.2076812924606544,-2.107466245632076,366.25
294,-1.195064795486584,-1.858768253461864,-1.8153502563839157,-2.600870375007099,-1.2076993966224407,-2.120325141311747,367.5
295,-1.1950647938052767,-1.8587682608129181,-1.8153502600398261,-2.600870371712924,-1.2076994034135395,-2.1431206775167078,368.75
296,-1.1950647913864092,-1.8587682713887501,-1.8153502652995201,-2.600870366973652,-1.2076994131837737,-2.175916213721665,370.0
297,-1.1950647882299819,-1.8587682851893603,-1.8153502721629973,-2.6008703607892834,-1.207699425933143,-2.2187117499266193,371.25
298,-1.1950647841003625,-1.858768302440908,-1.815350279940984,-2.6008703557449997,-1.2076994395672747,-2.2715072836567294,372.5
299,-1.1950647789049658,-1.8587683232322574,-1.8153502883626462,-2.600870352856588,-1.2076994532632344,-2.334302814637616,373.75
300,-1.1950647746124725,-1.858768346543565,-1.8153503010012517,-2.6008703397037323,-1.2076994649884263,-2.4070983414563574,375.0
301,-1.195064775289068,-1.8587683705159366,-1.8153503246151157,-2.600870293245441,-1.2076994649858979,-2.489893855857408,376.25
302,-1.1950647760307809,-1.8587683973711155,-1.8153503511260949,-2.600870240983915,-1.2076994648404429,-2.582689363510388,377.5
303,-1.1950647784136295,-1.858768426728111,-1.815350380701093,-2.6008701830379533,-1.2076994663053489,-2.685484864252321,378.75
304,-1.1950647943365138,-1.8587684557214974,-1.8153504145690336,-2.6008701204316202,-1.2076994827006322,-2.798280354599929,380.0
305,-1.1950648116725802,-1.8587684872843537,-1.8153504514424132,-2.600870052264563,-1.2076995005629076,-2.9210758367663,381.25
306,-1.1950648417725174,-1.8587685165130088,-1.8153504900164488,-2.6008699849670873,-1.2076995312048515,-3.053871313090706,382.5
307,-1.1950648790665193,-1.8587685458139256,-1.8153505309296618,-2.600869915390292,-1.20769956906917,-3.196666787581356,383.75
308,-1.1950649293055393,-1.858768570000309,-1.8153505708584765,-2.600869852093501,-1.2076996198208947,-3.3494622574970103,385.0
309,-1.1950649879057558,-1.8587685922511767,-1.8153506115105646,-2.60086979012939,-1.2076996789193988,-3.5122577210229524,386.25
310,-1.1950650574527022,-1.858768603111128,-1.815350644310933,-2.6008697475408242,-1.2076997488008347,-3.6770987525507075,387.5
311,-1.1950651245787165,-1.8587686106110146,-1.8153506730069888,-2.6008697123711944,-1.2076998162004295,-3.8320566917754193,388.75
312,-1.195065191900526,-1.8587686066791478,-1.815350690408057,-2.6008696999001266,-1.2076998836074115,-3.9770146310001255,390.0
313,-1.1950652545492861,-1.858768602173139,-1.8153507057597151,-2.6008696899810215,-1.2076999463214377,-4.11197257022485,391.25
314,-1.195065312233228,-1.858768588535064,-1.815350710467709,-2.6008696997383933,-1.207700003908716,-4.236930509449587,392.5
315,-1.1950653653009038,-1.8587685759884076,-1.815350714798928,-2.6008697087149155,-1.2077000568874645,-4.351888448674329,393.75
316,-1.195065410955515,-1.8587685594415428,-1.8153507128098967,-2.6008697278899224,-1.2077001023705338,-4.456846387899086,395.0
317,-1.1950654509738523,-1.8587685421291522,-1.8153507082764797,-2.6008697502882967,-1.2077001421921143,-4.55180432712385,396.25
318,-1.1950654867778687,-1.858768526639929,-1.8153507042204708,-2.600869770327904,-1.2077001778200946,-4.636762266348613,397.5
319,-1.1950655154791998,-1.8587685107045404,-1.8153506974732374,-2.600869793397252,-1.2077002063221807,-4.711720205573383,398.75
320,-1.1950655380258086,-1.8587684950677827,-1.8153506890747293,-2.6008698177278267,-1.207700228660753,-4.776678144798151,400.0
321,-1.1950655571014628,-1.8587684818382386,-1.815350681969135,-2.600869838312812,-1.207700247560397,-4.831636084022909,401.25
322,-1.195065572706162,-1.858768471015909,-1.8153506761564535,-2.6008698551522103,-1.2077002630211133,-4.876594023247655,402.5
323,-1.195065584839906,-1.858768462600791,-1.8153506716366872,-2.600869868246019,-1.2077002750429,-4.911551962472393,403.75
324,-1.195065593502695,-1.8587684565928853,-1.8153506684098362,-2.600869877594238,-1.2077002836257582,-4.936509901697146,405.0
325,-1.1950655986945289,-1.858768452992192,-1.8153506664759012,-2.600869883196868,-1.2077002887696873,-4.951467840921907,406.25
326,-1.1959243418990946,-1.8611391253435197,-1.8121100557709129,-2.601745766191486,-1.208557196095553,-4.958213216094397,407.5
327,-1.1973203728369648,-1.8649930665702885,-1.8068418841054394,-2.6031696619038907,-1.209950243307223,-4.95552251608974,408.75
328,-1.1974893304697922,-1.8654595100087197,-1.8062042800220486,-2.6033419968648324,-1.2101188425749485,-4.944654560404401,410.0
329,-1.1974893241533506,-1.8654595156361817,-1.8062042800592704,-2.60334199997653,-1.2101188415898347,-4.924304999620537,411.25
330,-1.1974893147329393,-1.8654595240290415,-1.806204280114783,-2.60334200461735,-1.2101188401206247,-4.893955438836689,412.5
331,-1.1974893022085582,-1.8654595351872985,-1.8062042801885867,-2.6033420107872924,-1.210118838167319,-4.853605878052833,413.75
332,-1.197489286714179,-1.8654595490216328,-1.8062042805438523,-2.603342017533745,-1.2101188369200542,-4.803256321192549,415.0
333,-1.1974892686319343,-1.8654595652772739,-1.806204281931234,-2.6033420221395254,-1.210118839773516,-4.742906777420279,416.25
334,-1.1974892475139076,-1.8654595841963728,-1.8062042835581136,-2.603342027399133,-1.210118842948895,-4.67255723376358,417.5
335,-1.1974892139930413,-1.8654595986407907,-1.8062042877008855,-2.60334200739903,-1.2101188106872294,-4.592207706595927,418.75
336,-1.1974891762911366,-1.8654596148762321,-1.8062042923832506,-2.6033419848075035,-1.210118774331232,-4.501858183200954,420.0
337,-1.1974891343939624,-1.8654596328923245,-1.8062042976425057,-2.6033419594655958,-1.210118733757875,-4.4015086684981455,421.25
338,-1.1974890843404145,-1.8654596458583228,-1.8062042947866042,-2.603341948383713,-1.210118683922112,-4.291159163970891,422.5
339,-1.1974890291080684,-1.8654596588962153,-1.8062042902760709,-2.603341939014231,-1.2101186287209442,-4.170809666834,423.75
340,-1.1974889691197317,-1.8654596680292173,-1.8062042803505114,-2.603341938907753,-1.210118568711176,-4.0404601764179136,425.0
341,-1.197488904327464,-1.8654596717998504,-1.8062042635400566,-2.603341950988977,-1.210118503834569,-3.9001106894058206,426.25
342,-1.1974888372151637,-1.865459670288649,-1.8062042407247048,-2.60334197430686,-1.2101184365459403,-3.7497612053595573,427.5
343,-1.1974887687412388,-1.8654596611789893,-1.8062042098982176,-2.603342013191499,-1.2101183677673415,-3.589411727961041,428.75
344,-1.1974887052096463,-1.8654596432596973,-1.8062041718531205,-2.6033420681546375,-1.2101183037957481,-3.423254434172688,430.0
345,-1.1974886488894911,-1.8654596218715527,-1.806204132637308,-2.6033421278561004,-1.210118246994089,-3.265854370095905,431.25
346,-1.1974886085641014,-1.8654595932362745,-1.8062040912704695,-2.603342197176015,-1.2101182061026734,-3.1184543060191654,432.5
347,-1.19748857289325,-1.8654595652137997,-1.8062040519926439,-2.603342263865577,-1.210118169886408,-2.9810542419424886,433.75
348,-1.1974885524143948,-1.8654595337860067,-1.8062040141412,-2.6033423327527108,-1.2101181488396249,-2.853654177865904,435.0
349,-1.1974885359339595,-1.8654595037915331,-1.8062039789889448,-2.6033423975711774,-1.2101181318240315,-2.736254113789384,436.25
350,-1.1974885267136675,-1.8654594749689695,-1.8062039473106752,-2.6033424578558013,-1.2101181221043207,-2.6288540497129165,437.5
351,-1.1974885257619619,-1.8654594470801669,-1.8062039191890054,-2.6033425137765964,-1.2101181206872407,-2.5314539856365017,438.75
352,-1.1974885249079676,-1.8654594220546952,-1.8062038939545637,-2.6033425639560406,-1.2101181194156512,-2.4440539215601405,440.0
353,-1.1974885269688282,-1.8654593997286193,-1.806203872338238,-2.603342607868986,-1.210118121110288,-2.36665385748381,441.25
354,-1.1974885351665514,-1.8654593799144528,-1.8062038551759496,-2.603342644914815,-1.2101181289972671,-2.2992537934075057,442.5
355,-1.1974885421479962,-1.8654593630400709,-1.8062038405599923,-2.6033426764642353,-1.2101181357140722,-2.241853729331221,443.75
356,-1.1974885479131632,-1.8654593491054763,-1.8062038284903625,-2.6033427025172475,-1.2101181412607038,-2.1944536652549544,445.0
357,-1.1974885524620515,-1.8654593381106657,-1.8062038189670648,-2.603342723073851,-1.2101181456371615,-2.157053601178694,446.25
358,-1.1974885557946617,-1.8654593300556388,-1.8062038119900992,-2.603342738134046,-1.2101181488434452,-2.129653537102418,447.5
359,-1.1974885579109937,-1.865459324940396,-1.8062038075594655,-2.6033427476978317,-1.210118150879555,-2.112253473026138,448.75
360,-1.1979861880141822,-1.8668501553485852,-1.804292263516391,-2.60386688379843,-1.2106146657154653,-2.103640701119404,450.0
361,-1.1994401568521635,-1.870913880593008,-1.7987071349604529,-2.6053982872833736,-1.2120653765804978,-2.1038793681726546,451.25
362,-1.1998800792105615,-1.8721434327063964,-1.79701726064034,-2.6058616381281463,-1.2125043163013733,-2.112860976940282,452.5
363,-1.1998800778904732,-1.8721434384123552,-1.7970172634598172,-2.6058616356874147,-1.2125043214843223,-2.130733627251389,453.75
364,-1.1998800758317771,-1.8721434473108787,-1.7970172678568312,-2.60586163188106,-1.2125043295672042,-2.158606277562485,455.0
365,-1.1998800730344732,-1.8721434594019666,-1.7970172738313823,-2.6058616267090815,-1.2125043405500193,-2.1964789278735743,456.25
366,-1.1998800694985612,-1.8721434746856191,-1.7970172813834706,-2.6058616201714795,-1.2125043544327676,-2.2443515781846752,457.5
367,-1.199880064715404,-1.8721434936440002,-1.7970172890430876,-2.6058616177465628,-1.2125043666490352,-2.302224223469641,458.75
368,-1.1998800590955732,-1.872143515887908,-1.797017297996823,-2.6058616150122456,-1.2125043808848275,-2.370096868662282,460.0
369,-1.1998800580867155,-1.8721435389041425,-1.7970173173714077,-2.6058615809746346,-1.2125043846542387,-2.447969501249646,461.25
370,-1.1998800587953191,-1.87214356402343,-1.7970173423316582,-2.605861532045742,-1.2125043846244925,-2.5358421291552413,462.5
371,-1.1998800595560628,-1.872143591978561,-1.7970173702135868,-2.605861477205357,-1.2125043843440122,-2.6337147452986236,463.75
372,-1.1998800693344363,-1.8721436206330724,-1.7970174018977843,-2.605861417424827,-1.2125043939812503,-2.7415873541696776,465.0
373,-1.199880085778675,-1.872143650554127,-1.7970174371344998,-2.6058613525255745,-1.2125044109245064,-2.8594599551479694,466.25
374,-1.1998801069400742,-1.8721436815803925,-1.7970174749787011,-2.6058612839926125,-1.212504432627606,-2.987332548563933,467.5
375,-1.199880142521962,-1.8721437095265503,-1.7970175143060614,-2.605861217326769,-1.2125044687592803,-3.1252051370514864,468.75
376,-1.1998801834330322,-1.8721437375960042,-1.7970175554540544,-2.6058611487980103,-1.2125045102340524,-3.2730777242203004,470.0
377,-1.1998802395870953,-1.8721437589216596,-1.7970175947015679,-2.6058610891251583,-1.2125045668708796,-3.4309503044528924,471.25
378,-1.1998803024521718,-1.8721437760267727,-1.7970176318589526,-2.6058610358523326,-1.2125046301633202,-3.5951831722603167,472.5
379,-1.1998803685909616,-1.8721437848333211,-1.7970176617464881,-2.6058609981746805,-1.212504696598229,-3.750989749369303,473.75
380,-1.1998804332608646,-1.8721437863675514,-1.797017683881539,-2.6058609754802484,-1.21250476143948,-3.8967963264782957,475.0
381,-1.1998804955829832,-1.8721437827529404,-1.797017700111232,-2.6058609637909447,-1.2125048238416611,-4.032602903587261,476.25
382,-1.1998805531592014,-1.8721437748138492,-1.7970177104974936,-2.6058609621866973,-1.2125048814150197,-4.1584094806961955,477.5
383,-1.1998806059827885,-1.872143762353314,-1.7970177148408881,-2.605860971063279,-1.2125049341495204,-4.274216057805095,478.75
384,-1.199880654245014,-1.872143750968761,-1.7970177188092205,-2.605860979173361,-1.2125049823303522,-4.380022634913994,480.0
385,-1.1998806944303055,-1.8721437342642318,-1.7970177148759752,-2.605861000369468,-1.2125050223271936,-4.475829212022867,481.25
386,-1.1998807301614949,-1.8721437188308232,-1.7970177107973075,-2.6058610203764334,-1.2125050578811263,-4.561635789131732,482.5
387,-1.1998807617285299,-1.8721437051960443,-1.7970177071939692,-2.605861038051763,-1.2125050892915628,-4.637442366240616,483.75
388,-1.1998807869037187,-1.872143691610241,-1.7970177016038056,-2.6058610575691317,-1.2125051142965677,-4.7032489433494895,485.0
389,-1.1998808060430866,-1.8721436783530387,-1.797017694420314,-2.6058610782615084,-1.2125051332576402,-4.759055520458374,486.25
390,-1.1998808217528643,-1.8721436674713994,-1.7970176885240348,-2.605861095246011,-1.2125051488210714,-4.804862097567283,487.5
391,-1.1998808340330525,-1.8721436589653238,-1.7970176839149663,-2.6058611085226397,-1.2125051609868618,-4.8406686746761824,488.75
392,-1.1998808428836507,-1.872143652834811,-1.7970176805931102,-2.6058611180913944,-1.2125051697550109,-4.8664752517850784,490.0
393,-1.1998808483046586,-1.8721436490798604,-1.797017678558467,-2.6058611239522746,-1.2125051751255187,-4.882281828893973,491.25
394,-1.1997321366533955,-1.8717331421271322,-1.7976013923090228,-2.6056869106511424,-1.2123569252837743,-4.888443970552038,492.5
395,-1.199275593601289,-1.8704729160843336,-1.7993933605050174,-2.605152078497182,-1.2119018000275288,-4.8857769926708805,493.75
396,-1.1991758799406569,-1.8701976833609253,-1.799784730761775,-2.605035266051185,-1.2118023960522613,-4.873792971539314,495.0
397,-1.1989929607686711,-1.869692784217217,-1.8005026777597282,-2.6048209801071738,-1.2116200449808763,-4.851808950407747,496.25
398,-1.198726836085332,-1.8689582186532094,-1.8015472014988774,-2.6045092206651486,-1.2113547468133739,-4.819824929276191,497.5
399,-1.198376265845042,-1.867993803123592,-1.8029167282635805,-2.604101732844384,-1.211005254366394,-4.777840872798618,498.75
400,-1.197938639981701,-1.8667991516806237,-1.8046079449163677,-2.603602190173673,-1.2105689425488757,-4.72585672410837,500.0
401,-1.1974168296362884,-1.8653746895216843,-1.806624494713083,-2.6030065523117747,-1.2100486990274608,-4.663872575418144,501.25
402,-1.19680879639457,-1.8637200777423424,-1.808963874670634,-2.60231764036209,-1.2094424749292296,-4.591888363993221,502.5
403,-1.196113155649498,-1.8618350864500721,-1.8116243840032222,-2.601537370884772,-1.208748878542014,-4.509904061611955,503.75
404,-1.1953302045713459,-1.8597197404480335,-1.814606440526346,-2.600665304589318,-1.2079682079351604,-4.41791968946111,505.0
405,-1.194457999392452,-1.8573736973041517,-1.8179076989352676,-2.59970410962882,-1.2070985088729511,-4.315935205557106,506.25
406,-1.1934946534420439,-1.854796565888412,-1.8215260127968607,-2.598656304483799,-1.2061378849790896,-4.2039505686747,507.5
407,-1.1924405836019614,-1.8519883987454688,-1.8254619315925278,-2.597521291223189,-1.205086755522404,-4.081965807149565,508.75
408,-1.191293699282838,-1.8489487636284792,-1.8297130746185504,-2.59630186152591,-1.2039430191145888,-3.9499808801495835,510.0
409,-1.190050055934928,-1.8456767860001169,-1.8342750812730375,-2.5950032101353986,-1.2027027112165811,-3.807995706590451,511.25
410,-1.1887099084956454,-1.8421724323004731,-1.8391484343646605,-2.5936248900050067,-1.201366088665165,-3.656010320348741,512.5
411,-1.1872753501326698,-1.8384462416895047,-1.8443155030648177,-2.5921739999749915,-1.1999352230783464,-3.494505454099528,513.75
412,-1.185864668339177,-1.834807617764611,-1.8493459819581006,-2.590772263854404,-1.1985280908551188,-3.33690483928374,515.0
413,-1.184533731673331,-1.8313975123017017,-1.8540469080295603,-2.5894720881069944,-1.197200430362011,-3.1893040053737995,516.25
414,-1.1832846392873744,-1.8282163683764248,-1.858420652261457,-2.588270680052995,-1.195954351541475,-3.0517029936018627,517.5
415,-1.1821195422891302,-1.8252646810093938,-1.862469552194084,-2.587165229243912,-1.1947920162795493,-2.924101841839952,518.75
416,-1.1810382054995534,-1.822542337957271,-1.8661934836597152,-2.5861559693620646,-1.1937131886171852,-2.8065005418959865,520.0
417,-1.180043103823187,-1.820049939147915,-1.8695950679697038,-2.585239704754661,-1.1927203556537935,-2.6988991387966523,521.25
418,-1.1791378865727808,-1.8177884678488352,-1.8726779464573322,-2.5844118490997365,-1.1918171840031424,-2.601297687399967,522.5
419,-1.1783190398603898,-1.815756924934313,-1.8754387320012413,-2.5836767514848837,-1.191000143479925,-2.5136961262258097,523.75
420,-1.1775934978337579,-1.8139572406547468,-1.8778842026918579,-2.5830257766608553,-1.190276200677692,-2.436094562499246,525.0
421,-1.1769563501057356,-1.8123880075065133,-1.880009651349058,-2.5824649873092866,-1.1896404225148958,-2.368492916167943,526.25
422,-1.176413452704828,-1.8110509037860958,-1.8818206921815166,-2.5819871529421015,-1.1890986920857425,-2.3108912698366253,527.5
423,-1.1759642577652898,-1.8099457681708677,-1.8833168098187658,-2.5815929444235706,-1.1886504590224176,-2.2632896157684694,528.75
424,-1.1756069054094884,-1.8090720528761564,-1.88449625495672,-2.5812846390551543,-1.1882938549537525,-2.225687921259291,530.0
425,-1.1753445892908743,-1.8084306981987304,-1.8853620320131284,-2.5810583261002287,-1.1880320881187068,-2.198086226750118,531.25
426,-1.175177309409447,-1.808021704138589,-1.885914140987992,-2.5809140055587947,-1.1878651585172801,-2.1804845322409454,532.5
427,-1.1750471912621288,-1.8077038709267093,-1.8863430092498314,-2.580802032056528,-1.1877353120975664,-2.172762705716395,533.75
428,-1.1744320661839631,-1.806203245230162,-1.8883667315718795,-2.5802744947832736,-1.1871214669282555,-2.1740690317434113,535.0
429,-1.1744318237995321,-1.806203176867289,-1.888366509335564,-2.5802747824895227,-1.1871212237708106,-2.1844211175065893,536.25
430,-1.1744313472744294,-1.806203042466639,-1.8883660724214326,-2.5802753481168166,-1.1871207457259723,-2.2047732032697684,537.5
431,-1.1744306366086552,-1.8062028420282124,-1.8883654208294858,-2.5802761916651544,-1.1871200327937392,-2.2351252890329345,538.75
432,-1.174429691714619,-1.80620257565658,-1.8883645542602878,-2.580277314255298,-1.1871190841988153,-2.2754773527922465,540.0
433,-1.1744285126224299,-1.8062022433155753,-1.8883634728171426,-2.5802787155002527,-1.18711790020888,-2.325829408535565,541.25
434,-1.1744270993606178,-1.8062018449711077,-1.8883621765976335,-2.580280395034729,-1.1871164810766222,-2.3861814642788515,542.5
435,-1.1744270610768237,-1.8062018549294296,-1.8883621609704928,-2.5802804006915396,-1.1871164426735685,-2.4565335014874288,543.75
436,-1.1744270618564847,-1.806201879421207,-1.88836218448287,-2.5802803531516054,-1.1871164434972243,-2.5368855378135784,545.0
437,-1.174427062722551,-1.8062019069548674,-1.888362210944227,-2.580280299594479,-1.187116444335788,-2.6272375685151,546.25
438,-1.174427071191842,-1.8062019357205692,-1.8883622410049115,-2.580280241143902,-1.1871164530317626,-2.727589593041434,547.5
439,-1.174427087550439,-1.806201965649088,-1.8883622746906907,-2.5802801778384357,-1.1871164698818442,-2.8379416104895783,548.75
440,-1.174427105391923,-1.8062019982893678,-1.8883623114300303,-2.5802801087925826,-1.1871164882629905,-2.9582936212297657,550.0
441,-1.174427141046774,-1.8062020265155037,-1.8883623494389203,-2.580280043169309,-1.1871165244396127,-3.0886456221956986,551.25
442,-1.1744271795388361,-1.8062020568625676,-1.8883623903524813,-2.580279972569131,-1.1871165634931966,-3.228997619689155,552.5
443,-1.1744272347523217,-1.8062020796031395,-1.8883624291543781,-2.5802799119150053,-1.187116619183193,-3.3793496165552286,553.75
444,-1.1744272960616207,-1.8062021018501135,-1.888362469366634,-2.580279850433632,-1.1871166809741358,-3.5397016056724646,555.0
445,-1.174427369654425,-1.8062021115618607,-1.8883625013826817,-2.5802798098307758,-1.187116754877331,-3.7028143604628947,556.25
446,-1.1744274403109025,-1.8062021171049265,-1.8883625285046757,-2.5802797782349156,-1.187116825772239,-3.85614961198808,557.5
447,-1.174427510226277,-1.8062021128843924,-1.8883625460591622,-2.5802797659310883,-1.1871168957706248,-3.9994848635132527,558.75
448,-1.1744275751723123,-1.8062021062412197,-1.8883625597618068,-2.5802797598207077,-1.187116960750874,-4.132820115038402,560.0
449,-1.1744276349721474,-1.8062020919287802,-1.8883625645397388,-2.580279770205577,-1.1871170204530814,-4.256155366563505,561.25
450,-1.174427689923426,-1.8062020787767963,-1.8883625689302692,-2.5802797797484445,-1.1871170753146476,-4.369490618088585,562.5
451,-1.174427736406224,-1.806202060163089,-1.8883625654815637,-2.580279802450352,-1.1871171216035683,-4.472825869613669,563.75
452,-1.1744277777216792,-1.8062020421266598,-1.8883625609892254,-2.580279825543241,-1.1871171627231916,-4.566161121138729,565.0
453,-1.1744278146105707,-1.8062020260226688,-1.8883625569781952,-2.5802798461619436,-1.187117199437233,-4.64949637266378,566.25
454,-1.17442784315526,-1.806202008762464,-1.8883625492844187,-2.580279871491899,-1.187117227771012,-4.722831624188828,567.5
455,-1.1744278662470022,-1.8062019926254984,-1.8883625409810127,-2.580279896230182,-1.1871172506578809,-4.786166875713866,568.75
456,-1.1744278856927908,-1.8062019790363992,-1.8883625339886287,-2.580279917062539,-1.1871172699311439,-4.839502127238946,570.0
457,-1.1744279014926255,-1.806201967995166,-1.888362528307268,-2.5802799339889697,-1.1871172855908003,-4.882837378764042,571.25
458,-1.174427913646506,-1.8062019595017968,-1.888362523936932,-2.5802799470094744,-1.1871172976368498,-4.916172630289122,572.5
459,-1.1744279221544318,-1.8062019535562917,-1.8883625208776216,-2.580279956124052,-1.1871173060692926,-4.9395078818142055,573.75
460,-1.174434684812121,-1.8062188419442224,-1.8883404320207535,-2.580285205917716,-1.1871240592357606,-4.952863518951451,575.0
461,-1.175689349386793,-1.809354999543785,-1.8842397011865228,-2.581258925227898,-1.1883769696575426,-4.958242720729561,576.25
462,-1.1770885112020086,-1.812852354042043,-1.8796666863095655,-2.582344786933805,-1.189774176624902,-4.9538214082522956,577.5
463,-1.177133686502416,-1.8129652879213511,-1.879519022755202,-2.5823798512965364,-1.189819292420658,-4.941423649568296,578.75
464,-1.177133679345509,-1.8129652943526438,-1.879519022923874,-2.5823798542972387,-1.189819291836321,-4.919160488696817,580.0
465,-1.177133668973916,-1.8129653036726965,-1.8795190231683092,-2.582379858645774,-1.189819290989516,-4.88689732782534,581.25
466,-1.1771336553876373,-1.812965315881509,-1.8795190234885069,-2.582379864342142,-1.1898192898802427,-4.8446341669538455,582.5
467,-1.1771336388444547,-1.8129653307978044,-1.879519024418134,-2.5823798694005347,-1.1898192907056886,-4.792371008145262,583.75
468,-1.1771336195236661,-1.8129653482954962,-1.879519026328377,-2.582379872439739,-1.1898192949940884,-4.730107852145929,585.0
469,-1.1771335952049147,-1.8129653672608552,-1.8795190288649533,-2.5823798713612627,-1.1898192926839404,-4.657844699355469,586.25
470,-1.1771335591632792,-1.8129653829289487,-1.8795190331618816,-2.582379849819114,-1.1898192579126128,-4.575581559686259,587.5
471,-1.177133518722953,-1.8129654004915112,-1.8795190380186833,-2.5823798254929318,-1.1898192187699126,-4.483318425927709,588.75
472,-1.177133473619473,-1.812965419494674,-1.8795190428921842,-2.582379799441709,-1.1898191748916624,-4.381055298941412,590.0
473,-1.17713341951955,-1.8129654324175044,-1.879519038569816,-2.5823797900194445,-1.1898191208243798,-4.268792182965554,591.25
474,-1.1771333605994765,-1.8129654464926515,-1.8795190338587733,-2.582379779771907,-1.189819061931297,-4.1465290745725945,592.5
475,-1.1771332966136174,-1.8129654542159956,-1.8795190214725785,-2.582379783488965,-1.189818997902833,-4.0142659720986895,593.75
476,-1.1771332276531181,-1.8129654583530628,-1.8795190040988141,-2.5823797957123666,-1.1898189288582683,-3.8720028718321666,595.0
477,-1.177133157341404,-1.8129654542806848,-1.8795189784295543,-2.5823798243952796,-1.1898188583306757,-3.7197397758694946,596.25
478,-1.177133084587505,-1.8129654446512886,-1.8795189466722886,-2.582379864669609,-1.1898187852682205,-3.557476686414284,597.5
479,-1.1771330205335162,-1.812965423303937,-1.8795189063626772,-2.582379925310532,-1.189818720738673,-3.392238767410117,598.75
480,-1.1771329629335205,-1.8129654005025575,-1.8795188666551674,-2.582379986895474,-1.1898186626539238,-3.2367389355936367,600.0
481,-1.1771329232774637,-1.8129653692212435,-1.87951882436353,-2.582380059787904,-1.1898186224173501,-3.091239103777166,601.25
482,-1.1771328867638933,-1.8129653399079733,-1.8795187849330366,-2.5823801279036163,-1.1898185853611756,-2.955739271960719,602.5
483,-1.1771328682724247,-1.812965306072264,-1.8795187467403442,-2.582380199559831,-1.1898185662941725,-2.8302394401443047,603.75
484,-1.1771328512543822,-1.8129652749326381,-1.8795187115908916,-2.582380265506379,-1.1898185487464548,-2.7147396083279056,605.0
485,-1.1771328445185487,-1.8129652443840552,-1.8795186801908663,-2.582380327267474,-1.1898185415123814,-2.609239776511539,606.25
486,-1.1771328435446655,-1.812965215506721,-1.8795186521778893,-2.5823803840609605,-1.1898185400790948,-2.5137399446951774,607.5
487,-1.1771328426727594,-1.8129651896532017,-1.8795186270982085,-2.582380434907474,-1.1898185387958906,-2.4282401128788225,608.75
488,-1.1771328467496538,-1.8129651665327529,-1.8795186061728741,-2.582380478948159,-1.1898185425153933,-2.352740281062473,610.0
489,-1.1771328551187792,-1.8129651461847593,-1.8795185892364779,-2.5823805162993594,-1.1898185505802483,-2.2872404492461293,611.25
490,-1.1771328622101722,-1.8129651289433384,-1.8795185748857968,-2.5823805479480715,-1.1898185574138245,-2.23174061742977,612.5
491,-1.177132868023833,-1.8129651148084918,-1.87951856312083,-2.5823805738942953,-1.189818563016122,-2.1862407856133816,613.75
492,-1.1771328725597616,-1.8129651037802161,-1.8795185539415795,-2.582380594138032,-1.1898185673871409,-2.1507409537969884,615.0
493,-1.1771328758179576,-1.812965095858512,-1.8795185473480456,-2.58238060867928,-1.189818570526881,-2.125241121980612,616.25
494,-1.1771328777984214,-1.8129650910433788,-1.8795185433402284,-2.5823806175180404,-1.189818572435342,-2.1097412901642243,617.5
495,-1.178003129462663,-1.815167102784495,-1.8766219242224809,-2.583081524543002,-1.190687532334643,-2.102651572154737,618.75
496,-1.1795729857447255,-1.8191393445594464,-1.8713966797494845,-2.5843458921168665,-1.1922550594839851,-2.1049308078883273,620.0
497,-1.1798007703568387,-1.8197157183217834,-1.8706385010861484,-2.5845293494491623,-1.1924825101877274,-2.1155749388471023,621.25
498,-1.1798007688826484,-1.8197157250104403,-1.8706385044512772,-2.5845293460300542,-1.1924825166267061,-2.1356329780628043,622.5
499,-1.1798007666734958,-1.819715735033749,-1.8706385094941014,-2.5845293409063386,-1.192482526275858,-2.1656910172784962,623.75
500,-1.1798007637293808,-1.8197157483917088,-1.8706385162146213,-2.584529334078015,-1.1924825391351832,-2.2057490564941986,625.0
501,-1.179800759953176,-1.8197157651809743,-1.8706385243181491,-2.5845293266715244,-1.1924825543672597,-2.2558070934137793,626.25
502,-1.179800754994592,-1.8197157857501274,-1.8706385327418986,-2.584529322749351,-1.192482568951942,-2.315865121286607,627.5
503,-1.1798007492103757,-1.8197158097441604,-1.8706385425682504,-2.584529318174113,-1.192482585965056,-2.3859231491594395,628.75
504,-1.1798007497084333,-1.8197158339992643,-1.8706385653424722,-2.5845292731152503,-1.1924825864837243,-2.465981161105546,630.0
505,-1.1798007504615398,-1.8197158611883868,-1.870638591310585,-2.58452922120396,-1.192482586454303,-2.5560391693970774,631.25
506,-1.1798007512725854,-1.8197158913800986,-1.8706386202224603,-2.5845291632651595,-1.1924825862077244,-2.656097168962964,632.5
507,-1.179800764977319,-1.8197159214579361,-1.8706386533833943,-2.5845291004503137,-1.1924826001154842,-2.7661551587273263,633.75
508,-1.1798007825525727,-1.819715953626647,-1.8706386898378615,-2.5845290321078176,-1.1924826181999877,-2.886213141121493,635.0
509,-1.1798008087095253,-1.8197159853763272,-1.8706387285412434,-2.584528962087325,-1.1924826448986234,-3.016271116833466,636.25
510,-1.1798008466471073,-1.8197160153147316,-1.8706387691372552,-2.5845288922019938,-1.1924826833975177,-3.1563290890331084,637.5
511,-1.1798008936158966,-1.8197160429767059,-1.8706388103424185,-2.584528824113139,-1.1924827309099122,-3.3063870583840798,638.75
512,-1.179800953374306,-1.81971606573825,-1.870638850795992,-2.5845287618540906,-1.1924827911595064,-3.4664450209721283,640.0
513,-1.1798010228388964,-1.8197160808734034,-1.870638886917073,-2.5845287116770654,-1.1924828610147729,-3.632688240094496,641.25
514,-1.1798010931115126,-1.8197160901995508,-1.8706389176954017,-2.5845286726473544,-1.1924829315873244,-3.790393482581184,642.5
515,-1.179801163344669,-1.8197160881971943,-1.870638937553439,-2.5845286558337914,-1.1924830019400092,-3.938098725067828,643.75
516,-1.1798012296821043,-1.8197160842414941,-1.870638954322175,-2.584528643999225,-1.1924830683574825,-4.075803967554449,645.0
517,-1.1798012909076558,-1.8197160718472238,-1.8706389613798482,-2.58452865021415,-1.1924831295177283,-4.203509210041039,646.25
518,-1.179801347270557,-1.8197160583980962,-1.8706389659134288,-2.584528659932495,-1.1924831857880502,-4.32121445252761,647.5
519,-1.179801397101687,-1.8197160429012422,-1.870638966449151,-2.584528675593185,-1.1924832354799244,-4.428919695014165,648.75
520,-1.1798014398152021,-1.8197160242845303,-1.8706389617729544,-2.584528699470637,-1.192483277989178,-4.526624937500704,650.0
521,-1.1798014781570483,-1.8197160075732186,-1.870638957575354,-2.5845287209042658,-1.1924833161476687,-4.614330179987238,651.25
522,-1.1798015106361082,-1.8197159915905794,-1.8706389522607698,-2.5845287426408023,-1.1924833484423336,-4.692035422473758,652.5
523,-1.1798015350146993,-1.8197159745707334,-1.8706389434347444,-2.584528768802206,-1.1924833726025585,-4.759740664960296,653.75
524,-1.1798015557925958,-1.8197159600647022,-1.8706389359123141,-2.5845287910995953,-1.192483393194341,-4.817445907446836,655.0
525,-1.1798015729697986,-1.8197159480724885,-1.870638929693476,-2.584528809532971,-1.1924834102176824,-4.865151149933396,656.25
526,-1.1798015865463063,-1.81971593859409,-1.8706389247782345,-2.584528824102332,-1.1924834236725814,-4.902856392419954,657.5
527,-1.179801596522119,-1.8197159316295057,-1.8706389211665893,-2.5845288348076787,-1.192483433559038,-4.93056163490651,658.75
528,-1.1798016028972367,-1.8197159271787362,-1.8706389188585404,-2.58452884164901,-1.1924834398770519,-4.948266877393076,660.0
529,-1.1803223206486737,-1.8210497131265022,-1.8688739719972798,-2.5849637459640333,-1.1930033387786187,-4.957084167824301,661.25
530,-1.1819303675720887,-1.8251686566602678,-1.8634235473908494,-2.5863067876711083,-1.1946088574183897,-4.957031962961912,662.5
531,-1.1824325087312064,-1.82645487961537,-1.8617215461333054,-2.5867261796777443,-1.195110211504292,-4.948134701955711,663.75
532,-1.1824325030530796,-1.8264548847084683,-1.8617215462344539,-2.5867261821793757,-1.1951102109213714,-4.930319634111729,665.0
533,-1.1824324941876918,-1.8264548926604376,-1.8617215463923793,-2.5867261860852295,-1.1951102100112443,-4.902504566267758,666.25
534,-1.1824324821350432,-1.8264549034712778,-1.8617215466070816,-2.586726191395305,-1.1951102087739107,-4.864689498423768,667.5
535,-1.1824324668951336,-1.8264549171409894,-1.8617215468785606,-2.5867261981096035,-1.1951102072093704,-4.816874430579788,668.75
536,-1.1824324490936786,-1.8264549332376967,-1.8617215484803569,-2.586726201520662,-1.1951102107067995,-4.759059369360879,670.0
537,-1.1824324282307885,-1.826454952106429,-1.8617215503950284,-2.5867262053893127,-1.1951102149607398,-4.691244308313104,671.25
538,-1.1824323968762962,-1.8264549683967792,-1.8617215539941827,-2.5867261911227493,-1.195110191387665,-4.613429259640215,672.5
539,-1.1824323588765349,-1.8264549848896015,-1.8617215585537432,-2.5867261684123433,-1.1951101547401055,-4.5256142156293855,673.75
540,-1.182432316515977,-1.8264550032398166,-1.861721563708706,-2.5867261427829398,-1.1951101136381566,-4.427799183160856,675.0
541,-1.182432266945092,-1.826455018481723,-1.8617215632823327,-2.5867261265971413,-1.1951100646106436,-4.319984157879751,676.25
542,-1.1824322108693086,-1.8264550318376784,-1.8617215587704676,-2.586726116903555,-1.195110008566134,-4.20216914046782,677.5
543,-1.1824321499569832,-1.8264550440196197,-1.861721551614413,-2.5867261109680233,-1.1951099476586065,-4.074354130552509,678.75
544,-1.182432083975594,-1.8264550479322088,-1.8617215348774703,-2.5867261228214833,-1.1951098815951955,-3.936539125506055,680.0
545,-1.1824320141834097,-1.8264550497542822,-1.8617215149356505,-2.5867261399075248,-1.1951098116799632,-3.788724121770283,681.25
546,-1.1824319442949551,-1.8264550404562958,-1.8617214842202876,-2.586726178851666,-1.1951097414915566,-3.630909125033412,682.5
547,-1.182431875378997,-1.8264550252398695,-1.8617214480886535,-2.586726229128363,-1.1951096721830137,-3.464642766057815,683.75
548,-1.1824318160303533,-1.8264550026159008,-1.8617214077744018,-2.586726291117175,-1.1951096123438876,-3.304698309940891,685.0
549,-1.1824317695557391,-1.826454975012264,-1.8617213666516346,-2.586726359072336,-1.1951095653269856,-3.154753853824005,686.25
550,-1.1824317318821294,-1.8264549452710748,-1.861721326200057,-2.5867264286192175,-1.1951095270959406,-3.014809397707158,687.5
551,-1.1824317060832459,-1.826454913656048,-1.8617212876302391,-2.5867264983301506,-1.1951095007353452,-2.8848649415903287,688.75
552,-1.1824316886264323,-1.8264548817056538,-1.8617212513302683,-2.586726566230175,-1.195109482729512,-2.7649204854735214,690.0
553,-1.1824316751369581,-1.8264548518205075,-1.861721218259437,-2.5867266289008297,-1.1951094687326527,-2.6549760293567384,691.25
554,-1.1824316741288479,-1.8264548219719514,-1.8617211891049443,-2.586726687804954,-1.1951094672447633,-2.5550315732399627,692.5
555,-1.1824316732216045,-1.826454795109914,-1.861721162867517,-2.5867267408153927,-1.1951094659057457,-2.4650871171232134,693.75
556,-1.1824316727937745,-1.826454771211947,-1.8617211396431768,-2.5867267878641584,-1.1951094650946064,-2.385142661006459,695.0
557,-1.1824316816196854,-1.8264547497577994,-1.8617211216575469,-2.5867268273753816,-1.1951094735963441,-2.315198204889712,696.25
558,-1.1824316891837507,-1.8264547313709643,-1.8617211062433328,-2.586726861237662,-1.1951094808825837,-2.2552537487729527,697.5
559,-1.1824316954859704,-1.8264547160514435,-1.861721093400532,-2.5867268894509996,-1.1951094869533248,-2.20530929265617,698.75
560,-1.1824317005263445,-1.8264547037992347,-1.8617210831291473,-2.586726912015395,-1.1951094918085674,-2.1653648365393807,700.0
561,-1.1824317043048729,-1.8264546946143376,-1.8617210754291793,-2.5867269289308465,-1.1951094954483112,-2.1354203804225937,701.25
562,-1.1824317068215553,-1.8264546884967519,-1.8617210703006284,-2.586726940197356,-1.195109497872557,-2.115475924305802,702.5
563,-1.1826600002844643,-1.8270466472380498,-1.8609331561308444,-2.5869245255791293,-1.1953374117181241,-2.104924688352264,703.75
564,-1.1841875633009282,-1.8310076199181862,-1.8556610326632108,-2.5882465828726677,-1.1968624350796317,-2.102725008087575,705.0
565,-1.1850262754350807,-1.8331824059729753,-1.8527663597657085,-2.588972460275663,-1.197699755489477,-2.109869656984375,706.25
566,-1.1850262742903401,-1.8331824111029194,-1.8527663623229347,-2.5889724577800273,-1.197699760344824,-2.125406641152289,707.5
567,-1.1850262724088152,-1.8331824195346267,-1.852766366526057,-2.588972453678135,-1.197699768325196,-2.1509436253201994,708.75
568,-1.185026269790506,-1.8331824312680975,-1.8527663723750756,-2.5889724479699883,-1.1976997794305937,-2.1864806094881066,710.0
569,-1.1850262664354125,-1.8331824463033315,-1.8527663798699905,-2.588972440655586,-1.1976997936610165,-2.232017593656025,711.25
570,-1.18502626195935,-1.8331824650158146,-1.8527663878641767,-2.588972436091522,-1.1976998076702272,-2.2875545756143514,712.5
571,-1.1850262565369687,-1.8331824872348508,-1.8527663968788903,-2.5889724322972882,-1.197699822979426,-2.3530915568416275,713.75
572,-1.185026253993208,-1.833182511184025,-1.8527664133336037,-2.5889724070687152,-1.1976998311335092,-2.428628529448943,715.0
573,-1.1850262547082557,-1.8331825366930257,-1.8527664378504562,-2.5889723582663033,-1.1976998311588125,-2.5141654942355203,716.25
574,-1.1850262554797537,-1.8331825651658071,-1.8527664653006464,-2.588972303467652,-1.197699830958657,-2.6097024490845016,717.5
575,-1.1850262620203476,-1.8331825952275043,-1.8527664962449446,-2.588972243276752,-1.197699836995918,-2.7152393972368976,718.75
576,-1.185026278727428,-1.8331826258121782,-1.8527665311364392,-2.588972178070182,-1.1976998541874828,-2.830776337037337,720.0
577,-1.1850262968821779,-1.8331826590429696,-1.8527665690509898,-2.5889721072083836,-1.1976998728811448,-2.956313268429644,721.25
578,-1.1850263327983181,-1.8331826878304698,-1.8527666081638143,-2.5889720399212375,-1.197699909340321,-3.0918501938318053,722.5
579,-1.185026371738486,-1.8331827185794278,-1.8527666501204423,-2.588971967881757,-1.1976999488630242,-3.237387119014097,723.75
580,-1.1850264283534937,-1.833182740980241,-1.852766689490995,-2.5889719070184514,-1.1977000059616658,-3.3929240375369636,725.0
581,-1.1850264912864668,-1.8331827619469485,-1.8527667294403063,-2.588971847100904,-1.1977000693687498,-3.558186387032974,726.25
582,-1.1850265626868768,-1.833182771467171,-1.8527667609294243,-2.588971807184419,-1.1977001410775405,-3.7204093094480912,727.5
583,-1.185026631709199,-1.8331827754830523,-1.8527667863396178,-2.588971778800323,-1.1977002103145393,-3.8726322318631783,728.75
584,-1.1850266993832521,-1.8331827714916713,-1.8527668035648113,-2.5889717665660097,-1.1977002780715464,-4.0148551542782425,730.0
585,-1.1850267621689634,-1.833182763934599,-1.8527668158084987,-2.588971762795941,-1.1977003408722298,-4.147078076693283,731.25
586,-1.1850268199773386,-1.8331827501795133,-1.8527668204903633,-2.588971772694082,-1.1977003985850618,-4.2693009991083155,732.5
587,-1.1850268730559674,-1.833182737549842,-1.8527668247891615,-2.5889717817823814,-1.1977004515759644,-4.381523921523324,733.75
588,-1.1850269174274575,-1.8331827187658623,-1.852766820405857,-2.588971805559886,-1.1977004957418051,-4.483746843938308,735.0
589,-1.1850269572494239,-1.833182701437155,-1.8527668160155382,-2.5889718278252514,-1.197700535371637,-4.575969766353286,736.25
590,-1.1850269927533796,-1.8331826859874523,-1.852766812101271,-2.5889718476763193,-1.1977005707042916,-4.658192688768252,737.5
591,-1.1850270195475006,-1.8331826689487376,-1.8527668039310623,-2.5889718732378357,-1.1977005972826147,-4.730415611183204,738.75
592,-1.1850270416767905,-1.8331826535151583,-1.8527667958632268,-2.588971897026658,-1.1977006192117816,-4.792638533598171,740.0
593,-1.1850270602496278,-1.8331826405619496,-1.852766789091991,-2.588971916992321,-1.1977006376166583,-4.84486145601315,741.25
594,-1.1850270752660126,-1.83318263008911,-1.8527667836173562,-2.5889719331348235,-1.1977006524972444,-4.887084378428147,742.5
595,-1.185027086725944,-1.833182622096639,-1.8527667794393239,-2.5889719454541655,-1.1977006638535397,-4.919307300843135,743.75
596,-1.1850270946294224,-1.833182616584536,-1.852766776557894,-2.588971953950346,-1.197700671685544,-4.941530223258127,745.0
597,-1.18507040007165,-1.8332962780143713,-1.8526146101053267,-2.589010766090336,-1.1977439011019742,-4.953891066305967,746.25
598,-1.1863913830786275,-1.8367638302492393,-1.847972529079234,-2.590194662366845,-1.1990625659983505,-4.958347787515318,747.5
599,-1.1875786736901586,-1.8398804534613957,-1.843800247594014,-2.5912587423815303,-1.2002477745929632,-4.95301498801251,748.75
600,-1.1875861626898188,-1.839900126693178,-1.8437739157298072,-2.591265459877155,-1.2002552541142264,-4.939767183739246,750.0
601,-1.1875861553514295,-1.8399001332637304,-1.843773915821243,-2.5912654632538867,-1.2002552532105908,-4.916544740088993,751.25
602,-1.187586144852998,-1.8399001426636796,-1.8437739159520523,-2.591265468084699,-1.2002552519178333,-4.883322296438736,752.5
603,-1.1875861311945246,-1.839900154893027,-1.8437739161222357,-2.591265474369593,-1.200255250235954,-4.840099852788476,753.75
604,-1.1875861146914575,-1.8399001697376924,-1.8437739169638574,-2.5912654797879884,-1.2002552509101605,-4.786877416064327,755.0
605,-1.187586095407887,-1.839900187154182,-1.8437739186053372,-2.591265483868401,-1.2002552544982128,-4.723654985822006,756.25
606,-1.1875860703396635,-1.8399002053095859,-1.8437739210780575,-2.5912654814529827,-1.2002552481856021,-4.6504325604311845,757.5
607,-1.1875860347693847,-1.8399002207262698,-1.843773925368104,-2.5912654602222513,-1.2002552139134544,-4.567210146726337,758.75
608,-1.1875859949055323,-1.8399002379826912,-1.8437739302201448,-2.591265436238907,-1.200255175358457,-4.473987740239268,760.0
609,-1.187585950055578,-1.8399002558773039,-1.8437739341426957,-2.5912654124539305,-1.2002551316423955,-4.370765340599252,761.25
610,-1.1875858968239037,-1.839900268520768,-1.843773929831575,-2.5912654033080145,-1.200255078445088,-4.257542950852974,762.5
611,-1.1875858388894505,-1.8399002822822248,-1.8437739251357086,-2.5912653933694134,-1.2002550205381715,-4.134320569673717,763.75
612,-1.1875857759751738,-1.8399002887282754,-1.8437739117496006,-2.5912653993775825,-1.2002549575708084,-4.0010981941595105,765.0
613,-1.1875857082410328,-1.8399002927036152,-1.8437738944473734,-2.5912654117065657,-1.2002548897514336,-3.8578758202247356,766.25
614,-1.1875856397266653,-1.8399002873606916,-1.8437738678328774,-2.5912654426264052,-1.20025482100069,-3.704653451168627,767.5
615,-1.18758556832423,-1.8399002778213276,-1.843773836231785,-2.591265482673516,-1.2002547492881674,-3.5414310884688978,768.75
616,-1.1875855072474246,-1.839900255708656,-1.843773795620627,-2.5912655444233956,-1.2002546877204,-3.3769403929180024,770.0
617,-1.1875854528547036,-1.839900232519705,-1.843773756051021,-2.591265606304897,-1.2002546328339039,-3.2224067081237453,771.25
618,-1.1875854144184577,-1.8399002021623945,-1.843773714491754,-2.591265677562993,-1.2002545938228308,-3.0778730233295284,772.5
619,-1.1875853805757255,-1.8399001730644577,-1.8437736755938845,-2.591265744972448,-1.2002545594356693,-2.943339338535343,773.75
620,-1.1875853626703108,-1.8399001402935282,-1.8437736381023397,-2.5912658148765413,-1.2002545409612433,-2.818805653741188,775.0
621,-1.1875853462026935,-1.8399001101540984,-1.843773603621341,-2.5912658791673664,-1.200254523970306,-2.704271968947042,776.25
622,-1.1875853410521147,-1.8399000802986385,-1.84377357295384,-2.59126593953062,-1.2002545183257203,-2.5997382841529206,777.5
623,-1.1875853401088226,-1.8399000524165805,-1.8437735455219848,-2.5912659947531633,-1.2002545169295207,-2.5052045993588026,778.75
624,-1.1875853392653142,-1.8399000274839579,-1.8437735209919321,-2.591266044134135,-1.200254515681015,-2.4206709145646936,780.0
625,-1.1875853441531505,-1.8399000051702838,-1.8437735008021687,-2.5912660866487705,-1.2002545202187211,-2.3461372297705885,781.25
626,-1.1875853521960702,-1.8398999856267435,-1.8437734842946345,-2.591266122765866,-1.200254527963195,-2.2816035449764764,782.5
627,-1.1875853589926766,-1.8398999691116291,-1.8437734703450706,-2.5912661532863344,-1.2002545345076021,-2.2270698601823553,783.75
628,-1.1875853645429697,-1.839899955624941,-1.8437734589534769,-2.5912661782101765,-1.2002545398519426,-2.182536175388206,785.0
629,-1.1875853688469493,-1.8398999451666767,-1.8437734501198553,-2.591266197537392,-1.200254543996216,-2.1480024905940667,786.25
630,-1.1875853719046157,-1.8398999377368366,-1.8437734438442064,-2.59126621126798,-1.2002545469404224,-2.123468805799937,787.5
631,-1.187585373715968,-1.8398999333354205,-1.8437734401265298,-2.591266219401941,-1.2002545486845622,-2.1089351210057954,788.75
632,-1.188549776867781,-1.8424627239553835,-1.8403229878566665,-2.592160673948805,-1.2012171685409623,-2.102553870647189,790.0
633,-1.1899763879013523,-1.8462537865652378,-1.8352188410060135,-2.593483807827603,-1.2026411428991104,-2.105723548298039,791.25
634,-1.1901095535243809,-1.8466076653726746,-1.8347423982421764,-2.5936073135585147,-1.2027740665475617,-2.116999877617344,792.5
635,-1.1901095519831397,-1.8466076721964488,-1.8347424016158578,-2.59360731039578,-1.2027740728970986,-2.1378742185708033,793.75
636,-1.190109549703556,-1.8466076822892,-1.8347424066057245,-2.5936073057179154,-1.2027740822884256,-2.1687485595242735,795.0
637,-1.1901095466856302,-1.8466076956509274,-1.8347424132117773,-2.593607299524921,-1.202774094721543,-2.2096229004777546,796.25
638,-1.190109542791109,-1.8466077124146227,-1.834742421027446,-2.5936072933521026,-1.2027741089800212,-2.2604972404806483,797.5
639,-1.190109537746308,-1.8466077328435522,-1.8347424292478878,-2.5936072902387433,-1.2027741226558248,-2.321371578051373,798.75
640,-1.190109532259674,-1.846607756453931,-1.8347424394563216,-2.5936072844290656,-1.2027741376248902,-2.392245914655352,800.0
641,-1.190109532927762,-1.8466077802710366,-1.8347424625238902,-2.593607238670485,-1.202774137633238,-2.4731202356983726,801.25
642,-1.1901095336674739,-1.846607807025205,-1.8347424884723007,-2.5936071871310906,-1.202774137549227,-2.5639945524057532,802.5
643,-1.190109534467397,-1.8466078367082404,-1.8347425173312346,-2.5936071296832712,-1.2027741372758305,-2.66486886121631,803.75
644,-1.190109549129018,-1.8466078659871585,-1.8347425505188402,-2.593607067546497,-1.202774152271776,-2.7757431592507134,805.0
645,-1.1901095663986445,-1.8466078975941564,-1.8347425868387197,-2.593606999891132,-1.2027741700561294,-2.8966174500457713,806.25
646,-1.1901095933915904,-1.8466079282169157,-1.8347426252315664,-2.5936069313226766,-1.2027741975907664,-3.027491734371266,807.5
647,-1.1901096306285386,-1.8466079576296774,-1.8347426656375219,-2.59360686214028,-1.2027742353905908,-3.168366015676103,808.75
648,-1.1901096779522904,-1.8466079839447254,-1.8347427061780701,-2.593606796064214,-1.2027742832477388,-3.319240293668278,810.0
649,-1.1901097365622293,-1.8466080063264454,-1.8347427464128425,-2.5936067343858484,-1.2027743423501889,-3.480114565031109,811.25
650,-1.1901098051864953,-1.846608020054871,-1.8347427813323212,-2.5936066868018997,-1.2027744113482401,-3.6460944228719256,812.5
651,-1.1901098733993256,-1.8466080291840323,-1.8347428116295716,-2.5936066484205833,-1.2027744798591764,-3.8029766782558165,813.75
652,-1.1901099419834462,-1.846608026266491,-1.8347428302740783,-2.593606633711107,-1.2027745485463885,-3.9498589336398204,815.0
653,-1.1901100063261532,-1.8466080225080517,-1.8347428467677542,-2.5936066219276235,-1.2027746129692094,-4.086741189023975,816.25
654,-1.1901100656517525,-1.8466080096787638,-1.8347428528272038,-2.5936066295492277,-1.2027746722164545,-4.213623444408256,817.5
655,-1.1901101202630358,-1.8466079967186642,-1.834742857281341,-2.5936066388361034,-1.2027747267369107,-4.330505699792678,818.75
656,-1.1901101681604573,-1.8466079811313723,-1.8347428570646471,-2.5936066553133807,-1.2027747744860622,-4.437387955177204,820.0
657,-1.1901102094860851,-1.8466079631768733,-1.8347428524756444,-2.593606678425392,-1.2027748156105147,-4.534270210561843,821.25
658,-1.1901102465461628,-1.846607947075607,-1.8347428483603037,-2.593606699151828,-1.2027748524901818,-4.621152465946531,822.5
659,-1.1901102774421908,-1.8466079313279697,-1.8347428426585841,-2.5936067210198175,-1.2027748831980203,-4.698034721331319,823.75
660,-1.1901103009392602,-1.8466079149585224,-1.8347428340304948,-2.5936067463236423,-1.2027749064805542,-4.764916976716144,825.0
661,-1.1901103209231303,-1.8466079010365775,-1.8347428266924464,-2.593606767844128,-1.2027749262819656,-4.821799232101007,826.25
662,-1.1901103373938018,-1.846607889562137,-1.834742820644437,-2.5936067855812763,-1.2027749426022547,-4.868681487485905,827.5
663,-1.1901103503512738,-1.8466078805351984,-1.8347428158864696,-2.593606799535084,-1.202774955441421,-4.9055637428708065,828.75
664,-1.1901103597955465,-1.8466078739557614,-1.834742812418545,-2.5936068097055536,-1.2027749647994646,-4.93244599825569,830.0
665,-1.1901103657266194,-1.8466078698238266,-1.8347428102406624,-2.5936068160926835,-1.2027749706763853,-4.949328253640572,831.25
666,-1.19070924022325,-1.848218982349196,-1.8325614374830463,-2.594181266461477,-1.2033726800499391,-4.957533312256594,832.5
667,-1.1922200542547223,-1.852283451075854,-1.8270583422725153,-2.5956304643289,-1.2048805552636799,-4.9567323519497215,833.75
668,-1.1926004540735344,-1.8533068323947213,-1.8256727367177195,-2.595995354192657,-1.2052602175484002,-4.947296013382214,835.0
669,-1.1926004482802026,-1.8533068375729207,-1.825672736760859,-2.5959953569632446,-1.2052602167192679,-4.928804962827047,836.25
670,-1.1926004393538245,-1.8533068455515018,-1.8256727368273284,-2.5959953612321716,-1.2052602154417391,-4.900313912271853,837.5
671,-1.1926004272944,-1.8533068563304642,-1.8256727369171275,-2.5959953669994387,-1.2052602137158137,-4.861822861716634,838.75
672,-1.192600412126946,-1.8533068698930886,-1.82567273707966,-2.5959953740849095,-1.2052602117614548,-4.813331811895056,840.0
673,-1.192600394438628,-1.8533068858469521,-1.8256727384744753,-2.5959953782606098,-1.2052602147414189,-4.754840777921174,841.25
674,-1.1926003737262023,-1.8533069045283899,-1.8256727401077568,-2.595995383150213,-1.2052602182308563,-4.686349743947309,842.5
675,-1.1926003422046199,-1.8533069200882708,-1.8256727437589046,-2.595995367751817,-1.2052601925042095,-4.607858723586706,843.75
676,-1.192600304836856,-1.8533069362556338,-1.8256727483017041,-2.595995345425219,-1.205260156494641,-4.519367707640771,845.0
677,-1.1926002632173192,-1.8533069542299394,-1.8256727534307533,-2.5959953202622463,-1.205260116167681,-4.42087670261704,846.25
678,-1.1926002142361698,-1.8533069686062555,-1.825672752347808,-2.595995305732213,-1.2052600676513179,-4.31238570558618,847.5
679,-1.1926001591998512,-1.8533069816454284,-1.8256727478572463,-2.595995296345301,-1.2052600126471396,-4.193894716311323,848.75
680,-1.192600099418687,-1.853306992783816,-1.8256727400042099,-2.595995292163173,-1.2052599528644716,-4.065403734363611,850.0
681,-1.1926000347125592,-1.8533069965474378,-1.8256727233565455,-2.5959953040921397,-1.2052598880753482,-3.9269127569271967,851.25
682,-1.1925999666520888,-1.8533069973823992,-1.825672702782411,-2.595995322817742,-1.2052598198773568,-3.778421781188583,852.5
683,-1.1925998981554904,-1.8533069882013748,-1.8256726722490346,-2.595995361482162,-1.2052597510797651,-3.6199308123305896,853.75
684,-1.192599831641666,-1.8533069723843125,-1.8256726358305968,-2.5959954126791676,-1.205259684160815,-3.453569314401098,855.0
685,-1.1925997739688516,-1.8533069503526196,-1.8256725960959956,-2.5959954735222386,-1.2052596260007278,-3.294307579306909,856.25
686,-1.1925997298347961,-1.8533069227992143,-1.8256725552013466,-2.595995541234563,-1.2052595813190135,-3.145045844212588,857.5
687,-1.1925996932459126,-1.853306893897147,-1.825672515355508,-2.5959956093559557,-1.20525954417707,-3.005784109118127,858.75
688,-1.1925996692650316,-1.8533068627376794,-1.8256724772585415,-2.595995678168363,-1.205259519634037,-2.876522374023521,860.0
689,-1.1925996523229445,-1.8533068317385053,-1.8256724415311347,-2.5959957445566806,-1.2052595021479398,-2.757260638928801,861.25
690,-1.1925996401892514,-1.8533068025356212,-1.8256724090767524,-2.5959958059525436,-1.2052594895101993,-2.647998903833949,862.5
691,-1.1925996392092733,-1.8533067736250748,-1.8256723804148047,-2.5959958634313325,-1.20525948805555,-2.5487371687390037,863.75
692,-1.1925996383280217,-1.8533067476270904,-1.8256723546403641,-2.5959959151194925,-1.205259486747448,-2.4594754336439744,865.0
693,-1.192599638584706,-1.8533067244812242,-1.8256723320207935,-2.595995960825489,-1.2052594866264057,-2.3802136985488698,866.25
694,-1.192599647111693,-1.8533067037726665,-1.8256723143910436,-2.595995999234771,-1.2052594948337405,-2.3109519634537046,867.5
695,-1.1925996544075552,-1.8533066860540073,-1.825672299306675,-2.5959960320985265,-1.2052595018561016,-2.2516902283584996,868.75
696,-1.1925996604722922,-1.85330667132525,-1.8256722867676844,-2.5959960594167555,-1.2052595076934889,-2.2024284932632687,870.0
697,-1.1925996653059037,-1.8533066595863907,-1.8256722767740747,-2.5959960811894565,-1.205259512345902,-2.163166758168026,871.25
698,-1.19259966890839,-1.8533066508374298,-1.8256722693258467,-2.595996097416631,-1.2052595158133412,-2.1339050230727867,872.5
699,-1.1925996712797509,-1.8533066450783673,-1.8256722644230001,-2.5959961080982787,-1.2052595180958066,-2.1146432879775636,873.75
700,-1.1928830986992591,-1.8540785691288955,-1.8246212960784598,-2.5962771223330603,-1.205542366130217,-2.1046124528292682,875.0
701,-1.1943515000031126,-1.858077841053284,-1.819176353031184,-2.5977329996547844,-1.207007766143739,-2.103023079545993,876.25
702,-1.195056246110755,-1.8599972604420925,-1.8165631001293565,-2.5984317340267014,-1.2077110745170596,-2.110616882615373,877.5
703,-1.1950562449217363,-1.8599972656447255,-1.8165631026827282,-2.5984317317273486,-1.207711079276243,-2.126692509302469,878.75
704,-1.1950562429930771,-1.8599972740837072,-1.8165631068244499,-2.598431727997662,-1.2077110869959222,-2.15276813598959,880.0
705,-1.1950562403247775,-1.8599972857590379,-1.8165631125545216,-2.59843172283764,-1.2077110976760979,-2.1888437626767216,881.25
706,-1.1950562369168372,-1.859997300670717,-1.816563119872943,-2.598431716247284,-1.2077111113167696,-2.23491938936385,882.5
707,-1.195056232357341,-1.8599973192094597,-1.8165631275844367,-2.5984317127120993,-1.2077111242569822,-2.290995011104458,883.75
708,-1.1950562268750542,-1.8599973411582749,-1.8165631363528245,-2.5984317097409706,-1.2077111385299215,-2.3570706316225083,885.0
709,-1.1950562246724103,-1.8599973645627421,-1.8165631532669206,-2.5984316830449354,-1.2077111452199205,-2.433146242538677,886.25
710,-1.1950562253753403,-1.859997389592733,-1.8165631777060278,-2.5984316347427163,-1.2077111452138776,-2.519221846475021,887.5
711,-1.1950562261330355,-1.8599974175102243,-1.8165632050579086,-2.598431580515306,-1.2077111449760738,-2.615297439611326,888.75
712,-1.1950562333268577,-1.859997446790171,-1.8165632359468413,-2.598431521065386,-1.2077111517478811,-2.7213730260409106,890.0
713,-1.195056249712688,-1.8599974767689047,-1.8165632706569754,-2.5984314566371847,-1.20771116862205,-2.837448604216802,891.25
714,-1.195056268023781,-1.8599975091075358,-1.816563308302157,-2.598431386937965,-1.2077111874740145,-2.9635241742410994,892.5
715,-1.1950563035619481,-1.8599975371775332,-1.8165633471453007,-2.598431320631609,-1.207711223554982,-3.099599738264096,893.75
716,-1.195056341792729,-1.8599975672541131,-1.8165633888128287,-2.5984312495406243,-1.2077112623680069,-3.245675302214788,895.0
717,-1.1950563979729347,-1.8599975887208111,-1.8165634276607456,-2.598431190125734,-1.2077113190255393,-3.401750859003652,896.25
718,-1.1950564601471063,-1.859997608549673,-1.8165634667855568,-2.5984311321570814,-1.2077113816633793,-3.5673428844957438,897.5
719,-1.1950565296016473,-1.859997617871055,-1.816563497859379,-2.598431092827269,-1.2077114514250331,-3.7290205903184597,898.75
720,-1.195056597011717,-1.8599976211499492,-1.8165635223389485,-2.5984310660871714,-1.2077115190383916,-3.8806982961412455,900.0
721,-1.1950566628089616,-1.8599976173383945,-1.8165635393284754,-2.5984310538841564,-1.2077115849188371,-4.0223760019642265,901.25
722,-1.195056723815567,-1.8599976094794903,-1.8165635508225324,-2.598431051141229,-1.207711645931516,-4.1540537077873045,902.5
723,-1.1950567799843315,-1.8599975961824808,-1.816563555436842,-2.5984310606289407,-1.2077117020062687,-4.275731413610553,903.75
724,-1.195056831530759,-1.8599975839670366,-1.8165635596589116,-2.5984310693610455,-1.2077117534662123,-4.387409119433907,905.0
725,-1.19505687438035,-1.8599975653798584,-1.8165635548653976,-2.598431093332928,-1.2077117961053365,-4.489086825257354,906.25
726,-1.1950569130156854,-1.8599975486207314,-1.8165635505433213,-2.598431114947178,-1.2077118345509055,-4.580764531080913,907.5
727,-1.1950569474367654,-1.8599975336896546,-1.8165635466926846,-2.5984311342037945,-1.2077118688029178,-4.662442236904525,908.75
728,-1.1950569730895375,-1.8599975169895557,-1.8165635383359846,-2.598431159599389,-1.2077118942381186,-4.734119942728206,910.0
729,-1.1950569944972826,-1.8599975020932,-1.8165635304170953,-2.5984311826947586,-1.2077119154485239,-4.7957976485519325,911.25
730,-1.1950570124341233,-1.8599974896120388,-1.8165635237821176,-2.598431202045605,-1.207711933220021,-4.847475354375694,912.5
731,-1.1950570269000593,-1.8599974795460712,-1.816563518431054,-2.5984312176519264,-1.2077119475526088,-4.8891530601994795,913.75
732,-1.1950570378950904,-1.8599974718952959,-1.8165635143639054,-2.5984312295137237,-1.2077119584462865,-4.920830766023253,915.0
733,-1.1950570454192162,-1.8599974666597128,-1.8165635115806718,-2.598431237630995,-1.2077119659010545,-4.942508471847011,916.25
734,-1.1951254576033357,-1.8601860877220389,-1.816305291510738,-2.598501309038601,-1.2077802313207116,-4.954414543945436,917.5
735,-1.196422688230116,-1.8637629827571,-1.811408665045641,-2.59982999765471,-1.209074679559346,-4.9584232935551755,918.75
736,-1.1974796433672963,-1.8666773689803418,-1.8074189903622488,-2.60091258669494,-1.2101293691510437,-4.952708940924102,920.0
737,-1.1974808613326937,-1.8666807427724166,-1.8074143769611313,-2.6009138406289822,-1.2101305880404571,-4.939078233004263,921.25
738,-1.197480853993724,-1.8666807493212563,-1.8074143769810815,-2.600913844262274,-1.2101305868468684,-4.915452067351409,922.5
739,-1.1974808435484656,-1.8666807586419552,-1.8074143770094757,-2.600913849433391,-1.210130585148082,-4.881825901698508,923.75
740,-1.1974808299969182,-1.8666807707345128,-1.807414377046314,-2.6009138561423333,-1.2101305829440974,-4.838199736045624,925.0
741,-1.1974808136747082,-1.8666807853777185,-1.8074143777454856,-2.6009138620215753,-1.210130583216307,-4.784573580208713,926.25
742,-1.1974807945969808,-1.8666808025615906,-1.8074143791365,-2.600913866964274,-1.2101305860992562,-4.7209474321351586,927.5
743,-1.1974807695213148,-1.8666808201504046,-1.8074143814894423,-2.6009138643399465,-1.2101305780137788,-4.64732128961829,928.75
744,-1.1974807346343153,-1.8666808352254223,-1.807414385749301,-2.6009138435407864,-1.210130544439325,-4.563695158149589,930.0
745,-1.197480695556175,-1.8666808520889626,-1.8074143905696545,-2.6009138200365327,-1.2101305066827033,-4.4700690345410505,931.25
746,-1.197480651428979,-1.8666808692533274,-1.8074143940713618,-2.6009137975241305,-1.2101304636573074,-4.366442917839533,932.5
747,-1.1974805992839037,-1.8666808815777656,-1.807414389787487,-2.600913788681341,-1.2101304115481457,-4.252816810558452,933.75
748,-1.19748054254833,-1.8666808949881692,-1.8074143851225606,-2.60091377907544,-1.210130354841129,-4.1291907122992875,935.0
749,-1.1974804809355526,-1.866680900799663,-1.8074143713874644,-2.6009137860832867,-1.2101302931706148,-3.995564619642412,936.25
750,-1.1974804146318163,-1.866680904626837,-1.8074143542027044,-2.600913798460618,-1.2101302267807954,-3.8519385283647813,937.5
751,-1.1974803477889229,-1.8666808988255916,-1.8074143273290653,-2.600913830118926,-1.2101301596928502,-3.6983124422213636,938.75
752,-1.1974802779170706,-1.8666808894383018,-1.8074142959524835,-2.6009138698103387,-1.210130089510354,-3.534686362348517,940.0
753,-1.1974802189037717,-1.8666808673307984,-1.8074142554337134,-2.60091393149252,-1.2101300300003002,-3.3705692264764915,941.25
754,-1.1974801665498684,-1.8666808443142888,-1.807414216122133,-2.6009139929738705,-1.2101299771494547,-3.216445909426246,942.5
755,-1.1974801291343744,-1.866680814765113,-1.8074141750759347,-2.6009140629287724,-1.210129939162364,-3.0723225923758664,943.75
756,-1.1974800968290225,-1.8666807861765369,-1.8074141365954237,-2.600914129436566,-1.2101299063126718,-2.938199275325057,945.0
757,-1.1974800794052491,-1.8666807543132955,-1.8074140995833976,-2.600914197964738,-1.2101298883236022,-2.8140759582740813,946.25
758,-1.1974800633852236,-1.8666807250171256,-1.8074140655532385,-2.6009142609719356,-1.2101298717838234,-2.6999526412230708,947.5
759,-1.1974800589372507,-1.8666806958836561,-1.8074140353433932,-2.6009143201699914,-1.210129866844568,-2.595829324171987,948.75
760,-1.1974800580177107,-1.8666806688148558,-1.8074140082906145,-2.600914374204762,-1.2101298654757202,-2.501706007120922,950.0
761,-1.197480057195866,-1.8666806446219462,-1.8074139841120167,-2.6009144224986844,-1.210129864252304,-2.41758269006982,951.25
762,-1.1974800623353261,-1.8666806229665023,-1.8074139643272817,-2.600914463957468,-1.2101298690454008,-2.3434593730187316,952.5
763,-1.1974800701344601,-1.8666806040390787,-1.8074139480807228,-2.600914499197276,-1.2101298765491721,-2.2793360559676197,953.75
764,-1.197480076717323,-1.866680588063379,-1.8074139343678053,-2.6009145289414533,-1.210129882882734,-2.2252127389165524,955.0
765,-1.1974800820839149,-1.8666805750394033,-1.8074139231885291,-2.6009145531899995,-1.2101298880460867,-2.1810894218655457,956.25
766,-1.1974800862342354,-1.8666805649671494,-1.8074139145428965,-2.600914571942915,-1.2101298920392298,-2.1469661048144992,957.5
767,-1.1974800891682849,-1.8666805578466172,-1.8074139084309078,-2.6009145852002,-1.2101298948621635,-2.1228427877634695,958.75
768,-1.1974800908860634,-1.8666805536778068,-1.8074139048525624,-2.6009145929618533,-1.2101298965148877,-2.108719470712414,960.0
769,-1.1984461254773744,-1.869377311815506,-1.8037021376766842,-2.6019362289335017,-1.2110937594695435,-2.1026094355535183,961.25
770,-1.19976948222331,-1.8730715687444144,-1.7986174395376644,-2.603335749515128,-1.2124141426632302,-2.1061182154864095,962.5
771,-1.1998716934954419,-1.873356905654017,-1.7982247144673358,-2.6034438427656794,-1.212516128325282,-2.117602554353842,963.75
772,-1.1998716919292005,-1.8733569124289993,-1.798224717770738,-2.603443839908728,-1.2125161344177517,-2.1387484362508813,965.0
773,-1.1998716896222752,-1.873356922407907,-1.7982247226363364,-2.603443835700708,-1.2125161433913831,-2.1698943181479384,966.25
774,-1.1998716865746661,-1.87335693559074,-1.7982247290641313,-2.6034438301416207,-1.2125161552461754,-2.211040200044971,967.5
775,-1.1998716826351203,-1.8733569521192044,-1.7982247366205102,-2.603443824848312,-1.2125161686243224,-2.2621860800757982,968.75
776,-1.1998716775580056,-1.87335697222343,-1.7982247446012931,-2.6034438224465166,-1.2125161813207646,-2.323331955940418,970.0
777,-1.1998716722304088,-1.8733569953502802,-1.7982247548559223,-2.603443816359356,-1.2125161947706786,-2.3944778303682606,971.25
778,-1.1998716728857375,-1.873357018647888,-1.798224777797405,-2.603443771191389,-1.2125161947522543,-2.4756236896289145,972.5
779,-1.1998716736108284,-1.873357044807768,-1.798224803597628,-2.603443720323625,-1.212516194636132,-2.5667695441304246,973.75
