Miguel-LA/TFM_MiguelLerinAlonso/workspace/ros_ur_driver/src/trayectories/data/saved_trajectories/20240522_2031_trajectory.csv
,shoulder_pan_joint,shoulder_lift_joint,elbow_joint,wrist_1_joint,wrist_2_joint,wrist_3_joint,time_from_start
0,5.100247859954834,-2.0899108091937464,-2.017897907887594,0.9760748147964478,-5.084182325993673,0.26976490020751953,0.0
1,5.100321085105371,-2.0898967850354544,-2.0178589484490246,0.976022394004661,-5.084256976833635,0.2747649002075196,1.0
2,5.10054076055698,-2.0898547125605784,-2.017742070133316,0.9758651316293006,-5.084480929353519,0.2897649002075195,2.0
3,5.100906886309662,-2.0897845917691185,-2.0175472729404693,0.9756030276703663,-5.084854183553325,0.31476490020751935,3.0
4,5.101419462363418,-2.0896864226610745,-2.0172745568704835,0.9752360821278587,-5.0853767394330545,0.34976490020751905,4.0
5,5.102078488718245,-2.089560205236446,-2.0169239219233583,0.9747642950017772,-5.086048596992706,0.39476490020751864,5.0
6,5.102882631639934,-2.089407261296608,-2.0164933129482634,0.9741855045243832,-5.086868076247584,0.4497648999861437,6.0
7,5.103831121787705,-2.089228353300881,-2.0159815444634797,0.973498463713308,-5.08783420812796,0.5147648995684493,7.0
8,5.10492514876474,-2.089022294269289,-2.015390472288486,0.9727051683378896,-5.088948383786311,0.589764902005186,8.0
9,5.106107506808023,-2.088801611476354,-2.0147464705363904,0.9718422343983382,-5.090151178168112,0.6709969069385677,9.0
10,5.1071656576515325,-2.088604396656689,-2.0141693952954567,0.9710692147343502,-5.0912274015597285,0.743720099688451,10.0
11,5.108076275998579,-2.088436292114624,-2.0136686695945123,0.9703998010195932,-5.092152345045857,0.8064433262610483,11.0
12,5.108841713940089,-2.088294988576151,-2.0132477748793614,0.969837112317457,-5.092929824261306,0.8591665528336454,12.0
13,5.109461478951489,-2.088180974816959,-2.0129059849917232,0.9693805624945218,-5.093558990288179,0.9018897886375854,13.0
14,5.109935317183676,-2.0880945028093176,-2.012642925528047,0.9690298493233891,-5.094039405542345,0.9346130431521225,14.0
15,5.110264353733018,-2.088034456048469,-2.0124602552150157,0.9687863116689757,-5.0943730092212895,0.9573362976666597,15.0
16,5.110448588599515,-2.0880008345344137,-2.0123579740526294,0.9686499495312813,-5.094559801325013,0.9700595521811971,16.0
17,5.111323607935245,-2.0878416883297346,-2.011870966575858,0.9680013311902531,-5.095446456428533,0.9729493412854848,17.0
18,5.111513613067178,-2.0878071992658422,-2.0117650598056778,0.9678603641991659,-5.095638923277117,0.9662492383569325,18.0
19,5.111513441393886,-2.0878073860769466,-2.0117648012445355,0.9678602113098645,-5.09563860201068,0.9496214757524624,19.0
20,5.1115131664756195,-2.087807685236962,-2.0117643871837325,0.9678599664723527,-5.095638087533377,0.9229937131479922,20.0
21,5.111512790346746,-2.0878080897009643,-2.0117638235785114,0.9678595991690206,-5.095637396885239,0.886365960179063,21.0
22,5.111512315480573,-2.087808590903878,-2.0117631176691004,0.967859072296924,-5.09563655078321,0.8397382239272685,22.0
23,5.111511738772404,-2.0878091995970878,-2.011762260367093,0.9678584324294003,-5.095635523222227,0.783110487675471,23.0
24,5.111511484370008,-2.0878094861438203,-2.011761886688909,0.967858158532155,-5.095635077574333,0.7164827587048319,24.0
25,5.1115114855783945,-2.0878095181021865,-2.011761896781576,0.9678581752903649,-5.095635093803314,0.639855034384748,25.0
26,5.11151148747922,-2.0878095550209372,-2.0117619074377364,0.9678581972989678,-5.095635116620411,0.5532273169055565,26.0
27,5.111511487102068,-2.0878095970473236,-2.011761918479667,0.9678582277566865,-5.095635137299726,0.4565996040389874,27.0
28,5.111511471330481,-2.087809646212904,-2.011761927793192,0.967858286946544,-5.09563512221663,0.34997190032231845,28.0
29,5.1115114540549085,-2.0878097000407507,-2.011761937937927,0.9678583519144363,-5.095635105510833,0.2333442028589544,29.0
30,5.111511425111129,-2.087809752350478,-2.0117619504618207,0.9678584169015316,-5.095635076493126,0.10671651279803408,30.0
31,5.111511387510634,-2.0878098049446248,-2.011761964926616,0.9678584835085584,-5.095635038400799,-0.029911171373404852,31.0
32,5.11151133910357,-2.0878098532094995,-2.0117619810595837,0.96785854732869,-5.095634989550002,-0.1765388531661958,32.0
33,5.111511279785183,-2.0878098970394072,-2.0117619988674784,0.9678586082668716,-5.095634929841655,-0.3331665299613114,33.0
34,5.111511209303549,-2.0878099285730936,-2.0117620173866135,0.9678586575341144,-5.095634859057638,-0.49749257310497963,34.0
35,5.111511138386276,-2.0878099524630804,-2.011762035012895,0.9678586982774715,-5.09563478789744,-0.6545251857014756,35.0
36,5.1115110672070365,-2.0878099564004144,-2.011762050129472,0.9678587165981605,-5.095634716630052,-0.8015577982979691,36.0
37,5.111511000347537,-2.087809958059021,-2.0117620640665734,0.9678587315094751,-5.095634649703594,-0.938590410894459,37.0
38,5.111510938722386,-2.0878099440728364,-2.0117620749192358,0.967858727778043,-5.095634588137304,-1.0656230234909467,38.0
39,5.111510881998733,-2.0878099289865,-2.011762084624432,0.9678587218512436,-5.095634531485026,-1.182655636087431,39.0
40,5.111510832185132,-2.087809908849624,-2.011762092262344,0.9678587088877016,-5.095634481787641,-1.289688248683913,40.0
41,5.111510789278359,-2.0878098836721226,-2.01176209783491,0.967858688899218,-5.095634439041843,-1.3867208612803843,41.0
42,5.1115107507934745,-2.087809861089371,-2.0117621028331714,0.9678586709707069,-5.095634400701345,-1.4737534738768592,42.0
43,5.111510718614173,-2.087809838466543,-2.0117621065319624,0.9678586517669483,-5.095634368671838,-1.5507860864733367,43.0
44,5.111510694222864,-2.0878098137301047,-2.0117621083605917,0.9678586286632109,-5.09563434445305,-1.6178186990698182,44.0
45,5.111510673470278,-2.087809792683876,-2.0117621099164236,0.9678586090061148,-5.095634323847247,-1.6748513116663009,45.0
46,5.111510656356414,-2.087809775327858,-2.0117621111994555,0.9678585927956578,-5.095634306854429,-1.721883924262785,46.0
47,5.111510642881273,-2.0878097616620495,-2.011762112209691,0.9678585800318427,-5.095634293474598,-1.7589165368592696,47.0
48,5.111510633044854,-2.08780975168645,-2.0117621129471304,0.9678585707146692,-5.095634283707753,-1.7859491494557536,48.0
49,5.111510626847159,-2.0878097454010596,-2.0117621134117734,0.9678585648441377,-5.095634277553893,-1.8029817620522364,49.0
50,5.110906672970172,-2.0888739336575908,-2.0096934316112387,0.9668535992301561,-5.0950314596408885,-1.811333875991301,50.0
51,5.109253298174503,-2.091787262434579,-2.0040302105934056,0.964102413914336,-5.093381194906222,-1.8108446944436116,51.0
52,5.108797539941775,-2.0925903394405574,-2.0024691138023867,0.9633440331091729,-5.09292629571445,-1.801757533020145,52.0
53,5.108797546934777,-2.092590343755228,-2.002469115265936,0.9633440293782142,-5.092926306314642,-1.7837384792145459,53.0
54,5.108797557808671,-2.092590350464402,-2.0024691175417084,0.9633440235766924,-5.092926322797603,-1.7557194254089459,54.0
55,5.10879757256346,-2.0925903595680815,-2.002469120629704,0.9633440157046076,-5.092926345163333,-1.717700371603346,55.0
56,5.108797591199141,-2.0925903710662648,-2.0024691245299224,0.9633440057619597,-5.0929263734118315,-1.6696813178091108,56.0
57,5.108797612879828,-2.0925903842890623,-2.0024691299278405,0.9633439913276671,-5.092926400515049,-1.6116622869335342,57.0
58,5.108797638295412,-2.09259039978936,-2.002469136257709,0.9633439743999386,-5.092926432273501,-1.543643256070602,58.0
59,5.108797671316249,-2.0925904192904703,-2.0024691344351773,0.9633439823605652,-5.092926465628352,-1.4656242379895823,59.0
60,5.108797709773322,-2.092590441833994,-2.0024691295449526,0.963343999894706,-5.0929265022947385,-1.3776052245146617,60.0
61,5.1087977525878605,-2.092590467034242,-2.0024691240161214,0.9633440198276343,-5.0929265430279775,-1.2795862228751445,61.0
62,5.108797802892138,-2.0925904858367423,-2.002469116091217,0.9633440311830725,-5.092926592466445,-1.171567228689609,62.0
63,5.10879785973701,-2.09259050097122,-2.0024691063274203,0.9633440371910482,-5.092926649233152,-1.05354824239874,63.0
64,5.108797921496247,-2.0925905131788247,-2.0024690951790385,0.9633440389298971,-5.092926710952039,-0.9255292637055558,64.0
65,5.108797988417959,-2.092590511535625,-2.002469081202297,0.9633440239962653,-5.092926777944875,-0.7875102899781952,65.0
66,5.108798059088797,-2.092590505537197,-2.0024690658932376,0.9633440034219102,-5.0929268487235095,-0.639491317793374,66.0
67,5.1087981300065195,-2.092590481691976,-2.0024690482331695,0.9633439626902569,-5.092926919886069,-0.48147235246864073,67.0
68,5.108798199627698,-2.0925904478259065,-2.002469029548262,0.9633439109208259,-5.092926989829543,-0.31517446231659973,68.0
69,5.108798259740034,-2.0925904034758807,-2.0024690114679946,0.9633438491972005,-5.092927050338577,-0.15545265997448648,69.0
70,5.108798306512899,-2.0925903522012286,-2.002468995239038,0.9633437822787078,-5.092927097551492,-0.005730857632376629,70.0
71,5.1087983447170595,-2.092590298835208,-2.002468980503015,0.9633437146787455,-5.092927136205084,0.13399094470973733,71.0
72,5.108798370570896,-2.0925902436509074,-2.002468968072963,0.9633436474442764,-5.0929271625125025,0.2637127470518526,72.0
73,5.108798388331882,-2.09259018914442,-2.0024689573948677,0.9633435825555734,-5.09292718071514,0.3834345493939688,73.0
74,5.108798401768185,-2.092590138435369,-2.0024689480957223,0.9633435227911409,-5.092927194559802,0.49315635173608563,74.0
75,5.108798402890596,-2.0925900893998017,-2.0024689415450814,0.9633434673195267,-5.092927196067386,0.5928781540782033,75.0
76,5.108798403900454,-2.092590045281475,-2.0024689356513266,0.9633434174105471,-5.092927197423791,0.6825999564203238,76.0
77,5.108798404205812,-2.0925900060949214,-2.0024689305380914,0.9633433731962995,-5.092927198036474,0.7623217587624432,77.0
78,5.108798395368355,-2.092589972047371,-2.002468927967751,0.9633433365598474,-5.092927189458594,0.8320435611045649,78.0
79,5.108798387798429,-2.0925899428831642,-2.002468925766067,0.9633433051780574,-5.092927182111014,0.8917653634466867,79.0
80,5.108798381496034,-2.0925899186023025,-2.0024689239330358,0.9633432790509283,-5.092927175993736,0.9414871657888053,80.0
81,5.108798376461171,-2.092589899204784,-2.002468922468662,0.9633432581784616,-5.0929271711067585,0.9812089681309224,81.0
82,5.108798372693839,-2.0925898846906086,-2.002468921372945,0.9633432425606573,-5.092927167450082,1.0109307704730406,82.0
83,5.108798370194038,-2.0925898750597764,-2.0024689206458857,0.9633432321975156,-5.092927165023707,1.0306525728151619,83.0
84,5.108562870427024,-2.0930114973953513,-2.001648631668345,0.9629443889497086,-5.092692124626442,1.0410223382198007,84.0
85,5.1069896977374745,-2.0958280438306325,-1.9961689549129942,0.9602800786702393,-5.091122020382645,1.043225057973285,85.0
86,5.1061233203963114,-2.097379176734243,-1.993151185784289,0.9588127887409159,-5.0902573332601975,1.0361655351407282,86.0
87,5.106123322429219,-2.0973791820522187,-1.9931511881904664,0.9588127877855368,-5.090257336117262,1.020859156424898,87.0
88,5.10612332579027,-2.0973791908445474,-1.9931511921686536,0.9588127862059874,-5.090257340840911,0.995552777709069,88.0
89,5.106123330479463,-2.097379203111229,-1.99315119771885,0.9588127840022673,-5.090257347431144,0.9602463989932428,89.0
90,5.1061233364968,-2.097379218852263,-1.9931512048410562,0.9588127811743767,-5.09025735588796,0.9149400202774153,90.0
91,5.106123344461496,-2.0973792383023127,-1.9931512132573388,0.9588127784173732,-5.090257371447418,0.8596336536312206,91.0
92,5.106123354117474,-2.0973792613643347,-1.9931512230826365,0.958812775443817,-5.0902573919441565,0.7943272915064089,92.0
93,5.106123359151368,-2.097379293270249,-1.9931512310399913,0.9588127954944408,-5.090257403589254,0.7190209377057505,93.0
94,5.106123358412671,-2.097379335021934,-1.9931512364934034,0.9588128429971904,-5.090257404121508,0.6337145921080893,94.0
95,5.1061233575763065,-2.0973793817472393,-1.9931512425169178,0.9588128964070481,-5.090257404622097,0.5384082566518416,95.0
96,5.106123351200655,-2.097379431886494,-1.9931512501614568,0.958812954635119,-5.09025739900424,0.4331019280189963,96.0
97,5.106123334197882,-2.097379484009851,-1.9931512603850816,0.9588130167806349,-5.090257381546995,0.3177956078095321,97.0
98,5.106123315718444,-2.0973795406518043,-1.9931512714972075,0.9588130843090322,-5.090257362558067,0.19248929637400358,98.0
99,5.106123279658551,-2.0973795923553817,-1.9931512856143057,0.958813149655283,-5.09025732605478,0.05718299103344948,99.0
100,5.106123240174296,-2.0973796474340727,-1.9931513008747435,0.9588132194733687,-5.090257286099736,-0.08812331385332672,100.0
101,5.106123183179038,-2.0973796913310596,-1.9931513182983895,0.9588132801193676,-5.090257228710371,-0.2434296124350145,101.0
102,5.106123119691393,-2.0973797337846634,-1.9931513368735896,0.95881334041037,-5.090257164834887,-0.4085299443350498,102.0
103,5.1061230472435595,-2.097379758098474,-1.993151354950353,0.9588133820094716,-5.090257092135036,-0.5709659703228674,103.0
104,5.10612297734105,-2.0973797735475204,-1.9931513713563214,0.9588134131175298,-5.090257022052649,-0.7234019963106249,104.0
105,5.106122908706137,-2.0973797752151375,-1.993151385719189,0.9588134284427642,-5.09025695334779,-0.8658380222983668,105.0
106,5.106122845025641,-2.097379770837443,-1.9931513982792246,0.9588134359831223,-5.090256889649208,-0.9982740482861046,106.0
107,5.106122786417567,-2.0973797552617164,-1.9931514083459094,0.9588134299073203,-5.090256831115717,-1.1207100742738292,107.0
108,5.1061227325963205,-2.097379740958145,-1.993151417590387,0.9588134243277574,-5.090256777362963,-1.233146100261548,108.0
109,5.106122687522307,-2.097379715787757,-1.9931514236268768,0.9588134047854959,-5.090256732450533,-1.3355821262492644,109.0
110,5.106122647153514,-2.097379692139664,-1.9931514288903267,0.9588133860374233,-5.090256692235189,-1.4280181522369766,110.0
111,5.106122611151935,-2.097379671049892,-1.9931514335843579,0.9588133693175702,-5.0902566563704585,-1.5104541782246903,111.0
112,5.106122583855637,-2.097379646466959,-1.9931514360323974,0.9588133469548596,-5.090256629245806,-1.5828902042123993,112.0
113,5.106122561417451,-2.097379623757557,-1.9931514377212995,0.9588133257523059,-5.090256606968483,-1.645326230200111,113.0
114,5.106122542573054,-2.0973796046853823,-1.9931514391396985,0.9588133079456354,-5.090256588259183,-1.697762256187827,114.0
115,5.106122527322444,-2.097379589250436,-1.9931514402875945,0.9588132935348488,-5.090256573117907,-1.7401982821755477,115.0
116,5.106122515665622,-2.0973795774527164,-1.9931514411649907,0.9588132825199474,-5.0902565615446544,-1.7726343081632658,116.0
117,5.106122507602589,-2.0973795692922246,-1.993151441771886,0.9588132749009309,-5.090256553539427,-1.7950703341509833,117.0
118,5.1060955696565795,-2.0974285586234904,-1.9930560445850394,0.9587668476538364,-5.090229670082128,-1.8075945804779325,118.0
119,5.104789056011992,-2.0998051966301587,-1.9884284152667873,0.9565149174383868,-5.0889257980724665,-1.812418230121891,119.0
120,5.103505700070454,-2.102139718611225,-1.9838827973283295,0.9543028966548455,-5.087645037938441,-1.8074876978291006,120.0
121,5.103484608412388,-2.102178097674009,-1.9838080750989702,0.9542665317469257,-5.087623991490403,-1.794847053932354,121.0
122,5.1034846170699515,-2.102178103011873,-1.9838080769212723,0.9542665271569174,-5.08762400471031,-1.7722767661129535,122.0
123,5.103484629563337,-2.102178110714733,-1.9838080795509634,0.9542665205332581,-5.087624023787434,-1.739706478293554,123.0
124,5.103484645892547,-2.102178120782588,-1.9838080829880445,0.9542665118759482,-5.087624048721775,-1.6971361904741509,124.0
125,5.103484665704054,-2.1021781329246876,-1.9838080875317923,0.9542665001282535,-5.087624076508536,-1.644565913258338,125.0
126,5.103484688822558,-2.10217814699686,-1.9838080933306064,0.9542664847661795,-5.08762410565776,-1.5819956487165894,126.0
127,5.103484716716981,-2.102178163797642,-1.9838080974851522,0.9542664746300944,-5.0876241385190575,-1.5094253879625654,127.0
128,5.103484752352455,-2.1021781846423924,-1.9838080929439261,0.9542664907868803,-5.087624172496318,-1.4268551398500526,128.0
129,5.103484792297239,-2.102178208063012,-1.9838080878075588,0.9542665091196737,-5.087624210533289,-1.3342848984634232,129.0
130,5.103484836972438,-2.1021782328543757,-1.983808081824467,0.9542665282120102,-5.087624253241724,-1.2317146642118848,130.0
131,5.103484890524282,-2.1021782471024575,-1.983808072589429,0.9542665338274927,-5.087624306712241,-1.1191444406055622,131.0
132,5.10348494883532,-2.1021782626169143,-1.9838080625331842,0.9542665399436662,-5.08762436494978,-0.996574225092395,132.0
133,5.103485012193531,-2.1021782667442452,-1.9838080499726345,0.9542665321822623,-5.087624428331887,-0.8640040156606257,133.0
134,5.103485080469998,-2.1021782651032863,-1.9838080356557617,0.9542665169270423,-5.087624496682143,-0.7214338084216578,134.0
135,5.103485149929536,-2.1021782494898074,-1.983808019282141,0.9542664856836056,-5.087624566325447,-0.5688636056497268,135.0
136,5.103485221989722,-2.1021782253516013,-1.9838080012655157,0.9542664443168996,-5.0876246386381485,-0.40629340920330453,136.0
137,5.103485284885293,-2.10217818296856,-1.9838079827755244,0.9542663841759732,-5.087624701923924,-0.24129370069708064,137.0
138,5.103485341270481,-2.1021781392361603,-1.9838079654553669,0.9542663237916293,-5.087624758704624,-0.0861252141863007,138.0
139,5.103485380472659,-2.102178084622668,-1.9838079502734072,0.9542662545108376,-5.0876247983746135,0.05904327232446407,139.0
140,5.103485416054349,-2.1021780332327404,-1.9838079362574579,0.9542661895758573,-5.087624834395409,0.19421175883522043,140.0
141,5.103485434392375,-2.1021779770923517,-1.983807925187432,0.9542661226694831,-5.0876248531959565,0.3193802453459743,141.0
142,5.103485451265331,-2.1021779254371538,-1.9838079150018073,0.9542660611084113,-5.087624870494485,0.43454873185671994,142.0
143,5.103485457553093,-2.1021778758441614,-1.9838079072702963,0.9542660039509332,-5.087624877182538,0.5397172183674628,143.0
144,5.103485458609295,-2.1021778297356954,-1.9838079010714613,0.9542659517498453,-5.0876248786068965,0.634885704878196,144.0
145,5.103485459554514,-2.102177788472163,-1.9838078955239746,0.9542659050338784,-5.087624879881588,0.7200541913889312,145.0
146,5.10348545531018,-2.1021777521756335,-1.9838078916927784,0.9542658649377561,-5.087624875922822,0.7952226778996662,146.0
147,5.103485447150474,-2.10217772081548,-1.9838078893106874,0.9542658311767842,-5.087624868006088,0.8603911644104004,147.0
148,5.103485440242861,-2.102177694267492,-1.983807887294123,0.9542658025963788,-5.087624861304164,0.9155596509211412,148.0
149,5.103485434587343,-2.102177672531671,-1.9838078856430843,0.9542657791965392,-5.087624855817049,0.9607281374318868,149.0
150,5.103485430183918,-2.1021776556080147,-1.9838078843575744,0.9542657609772671,-5.087624851544746,0.9958966239426295,150.0
151,5.103485427032587,-2.102177643496524,-1.9838078834375934,0.9542657479385628,-5.087624848487252,1.0210651104533717,151.0
152,5.10348542513335,-2.1021776361971973,-1.9838078828831411,0.9542657400804259,-5.087624846644569,1.036233596964115,152.0
153,5.102628980880779,-2.1037604941642956,-1.9807233609394679,0.9527634870506922,-5.086770196806078,1.0431900103615122,153.0
154,5.101104383498291,-2.1065782254917824,-1.9752324500402993,0.9500892573837673,-5.085248793857747,1.040865211238391,154.0
155,5.1008840214291125,-2.1069855003278435,-1.9744388022160737,0.9497027269751626,-5.085028894084217,1.030416221276841,155.0
156,5.100884024037973,-2.106985507115408,-1.974438805314267,0.9497027257504085,-5.085028897828202,1.0106010934757228,156.0
157,5.100884027963433,-2.106985517328419,-1.974438809976009,0.9497027239075637,-5.085028903461646,0.9807859656746039,157.0
158,5.100884033205494,-2.106985530966876,-1.974438816201301,0.9497027214466289,-5.0850289109845495,0.9409708378734845,158.0
159,5.1008840399050746,-2.1069855480865893,-1.9744388239242352,0.9497027185360304,-5.085028921601505,0.8911557131076274,159.0
160,5.100884048660732,-2.1069855689246157,-1.9744388328648674,0.9497027158911706,-5.085028940429089,0.8313406022901375,160.0
161,5.100884058880177,-2.1069855932463826,-1.9744388433002105,0.9497027128041383,-5.085028962404303,0.7615254914726528,161.0
162,5.100884058754064,-2.1069856312611446,-1.9744388486674795,0.9497027545133473,-5.085028964004422,0.6817103963883014,162.0
163,5.100884057981891,-2.1069856746043003,-1.9744388543380254,0.9497028039506782,-5.085028964527376,0.5918953052378235,163.0
164,5.100884057113013,-2.106985722848402,-1.9744388605736682,0.9497028592138375,-5.085028965016336,0.4920802236452482,164.0
165,5.100884043824843,-2.1069857725072003,-1.9744388697272641,0.9497029180273303,-5.085028951642314,0.3822651516115357,165.0
166,5.100884026374806,-2.1069858258690015,-1.9744388802641957,0.9497029817172538,-5.085028933711442,0.262450087124423,166.0
167,5.100884000827906,-2.106985879790497,-1.974438892558342,0.9497030476077362,-5.085028907680398,0.13263502963259616,167.0
168,5.100883963303549,-2.1069859319965065,-1.9744389071214972,0.9497031138825068,-5.085028869702063,-0.0071800239928516765,168.0
169,5.1008839172225695,-2.1069859820041574,-1.97443892317004,0.9497031793612858,-5.085028823178735,-0.15699507491942966,169.0
170,5.100883858183241,-2.10698602536735,-1.9744389410364291,0.9497032398955286,-5.085028763741338,-0.3168101191949017,170.0
171,5.1008837897422055,-2.1069860582515068,-1.9744389594856573,0.9497032904586136,-5.085028694978383,-0.48309097724568334,171.0
172,5.100883720170697,-2.1069860815121,-1.9744389769165847,0.9497033303880236,-5.085028625161233,-0.6410162191732612,172.0
173,5.100883650793886,-2.1069860871359465,-1.9744389920121037,0.9497033503834619,-5.085028555680569,-0.7889414611008909,173.0
174,5.100883585147493,-2.106986088696012,-1.9744390058064454,0.9497033650605856,-5.085028489966111,-0.9268667030285582,174.0
175,5.100883524571653,-2.10698607657377,-1.974439016770488,0.9497033633052432,-5.085028429436369,-1.054791944956248,175.0
176,5.10088346881437,-2.106986061764352,-1.9744390263872114,0.949703357570399,-5.085028373750837,-1.1727171868839663,176.0
177,5.100883419416969,-2.1069860432214993,-1.9744390342013545,0.9497033463725062,-5.0850283244605485,-1.2806424288117135,177.0
178,5.100883377174343,-2.1069860185146547,-1.9744390397320557,0.949703326813296,-5.085028282380585,-1.3785676707394905,178.0
179,5.100883339245476,-2.1069859963308444,-1.974439044697962,0.949703309251444,-5.085028244597771,-1.4664929126672874,179.0
180,5.100883306970877,-2.106985974805057,-1.9744390485788494,0.9497032913193045,-5.085028212468724,-1.5444181545950886,180.0
181,5.100883282858368,-2.106985950448223,-1.974439050401465,0.9497032685874678,-5.085028188531405,-1.6123433965229053,181.0
182,5.100883262295719,-2.1069859296772186,-1.9744390519557538,0.9497032492022274,-5.0850281681181535,-1.6702686384507304,182.0
183,5.10088324528293,-2.1069859124920463,-1.9744390532417122,0.9497032331635809,-5.08502815122897,-1.7181938803785664,183.0
184,5.100883231820001,-2.1069858988927024,-1.9744390542593449,0.9497032204715314,-5.085028137863855,-1.7561191223064068,184.0
185,5.100883221906931,-2.106985888879188,-1.9744390550086517,0.9497032111260787,-5.085028128022809,-1.7840443642342447,185.0
186,5.100883215543721,-2.106985882451502,-1.9744390554896323,0.949703205127223,-5.085028121705831,-1.8019696061620798,186.0
187,5.100440487676789,-2.1078171832707664,-1.9728178111188,0.9489129705387784,-5.08458635472118,-1.811004244131095,187.0
188,5.098879050555506,-2.110749093088905,-1.9670998751636768,0.9461259175008807,-5.0830283066519755,-1.81145192789298,188.0
189,5.098317462226011,-2.1118035953575833,-1.9650433443671549,0.945123515530634,-5.082467938870007,-1.8030900848155078,189.0
190,5.098317468686071,-2.111803599338001,-1.965043345734594,0.9451235121282606,-5.082467948807224,-1.7860529161291336,190.0
191,5.098317478937878,-2.111803605654734,-1.9650433479046545,0.9451235067288574,-5.082467964577112,-1.7590157474427544,191.0
192,5.098317492981429,-2.1118036143077807,-1.9650433508773362,0.9451234993324242,-5.082467986179668,-1.7219785787563742,192.0
193,5.098317510816726,-2.1118036252971417,-1.9650433546526387,0.9451234899389612,-5.082468013614894,-1.6749414100699902,193.0
194,5.0983175317301,-2.111803638020368,-1.9650433598544046,0.9451234763473072,-5.082468040751516,-1.6179042623786606,194.0
195,5.098317556225307,-2.111803652902709,-1.9650433660422841,0.9451234601111884,-5.0824680719174,-1.550867116954494,195.0
196,5.098317587609412,-2.1118036714360544,-1.9650433653600228,0.9451234645272134,-5.082468104630168,-1.4738299826116896,196.0
197,5.098317624717481,-2.1118036931050868,-1.9650433606140427,0.9451234812861208,-5.082468140006948,-1.3867928535433438,197.0
198,5.0983176660766585,-2.111803717359594,-1.9650433552376185,0.9451235003803524,-5.082468179341372,-1.289755736969556,198.0
199,5.098317714258114,-2.111803736792481,-1.9650433477839213,0.945123512784378,-5.0824682264679915,-1.1827186270509924,199.0
200,5.0983177692569,-2.1118037514182024,-1.965043338258627,0.945123518507234,-5.082468281386619,-1.0656815252261902,200.0
201,5.098317829009851,-2.111803764972552,-1.9650433276077646,0.9451235220807024,-5.082468341084702,-0.9386444313646489,201.0
202,5.098317893835949,-2.1118037634498608,-1.9650433139563366,0.9451235075769469,-5.082468405982023,-0.8016073431267738,202.0
203,5.098317962845593,-2.1118037597186756,-1.9650432991485693,0.9451234897551928,-5.082468475084215,-0.6545702558648965,203.0
204,5.098318031603276,-2.1118037367735525,-1.9650432818843606,0.9451234503000047,-5.082468544086452,-0.4975331755498396,204.0
205,5.098318100553371,-2.111803705985787,-1.9650432635562465,0.9451234019562567,-5.0824686133447345,-0.3315002157456312,205.0
206,5.0983181595564115,-2.1118036627132994,-1.9650432456622628,0.9451233414850693,-5.0824686727485435,-0.17080069786278052,206.0
207,5.098318206973905,-2.111803614146954,-1.9650432294813092,0.9451232773245979,-5.082468720599746,-0.020101179979912304,207.0
208,5.098318244503863,-2.111803562000363,-1.9650432148847516,0.9451232110738084,-5.082468758583937,0.12059833790296892,208.0
209,5.098318271482623,-2.1118035089523923,-1.9650432023600743,0.9451231458867693,-5.0824687860152,0.25129785578586084,209.0
210,5.098318288948245,-2.111803455609727,-1.965043191771072,0.945123082243408,-5.082468803927572,0.37199737366875807,210.0
211,5.09831830357549,-2.1118034063170663,-1.9650431822998589,0.9451230237303894,-5.0824688189663565,0.482696891551663,211.0
212,5.0983183046776706,-2.1118033582366573,-1.9650431757936269,0.9451229692529459,-5.082468820458689,0.5833964094345772,212.0
213,5.098318305670397,-2.111803314930892,-1.9650431699334936,0.9451229201854017,-5.082468821802825,0.674095927317499,213.0
214,5.098318306553672,-2.111803276399769,-1.9650431647194624,0.9451228765277574,-5.082468822998764,0.7547954452004224,214.0
215,5.0983182982255055,-2.111803242857125,-1.96504316206829,0.9451228403165006,-5.082468814934999,0.8254949630833428,215.0
216,5.0983182907170015,-2.1118032140672938,-1.965043159867563,0.9451228093072646,-5.082468807653123,0.8861944809662685,216.0
217,5.098318284445492,-2.1118031900204723,-1.965043158029394,0.9451227834066734,-5.082468801570906,0.9368939988491787,217.0
218,5.098318279410979,-2.111803170716659,-1.9650431565537856,0.9451227626147283,-5.0824687966883495,0.9775935167320852,218.0
219,5.098318275613461,-2.1118031561558537,-1.9650431554407388,0.9451227469314296,-5.082468793005451,1.0082930346149999,219.0
220,5.098318273052939,-2.111803146338056,-1.9650431546902536,0.9451227363567777,-5.0824687905222135,1.0289925524979082,220.0
221,5.098190175687869,-2.1120475009198585,-1.9645662239223052,0.9448900798164486,-5.0823409810851095,1.0400981471923916,221.0
222,5.096769338063856,-2.1147579321239807,-1.9592761252770885,0.9423095210408162,-5.080923336712197,1.0433199718730795,222.0
223,5.095787553881097,-2.116630817490029,-1.95562071849667,0.9405263803039697,-5.079943759401245,1.0370333904685105,223.0
224,5.095787555739926,-2.1166308223002432,-1.9556207207118788,0.9405263794329031,-5.079943762124749,1.0227925081036737,224.0
225,5.09578755890403,-2.1166308304882078,-1.9556207244826154,0.9405263779501705,-5.079943766760708,0.9985516257388365,225.0
226,5.0957875633734115,-2.116630842053923,-1.9556207298088792,0.9405263758557715,-5.079943773309122,0.9643107433740021,226.0
227,5.095787569148069,-2.116630856997388,-1.9556207366906708,0.9405263731497064,-5.07994378176999,0.9200698610091708,227.0
228,5.095787576729707,-2.116630875526128,-1.9556207448834682,0.9405263704690893,-5.07994379647827,0.865828988606707,228.0
229,5.095787586040251,-2.1166308976078483,-1.9556207544253237,0.9405263677147724,-5.079943816759358,0.8015881222707792,229.0
230,5.095787592119674,-2.1166309271444863,-1.9556207628376718,0.9405263823774995,-5.07994383074921,0.7273472624628422,230.0
231,5.095787591406751,-2.11663096719292,-1.9556207681309536,0.940526428035682,-5.079943831258877,0.6431064125425618,231.0
232,5.095787590599546,-2.116631012061492,-1.9556207739936444,0.9405264793972148,-5.07994383174513,0.5488655714938084,232.0
233,5.095787585964828,-2.1166310606854695,-1.9556207811499342,0.9405265357385685,-5.079943828027221,0.444624737404247,233.0
234,5.095787569531471,-2.1166311108247524,-1.9556207911166879,0.9405265956528551,-5.079943811143136,0.33038391200181505,234.0
235,5.095787551657441,-2.116631165350934,-1.9556208019579373,0.9405266608042401,-5.079943792762202,0.2061430963318472,235.0
236,5.09578751843049,-2.1166312161191314,-1.9556208155175017,0.9405267246976728,-5.079943759082376,0.07190228618534081,236.0
237,5.095787480190068,-2.116631269182893,-1.9556208304239742,0.9405267921640081,-5.079943720372974,-0.0723385227893607,237.0
238,5.095787426558232,-2.1166313130799606,-1.955620847330775,0.9405268523255049,-5.07994366633608,-0.22657932623389163,238.0
239,5.095787366186679,-2.1166313562023045,-1.9556208655379115,0.9405269129451116,-5.079943605560516,-0.39080630903235175,239.0
240,5.0957872950353655,-2.116631379901235,-1.9556208834428734,0.940526953767266,-5.079943534154261,-0.5543037492501753,240.0
241,5.095787226917869,-2.116631397102723,-1.9556208998655848,0.9405269866541373,-5.079943465837465,-0.7078011894680186,241.0
242,5.095787159448253,-2.116631398668683,-1.9556209141052698,0.9405270017606968,-5.079943398296692,-0.8512986296858804,242.0
243,5.095787096770347,-2.116631396205286,-1.9556209268203626,0.940527011370867,-5.079943335584653,-0.98479606990374,243.0
244,5.095787039086489,-2.1166313808905706,-1.9556209368131041,0.9405270054848225,-5.079943277975849,-1.1082935101216138,244.0
245,5.095786986073483,-2.1166313668159424,-1.9556209459966916,0.9405270000753864,-5.079943225031817,-1.2217909503394966,245.0
246,5.095786941167757,-2.1166313434984083,-1.9556209522830417,0.9405269826280895,-5.079943180277505,-1.3252883905573896,246.0
247,5.095786901323793,-2.11663132022848,-1.9556209575227155,0.9405269642338369,-5.079943140588944,-1.4187858307752825,247.0
248,5.0957868657413306,-2.1166312994473837,-1.9556209622019776,0.9405269478069358,-5.079943105145265,-1.5022832709931744,248.0
249,5.09578683810584,-2.1166312760409647,-1.9556209648842529,0.9405269268449948,-5.079943077676855,-1.5757807112110758,249.0
250,5.095786815837869,-2.11663125358861,-1.9556209665750008,0.9405269058990278,-5.079943055572824,-1.6392781514289758,250.0
251,5.095786797076807,-2.116631234672202,-1.9556209679994772,0.94052688825177,-5.079943036949882,-1.6927755916468705,251.0
252,5.095786781822651,-2.116631219291741,-1.9556209691576814,0.9405268739032215,-5.079943021808029,-1.736273031864751,252.0
253,5.095786770075405,-2.116631207447227,-1.9556209700496163,0.9405268628533843,-5.079943010147269,-1.769770472082636,253.0
254,5.095786761835067,-2.1166311991386584,-1.9556209706752816,0.9405268551022578,-5.079943001967597,-1.7932679123005217,254.0
255,5.095785428746206,-2.1166337687005985,-1.9556159427353403,0.940524395891286,-5.079941672004015,-1.8067693447503894,255.0
256,5.094701822044573,-2.118733781027205,-1.9515141080400398,0.9385219259878776,-5.07886058632818,-1.8125040258969007,256.0
257,5.093364244174776,-2.1213259964556954,-1.946450887783147,0.9360501198490524,-5.077526121167043,-1.8085744348461092,257.0
258,5.093290276123622,-2.121469356924237,-1.9461708763831258,0.9359134188000513,-5.0774523276181736,-1.7969033627775894,258.0
259,5.093290284154103,-2.1214693618692877,-1.9461708780925773,0.9359134145992247,-5.077452340062854,-1.7754810041202664,259.0
260,5.093290295933226,-2.121469369122698,-1.9461708806000042,0.9359134084374439,-5.077452358316739,-1.7440586454629414,260.0
261,5.0932903114609935,-2.121469378684468,-1.9461708839054066,0.9359134003147088,-5.077452382379825,-1.7026362868056246,261.0
262,5.093290330487523,-2.121469390338046,-1.9461708882343927,0.9359133894359078,-5.0774524100823735,-1.6512139359595037,262.0
263,5.093290352685715,-2.1214694037999657,-1.946170893882287,0.9359133747602306,-5.077452438584173,-1.5897916001918797,263.0
264,5.093290379012882,-2.1214694196809196,-1.946170899192824,0.9359133613827155,-5.077452471188354,-1.518369266316704,264.0
265,5.093290413310676,-2.121469439676906,-1.9461708947893643,0.935913376812902,-5.077452503881907,-1.4369469468181328,265.0
266,5.093290451815695,-2.1214694621673593,-1.9461708898103858,0.9359133943036579,-5.077452540546082,-1.345524632626698,266.0
267,5.09329049452475,-2.1214694871763893,-1.9461708842342333,0.9359134139582538,-5.077452581152996,-1.2441023260249298,267.0
268,5.093290546135016,-2.1214695012633626,-1.9461708753053295,0.9359134196956522,-5.07745263262747,-1.1326800308648628,268.0
269,5.093290602507075,-2.121469516249297,-1.9461708654977148,0.935913425516365,-5.077452688923626,-1.011257742973937,269.0
270,5.093290663755873,-2.121469522283438,-1.946170853508689,0.9359134202240196,-5.077452750179637,-0.8798354615931248,270.0
271,5.093290729848625,-2.1214695207683416,-1.9461708395277757,0.9359134054141549,-5.077452816346205,-0.7384131831702214,271.0
272,5.093290797720705,-2.121469508075192,-1.9461708237065618,0.9359133776265549,-5.077452884383774,-0.5869909085057102,272.0
273,5.093290867544255,-2.121469484862591,-1.9461708060956266,0.9359133375712305,-5.077452954459317,-0.42556864027279356,273.0
274,5.093290930514965,-2.1214694458869383,-1.9461707878416459,0.9359132810706429,-5.077453017805688,-0.25985420573865,274.0
275,5.093290987212745,-2.1214694044270925,-1.9461707705691544,0.9359132230075121,-5.0774530748940805,-0.10354197809032242,275.0
276,5.093291026219747,-2.1214693514522045,-1.9461707554719894,0.9359131554448228,-5.077453114370924,0.04277024955802934,276.0
277,5.0932910621386815,-2.1214693016728257,-1.9461707414387805,0.9359130921032741,-5.077453150730716,0.17908247720638404,277.0
278,5.093291081103075,-2.121469247188157,-1.9461707303224904,0.9359130268074889,-5.077453170159833,0.30539470485473863,278.0
279,5.0932910977288275,-2.1214691965283468,-1.9461707201966139,0.9359129662951384,-5.077453187216804,0.42170693250311575,279.0
280,5.093291105552149,-2.1214691482668613,-1.9461707122214942,0.935912910236061,-5.077453195443916,0.5280191601514935,280.0
281,5.093291106591964,-2.1214691029396255,-1.9461707060465858,0.9359128588354362,-5.0774531968574514,0.6243313877998778,281.0
282,5.093291107523817,-2.1214690623186736,-1.946170700512806,0.9359128127716831,-5.077453198124221,0.7106436154482656,282.0
283,5.093291104472612,-2.121469026492847,-1.9461706964398857,0.9359127729131329,-5.077453195365007,0.7869558430966552,283.0
284,5.093291096367747,-2.1214689954866905,-1.9461706940542958,0.9359127394996848,-5.0774531875080715,0.8532680707450487,284.0
285,5.0932910894851116,-2.121468969156318,-1.9461706920284567,0.9359127111250427,-5.077453180835975,0.9095802983934359,285.0
286,5.0932910838247025,-2.1214689475017288,-1.9461706903623655,0.9359126877892057,-5.077453175348719,0.9558925260418136,286.0
287,5.093291079386521,-2.121468930522923,-1.9461706890560264,0.9359126694921757,-5.077453171046302,0.9922047536901888,287.0
288,5.093291076170567,-2.1214689182198985,-1.946170688109439,0.9359126562339524,-5.0774531679287245,1.0185169813385684,288.0
289,5.093291074176841,-2.121468910592656,-1.9461706875226037,0.9359126480145359,-5.077453165995987,1.0348292089869453,289.0
290,5.092653733995321,-2.122723683531837,-1.943717976718058,0.9347143479831038,-5.0768173602986595,1.0426614630864524,290.0
291,5.091169359608077,-2.1256460811325346,-1.9380055699687222,0.9319234943227374,-5.075336559807307,1.0415217622978759,291.0
292,5.090828242012614,-2.126317670036339,-1.9366928235211485,0.931282137712969,-5.074996264099313,1.0319847808334977,292.0
293,5.090828244417982,-2.126317676227667,-1.9366928263982859,0.9312821365881796,-5.07499626769684,1.0133985914359465,293.0
294,5.09082824811752,-2.1263176857501405,-1.9366928308234215,0.9312821348582154,-5.074996273229962,0.984812402038395,294.0
295,5.090828253111228,-2.1263176986037586,-1.9366928367965546,0.9312821325230765,-5.074996280698674,0.9462262126408465,295.0
296,5.090828259440668,-2.1263177148064663,-1.9366928442965745,0.9312821296387293,-5.074996290465937,0.8976400240022568,296.0
297,5.0908282678487256,-2.126317734679012,-1.9366928529461434,0.9312821272055234,-5.0749963090192995,0.8390538481176792,297.0
298,5.090828277691944,-2.1263177579435784,-1.9366928630720965,0.9312821243569965,-5.074996330739511,0.770467672233105,298.0
299,5.090828278960161,-2.126317793133415,-1.936692869052033,0.931282159083425,-5.074996335147516,0.6918815099518825,299.0
300,5.090828278217128,-2.1263178346632228,-1.936692874563218,0.9312822065170805,-5.074996335660044,0.6032953520499782,300.0
301,5.090828277377672,-2.1263178809651735,-1.936692880620742,0.9312822596663177,-5.074996336120112,0.5047092053613219,301.0
302,5.090828266291503,-2.126317929143094,-1.9366928892054627,0.9312823165640104,-5.074996325161833,0.39612306679280423,302.0
303,5.0908282494388395,-2.126317980439997,-1.936692899474754,0.931282377931407,-5.0749963078332785,0.2775369360236371,303.0
304,5.090828226655046,-2.1263180334251612,-1.9366929112121114,0.9312824423685918,-5.074996284554982,0.14895081270075858,304.0
305,5.090828190356842,-2.12631808366501,-1.9366929254271967,0.9312825063456912,-5.074996247805217,0.010364694055123542,305.0
306,5.090828147572689,-2.1263181336379544,-1.9366929409629514,0.9312825713098244,-5.074996204566835,-0.13822142263053305,306.0
307,5.090828090396487,-2.1263181753866442,-1.9366929584221015,0.9312826298420764,-5.074996146994026,-0.29680753254947656,307.0
308,5.0908280249646465,-2.126318209708698,-1.9366929766274839,0.9312826816231845,-5.074996081219812,-0.4631676681311302,308.0
309,5.090827956537968,-2.1263182324135967,-1.9366929939266218,0.9312827208729966,-5.074996012544357,-0.622317735652551,309.0
310,5.090827888909256,-2.126318240310892,-1.9366930091058439,0.9312827432329718,-5.074995944790328,-0.7714678031739844,310.0
311,5.090827824269622,-2.1263182417738147,-1.9366930228115176,0.931282757728783,-5.074995880081361,-0.910617870695427,311.0
312,5.0908277645315945,-2.126318231965307,-1.9366930340058401,0.9312827585150003,-5.074995820371777,-1.039767938216885,312.0
313,5.090827709546318,-2.1263182173707746,-1.936693043575341,0.9312827529491321,-5.0749957654588265,-1.158918005738351,313.0
314,5.090827660253779,-2.126318200720344,-1.9366930516836192,0.9312827439292224,-5.074995716260695,-1.2680680732598204,314.0
315,5.090827618507629,-2.1263181763723336,-1.9366930571990522,0.9312827247123854,-5.0749956746794425,-1.367218140781294,315.0
316,5.090827580971878,-2.126318154479999,-1.936693062158208,0.9312827074337021,-5.074995637291959,-1.45636820830277,316.0
317,5.090827548280661,-2.1263181341656288,-1.9366930663127597,0.9312826909754502,-5.074995604740216,-1.5355182758242507,317.0
318,5.090827524320812,-2.126318110049449,-1.936693068140599,0.9312826684867129,-5.074995580959083,-1.6046683433457365,318.0
319,5.090827503825867,-2.126318089420783,-1.9366930697041085,0.9312826492501397,-5.074995560617011,-1.6638184108672194,319.0
320,5.090827486795829,-2.126318072279632,-1.9366930710032855,0.9312826332657287,-5.0749955437139995,-1.712968478388687,320.0
321,5.090827473230698,-2.126318058625994,-1.9366930720381337,0.9312826205334821,-5.07499553025005,-1.7521185459101467,321.0
322,5.090827463130473,-2.1263180484598694,-1.936693072808653,0.9312826110533999,-5.074995520225162,-1.7812686134316105,322.0
323,5.090827456495154,-2.1263180417812584,-1.9366930733148442,0.9312826048254826,-5.074995513639335,-1.800418680953082,323.0
324,5.090555307284577,-2.1268623302317105,-1.9356283658901436,0.9307620390714544,-5.074724042302871,-1.8103770190970883,324.0
325,5.089108919048825,-2.1297551070213117,-1.929969706988132,0.9279953767340224,-5.0732812567838375,-1.8120908717159006,325.0
326,5.088397512906626,-2.1311779275355582,-1.9271864839456556,0.9266345868811354,-5.072571624129151,-1.804687808486066,326.0
327,5.088397518736312,-2.1311779311232444,-1.9271864851936982,0.9266345838524407,-5.072571633230914,-1.788959544678873,327.0
328,5.0883975282725,-2.131177936991974,-1.9271864872352436,0.9266345788981074,-5.0725716481195615,-1.7632312808716846,328.0
329,5.0883975415151905,-2.1311779451417467,-1.9271864900702917,0.9266345720181359,-5.072571668795093,-1.727503017064505,329.0
330,5.088397558464384,-2.1311779555725634,-1.927186493698843,0.9266345632125261,-5.072571695257508,-1.6817747532573262,330.0
331,5.088397578543803,-2.1311779677716465,-1.9271864986584273,0.9266345505898843,-5.072571722449998,-1.626046506261939,331.0
332,5.088397602041255,-2.131177981995089,-1.9271865046805907,0.9266345350948134,-5.072571752898047,-1.5603182642339881,332.0
333,5.08839763160754,-2.131177999482515,-1.9271865054506097,0.9266345351720828,-5.072571785153865,-1.4845900310534184,333.0
334,5.088397667290325,-2.1311780202549495,-1.9271865008505904,0.9266345511643762,-5.072571819163468,-1.3988618051939286,334.0
335,5.088397707124614,-2.131178043530242,-1.9271864956415288,0.9266345693645157,-5.0725718570445855,-1.30313359024046,335.0
336,5.088397752994534,-2.1311780639073,-1.9271864887449954,0.9266345832009776,-5.072571901613798,-1.1974053821024837,336.0
337,5.088397806080128,-2.1311780780169354,-1.927186479465378,0.9266345886377145,-5.072571954617013,-1.0816771823085551,337.0
338,5.088397863754789,-2.131178093346539,-1.927186469382983,0.9266345945464987,-5.072572012217601,-0.9559489909492719,338.0
339,5.088397926428038,-2.131178091960187,-1.927186456063922,0.9266345804952137,-5.072572074961867,-0.8202208060862799,339.0
340,5.088397993719169,-2.13117809045723,-1.9271864417617797,0.9266345653916083,-5.07257214232939,-0.674492621573011,340.0
341,5.088398060419882,-2.131178068972523,-1.9271864249385267,0.9266345278187463,-5.072572209269406,-0.5187644438256724,341.0
342,5.088398128942954,-2.1311780418202257,-1.9271864069831526,0.9266344834763109,-5.072572278080633,-0.3533829700752603,342.0
343,5.088398187001627,-2.131177999488768,-1.927186389211849,0.9266344240601159,-5.07257233654495,-0.1913787668079606,343.0
344,5.088398235626448,-2.131177953887023,-1.9271863729849001,0.9266343628264286,-5.072572385594295,-0.03937456354071775,344.0
345,5.088398272596304,-2.1311779027812694,-1.9271863584721745,0.9266342976927243,-5.07257242302423,0.10262963972647503,345.0
346,5.088398301234892,-2.1311778519358504,-1.9271863457400285,0.926634234512872,-5.072572452113266,0.23463384299357193,346.0
347,5.088398318464041,-2.1311777995566,-1.92718633519614,0.9266341718719411,-5.072572469795468,0.3566380462606248,347.0
348,5.0883983342810115,-2.1311777514705863,-1.9271863255164678,0.9266341143653334,-5.07257248602836,0.46864224952761335,348.0
349,5.088398335825688,-2.1311777042646662,-1.9271863189445801,0.9266340606966004,-5.072572487968829,0.5706464527945395,349.0
350,5.088398336805649,-2.131177661576902,-1.9271863130890654,0.926634012247626,-5.072572489306326,0.6626506560614207,350.0
351,5.088398337679098,-2.131177623528901,-1.9271863078699878,0.9266339690646026,-5.072572490498452,0.7446548593282628,351.0
352,5.088398330703866,-2.1311775902936034,-1.9271863049329032,0.9266339328852538,-5.07257248379466,0.8166590625950749,352.0
353,5.08839832321512,-2.131177561707159,-1.9271863027187646,0.9266339020632082,-5.072572476538054,0.8786632658618586,353.0
354,5.088398316934155,-2.1311775377311197,-1.9271863008617185,0.9266338762121222,-5.072572470451789,0.9306674691286245,354.0
355,5.08839831186097,-2.1311775183654857,-1.9271862993617663,0.9266338553319966,-5.072572465535865,0.9726716723953851,355.0
356,5.088398307995565,-2.131177503610255,-1.9271862982189099,0.9266338394228318,-5.072572461790282,1.004675875662143,356.0
357,5.08839830533794,-2.1311774934654286,-1.927186297433149,0.9266338284846282,-5.072572459215039,1.0266800789289126,357.0
358,5.088358118367127,-2.1312591315805793,-1.9270264761446745,0.9265556247884933,-5.072532375808356,1.0388298589721006,358.0
359,5.0871372717884435,-2.1337394868374053,-1.9221710768891969,0.9241799574232715,-5.071314674170305,1.0433240625579996,359.0
360,5.0860124366834825,-2.1360247846451945,-1.9176975188222043,0.9219911199926292,-5.070192737017045,1.038084241978064,360.0
361,5.0860007053577085,-2.136048626438415,-1.9176508578372677,0.9219682878126106,-5.070181036787043,1.0251864006542601,361.0
362,5.086000708290422,-2.13604863394691,-1.9176508613589778,0.9219682864440313,-5.070181041263761,1.0023331123597314,362.0
363,5.086000712506414,-2.1360486447409253,-1.9176508664216954,0.9219682844765971,-5.070181047699371,0.9694798240652163,363.0
364,5.086000718005686,-2.136048658820462,-1.9176508730254211,0.9219682819103086,-5.070181056093877,0.926626535770697,364.0
365,5.086000725157369,-2.136048676351785,-1.9176508809747412,0.9219682792712655,-5.070181069705045,0.8737732517616863,365.0
366,5.08600073409081,-2.1360486973931554,-1.9176508902011848,0.9219682767438098,-5.070181089674379,0.8109199723423333,366.0
367,5.086000741490326,-2.136048724284647,-1.9176508992265822,0.9219682849785947,-5.070181106693544,0.7380666971400143,367.0
368,5.0860007408046375,-2.1360487625737252,-1.9176509043510812,0.9219683287251741,-5.070181107179311,0.6552134339731136,368.0
369,5.086000740028444,-2.1360488055349367,-1.917650910047774,0.9219683779703344,-5.070181107654828,0.5623601779648963,369.0
370,5.086000737498095,-2.136048852703789,-1.917650916633912,0.9219684324351651,-5.070181106245501,0.45950692911135843,370.0
371,5.08600072165328,-2.136048900827809,-1.9176509263363788,0.9219684900785976,-5.070181089953402,0.3466536905618031,371.0
372,5.086000704402655,-2.136048953214401,-1.9176509369003838,0.9219685528233845,-5.0701810722018745,0.22380046042083301,372.0
373,5.08600067443493,-2.1360490032586132,-1.9176509498396088,0.9219686154185323,-5.070181041769457,0.09094723631462595,373.0
374,5.086000637465721,-2.136049054298188,-1.9176509643884434,0.9219686805199236,-5.07018100433417,-0.05190598570628264,374.0
375,5.086000587610645,-2.1360490985627836,-1.9176509807449034,0.9219687405343412,-5.0701809540603975,-0.20475920307047246,375.0
376,5.086000529632496,-2.1360491407742677,-1.9176509985354477,0.9219687998499301,-5.070180895674434,-0.367508663763882,376.0
377,5.086000462490563,-2.1360491654000806,-1.9176510159158076,0.9219688411087152,-5.070180828264383,-0.5283247149946443,377.0
378,5.086000398116161,-2.1360491854246764,-1.917651032103409,0.9219688766113541,-5.0701807636630996,-0.679140766225363,378.0
379,5.086000333480431,-2.1360491868486124,-1.9176510458752527,0.9219688911312162,-5.070180698956875,-0.8199568174560067,379.0
380,5.086000273434782,-2.1360491881714334,-1.917651058669084,0.9219689046199512,-5.070180638845736,-0.9507728686865986,380.0
381,5.086000218327705,-2.1360491742204246,-1.9176510683963341,0.9219688998495678,-5.07018058380625,-1.0715889199171051,381.0
382,5.086000167795987,-2.136049160809253,-1.9176510772338058,0.9219688947758358,-5.07018053334172,-1.182404971147565,382.0
383,5.086000123491759,-2.136049143544501,-1.9176510842507573,0.9219688841003928,-5.070180489142764,-1.283221022377976,383.0
384,5.086000085708452,-2.1360491215351027,-1.9176510892671712,0.9219688667569522,-5.070180451510583,-1.374037073608329,384.0
385,5.086000052085565,-2.1360491019492214,-1.9176510937312086,0.9219688513232429,-5.070180418022183,-1.454853124838636,385.0
386,5.086000022623099,-2.136049084786854,-1.9176510976428751,0.9219688377992663,-5.070180388677562,-1.5256691760689298,386.0
387,5.086000001696448,-2.1360490640072687,-1.917651099280346,0.9219688184798415,-5.070180367906939,-1.5864852272991956,387.0
388,5.085999984297918,-2.136049046524162,-1.917651100614273,0.9219688021836485,-5.070180350639873,-1.6373012785294478,388.0
389,5.085999970323213,-2.1360490324815244,-1.9176511016856979,0.9219687890943539,-5.070180336770762,-1.6781173297596872,389.0
390,5.085999959772334,-2.1360490218793577,-1.9176511024946206,0.9219687792119573,-5.070180326299607,-1.7089333809899303,390.0
391,5.085999952645281,-2.13604901471766,-1.9176511030410426,0.9219687725364596,-5.070180319226406,-1.729749432220181,391.0
392,5.085999948942053,-2.1360490109964307,-1.9176511033249644,0.9219687690678612,-5.070180315551161,-1.7405654834504292,392.0
393,5.086502184265653,-2.1350619733967005,-1.9196700699158713,0.9230008992635546,-5.070680880190063,-1.7423918298196288,393.0
394,5.086644727590933,-2.1347818422221483,-1.920243078000032,0.9232938332993635,-5.070822949334369,-1.7353709857741035,394.0
395,5.08678497229228,-2.134506238460386,-1.9208068319779885,0.9235820397478591,-5.070962727486935,-1.718555172243712,395.0
396,5.087008617479185,-2.1340667391123267,-1.9217058382331766,0.9240416363274206,-5.071185628678608,-1.6917393587133258,396.0
397,5.087315663151646,-2.1334633441779705,-1.922940096765597,0.9246726230380483,-5.071491652909385,-1.6549235451829312,397.0
398,5.087709700982298,-2.1326976768266785,-1.9245062962817825,0.9254733204026283,-5.071884407204665,-1.6081076508214291,398.0
399,5.0881891298316955,-2.1317690138541274,-1.926405912129261,0.9264444767099294,-5.072362283582093,-1.5512917310962426,399.0
400,5.088752941518106,-2.1306768996909518,-1.928639873677146,0.927586563332536,-5.072924269550589,-1.4844758113710679,400.0
401,5.089405746241249,-2.129423338963727,-1.931204092371868,0.9288975062366094,-5.0735749916928405,-1.4076597740818337,401.0
402,5.090144125645188,-2.1280068456108645,-1.9341015991216928,0.9303788429335156,-5.074311019506242,-1.320843722505818,402.0
403,5.090973268397118,-2.1264296243258825,-1.937327898361219,0.9320282950549754,-5.075137561674934,-1.2240275384559198,403.0
404,5.0918905606338765,-2.124690546947387,-1.940885290784042,0.9338470288846505,-5.076051994249936,-1.117211296633685,404.0
405,5.092899962418646,-2.122791253683023,-1.9447704324606676,0.9358333501086022,-5.0770582922348035,-1.0003949143039383,405.0
406,5.094002616943845,-2.120732155845806,-1.9489824858083165,0.937986835310233,-5.078157602688073,-0.8735783791657928,406.0
407,5.095199036903282,-2.1185134183542154,-1.9535211153399321,0.9403073152544034,-5.079350439906699,-0.7367616966587618,407.0
408,5.096491382184887,-2.11613585227178,-1.9583846688122974,0.9427939541018201,-5.080638971337647,-0.5899448375157066,408.0
409,5.097881863438879,-2.1136002502099367,-1.9635715321959513,0.9454459359948509,-5.082025415108266,-0.43312777496823057,409.0
410,5.099328372299082,-2.1109869119047566,-1.9689174490151742,0.9481792857539737,-5.083467795050185,-0.27124344637682785,410.0
411,5.100703542698284,-2.108524440039017,-1.9739547818975418,0.9507548997292452,-5.084839103943467,-0.11847296133908865,411.0
412,5.101998211523578,-2.10622660248359,-1.9786553634487882,0.9531583712704358,-5.086130196448095,0.024297705196526426,412.0
413,5.10321122042245,-2.1040929040156344,-1.9830202034727198,0.9553902122623223,-5.087339909736464,0.15706853334303406,413.0
414,5.104339371943192,-2.10212216583957,-1.9870517029755503,0.957451636952845,-5.088465035317949,0.279839471692764,414.0
415,5.1053804412385295,-2.1003135988723636,-1.9907514686783607,0.9593434573504548,-5.089503340882679,0.3926104907492486,415.0
416,5.106335553737729,-2.0986675550074665,-1.9941187848435429,0.9610653125988509,-5.0904559553032,0.49538161258098445,416.0
417,5.107201467336871,-2.0971829098111634,-1.9971559405995263,0.9626183591176597,-5.091319625778468,0.5881527892976286,417.0
418,5.107977080976774,-2.0958592999236028,-1.999863675364717,0.9640029700972725,-5.092093247747713,0.6709240134144169,418.0
419,5.108661799296279,-2.0946965072514954,-2.0022424333243665,0.9652193701482209,-5.092776223803042,0.7436952762417285,419.0
420,5.109254893989925,-2.0936942970151837,-2.0042926921455413,0.9662678002427142,-5.093367823362488,0.8064665758657681,420.0
421,5.109753503672556,-2.0928517473629786,-2.0060163273611114,0.9671492065379921,-5.093865176098467,0.859237875489834,421.0
422,5.11015970757585,-2.092169512403367,-2.00741200844618,0.9678629181369405,-5.094270367628887,0.9020092027628137,422.0
423,5.110471933072131,-2.091647097237921,-2.008480742077377,0.9684094426430758,-5.094581820495389,0.9347805453899896,423.0
424,5.110688884627447,-2.0912840942672664,-2.0092233573546947,0.9687891981180019,-5.094798235184772,0.957551888017158,424.0
425,5.110810562241798,-2.091080503491403,-2.0096398542781344,0.9690021845617192,-5.094919611697036,0.9703232306443403,425.0
426,5.11127442445714,-2.0903064976881645,-2.011223331777732,0.9698119640206004,-5.095382329790884,0.9737098002055523,426.0
427,5.111511211424837,-2.0899117280366277,-2.012030967975632,0.9702249879312917,-5.095618533312137,0.9682890559270388,427.0
428,5.111511562932689,-2.0899118443055733,-2.0120307469924628,0.9702248839971948,-5.095618885190628,0.9533281267428734,428.0
429,5.111512149391093,-2.089912038289575,-2.0120303783024474,0.9702247105927493,-5.09561947226741,0.9283671975587077,429.0
430,5.111512970840371,-2.089912310004628,-2.012029861885982,0.9702244677617384,-5.0956202948889615,0.8934062742012175,430.0
431,5.111514027442657,-2.089912659515033,-2.01202919766424,0.9702241556800346,-5.095621354447445,0.8484453751535905,431.0
432,5.111515319049648,-2.0899130867619617,-2.0120283857092995,0.9702237741865284,-5.0956226496681385,0.7934844761059758,432.0
433,5.1115161508163425,-2.089913376684141,-2.0120278645233998,0.9702235450080746,-5.095623483851669,0.7285235853070633,433.0
434,5.111516150034409,-2.0899134139247235,-2.0120278693150193,0.9702235870768747,-5.09562348329504,0.6535627050577417,434.0
435,5.111516149145718,-2.089913456151038,-2.012027874730522,0.9702236348333239,-5.095623482643629,0.5686018283527523,435.0
436,5.111516148150185,-2.089913503363696,-2.0120278807693786,0.9702236882800263,-5.0956234818967285,0.47364095472361695,436.0
437,5.111516132640764,-2.0899135516548815,-2.0120278899893806,0.9702237455619677,-5.095623465999644,0.3686800925553513,437.0
438,5.111516115476322,-2.089913604498708,-2.0120279001194943,0.9702238082777128,-5.095623448398618,0.2537192358680406,438.0
439,5.111516089504718,-2.089913657639322,-2.0120279120948763,0.9702238730327377,-5.095623421985085,0.12875838650504437,439.0
440,5.111516052370215,-2.0899137096918783,-2.0120279262257954,0.9702239387276403,-5.09562338441654,-0.006202456139946102,440.0
441,5.111516007053101,-2.0899137600862354,-2.012027941825973,0.9702240041539796,-5.095623338672054,-0.1511632961996158,441.0
442,5.111515948366899,-2.0899138035558362,-2.0120279592985515,0.9702240644071997,-5.095623279602073,-0.3061241327383165,442.0
443,5.1115158800104545,-2.089913838585283,-2.012027977695771,0.9702241170644477,-5.095623210919436,-0.47010912645041825,443.0
444,5.111515808335251,-2.089913862809053,-2.012027995419613,0.970224158231785,-5.095623138999045,-0.628822278118719,444.0
445,5.111515737269767,-2.089913870412863,-2.0120280109366586,0.970224180613751,-5.095623067817579,-0.7775354297869899,445.0
446,5.1115156695913875,-2.089913872128368,-2.0120280250219458,0.9702241957225707,-5.095623000071543,-0.9162485814552401,446.0
447,5.111515607080699,-2.08991386108591,-2.0120280364500576,0.9702241954958196,-5.095622937596154,-1.0449617331234673,447.0
448,5.111515549543509,-2.0899138457845594,-2.0120280463253923,0.9702241895169998,-5.095622880131243,-1.163674884791666,448.0
449,5.1115154981816415,-2.089913827682,-2.012028054584235,0.9702241791892178,-5.0956228288683105,-1.2723880364598406,449.0
450,5.11151545453257,-2.089913802045007,-2.0120280603186043,0.9702241588969251,-5.095622785382724,-1.3711011881280015,450.0
451,5.1115154153053055,-2.0899137790051365,-2.0120280654720553,0.9702241406603123,-5.095622746302384,-1.4598143397961505,451.0
452,5.111515381424392,-2.0899137572664293,-2.01202806969278,0.9702241228437574,-5.095622712562612,-1.5385274914642972,452.0
453,5.1115153564221005,-2.0899137318775973,-2.0120280716366525,0.9702240991982547,-5.0956226877368636,-1.6072406431324355,453.0
454,5.111515335058456,-2.0899137101836667,-2.0120280732976283,0.9702240789939424,-5.095622666524069,-1.6659537948005854,454.0
455,5.111515317333459,-2.0899136921846386,-2.0120280746757038,0.9702240622308178,-5.095622648924229,-1.714666946468757,455.0
456,5.111515303247109,-2.089913677880512,-2.0120280757708833,0.970224048908884,-5.095622634937342,-1.7533800981369447,456.0
457,5.111515292799406,-2.0899136672712864,-2.0120280765831664,0.9702240390281408,-5.095622624563411,-1.7820932498051225,457.0
458,5.11151528599035,-2.0899136603569617,-2.012028077112554,0.9702240325885885,-5.095622617802435,-1.8008064014732907,458.0
459,5.111149881574548,-2.090555403005493,-2.0107763263352645,0.9696137483405707,-5.095257898786611,-1.8104234079999706,459.0
460,5.10950980817866,-2.0934358293079156,-2.0051579413215945,0.9668745500230879,-5.09362090179786,-1.8116140367492988,460.0
461,5.108802209309674,-2.0946785780315076,-2.002733915651458,0.9656927342876696,-5.092914631763197,-1.803793061825744,461.0
462,5.108802215659099,-2.0946785819512077,-2.0027339169656257,0.9656927308913148,-5.092914641449974,-1.7874552695570132,462.0
463,5.108802225894868,-2.0946785882700687,-2.002733919084167,0.9656927254161269,-5.092914657065814,-1.76111747728828,463.0
464,5.108802240016978,-2.094678596988091,-2.0027339220070806,0.9656927178621055,-5.092914678610714,-1.7247796850195378,464.0
465,5.108802258025431,-2.094678608105275,-2.002733925734368,0.9656927082292509,-5.0929147060846764,-1.6784418927508078,465.0
466,5.108802279234397,-2.094678621062276,-2.002733930838347,0.9656926944893915,-5.092914733721199,-1.6221041195399861,466.0
467,5.108802304056743,-2.0946786361958165,-2.0027339369744848,0.9656926778634751,-5.092914764991686,-1.5557663501824994,467.0
468,5.1088023355898855,-2.0946786549413585,-2.0027339370021933,0.965692679977841,-5.09291479838366,-1.4794285908339393,468.0
469,5.108802373312093,-2.094678677065059,-2.002733932157433,0.9656926970988972,-5.092914834352665,-1.3930908379650595,469.0
470,5.1088024153918505,-2.0946787018429176,-2.002733926671662,0.9656927165936473,-5.092914874389883,-1.2967530965883542,470.0
471,5.108802464114456,-2.0946787226541197,-2.002733919290197,0.9656927304366896,-5.09291492189182,-1.1904153619382367,471.0
472,5.108802520148101,-2.0946787375715994,-2.0027339096355785,0.9656927363269866,-5.0929149778449805,-1.0740776355108377,472.0
473,5.108802581025258,-2.0946787526746835,-2.0027338990087213,0.9656927414831222,-5.092915038658191,-0.9477399172497255,473.0
474,5.108802647130734,-2.0946787510161715,-2.0027338852245005,0.9656927267177122,-5.092915104833821,-0.8114022049905124,474.0
475,5.108802717908386,-2.094678748554834,-2.0027338703800877,0.9656927101377611,-5.092915175691825,-0.6650644931963323,475.0
476,5.108802788070571,-2.0946787248872534,-2.002733852997296,0.9656926698519481,-5.092915246095832,-0.5087267884547491,476.0
477,5.108802859451666,-2.094678694547277,-2.0027338345257477,0.9656926218314494,-5.092915317771827,-0.3429978652573026,477.0
478,5.108802920195986,-2.0946786496216037,-2.0027338164058435,0.965692559499243,-5.092915378916334,-0.18159484533200657,478.0
479,5.1088029701198945,-2.094678600320786,-2.0027337999583197,0.9656924943631868,-5.092915429265805,-0.030191825406749657,479.0
480,5.108803008783388,-2.094678546198476,-2.0027337852174583,0.9656924260076647,-5.092915468383363,0.1112111945184557,480.0
481,5.108803037737127,-2.0946784918102224,-2.002733772437227,0.965692359248437,-5.092915497785354,0.24261421444365056,481.0
482,5.108803055747496,-2.0946784364320923,-2.002733761780009,0.9656922935128978,-5.092915516242814,0.36401723436881694,482.0
483,5.108803071866343,-2.0946783855070166,-2.002733752070783,0.9656922331497809,-5.092915532772442,0.47542025429396684,483.0
484,5.1088030730078895,-2.094678335556356,-2.0027337455598286,0.9656921768046695,-5.092915534304989,0.5768232742191037,484.0
485,5.10880307403686,-2.0946782905316517,-2.0027337396909575,0.9656921260161079,-5.0929155356864015,0.6682262941442139,485.0
486,5.108803074953255,-2.094678250432902,-2.0027337344641705,0.9656920807840971,-5.092915536916679,0.7496293140693246,486.0
487,5.108803067064308,-2.0946782154782397,-2.0027337316920812,0.9656920430503351,-5.092915529294288,0.821032333994437,487.0
488,5.108803059281544,-2.0946781854440415,-2.0027337295164642,0.965692010824261,-5.092915521739742,0.8824353539195504,488.0
489,5.108803052766268,-2.0946781603011675,-2.002733727695162,0.9656919838464741,-5.092915515415516,0.9338383738446825,489.0
490,5.108803047518482,-2.0946781400496164,-2.002733726228177,0.9656919621169751,-5.092915510321612,0.975241393769834,490.0
491,5.108803043538184,-2.0946781246893873,-2.00273372511551,0.9656919456357643,-5.092915506458031,1.006644413694976,491.0
492,5.108803040825375,-2.0946781142204807,-2.002733724357162,0.9656919344028421,-5.092915503824772,1.0280474336201224,492.0
493,5.108720942589718,-2.094824617842819,-2.002447728479274,0.9655523826970178,-5.092833565331551,1.0397028156002108,493.0
494,5.107277443632705,-2.097400673612372,-1.9974191008652418,0.963098765564082,-5.091392874364942,1.0435651791550529,494.0
495,5.106128552213664,-2.0994509809163096,-1.9934167761835344,0.9611459129732695,-5.090246218166839,1.0377706239249744,495.0
496,5.106128003192748,-2.099451968678457,-1.9934148593939742,0.9611449757971979,-5.09024567100223,1.0241442422975089,496.0
497,5.106128006342228,-2.0994519768984823,-1.9934148630858346,0.9611449742730227,-5.090245675512321,1.0005197602879239,497.0
498,5.106128010824851,-2.0994519885979592,-1.9934148683404214,0.9611449721036793,-5.090245681931487,0.9668952782783272,498.0
499,5.106128016640616,-2.099452003776888,-1.9934148751577347,0.9611449692891684,-5.090245690259727,0.9232707962687267,499.0
500,5.106128024259553,-2.0994520226194524,-1.9934148833209713,0.96114496638308,-5.090245704471634,0.8696463234613576,500.0
501,5.106128033701218,-2.0994520451333165,-1.99341489282111,0.961144963408449,-5.09024572473259,0.8060218579054127,501.0
502,5.106128040604283,-2.0994520746813397,-1.9934149015886797,0.9611449754145679,-5.090245740182789,0.7323973978937592,502.0
503,5.106128039880431,-2.0994521156852604,-1.9934149068082645,0.9611450219426149,-5.090245740708749,0.6487729488642183,503.0
504,5.10612803906111,-2.099452161654601,-1.9934149125977547,0.9611450742998172,-5.090245741221949,0.5551485078423039,504.0
505,5.106128035252866,-2.099452211769122,-1.9934149195098332,0.9611451319460238,-5.090245738476323,0.45152407380765763,505.0
506,5.1061280184982705,-2.099452263231034,-1.993414929424869,0.9611451931254532,-5.090245721275605,0.33789964918856336,506.0
507,5.106128000266969,-2.0994523192201613,-1.993414940214452,0.9611452596822072,-5.0902457025429,0.21427523366090634,507.0
508,5.106127967369996,-2.0994523719839964,-1.993414953631622,0.96114532543394,-5.090245669190648,0.08065082381949452,508.0
509,5.106127928343126,-2.099452426540141,-1.9934149685409217,0.9611453943849338,-5.090245629699161,-0.06297358453093006,509.0
510,5.1061278745489,-2.0994524726834105,-1.993414985428477,0.9611454567696132,-5.090245575496745,-0.21659798774468228,510.0
511,5.106127813351057,-2.099452517876162,-1.9934150037197216,0.96114551953444,-5.090245513892876,-0.3802223847322067,511.0
512,5.106127740456856,-2.099452543044988,-1.9934150218939617,0.9611455620807063,-5.090245440740602,-0.5443341843691056,512.0
513,5.106127670699432,-2.099452562254367,-1.9934150386714313,0.9611455973151986,-5.090245370774602,-0.6984520724007923,513.0
514,5.106127601255174,-2.0994525639784793,-1.993415053180377,0.9611456128355004,-5.090245301259696,-0.8425699604324535,514.0
515,5.106127536696625,-2.0994525626467535,-1.9934150662986359,0.9611456239655336,-5.090245236658573,-0.9766878484640693,515.0
516,5.106127477284475,-2.099452546858185,-1.9934150765354348,0.9611456178399193,-5.090245177321909,-1.100805736495673,516.0
517,5.106127422659075,-2.099452532341683,-1.993415085947462,0.9611456122078329,-5.09024512276591,-1.21492362452726,517.0
518,5.106127376087224,-2.0994525090649576,-1.993415092597818,0.9611455951543357,-5.090245076339057,-1.319041512558823,518.0
519,5.10612733498468,-2.099452484964179,-1.9934150980187164,0.9611455761048958,-5.0902450353924955,-1.4131594005903705,519.0
520,5.10612729824927,-2.099452463424103,-1.9934151028636415,0.9611455590794517,-5.090244998796492,-1.4972772886219137,520.0
521,5.10612726933086,-2.099452439622053,-1.9934151058147038,0.9611455379827061,-5.0902449700417245,-1.5713951766534557,521.0
522,5.106127246288715,-2.0994524162710446,-1.99341510761329,0.9611455162435951,-5.090244947164498,-1.635513064685,522.0
523,5.106127226840284,-2.0994523965619236,-1.9934151091313623,0.961145497894974,-5.090244927855267,-1.6896309527165623,523.0
524,5.106127210985569,-2.09945238049469,-1.99341511036892,0.9611454829368428,-5.090244912114029,-1.733748840748151,524.0
525,5.10612719872457,-2.099452368069343,-1.9934151113259664,0.9611454713692029,-5.090244899940785,-1.7678667287797234,525.0
526,5.106127190057287,-2.0994523592858823,-1.9934151120025012,0.9611454631920541,-5.090244891335536,-1.7919846168112932,526.0
527,5.106127184983719,-2.0994523541443075,-1.9934151123985242,0.9611454584053966,-5.090244886298282,-1.8061025048428672,527.0
528,5.105078559533626,-2.1013538260366555,-1.989700465404844,0.9593315565595076,-5.089198375563461,-1.8122759581952645,528.0
529,5.103608394615092,-2.104019687121957,-1.9844925429454816,0.9567884744818127,-5.087731176172601,-1.8089009509409915,529.0
530,5.103489298701514,-2.10423565488434,-1.9840706426914438,0.9565824535869802,-5.087612322761198,-1.797650018419753,530.0
531,5.103489306724663,-2.1042356598340803,-1.9840706443614364,0.9565824493229295,-5.087612335089869,-1.776762262299805,531.0
532,5.10348931858889,-2.104235667153505,-1.9840706468309368,0.9565824430174671,-5.087612353320882,-1.7458745061798546,532.0
533,5.103489334294196,-2.104235676842614,-1.9840706500999454,0.9565824346705931,-5.087612377454238,-1.7049867500598954,533.0
534,5.103489353621394,-2.1042356887180533,-1.984070654357199,0.9565824236138505,-5.08761240562696,-1.6540990006206209,534.0
535,5.103489376149245,-2.1042357024274345,-1.9840706599654292,0.9565824085625423,-5.087612434258625,-1.5932112677563974,535.0
536,5.103489402654118,-2.1042357185121316,-1.9840706658299072,0.9565823930298458,-5.0876124673281025,-1.5223235359156198,536.0
537,5.103489437562471,-2.1042357389485136,-1.9840706613313879,0.9565824088112194,-5.087612500609662,-1.441435819479266,537.0
538,5.103489476781994,-2.1042357619460192,-1.984070656246244,0.9565824266913923,-5.087612537967451,-1.3505481076173096,538.0
539,5.103489520308141,-2.104235787539736,-1.984070650543575,0.9565824468201721,-5.087612579362631,-1.249660403971942,539.0
540,5.103489572685062,-2.104235802646574,-1.984070641635608,0.9565824535868326,-5.087612631486931,-1.1387727111426644,540.0
541,5.103489630194229,-2.104235817947168,-1.984070631686635,0.9565824595866389,-5.087612688920214,-1.017885025660453,541.0
542,5.103489692678302,-2.1042358250205195,-1.9840706196820652,0.9565824553277773,-5.08761275140375,-0.8869973468271858,542.0
543,5.103489760147967,-2.104235823363536,-1.9840706055570612,0.9565824402394807,-5.087612818946226,-0.7461096712225039,543.0
544,5.1034898297405675,-2.1042358113265314,-1.9840705896816035,0.9565824130636493,-5.087612888694158,-0.5952219990139298,544.0
545,5.103489901053955,-2.104235787361597,-1.984070571942769,0.9565823721390065,-5.087612960257035,-0.43433433332347743,545.0
546,5.103489966313437,-2.1042357481197937,-1.9840705535206102,0.956582315223874,-5.087613025882259,-0.26837238422738746,546.0
547,5.103490024615444,-2.1042357051300824,-1.9840705360594417,0.9565822554584131,-5.087613084573989,-0.11152140740304275,547.0
548,5.103490065562399,-2.1042356510738918,-1.9840705207782707,0.9565821866517131,-5.08761312598409,0.03532956942128355,548.0
549,5.103490102518112,-2.104235599480896,-1.9840705066317716,0.9565821213969488,-5.087613163380077,0.1721805462455713,549.0
550,5.103490122905659,-2.1042355435329823,-1.98407049535172,0.9565820544931534,-5.087613184228697,0.29903152306983394,550.0
551,5.103490140025071,-2.1042354910224783,-1.984070485180403,0.9565819920949594,-5.087613201779182,0.41588249989407566,551.0
552,5.103490148860693,-2.104235441194286,-1.9840704770568114,0.95658193433649,-5.087613211017696,0.5227334767183078,552.0
553,5.1034901499357535,-2.1042353941874072,-1.98407047089061,0.9565818812714793,-5.0876132124668025,0.6195844535425235,553.0
554,5.1034901508998125,-2.104235352034058,-1.984070465361072,0.9565818336855033,-5.087613213766285,0.7064354303667375,554.0
555,5.10349014830291,-2.104235314818975,-1.9840704611904703,0.9565817923500908,-5.087613211462646,0.7832864071909481,555.0
556,5.10349013993281,-2.104235282596496,-1.9840704588419487,0.9565817577599716,-5.087613203341378,0.8501373840151505,556.0
557,5.1034901328147635,-2.1042352551940633,-1.9840704568447338,0.9565817283440652,-5.0876131964349405,0.9069883608393744,557.0
558,5.1034901269487705,-2.1042352326116784,-1.9840704551988224,0.9565817041023703,-5.087613190743336,0.9538393376636216,558.0
559,5.103490122334831,-2.104235214849339,-1.9840704539042189,0.9565816850348889,-5.087613186266562,0.9906903144878594,559.0
560,5.103490118972945,-2.1042352019070454,-1.9840704529609232,0.9565816711416207,-5.0876131830046205,1.0175412913120947,560.0
561,5.103490116863112,-2.1042351937847976,-1.9840704523689352,0.9565816624225658,-5.0876131809575105,1.0343922681363276,561.0
562,5.102892504804238,-2.1053362366981623,-1.981917873264925,0.9555297303742657,-5.0870168178643365,1.0426101840209927,562.0
563,5.101310951626344,-2.1082501125319766,-1.9762211612476874,0.9527458456871793,-5.085438570042184,1.0419667798560774,563.0
564,5.100888721788296,-2.1090280400483277,-1.9747002978107757,0.9520026249192248,-5.085017223175889,1.0327791682504417,564.0
565,5.100888724184323,-2.1090280462686692,-1.974700300628884,0.9520026237618335,-5.085017226677182,1.01464717428263,565.0
566,5.100888727901783,-2.109028055919601,-1.9747003050012104,0.952002621966128,-5.085017232109477,0.9865151803148144,566.0
567,5.10088873294068,-2.109028069001121,-1.9747003109277554,0.9520026195321077,-5.085017239472776,0.9483831863470018,567.0
568,5.1008887393082425,-2.109028085516187,-1.9747003184050473,0.9520026164688123,-5.085017248828883,0.9002511925543484,568.0
569,5.100888747847836,-2.1090281058096023,-1.9747003270281227,0.9520026138305953,-5.085017267387096,0.8421192154373631,569.0
570,5.100888757856432,-2.1090281295939395,-1.9747003371345604,0.9520026107385459,-5.085017289137737,0.7739872383203813,570.0
571,5.100888759682346,-2.1090281651959293,-1.9747003433559809,0.9520026440862153,-5.0850172946447945,0.6958552741624685,571.0
572,5.100888758927125,-2.109028207789572,-1.9747003488019832,0.9520026924897451,-5.085017295181072,0.607723314566147,572.0
573,5.10088875807282,-2.10902825530748,-1.9747003547852104,0.9520027467764354,-5.085017295663143,0.5095913666740033,573.0
574,5.100888747425909,-2.109028304974669,-1.974700363190736,0.9520028050263947,-5.085017285244558,0.40145942636848386,574.0
575,5.100888730221332,-2.109028357688196,-1.974700373415033,0.9520028677598011,-5.085017267568736,0.2833274939371721,575.0
576,5.100888707687243,-2.109028412590301,-1.9747003850233091,0.9520029339880297,-5.085017244538987,0.1551955690699019,576.0
577,5.100888670614964,-2.109028464276598,-1.9747003992446053,0.9520029994077117,-5.0850172070188675,0.017063649105821563,577.0
578,5.100888627604598,-2.109028516413054,-1.9747004147505294,0.9520030665001559,-5.085017163552814,-0.13106826923659112,578.0
579,5.1008885691877826,-2.109028559423204,-1.9747004322828006,0.9520031263552442,-5.085017104742765,-0.28920018073519016,579.0
580,5.10088850269489,-2.1090285958318384,-1.9747004506469228,0.9520031803714206,-5.08501703790266,-0.4555158096290426,580.0
581,5.100888432382907,-2.1090286194154495,-1.9747004681733382,0.9520032207120338,-5.085016967342831,-0.6151241529701755,581.0
582,5.100888363122792,-2.109028628626844,-1.974700483658888,0.952003244679785,-5.085016897950768,-0.7647324963112714,582.0
583,5.100888296676338,-2.1090286302405206,-1.974700497598878,0.9520032595486759,-5.085016831435538,-0.9043408396523442,583.0
584,5.100888235235047,-2.1090286210020945,-1.9747005091274126,0.9520032612275665,-5.085016770016525,-1.0339491829933725,584.0
585,5.100888178682901,-2.1090286059818624,-1.974700518911751,0.9520032554424387,-5.085016713537038,-1.1535575263343834,585.0
586,5.100888127766749,-2.1090285894360163,-1.974700527337502,0.9520032468340377,-5.085016662710492,-1.263165869675385,586.0
587,5.100888084798842,-2.1090285642807367,-1.9747005330279677,0.9520032269800668,-5.085016619907775,-1.3627742130163718,587.0
588,5.100888046144618,-2.1090285416508783,-1.9747005381471436,0.9520032091192967,-5.08501658140216,-1.452382556357343,588.0
589,5.100888012196122,-2.109028520999848,-1.9747005425446487,0.9520031925598924,-5.085016547590389,-1.5319908996983262,589.0
590,5.100887987486622,-2.1090284960072667,-1.9747005444815278,0.9520031693019564,-5.085016523060126,-1.6015992430392971,590.0
591,5.100887966326914,-2.109028474605143,-1.974700546140153,0.9520031493852773,-5.0850165020539055,-1.6612075863802729,591.0
592,5.100887948716993,-2.1090284567934785,-1.9747005475205213,0.9520031328098536,-5.0850164845717245,-1.710815929721283,592.0
593,5.100887934656863,-2.1090284425722716,-1.9747005486226357,0.9520031195756871,-5.085016470613583,-1.750424273062296,593.0
594,5.100887924146523,-2.1090284319415225,-1.974700549446497,0.9520031096827777,-5.085016460179483,-1.7800326164032918,594.0
595,5.100887917185973,-2.10902842490123,-1.9747005499921055,0.9520031031311256,-5.085016453269424,-1.7996409597442853,595.0
596,5.100649343030798,-2.1094750096887127,-1.9738268121635154,0.9515757992539173,-5.084778395648237,-1.8099351606834184,596.0
597,5.099136441220168,-2.1123070614083685,-1.968285979183023,0.9488660614295328,-5.08326876937674,-1.8120650227223505,597.0
598,5.098322170687581,-2.1138313296706337,-1.965303793964774,0.9474076260957373,-5.082456263233073,-1.8049635452379948,598.0
599,5.098322176517003,-2.11383133326492,-1.9653037951849297,0.9474076230184036,-5.082456272255822,-1.789610098142358,599.0
600,5.098322186143241,-2.1138313392002352,-1.9653037971997969,0.9474076179367426,-5.082456287155264,-1.764256651046747,600.0
601,5.098322199566295,-2.1138313474765793,-1.9653038000093754,0.947407610850754,-5.082456307931397,-1.728903203951127,601.0
602,5.0983222167861655,-2.1138313580939525,-1.965303803613665,0.9474076017604378,-5.082456334584224,-1.6835497568554905,602.0
603,5.098322237230523,-2.113831370561165,-1.9653038085213566,0.9474075888659388,-5.082456362196669,-1.6281963268215882,603.0
604,5.098322261142681,-2.113831385087036,-1.9653038145161923,0.9474075729324221,-5.082456392859113,-1.5628429029656576,604.0
605,5.098322291095577,-2.1138314028955802,-1.9653038156410534,0.9474075717330268,-5.0824564257402605,-1.487489487436544,605.0
606,5.098322327484812,-2.1138314241628566,-1.9653038109347285,0.947407588119891,-5.082456460429357,-1.4021360799348852,606.0
607,5.098322368126972,-2.1138314480004223,-1.9653038056070158,0.9474076067629646,-5.082456499092443,-1.306782682765997,607.0
608,5.098322414771234,-2.1138314693662643,-1.9653037986822646,0.9474076215597094,-5.082456544335595,-1.201429292442761,608.0
609,5.098322468977448,-2.113831483781184,-1.9653037892649676,0.9474076271699937,-5.08245659845944,-1.0860759105347004,609.0
610,5.09832252788496,-2.1138314994465186,-1.9653037790303267,0.9474076332688988,-5.082456657293864,-0.9607225373974143,610.0
611,5.098322591897918,-2.11383149859507,-1.965303765658122,0.9474076197089557,-5.082456721371528,-0.8253691704628007,611.0
612,5.0983226606570256,-2.1138314969443526,-1.96530375120195,0.9474076043116489,-5.082456790206084,-0.6800158040411849,612.0
613,5.098322729025907,-2.1138314755145675,-1.9653037343088384,0.9474075667348567,-5.08245685880623,-0.5246624439619857,613.0
614,5.098322799562807,-2.11383144823041,-1.9653037162212994,0.9474075221434913,-5.082456929623194,-0.3595296350316899,614.0
615,5.0983228591832965,-2.1138314043990682,-1.9653036982891812,0.9474074610819057,-5.082456989647992,-0.19714643451302621,615.0
616,5.098322909696209,-2.1138313577738437,-1.9653036818884155,0.9474073986698489,-5.0824570405800085,-0.044763233994387364,616.0
617,5.098322947674901,-2.1138313048920563,-1.9653036672882065,0.9474073316856559,-5.0824570790176224,0.09761996652422611,617.0
618,5.098322977702575,-2.113831252633335,-1.9653036544146745,0.9474072669682125,-5.082457109492432,0.23000316704280055,618.0
619,5.098322995411778,-2.1138311984426785,-1.9653036438474891,0.9474072025024857,-5.082457127653884,0.35238636756135006,619.0
620,5.098323011673951,-2.113831148679975,-1.9653036341437475,0.9474071433042868,-5.082457144331353,0.46476956807987824,620.0
621,5.098323013802802,-2.1138310999765073,-1.965303627503126,0.947407088081017,-5.082457146854935,0.567152768598401,621.0
622,5.09832301481412,-2.113831055788485,-1.965303621668821,0.9474070381588494,-5.082457148223606,0.6595359691169106,622.0
623,5.09832301571597,-2.113831016383588,-1.9653036164660462,0.9474069936404953,-5.082457149444124,0.741919169635417,623.0
624,5.0983230089150045,-2.1138309819441266,-1.965303613491279,0.9474069562263212,-5.082457142915221,0.8143023701539287,624.0
625,5.098323001198469,-2.1138309523071426,-1.965303611317526,0.9474069243964713,-5.0824571354312225,0.8766855706724306,625.0
626,5.098322994718888,-2.1138309274209552,-1.9653036094922225,0.9474068976689318,-5.082457129146905,0.9290687711909613,626.0
627,5.098322989476266,-2.113830907285564,-1.9653036080153696,0.947406876043703,-5.08245712406227,0.9714519717095149,627.0
628,5.098322985470602,-2.1138308919009683,-1.9653036068869694,0.9474068595207856,-5.082457120177317,1.0038351722280447,628.0
629,5.0983229827018945,-2.113830881267168,-1.9653036061070215,0.9474068481001797,-5.082457117492044,1.026218372746572,629.0
630,5.098296464146577,-2.1138813071628344,-1.9652048658881964,0.9473585178027707,-5.082430658436181,1.0386928449646022,630.0
631,5.097046572760793,-2.116258430533468,-1.9605507234753958,0.9450807459859868,-5.0811835694089185,1.043487996969289,631.0
632,5.095813530790927,-2.1186035148803137,-1.95595931851285,0.9428336799990926,-5.079953292322409,1.0385332449817042,632.0
633,5.095792272217942,-2.118643953271782,-1.9558801550506795,0.9427949351009279,-5.079932082228647,1.0259021648595033,633.0
634,5.0957922751727605,-2.1186439609025283,-1.9558801585382801,0.942794933677208,-5.079932086634179,1.0033455456688176,634.0
635,5.095792279437536,-2.1186439719162045,-1.9558801635720342,0.9427949316223118,-5.079932092992809,0.970788926478128,635.0
636,5.0957922850122666,-2.1186439863128106,-1.9558801701519424,0.9427949289362395,-5.079932101304539,0.928232307287434,636.0
637,5.095792292257878,-2.11864400424623,-1.9558801780975636,0.9427949260970603,-5.079932114687951,0.8756756952956559,637.0
638,5.095792301355832,-2.118644025793829,-1.9558801873181795,0.9427949233451317,-5.079932134710967,0.8131190919934447,638.0
639,5.095792309244483,-2.118644053067689,-1.9558801965234238,0.9427949302876533,-5.079932152500278,0.7405624924542378,639.0
640,5.095792308546063,-2.11864409238781,-1.9558802015881553,0.9427949749946536,-5.0799321530035035,0.658005905566654,640.0
641,5.095792307755617,-2.1186441365203303,-1.9558802072220653,0.9427950253296793,-5.079932153503136,0.565449325395025,641.0
642,5.095792305604382,-2.118644185116453,-1.9558802136604636,0.9427950811015829,-5.0799321525639,0.4628927523659775,642.0
643,5.095792289413282,-2.1186442346114,-1.9558802233249013,0.9427951400723277,-5.079932135928817,0.3503361899973682,643.0
644,5.09579227178189,-2.1186442885020007,-1.955880233849697,0.942795204276012,-5.079932117800197,0.2277796357126579,644.0
645,5.095792241623763,-2.118644340291274,-1.9558802467212186,0.9427952685465213,-5.079932087177285,0.09522308751928502,645.0
646,5.0957922038302295,-2.1186443928458836,-1.9558802612830113,0.9427953351654386,-5.079932048920927,-0.04733345846576645,646.0
647,5.095792153308396,-2.1186444389131873,-1.9558802776593947,0.9427953969948244,-5.079931997980045,-0.19988999999093793,647.0
648,5.0957920939873755,-2.118644482460059,-1.955880295541088,0.9427954577243753,-5.0799319382539645,-0.3624465351918542,648.0
649,5.095792023730435,-2.1186445091588006,-1.9558803135421505,0.9427955016465529,-5.079931867719494,-0.5274559243405887,649.0
650,5.095791955761204,-2.1186445300445333,-1.9558803303256538,0.94279553857346,-5.079931799521957,-0.6826375974396136,650.0
651,5.09579188750073,-2.1186445316637705,-1.9558803447089719,0.9427955538695034,-5.07993173118961,-0.8278192705388033,651.0
652,5.095791823964487,-2.118644532188634,-1.9558803579713675,0.9427955670011274,-5.0799316675944555,-0.9630009436381258,652.0
653,5.0957917654949005,-2.118644516665124,-1.9558803681318495,0.9427955610669991,-5.079931609200828,-1.0881826167375588,653.0
654,5.095791711696092,-2.118644502381697,-1.9558803774806641,0.9427955556069086,-5.079931555471908,-1.2033642898371597,654.0
655,5.095791665319577,-2.1186444809285563,-1.9558803843723003,0.9427955406108404,-5.079931509229975,-1.3085459629368295,655.0
656,5.095791624758588,-2.118644457216666,-1.955880389767671,0.9427955219242229,-5.079931468826938,-1.4037276360366195,656.0
657,5.095791588459025,-2.118644435996002,-1.9558803945961865,0.9427955052008608,-5.079931432668733,-1.4889093091364605,657.0
658,5.095791559225067,-2.1186444133671047,-1.9558803977774462,0.9427954854976386,-5.079931403593662,-1.5640909822363875,658.0
659,5.09579153636689,-2.118644390289238,-1.9558803995772291,0.9427954640305605,-5.0799313809035045,-1.6292726553363506,659.0
660,5.095791517015553,-2.118644370751917,-1.955880401100893,0.9427954458569039,-5.07993136169441,-1.6844543284363656,660.0
661,5.095791501171057,-2.1186443547551423,-1.9558804023484364,0.9427954309766686,-5.079931345966379,-1.7296360015363943,661.0
662,5.095791488833402,-2.118644342298913,-1.955880403319863,0.942795419389856,-5.079931333719413,-1.7648176746364412,662.0
663,5.09579148000259,-2.1186443333832283,-1.955880404015172,0.9427954110964663,-5.0799313249535105,-1.7899993477364569,663.0
664,5.095791474678618,-2.1186443280080884,-1.955880404434364,0.9427954060964994,-5.079931319668673,-1.80518102083647,664.0
665,5.094970824159221,-2.1202300029826295,-1.9527736220674452,0.9412738286571471,-5.079112573978166,-1.8121757240738774,665.0
666,5.093509949674513,-2.123052744647188,-1.9472430882671066,0.9385651984548251,-5.077655090898408,-1.809903482095918,666.0
667,5.093294998987639,-2.1234680878674412,-1.946429321061343,0.9381666460854112,-5.077440641324243,-1.799516988066057,667.0
668,5.093295006396211,-2.123468092432923,-1.9464293226206884,0.938166642201396,-5.0774406528750164,-1.7797794360215593,668.0
669,5.093295017558326,-2.1234680993114994,-1.9464293249700737,0.9381666363495504,-5.077440670277971,-1.7500418839770235,669.0
670,5.093295032473982,-2.1234681085031704,-1.9464293281094986,0.9381666285298749,-5.077440693533108,-1.7103043319325004,670.0
671,5.093295051019231,-2.123468119898778,-1.9464293321527095,0.9381666183404802,-5.077440721564146,-1.6605667838369444,671.0
672,5.093295072636987,-2.123468133007724,-1.9464293376109243,0.9381666039751164,-5.0774407495338565,-1.6008292546494216,672.0
673,5.093295097873535,-2.123468148311094,-1.9464293439828388,0.9381665872050059,-5.077440782185666,-1.5310917254619458,673.0
674,5.093295131215866,-2.123468167800996,-1.9464293402248858,0.9381666004998688,-5.077440814475107,-1.4513542116934972,674.0
675,5.0932951690122445,-2.1234681898800765,-1.9464293352970135,0.9381666175531151,-5.07744085047737,-1.3616167019080874,675.0
676,5.093295211010353,-2.123468214494277,-1.946429329752754,0.9381666368268954,-5.077440890402825,-1.2618792018859013,676.0
677,5.093295261069879,-2.1234682305686103,-1.9464293213837673,0.9381666450445068,-5.07744093997062,-1.1521417113324324,677.0
678,5.093295316658398,-2.1234682453466895,-1.946429311682378,0.9381666507538956,-5.077440995480962,-1.032404228366415,678.0
679,5.093295377053796,-2.1234682542243997,-1.946429300231887,0.9381666488443676,-5.077441055858983,-0.9026667524756216,679.0
680,5.093295442358183,-2.1234682526942885,-1.9464292864400745,0.9381666341998351,-5.077441121236204,-0.7629292805777785,680.0
681,5.093295510353828,-2.123468243459687,-1.9464292711007163,0.9381666103460753,-5.077441189369013,-0.6131918113819561,681.0
682,5.093295579447652,-2.1234682204165143,-1.946429253763068,0.938166570724662,-5.07744125871181,-0.4534543488105576,682.0
683,5.093295644574872,-2.1234681845819106,-1.9464292356119612,0.9381665174830542,-5.07744132418941,-0.2871628504342807,683.0
684,5.093295701883045,-2.1234681425743602,-1.9464292182976086,0.9381664588369152,-5.077441381891779,-0.12916585282004078,684.0
685,5.093295743876948,-2.1234680914365693,-1.9464292030014896,0.9381663929388714,-5.0774414243414006,0.01883114479430155,685.0
686,5.093295780239468,-2.123468040935852,-1.9464291889594034,0.9381663288725087,-5.077441461149519,0.15682814240878803,686.0
687,5.093295802128954,-2.1234679871789597,-1.9464291775131843,0.9381662640028883,-5.077441483498707,0.28482514002342707,687.0
688,5.0932958189954665,-2.123467935686591,-1.946429167402898,0.9381662026773279,-5.077441500801991,0.4028221376381819,688.0
689,5.093295829333974,-2.123467887204627,-1.9464291590374683,0.9381661460335993,-5.077441511546916,0.5108191352530546,689.0
690,5.093295830392136,-2.1234678410024324,-1.9464291528962796,0.9381660937934898,-5.077441512984735,0.6088161328680284,690.0
691,5.093295831342321,-2.123467799514895,-1.9464291473817559,0.9381660468841646,-5.077441514275833,0.69681313048307,691.0
692,5.093295829926536,-2.1234677627949265,-1.9464291429707776,0.9381660058119917,-5.0774415131598225,0.7748101280981805,692.0
693,5.093295821616,-2.123467730948656,-1.9464291406197964,0.9381659715925739,-5.077441505103113,0.8428071257133458,693.0
694,5.0932958145276555,-2.1234677037858676,-1.9464291386145636,0.9381659424056455,-5.0774414982312654,0.9008041233285675,694.0
695,5.0932958086615026,-2.123467681306563,-1.9464291369550744,0.938165918251205,-5.07744149254428,0.948801120943813,695.0
696,5.093295804017542,-2.1234676635107395,-1.946429135641334,0.9381658991292545,-5.077441488042158,0.9867981185590629,696.0
697,5.093295800595773,-2.1234676503983976,-1.946429134673342,0.9381658850397938,-5.077441484724899,1.014795116174303,697.0
698,5.093295798396195,-2.123467641969537,-1.9464291340510984,0.938165875982823,-5.077441482592502,1.0327921137895264,698.0
699,5.0928860169792625,-2.124272040770348,-1.9448519879845356,0.9373929059490903,-5.07703268556609,1.0418806051369984,699.0
700,5.0913918090126895,-2.1272051862450243,-1.9391011415458446,0.9345743921622701,-5.075542066993529,1.0424247557338344,700.0
701,5.090832971798411,-2.1283021944584983,-1.9369503087704112,0.933520259254779,-5.074984572756326,1.0341431152069982,701.0
702,5.090832973993332,-2.1283022000972274,-1.9369503113707536,0.9335202582001233,-5.074984576094892,1.0172422464806685,702.0
703,5.090832977486956,-2.128302209072311,-1.936950315509681,0.9335202565214432,-5.07498458140884,0.9903413777543346,703.0
704,5.090832982279282,-2.1283022213837497,-1.9369503211871937,0.9335202542187386,-5.07498458869817,0.9534405090279681,704.0
705,5.09083298837031,-2.128302237031543,-1.9369503284032916,0.9335202512920094,-5.074984597962881,0.9065396403016328,705.0
706,5.090832996480254,-2.12830225633576,-1.9369503367830478,0.9335202487502512,-5.07498461549254,0.8496387834282949,706.0
707,5.090833006114188,-2.128302279076453,-1.936950346584108,0.9335202459000931,-5.074984636965028,0.782737928055638,707.0
708,5.090833009270813,-2.128302311951921,-1.9369503533998036,0.9335202726074036,-5.0749846452812015,0.7058370835317649,708.0
709,5.090833008543847,-2.1283023527555787,-1.9369503586880772,0.9335203190495975,-5.0749846458025285,0.6189362444988729,709.0
710,5.090833007719252,-2.1283023983460683,-1.9369503645023367,0.9335203712287723,-5.074984646260992,0.5220354177973476,710.0
711,5.090832999185698,-2.1283024465276443,-1.9369503723538413,0.9335204275745126,-5.074984638159345,0.4151345977665031,711.0
712,5.090832982572879,-2.128302497193018,-1.9369503823166345,0.9335204880081767,-5.07498462108017,0.2982337858562378,712.0
713,5.090832962708609,-2.1283025511205684,-1.9369503933797603,0.9335205527554157,-5.074984600709893,0.17133298195872818,713.0
714,5.090832926852172,-2.1283026008539236,-1.9369504072592636,0.9335206158967507,-5.07498456440802,0.03443218377453859,714.0
715,5.090832887048498,-2.128302652881389,-1.936950422257748,0.9335206824051939,-5.0749845241368945,-0.11246861351252425,715.0
716,5.090832830480617,-2.128302694285695,-1.9369504393885348,0.9335207402725154,-5.074984467177234,-0.26936940383987107,716.0
717,5.0908327671163995,-2.12830273195701,-1.9369504574577525,0.9335207952823743,-5.074984403446097,-0.4353504548368643,717.0
718,5.090832697966086,-2.1283027549749454,-1.9369504748502697,0.9335208349313935,-5.074984334044769,-0.596185814761629,718.0
719,5.09083263045877,-2.1283027663932104,-1.936950490408238,0.933520861186198,-5.074984266383725,-0.7470211746865412,719.0
720,5.090832565037243,-2.1283027679067343,-1.936950504257197,0.9335208758684798,-5.074984200892136,-0.8878565346115548,720.0
721,5.090832504452974,-2.128302760933306,-1.9369505160051965,0.933520880029749,-5.074984140312185,-1.0186918945367436,721.0
722,5.090832448690864,-2.1283027461319373,-1.9369505257401336,0.933520874415452,-5.07498408462331,-1.1395272544620223,722.0
723,5.090832397905861,-2.1283027314504084,-1.9369505344516877,0.9335208679488936,-5.074984033914934,-1.2503626143874473,723.0
724,5.090832355450863,-2.1283027066643507,-1.936950540125299,0.9335208484461258,-5.074983991627376,-1.3511979743129503,724.0
725,5.090832317206193,-2.128302684336367,-1.9369505452362452,0.9335208308774758,-5.074983953533541,-1.4420333342385776,725.0
726,5.090832283171849,-2.1283026644664558,-1.936950549784529,0.933520815242945,-5.0749839196334285,-1.5228686941642455,726.0
727,5.09083225832045,-2.128302640157452,-1.9369505518453831,0.9335207927857481,-5.074983894961013,-1.5937040540899956,727.0
728,5.090832237241963,-2.128302618913231,-1.9369505535128901,0.9335207730329642,-5.074983874039509,-1.654539414015771,728.0
729,5.090832219628315,-2.1283026011610957,-1.9369505549062929,0.9335207565271036,-5.074983856557039,-1.7053747739415999,729.0
730,5.09083220547951,-2.1283025869010443,-1.9369505560255937,0.9335207432681676,-5.074983842513607,-1.7462101338674338,730.0
731,5.090832194795546,-2.128302576133077,-1.9369505568707934,0.9335207332561568,-5.074983831909212,-1.7770454937932647,731.0
732,5.0908321875764235,-2.128302568857194,-1.9369505574418924,0.9335207264910713,-5.074983824743855,-1.7978808537190645,732.0
733,5.090718599111647,-2.12852907970213,-1.936506139590002,0.933302760978681,-5.074870518597056,-1.8090975979800856,733.0
734,5.089365861320304,-2.131226758217347,-1.9312133373918923,0.9307069408352904,-5.0735211427666185,-1.8124915745225094,734.0
735,5.08840224788941,-2.133148439368249,-1.9274430344803077,0.9288578199247599,-5.072559925491894,-1.8063432229166025,735.0
736,5.0884022531008934,-2.1331484425780625,-1.9274430355834036,0.9288578172115778,-5.072559933677056,-1.7923007815703866,736.0
737,5.088402262023615,-2.13314844807367,-1.9274430374720437,0.9288578125662657,-5.0725599476910945,-1.7682583402241758,737.0
738,5.088402274657573,-2.1331484558550713,-1.9274430401462284,0.9288578059888237,-5.072559967534007,-1.7342158988779413,738.0
739,5.088402291002769,-2.133148465922267,-1.9274430436059569,0.9288577974792518,-5.072559993205795,-1.6901734575316971,739.0
740,5.088402310615333,-2.1331484778740686,-1.9274430482718972,0.9288577855539536,-5.072560020811476,-1.63613102929435,740.0
741,5.088402333539657,-2.1331484917505987,-1.92744305410198,0.9288577703612968,-5.072560050740574,-1.5720886096756421,741.0
742,5.088402361732735,-2.1331485085429107,-1.9274430566301102,0.9288577650664893,-5.072560083294666,-1.4980461961780804,742.0
743,5.088402396712944,-2.13314852892427,-1.9274430520699692,0.9288577806988043,-5.0725601166325704,-1.4140037927262452,743.0
744,5.088402435846563,-2.1331485517940525,-1.927443046909646,0.9288577984628426,-5.072560153859447,-1.3199613979983602,744.0
745,5.08840248022441,-2.133148574025756,-1.9274430405260954,0.9288578145930217,-5.07256019659971,-1.2159190102954363,745.0
746,5.088402532535496,-2.133148587930359,-1.927443031353481,0.9288578199221221,-5.072560248826784,-1.101876631500122,746.0
747,5.088402589435798,-2.133148603055101,-1.9274430213754719,0.9288578257211887,-5.072560305653118,-0.9778342622982658,747.0
748,5.088402651263259,-2.1331486045559775,-1.9274430086274976,0.9288578151291867,-5.072560367526183,-0.8437918987523574,748.0
749,5.088402717774962,-2.1331486030372853,-1.9274429945139593,0.9288578001897537,-5.072560434113291,-0.6997495365877844,749.0
750,5.088402784622958,-2.1331485850445087,-1.9274429782041915,0.9288577666160304,-5.0725605011713295,-0.5457071798238875,750.0
751,5.0884028545238476,-2.1331485613970083,-1.927442960525882,0.9288577260619209,-5.072560571331305,-0.38166793313667147,751.0
752,5.088402913185943,-2.1331485185223347,-1.9274429427181754,0.9288576660725922,-5.072560630402629,-0.21797794185625777,752.0
753,5.088402964857714,-2.1331484748364304,-1.9274429262685127,0.9288576065591371,-5.0725606824841645,-0.06428795057571234,753.0
754,5.088403002266077,-2.133148423015169,-1.927442911753698,0.928857540713165,-5.072560720357346,0.0794020407049724,754.0
755,5.08840303391072,-2.133148372956491,-1.9274428986723882,0.9288574780000072,-5.0725607524470036,0.21309203198578863,755.0
756,5.088403051377856,-2.1331483197513688,-1.9274428881517254,0.9288574145601248,-5.072560770372743,0.3367820232667589,756.0
757,5.0884030674328224,-2.133148270847741,-1.9274428784816213,0.928857356249182,-5.072560786849235,0.45047201454782965,757.0
758,5.08840307136939,-2.1331482234039507,-1.9274428715356926,0.9288573019936313,-5.07256079118439,0.5541620058290077,758.0
759,5.088403072367444,-2.1331481798565273,-1.9274428657074416,0.9288572527139703,-5.0725607925459695,0.6478519971102867,759.0
760,5.088403073258971,-2.1331481409571404,-1.9274428605012652,0.9288572086941717,-5.0725607937622215,0.7315419883916124,760.0
761,5.0884030678051655,-2.133148106848258,-1.9274428572410336,0.9288571713355558,-5.0725607885876025,0.8052319796730355,761.0
762,5.0884030601130315,-2.1331480774360916,-1.9274428550552467,0.9288571397156357,-5.072560781133551,0.868921970954477,762.0
763,5.088403053628643,-2.1331480526419457,-1.9274428532126495,0.9288571130603752,-5.072560774849864,0.9226119622359771,763.0
764,5.088403048352001,-2.133148032465821,-1.9274428517132425,0.928857091369775,-5.0725607697365405,0.9663019535174843,764.0
765,5.088403044283106,-2.133148016907716,-1.9274428505570276,0.9288570746438359,-5.072560765793583,0.9999919447990101,765.0
766,5.088403041421956,-2.133148005967631,-1.927442849744005,0.9288570628825581,-5.072560763020991,1.0236819360804976,766.0
767,5.088402906793069,-2.133148269041684,-1.9274423203690803,0.9288567965122935,-5.072560628785093,1.037371925322325,767.0
768,5.087400269345287,-2.135179516265105,-1.9234543694252275,0.9268996051710842,-5.071560568636792,1.0432648857227997,768.0
769,5.086093874096837,-2.137826155248766,-1.9182582290408094,0.924349466362897,-5.070257531747343,1.0395403878642957,769.0
770,5.086005445435357,-2.138005310365479,-1.9179065031722826,0.9241768463632338,-5.070169331210371,1.02806525436296,770.0
771,5.086005448160976,-2.138005317331023,-1.9179065064141372,0.9241768450570332,-5.070169335439266,1.0068982476124453,771.0
772,5.086005452174266,-2.138005327587323,-1.917906511187552,0.9241768431337397,-5.0701693416660305,0.9757312408619122,772.0
773,5.08600545747523,-2.1380053411343782,-1.917906517492527,0.9241768405933535,-5.070169349890667,0.9345642341113607,773.0
774,5.086005464300849,-2.138005358081916,-1.9179065252005882,0.9241768377864632,-5.070169362204657,0.8833972300905498,774.0
775,5.086005473023447,-2.138005378602327,-1.917906534109889,0.9241768352638808,-5.070169381893942,0.8222302320270378,775.0
776,5.086005482166883,-2.1380054033270337,-1.9179065439076428,0.92417683611824,-5.07016940269693,0.7510632354399657,776.0
777,5.086005481495375,-2.1380054409061997,-1.9179065488089246,0.9241768789362008,-5.070169403176164,0.6698962536278754,777.0
778,5.086005480735669,-2.138005483150253,-1.9179065542820797,0.9241769271801636,-5.070169403665856,0.5787292767983909,778.0
779,5.086005479883423,-2.138005530087039,-1.9179065603016872,0.924176980969935,-5.0701694041273795,0.47756230789397947,779.0
780,5.086005464992892,-2.1380055777827067,-1.9179065695713162,0.9241770378087603,-5.070169388888491,0.3663953501320952,780.0
781,5.086005447979392,-2.138005629549933,-1.9179065798250505,0.924177099628158,-5.070169371383705,0.24522839968983076,781.0
782,5.086005420983476,-2.1380056805747607,-1.9179065920875669,0.9241771625701036,-5.070169343911196,0.1140614558475678,782.0
783,5.086005384451026,-2.1380057311179934,-1.917906606297985,0.924177226842985,-5.070169306918812,-0.027105484873884086,783.0
784,5.086005337612986,-2.138005777476083,-1.9179066221283971,0.9241772884524782,-5.070169259648229,-0.1782724219945369,784.0
785,5.086005280199311,-2.1380058193774234,-1.9179066396001847,0.9241773471464771,-5.070169201831321,-0.33943935265696235,785.0
786,5.086005214285415,-2.1380058476510517,-1.91790665709059,0.9241773921696382,-5.070169135620851,-0.5018970935997473,786.0
787,5.086005149498153,-2.1380058691339716,-1.9179066734652293,0.9241774293113275,-5.07016907059499,-0.65439941652501,787.0
788,5.086005084631879,-2.138005872679475,-1.917906687533611,0.9241774462435192,-5.070169005640586,-0.7969017394503849,788.0
789,5.086005023813115,-2.1380058740494237,-1.9179067004710695,0.9241774599155834,-5.070168944755592,-0.929404062375758,789.0
790,5.086004967873644,-2.138005862700449,-1.9179067107377714,0.9241774582735427,-5.0701688888610255,-1.0519063853011994,790.0
791,5.0860049165738,-2.1380058490844096,-1.9179067197374762,0.9241774531501281,-5.0701688376292875,-1.1644087082266652,791.0
792,5.086004870850141,-2.1380058335865093,-1.9179067273235741,0.9241774447929245,-5.070168791994548,-1.2669110311521565,792.0
793,5.08600483236592,-2.138005811146194,-1.917906732491789,0.9241774271642795,-5.070168753664025,-1.3594133540776903,793.0
794,5.086004798042048,-2.1380057911318007,-1.917906737101287,0.9241774114413838,-5.070168719477238,-1.4419156770032362,794.0
795,5.086004767878528,-2.138005773543327,-1.9179067411520716,0.9241773976242388,-5.070168689434185,-1.5144179999287786,795.0
796,5.086004745546957,-2.1380057533009973,-1.9179067432160157,0.9241773792530473,-5.070168667252401,-1.5769203228543183,796.0
797,5.086004727571402,-2.138005735213874,-1.917906744645141,0.9241773624433511,-5.070168649412468,-1.6294226457798258,797.0
798,5.086004713019612,-2.1380057205717646,-1.9179067458020638,0.9241773488353603,-5.070168634970466,-1.671924968705302,798.0
799,5.086004701891586,-2.1380057093746694,-1.9179067466867816,0.924177338429073,-5.070168623926397,-1.7044272916307897,799.0
800,5.086004694187322,-2.1380057016225886,-1.9179067472992983,0.9241773312244916,-5.0701686162802595,-1.7269296145562747,800.0
801,5.086004689906822,-2.138005697315521,-1.9179067476396134,0.9241773272216157,-5.070168612032055,-1.739431937481771,801.0
802,5.086393023310097,-2.137244801737419,-1.9194678858027951,0.9249777160349639,-5.070555656041637,-1.7427262539284554,802.0
