Miguel-LA/TFM_MiguelLerinAlonso/workspace/ros_ur_driver/src/trayectories/data/saved_trajectories/20240522_1746_trajectory.csv
,shoulder_pan_joint,shoulder_lift_joint,elbow_joint,wrist_1_joint,wrist_2_joint,wrist_3_joint,time_from_start
0,-1.1698072255070062,-2.099389288703716,-1.997037718512803,0.9718305844182128,1.1711174790924115,1.5567376556991301,0.0
1,-1.1699976574433417,-2.099759110369426,-1.9964856500591135,0.9716052173754721,1.1714603547085318,1.5517376556991302,1.0
2,-1.1705689532523476,-2.1008685753665572,-1.9948294446980448,0.9709291162472501,1.1724889815568924,1.5367376556991303,2.0
3,-1.1715211129340244,-2.1027176836951087,-1.9920691024295973,0.9698022810335467,1.1742033596374934,1.5117376556991302,3.0
4,-1.1728541364883718,-2.1053064353550814,-1.9882046232537707,0.9682247117343619,1.1766034889503352,1.4767376556991303,4.0
5,-1.1745624824191188,-2.1086288797857082,-1.983236585914792,0.9661668015397531,1.1796760836628657,1.431737679839927,5.0
6,-1.176630720880445,-2.1126684510536644,-1.9771665924820483,0.9635460907501603,1.1833841484471197,1.3767377070677975,6.0
7,-1.1790467937699582,-2.1174122027754296,-1.9699958963957134,0.9602981422329364,1.187698772537729,1.3117377346106973,7.0
8,-1.181795800684486,-2.1228466239310753,-1.9617250449362265,0.9563536980359721,1.1925755377400424,1.2367377864359124,8.0
9,-1.1848592635239417,-2.1289581617184883,-1.9523534193137628,0.9516401884503018,1.197948175847909,1.1517378437796306,9.0
10,-1.1878212673292607,-2.134910429207554,-1.9431720913954293,0.9468363943716454,1.2030945242205833,1.0567385437252987,10.0
11,-1.1887105442714019,-2.1366981786764017,-1.9404137264976944,0.9453903746076362,1.2046388709857327,0.9517437973273184,11.0
12,-1.1887105354067051,-2.1366982320731864,-1.940413718552696,0.9453903986199941,1.204638872337355,0.8367512971446862,12.0
13,-1.1887105296184435,-2.136698290293947,-1.9404137158350265,0.945390438411428,1.2046388721957304,0.71175880274765,13.0
14,-1.1887105309560155,-2.1366983540387947,-1.9404137234088057,0.9453905091945207,1.2046388731767437,0.5767663168808701,14.0
15,-1.188710537734981,-2.1366984211360838,-1.9404137324618165,0.9453905849562253,1.2046388797791479,0.4317738390664392,15.0
16,-1.1887105597618777,-2.1366984889739467,-1.9404137447745406,0.9453906647848836,1.2046389023653754,0.27678136743984766,16.0
17,-1.1887105921815757,-2.136698555895175,-1.940413759191463,0.9453907456793943,1.204638935354243,0.11178889962232316,17.0
18,-1.1887106380277974,-2.136698620108695,-1.9404137761560274,0.9453908262553435,1.204638981763364,-0.06320356240186428,18.0
19,-1.1887106996907293,-2.1366986718845817,-1.940413795071268,0.9453908962050425,1.2046390439007997,-0.24397474556620882,19.0
20,-1.1887107638979435,-2.1366987139002127,-1.9404138134249513,0.9453909558259656,1.2046391085051764,-0.41597293561497206,20.0
21,-1.1887108335653296,-2.1366987373183495,-1.9404138308384413,0.9453909958896547,1.2046391784235535,-0.5779711256637469,21.0
22,-1.1887109010001626,-2.136698751295736,-1.9404138467135756,0.9453910250161084,1.2046392460307995,-0.729969315712518,22.0
23,-1.188710966977217,-2.1366987528369057,-1.9404138608767292,0.9453910400341634,1.2046393120780547,-0.8719675057612857,23.0
24,-1.188711028160502,-2.13669874778345,-1.9404138732795264,0.9453910467599768,1.2046393732738234,-1.00396569581005,24.0
25,-1.1887110844716644,-2.1366987326885605,-1.9404138835165385,0.9453910413489691,1.204639429511707,-1.1259638858588104,25.0
26,-1.1887111361670912,-2.1366987188309787,-1.9404138929144323,0.9453910363814894,1.2046394811398624,-1.2379620759075685,26.0
27,-1.1887111792585432,-2.1366986939305526,-1.9404138992423035,0.9453910174121747,1.2046395240668886,-1.339960265956324,27.0
28,-1.1887112180008494,-2.1366986710882903,-1.9404139048801836,0.9453909998519808,1.2046395626576711,-1.4319584560050775,28.0
29,-1.1887112525319534,-2.1366986507289325,-1.940413909905235,0.9453909842005394,1.2046395970537216,-1.5139566460538316,29.0
30,-1.188711278453487,-2.1366986266920245,-1.9404139126899307,0.9453909627276498,1.2046396228028253,-1.5859548361025841,30.0
31,-1.1887112999389609,-2.1366986048230805,-1.9404139147785977,0.9453909427683252,1.2046396441295866,-1.6479530261513378,31.0
32,-1.1887113179589353,-2.1366985864814896,-1.9404139165303707,0.9453909260283391,1.204639662016448,-1.6999512162000938,32.0
33,-1.1887113325134093,-2.1366985716672513,-1.9404139179452509,0.9453909125076922,1.204639676463409,-1.74194940624885,33.0
34,-1.188711343602383,-2.136698560380364,-1.9404139190232406,0.9453909022063858,1.2046396874704692,-1.7739475962976057,34.0
35,-1.1887113512258567,-2.136698552620829,-1.9404139197643393,0.9453908951244197,1.2046396950376286,-1.7959457863463615,35.0
36,-1.188754358407521,-2.136782095166128,-1.94024763338746,0.9453081322182564,1.2046825982414848,-1.8080951877979514,36.0
37,-1.1900130805327849,-2.1392275551741085,-1.9353803280443287,0.9428857295681456,1.2059382777756082,-1.812580624071635,37.0
38,-1.1911577610769288,-2.1414514630776575,-1.9309539930138975,0.9406827929728826,1.2070801901855521,-1.8073321574409997,38.0
39,-1.1911683680890894,-2.1414720829174834,-1.930912959384092,0.940662367948075,1.207090768576593,-1.794402904745424,39.0
40,-1.191168359539488,-2.141472088214602,-1.9309129610715683,0.9406623633606648,1.2070907547686174,-1.771512932444152,40.0
41,-1.1911683472548007,-2.141472095825886,-1.9309129634962567,0.9406623567691415,1.2070907349283169,-1.7386229601428798,41.0
42,-1.1911683312350274,-2.1414721057513355,-1.930912966658157,0.9406623481735046,1.2070907090556915,-1.6957329878416076,42.0
43,-1.1911683118389922,-2.141472117643453,-1.9309129709232185,0.9406623362784838,1.2070906802988264,-1.6428430255101498,43.0
44,-1.1911682891859046,-2.14147213138679,-1.9309129764130188,0.9406623206537545,1.2070906497035998,-1.5799530736465184,44.0
45,-1.1911682618122335,-2.1414721478398766,-1.9309129798563565,0.9406623111462739,1.2070906160378048,-1.5070631260447,45.0
46,-1.191168227306548,-2.1414721681333364,-1.930912974959539,0.9406623262998401,1.2070905831696754,-1.4241731903655515,46.0
47,-1.1911681886461858,-2.1414721909277192,-1.9309129694236327,0.9406623435082688,1.2070905464082733,-1.3312832619128938,47.0
48,-1.1911681452752838,-2.1414722146237297,-1.9309129629418607,0.9406623609048466,1.2070905049311373,-1.2283933406245893,48.0
49,-1.1911680934810918,-2.1414722285280954,-1.930912953485353,0.9406623659452014,1.20709045322195,-1.1155034295939612,49.0
50,-1.1911680370968816,-2.1414722436650453,-1.930912943190088,0.9406623714348982,1.2070903969147317,-0.992613527019492,50.0
51,-1.1911679758318017,-2.141472247176421,-1.930912930557561,0.9406623629709077,1.2070903356219274,-0.8597236304821911,51.0
52,-1.1911679098361017,-2.1414722456562894,-1.930912916357028,0.940662347938134,1.207090269551776,-0.7168337360277629,52.0
53,-1.1911678428753554,-2.1414722299208453,-1.930912900342264,0.9406623169137627,1.2070902024018686,-0.5639438462558126,53.0
54,-1.1911677732428618,-2.141472206560851,-1.9309128828964757,0.9406622768766627,1.2070901325166878,-0.4010539627364356,54.0
55,-1.1911677130507468,-2.1414721649672854,-1.930912865393402,0.9406622184867843,1.2070900719310447,-0.2363064992334861,55.0
56,-1.1911676592643925,-2.1414721222521584,-1.9309128491250092,0.940662160145759,1.2070900177476498,-0.08146368733808157,56.0
57,-1.1911676215445919,-2.1414720694885805,-1.9309128351343987,0.9406620938870853,1.2070899795628143,0.06337912455732327,57.0
58,-1.191167587814759,-2.1414720195512755,-1.9309128223118375,0.9406620315757486,1.2070899453945982,0.19822193645273087,58.0
59,-1.1911675701783462,-2.141471965308451,-1.9309128124228463,0.9406619677338894,1.2070899272988123,0.3230647483481379,59.0
60,-1.1911675539546231,-2.1414719154105213,-1.930912803325962,0.940661909005807,1.2070899106525121,0.4379075602435468,60.0
61,-1.1911675483582198,-2.141471867387388,-1.9309127967003201,0.9406618545097534,1.2070899046582717,0.5427503721389572,61.0
62,-1.1911675473458472,-2.141471822859029,-1.9309127914446869,0.9406618048240118,1.2070899032807092,0.6375931840343659,62.0
63,-1.1911675464402167,-2.1414717830256365,-1.9309127867431901,0.9406617603770144,1.2070899020483936,0.7224359959297766,63.0
64,-1.1911675508323234,-2.1414717480067953,-1.9309127837128095,0.9406617223512048,1.2070899061578904,0.7972788078251883,64.0
65,-1.1911675586643804,-2.1414717177597065,-1.9309127819537952,0.9406616903234031,1.2070899137494195,0.8621216197206002,65.0
66,-1.1911675652885847,-2.141471692177297,-1.9309127804660533,0.9406616632348995,1.2070899201701901,0.9169644316160119,66.0
67,-1.1911675707049363,-2.141471671259567,-1.9309127792495828,0.9406616410856941,1.2070899254202017,0.9618072435114212,67.0
68,-1.191167574913435,-2.1414716550065163,-1.9309127783043865,0.9406616238757876,1.2070899294994546,0.9966500554068305,68.0
69,-1.1911675779140807,-2.1414716434181433,-1.9309127776304644,0.9406616116051799,1.2070899324079487,1.0214928673022396,69.0
70,-1.1911675797068741,-2.1414716364944493,-1.9309127772278172,0.9406616042738714,1.207089934145684,1.03633567919765,70.0
71,-1.192007264770235,-2.1431292587794064,-1.927612098846415,0.9390181999349367,1.2079275191405139,1.0430836858422787,71.0
72,-1.1934088497302056,-2.145896137089137,-1.9221026687166982,0.9362750652502353,1.2093255984969242,1.0404913567637295,72.0
73,-1.1935918745476501,-2.146257453680048,-1.921383220564247,0.9359168519019423,1.2095081646452805,1.029879228167485,73.0
74,-1.1935918719282448,-2.1462574603238243,-1.9213832235434534,0.9359168504254428,1.2095081602855848,1.0098548425047655,74.0
75,-1.1935918680007318,-2.146257470285443,-1.9213832280104493,0.9359168482115925,1.209508153748696,0.9798304568420462,75.0
76,-1.1935918627651112,-2.146257483564905,-1.921383233965234,0.9359168452603914,1.209508145034614,0.9398060711793272,76.0
77,-1.193591856069833,-2.146257500241077,-1.921383241316359,0.9359168418317751,1.2095081328061719,0.8897816866217241,77.0
78,-1.1935918473735816,-2.1462575205956664,-1.9213832497371803,0.9359168388542002,1.2095081122871814,0.829757306492682,78.0
79,-1.193591837228544,-2.14625754434131,-1.9213832595609017,0.9359168353805644,1.209508088349748,0.7597329263636406,79.0
80,-1.1935918375866326,-2.1462575815226246,-1.9213832640091382,0.9359168763386463,1.2095080871893282,0.6797085621207173,80.0
81,-1.193591838334553,-2.146257623661331,-1.9213832687972028,0.935916923802689,1.2095080866686283,0.5896842017642819,81.0
82,-1.1935918391776434,-2.146257670551162,-1.9213832740524144,0.9359169768424076,1.2095080861974306,0.48965985080157315,82.0
83,-1.1935918523201958,-2.1462577186848066,-1.9213832822610797,0.9359170331911721,1.2095080994761447,0.3796355096433476,83.0
84,-1.1935918691797311,-2.146257770481153,-1.9213832917182936,0.9359170942452023,1.2095081168200572,0.25961117601846123,84.0
85,-1.1935918941895354,-2.146257822610136,-1.9213833029585985,0.9359171572964448,1.2095081423131155,0.12958684937285178,85.0
86,-1.1935919304375293,-2.1462578732490485,-1.921383316436378,0.935917220934801,1.2095081790140156,-0.010437473455649299,86.0
87,-1.1935919752603938,-2.146257921421295,-1.9213833314612878,0.9359172835696883,1.2095082242758677,-0.16046179340207492,87.0
88,-1.1935920322832174,-2.146257963443304,-1.9213833483871983,0.9359173418419631,1.2095082816961402,-0.32048610675727274,88.0
89,-1.1935920985211763,-2.146257994813859,-1.921383366067065,0.9359173901417444,1.2095083482520164,-0.48671943365756437,89.0
90,-1.1935921655388257,-2.1462580172518804,-1.9213833828984135,0.9359174286698666,1.2095084155146676,-0.6444295513896492,90.0
91,-1.193592232473028,-2.146258022195383,-1.9213833977247428,0.9359174477335129,1.2095084825495421,-0.792139669121689,91.0
92,-1.1935922956983542,-2.1462580236308137,-1.921383411362151,0.935917462145619,1.2095085458432946,-0.9298497868537035,92.0
93,-1.1935923540254862,-2.146258011465042,-1.9213834224106896,0.9359174604452094,1.2095086041223153,-1.0575599045857076,93.0
94,-1.193592407713151,-2.146257997072489,-1.9213834322175307,0.9359174553289542,1.2095086577393541,-1.175270022317708,94.0
95,-1.19359245517971,-2.1462579788026517,-1.9213834402581222,0.9359174446414809,1.209508705097747,-1.2829801400497054,95.0
96,-1.193592495839982,-2.1462579548577936,-1.921383446203548,0.9359174262657413,1.209508745596965,-1.380690257781701,96.0
97,-1.1935925323389394,-2.1462579333635405,-1.9213834515404904,0.9359174097706375,1.2095087819513521,-1.468400375513692,97.0
98,-1.193592563271839,-2.1462579123574215,-1.921383455746665,0.9359173926898658,1.2095088127387241,-1.5461104932456808,98.0
99,-1.1935925864591654,-2.146257888794587,-1.9213834580117126,0.9359173711968494,1.209508835752509,-1.613820610977669,99.0
100,-1.1935926062219924,-2.1462578687117104,-1.9213834599422388,0.9359173528781022,1.2095088553674245,-1.6715307287096608,100.0
101,-1.1935926225603206,-2.1462578521087927,-1.9213834615382406,0.9359173377336225,1.2095088715834714,-1.7192408464416595,101.0
102,-1.193592635474149,-2.1462578389858322,-1.9213834627997213,0.9359173257634128,1.2095088844006485,-1.756950964173657,102.0
103,-1.193592644963478,-2.1462578293428294,-1.9213834637266818,0.9359173169674733,1.2095088938189562,-1.7846610819056532,103.0
104,-1.193592651028307,-2.146257823179784,-1.9213834643191217,0.9359173113458037,1.209508899838394,-1.8023711996376504,104.0
105,-1.194028530779695,-2.1471321230369798,-1.9196417979098703,0.935049776092269,1.2099436519918818,-1.8112652369748652,105.0
106,-1.1954792477665221,-2.150042042207284,-1.9138450547779053,0.9321623901689018,1.211390615837817,-1.8115556805896131,106.0
107,-1.1959849583361717,-2.1510564295628467,-1.911824335564979,0.9311558583862103,1.2118950162117244,-1.8030958927661158,107.0
108,-1.1959849520072519,-2.151056433482569,-1.9118243368212595,0.9311558550136575,1.2118950059192874,-1.7859585864235321,108.0
109,-1.1959849419852664,-2.1510564396895364,-1.9118243388106078,0.9311558496731451,1.2118949896209845,-1.7588212800809502,109.0
110,-1.195984928270215,-2.1510564481837493,-1.9118243415330238,0.9311558423646733,1.2118949673168151,-1.721683973738366,110.0
111,-1.1959849108620983,-2.1510564589652077,-1.9118243449885075,0.9311558330882417,1.2118949390067795,-1.6745466673957812,111.0
112,-1.195984890443359,-2.1510564713568745,-1.9118243498946796,0.9311558193113658,1.211894910740797,-1.617409377052749,112.0
113,-1.1959848665222637,-2.1510564858465866,-1.9118243557344603,0.9311558028588182,1.2118948781596175,-1.5502720882432386,113.0
114,-1.1959848360656733,-2.1510565038870406,-1.9118243545883247,0.9311558068855778,1.2118948457674499,-1.4731348104967297,114.0
115,-1.195984800217366,-2.1510565249424096,-1.9118243494790765,0.9311558225684728,1.2118948116242134,-1.3859975377589917,115.0
116,-1.1959847602697957,-2.1510565485076443,-1.9118243436967903,0.931155840454101,1.2118947736942733,-1.2888602777954432,116.0
117,-1.1959847136915585,-2.1510565672767443,-1.9118243359045703,0.9311558517961323,1.2118947281463135,-1.1817230244709256,117.0
118,-1.195984660582154,-2.151056581536292,-1.9118243261599437,0.9311558569228324,1.2118946751205104,-1.0645857792300117,118.0
119,-1.195984602881795,-2.1510565945816182,-1.9118243152968688,0.931155859763274,1.2118946174768956,-0.9374485419661709,119.0
120,-1.1959845402909495,-2.1510565931817673,-1.911824301762695,0.9311558454852586,1.2118945548143105,-0.8003113103404511,120.0
121,-1.1959844737173606,-2.1510565894394222,-1.9118242871106172,0.9311558277922303,1.2118944881460418,-0.653174079843454,121.0
122,-1.1959844073379269,-2.151056567259378,-1.9118242703981667,0.9311557896350895,1.2118944215221759,-0.4960368562441922,122.0
123,-1.1959843409178492,-2.151056537280433,-1.9118242527879752,0.9311557427969014,1.2118943547928314,-0.32997019673451466,123.0
124,-1.195984284030963,-2.1510564954206,-1.9118242358604642,0.931155684684202,1.211894297506553,-0.1693768591911281,124.0
125,-1.1959842384672026,-2.1510564482667176,-1.9118242207490024,0.9311556229856406,1.2118942515096565,-0.01878352164775045,125.0
126,-1.1959842022881144,-2.151056397787083,-1.9118242072637526,0.9311555594960843,1.2118942148782907,0.1218098158956196,126.0
127,-1.1959841764401098,-2.1510563463319086,-1.9118241958748612,0.9311554970214609,1.211894188579255,0.25240315343897907,127.0
128,-1.1959841596069758,-2.1510562946758807,-1.911824186389389,0.9311554361557464,1.2118941713015825,0.3729964909823303,128.0
129,-1.1959841456502827,-2.1510562469064016,-1.911824177961603,0.9311553801967214,1.2118941569352553,0.48358982852567856,129.0
130,-1.1959841445908388,-2.1510562003368867,-1.9118241724265221,0.9311553281934895,1.2118941554878289,0.5841831660690215,130.0
131,-1.1959841436367147,-2.151056158396857,-1.9118241674416794,0.9311552813599053,1.2118941541842916,0.6747765036123629,131.0
132,-1.19598414278791,-2.1510561210863117,-1.9118241630070785,0.9311552396959705,1.211894153024643,0.7553698411557024,132.0
133,-1.195984150910063,-2.151056088603578,-1.9118241610397617,0.9311552052241803,1.2118941608841984,0.8259631786990412,133.0
134,-1.1959841581434099,-2.151056060728088,-1.9118241594077263,0.931155175695253,1.2118941678924315,0.8865565162423826,134.0
135,-1.1959841641830036,-2.1510560374530208,-1.911824158045031,0.9311551510396204,1.2118941737440636,0.9371498537857295,135.0
136,-1.1959841690288449,-2.1510560187783754,-1.9118241569516776,0.9311551312572837,1.2118941784390944,0.9777431913290795,136.0
137,-1.195984172680933,-2.1510560047041514,-1.911824156127667,0.9311551163482434,1.211894181977524,1.0083365288724269,137.0
138,-1.1959841751392684,-2.1510559952303487,-1.9118241555729996,0.9311551063124996,1.211894184359352,1.0289298664157733,138.0
139,-1.196110855249234,-2.1513141671344655,-1.9113096342905411,0.9308987113810154,1.212020525562549,1.0399596221489258,139.0
140,-1.1974349960058415,-2.154012822256737,-1.9059314805875018,0.9282187365959024,1.2133411242164878,1.0431322006305332,140.0
141,-1.1983450187724576,-2.1558674926077344,-1.9022353124937748,0.9263769081824941,1.2142487121026466,1.0368103162103963,141.0
142,-1.1983450169268022,-2.1558674972664162,-1.9022353146021884,0.9263769071457081,1.2142487089768343,1.0225767070600615,142.0
143,-1.1983450137844587,-2.1558675051981133,-1.9022353181918938,0.9263769053805151,1.2142487036549434,0.998343097909726,143.0
144,-1.198345009345427,-2.155867516402825,-1.9022353232628917,0.9263769028869151,1.214248696136974,0.9641094887593917,144.0
145,-1.1983450036097072,-2.1558675308805517,-1.9022353298151817,0.9263768996649082,1.214248686422926,0.9198758796090533,145.0
146,-1.1983449960974728,-2.1558675488899763,-1.9022353375483365,0.9263768965751127,1.2142486702348232,0.8656422717932724,146.0
147,-1.1983449868836664,-2.155867570390695,-1.9022353465092787,0.9263768934831109,1.2142486482408312,0.8014086647764018,147.0
148,-1.198344980860337,-2.155867599101523,-1.9022353542276513,0.9263769072197161,1.214248633081569,0.7271750641901209,148.0
149,-1.1983449815485872,-2.155867637963381,-1.9022353586953356,0.9263769509636423,1.2142486325674267,0.6429414733409609,149.0
150,-1.1983449823296715,-2.1558676815024955,-1.9022353636341927,0.9263770001757196,1.2142486320921428,0.5487078914637016,150.0
151,-1.1983449868001068,-2.1558677286752763,-1.9022353697899195,0.9263770541504045,1.2142486356810536,0.44447431658771575,151.0
152,-1.1983450026549511,-2.155867777281267,-1.90223537872821,0.9263771115123264,1.2142486519890525,0.33024075039533585,152.0
153,-1.1983450198997896,-2.1558678301400116,-1.9022353884512861,0.9263771738873368,1.214248669743034,0.20600719398471445,153.0
154,-1.198345051954035,-2.155867879338506,-1.9022354009452644,0.9263772351601623,1.2142487022491595,0.07177364316625062,154.0
155,-1.1983450888512297,-2.1558679307541895,-1.9022354147338083,0.9263772998770481,1.2142487396135655,-0.07245990638787832,155.0
156,-1.1983451405954109,-2.1558679732662496,-1.9022354306844105,0.9263773577161296,1.2142487917616418,-0.22669345042252168,156.0
157,-1.1983451988443148,-2.155868015021443,-1.902235447942012,0.9263774160392493,1.2142488504135247,-0.39091349162845396,157.0
158,-1.198345267504804,-2.1558680379177235,-1.902235465272859,0.9263774555041975,1.2142489193286812,-0.5544122719025525,158.0
159,-1.1983453332356606,-2.15586805452508,-1.9022354812565014,0.9263774873757579,1.2142489852588494,-0.7079110521766421,159.0
160,-1.1983453983446344,-2.155868055959111,-1.902235495370999,0.9263775022405425,1.214249050439483,-0.8514098324507224,160.0
161,-1.1983454588300244,-2.155868053499922,-1.9022355080494242,0.9263775118318847,1.2142491109596896,-0.984908612724662,161.0
162,-1.198345514496682,-2.155868038573562,-1.9022355182690758,0.9263775065716673,1.21424916655233,-1.1084073929986304,162.0
163,-1.1983455656558761,-2.15586802485583,-1.9022355276612082,0.9263775017373785,1.214249217643501,-1.2219061732726362,163.0
164,-1.1983456089945523,-2.155868002191293,-1.902235534354142,0.9263774853560955,1.2142492608320543,-1.3254049535466645,164.0
165,-1.1983456474460508,-2.1558679795714566,-1.9022355400050475,0.9263774680285154,1.2142492991293268,-1.41890373382072,165.0
166,-1.1983456817850366,-2.155867959370888,-1.9022355450515664,0.9263774525541746,1.2142493333305817,-1.5024025140947947,166.0
167,-1.198345708459636,-2.155867936640035,-1.90223554816642,0.9263774327029153,1.214249359839237,-1.5759012943688848,167.0
168,-1.1983457299500835,-2.155867914835115,-1.9022355502764356,0.9263774128251901,1.214249381166746,-1.6394000746429909,168.0
169,-1.1983457480561435,-2.1558678964641076,-1.902235552054157,0.9263773960778746,1.214249399135528,-1.6928988549171027,169.0
170,-1.1983457627778167,-2.155867881527012,-1.9022355534995843,0.9263773824609688,1.214249413745583,-1.7363976351912116,170.0
171,-1.1983457741151022,-2.155867870023828,-1.9022355546127203,0.9263773719744739,1.2142494249969105,-1.7698964154653267,171.0
172,-1.1983457820680004,-2.155867861954555,-1.9022355553935648,0.92637736461839,1.2142494328895106,-1.7933951957394336,172.0
173,-1.1983471348381312,-2.155870649049152,-1.902229989893873,0.926374585726277,1.214250781896797,-1.8068984954444578,173.0
174,-1.1993508512820754,-2.15794904876537,-1.898086226056427,0.9243088879544193,1.2152517227414856,-1.8126788745945137,174.0
175,-1.2006003791768431,-2.1605364625663435,-1.8929276332610003,0.921737291671099,1.2164977943761826,-1.8088041700012736,175.0
176,-1.2006758596131628,-2.1606927720454685,-1.8926160010154476,0.9215819381100994,1.216573063375612,-1.7972199192786757,176.0
177,-1.2006758518311587,-2.160692776863019,-1.8926160025692182,0.921581933991122,1.216573050630934,-1.7759111144627249,177.0
178,-1.2006758403971407,-2.160692783941395,-1.8926160048521572,0.9215819279391511,1.2165730319053107,-1.7446023096467695,178.0
179,-1.2006758253111094,-2.160692793280598,-1.8926160078642646,0.9215819199541873,1.2165730071987433,-1.703293504830816,179.0
180,-1.2006758068015897,-2.160692804648317,-1.8926160118533903,0.9215819091644706,1.2165729785581105,-1.6519847040306512,180.0
181,-1.200675785191045,-2.160692817716747,-1.8926160171692668,0.921581894339889,1.2165729488716988,-1.5906759114001012,181.0
182,-1.2006757596338602,-2.160692833114496,-1.8926160222231083,0.9215818803618295,1.2165729150986926,-1.5193671204563282,182.0
183,-1.2006757265718737,-2.1606928525097704,-1.892616017489567,0.9215818947706893,1.2165728836128162,-1.4380583437698555,183.0
184,-1.2006756894494868,-2.1606928743267386,-1.8926160121398485,0.921581911108259,1.2165728483071572,-1.3467495723086176,184.0
185,-1.2006756482707404,-2.1606928985905904,-1.8926160061503587,0.9215819294831782,1.2165728092182082,-1.2454408086600364,185.0
186,-1.2006755985556525,-2.160692912448644,-1.8926159970430165,0.9215819347943777,1.2165727596647502,-1.1341320563148567,186.0
187,-1.2006755441964652,-2.160692927048248,-1.8926159870170354,0.9215819399991717,1.2165727053852673,-1.0128233112952447,187.0
188,-1.2006754851349062,-2.1606929331643308,-1.892615975018495,0.9215819347668375,1.2165726463195743,-0.8815145728831807,188.0
189,-1.2006754213940707,-2.160692931782661,-1.8926159611644882,0.9215819202022375,1.2165725825044706,-0.7402058375834539,189.0
190,-1.2006753558785785,-2.1606929197814355,-1.8926159457098928,0.9215818934560942,1.2165725168252013,-0.5888971060041258,190.0
191,-1.200675288534249,-2.160692897369131,-1.8926159286669044,0.921581854749635,1.2165724492293015,-0.4275883808318847,191.0
192,-1.200675227615587,-2.160692859842529,-1.8926159112690581,0.9215818005356041,1.2165723879374455,-0.26182175679166986,192.0
193,-1.2006751728561713,-2.1606928196667274,-1.892615894890383,0.9215817446320559,1.216572332788176,-0.10540208875635643,193.0
194,-1.200675135021993,-2.16069276844863,-1.8926158808803786,0.9215816798984711,1.2165722944866297,0.04101757927897767,194.0
195,-1.200675100328905,-2.1606927201637056,-1.8926158678820493,0.921581619071198,1.2165722593538424,0.17743724731431676,195.0
196,-1.2006750818426994,-2.1606926673843008,-1.8926158578498773,0.921581556554226,1.2165722404050203,0.30385691534966625,196.0
197,-1.200675065783774,-2.1606926182124475,-1.8926158487534495,0.9215814985482106,1.2165722239161774,0.4202765833850281,197.0
198,-1.200675058075233,-2.160692571394791,-1.892615841721502,0.9215814448688119,1.2165722158053291,0.5266962514203941,198.0
199,-1.2006750570731117,-2.160692527372209,-1.892615836451435,0.9215813956707051,1.2165722144307085,0.6231159194557613,199.0
200,-1.2006750561749238,-2.1606924879153557,-1.8926158317279373,0.9215813515750929,1.2165722131986543,0.7095355874911308,200.0
201,-1.2006750590157884,-2.1606924531030405,-1.8926158283411103,0.9215813134126132,1.2165722157483205,0.7859552555265099,201.0
202,-1.2006750668529982,-2.1606924229625224,-1.892615826564227,0.9215812814705606,1.2165722233383953,0.8523749235618848,202.0
203,-1.2006750735102552,-2.1606923973598953,-1.8926158250548664,0.9215812543376336,1.216572229785725,0.9087945915972561,203.0
204,-1.2006750789875589,-2.16069237629516,-1.8926158238130264,0.9215812320138305,1.2165722350903099,0.9552142596326183,204.0
205,-1.2006750832849096,-2.1606923597683148,-1.8926158228387107,0.9215812144991531,1.2165722392521496,0.9916339276679778,205.0
206,-1.2006750864023066,-2.160692347779359,-1.8926158221319198,0.921581201793602,1.2165722422712442,1.018053595703345,206.0
207,-1.2006750883397508,-2.1606923403282945,-1.8926158216926534,0.9215811938971769,1.216572244147594,1.034473263738706,207.0
208,-1.2012515190414332,-2.1619050556590955,-1.8901970101464707,0.9203749215559789,1.2171470274463487,1.0424142108770365,208.0
209,-1.2026342242147512,-2.164814053652278,-1.8843949101595756,0.9174813961275676,1.2185257808309864,1.041436987432683,209.0
210,-1.2029748933275997,-2.1655307742689245,-1.8829653926646057,0.9167684900684432,1.2188654754723467,1.0320442529752054,210.0
211,-1.2029748909663724,-2.165530780199879,-1.8829653953746328,0.9167684887456338,1.2188654714030989,1.0136763896204921,211.0
212,-1.2029748873196247,-2.1655307893598175,-1.8829653995600775,0.9167684867026484,1.2188654651184339,0.9853085262657744,212.0
213,-1.2029748823873563,-2.1655308017487407,-1.8829654052209401,0.9167684839394872,1.2188654566183517,0.9469406629110704,213.0
214,-1.20297487614487,-2.1655308173804393,-1.882965412341172,0.9167684805024343,1.218865445680381,0.8985727999759748,214.0
215,-1.2029748678542225,-2.165530836667006,-1.8829654204412485,0.9167684777744923,1.2188654256570013,0.8402049474482094,215.0
216,-1.2029748581431616,-2.1655308592578852,-1.8829654299290879,0.9167684745791795,1.2188654022030723,0.7718370949204366,216.0
217,-1.2029748566397953,-2.1655308931472907,-1.8829654352817409,0.9167685068003701,1.2188653969349037,0.6934692554184247,217.0
218,-1.2029748573556582,-2.165530933370845,-1.8829654399266516,0.9167685521527743,1.2188653964187972,0.6051014203272941,218.0
219,-1.202974858167269,-2.1655309782292367,-1.8829654450191926,0.916768602996189,1.2188653959780646,0.5067335968504543,219.0
220,-1.2029748685543806,-2.1655310249646713,-1.8829654525418484,0.9167686574536708,1.2188654062158033,0.39836578123718924,220.0
221,-1.2029748847911361,-2.1655310746296204,-1.882965461744801,0.916768716132169,1.2188654229296259,0.2799979734812874,221.0
222,-1.2029749064223005,-2.1655311261197556,-1.8829654723255767,0.9167687779334759,1.2188654450580978,0.15163017329553727,222.0
223,-1.2029749414056616,-2.165531174747212,-1.8829654854681954,0.9167688392416078,1.2188654804907237,0.013262377999049047,223.0
224,-1.2029749823362015,-2.1655312234250763,-1.8829654998980934,0.9167689018247349,1.2188655218757252,-0.13510541540295284,224.0
225,-1.2029750374544026,-2.1655312638048025,-1.8829655164282304,0.9167689580784737,1.2188655773889678,-0.2934732020504142,225.0
226,-1.2029751003747986,-2.165531297431172,-1.882965533861218,0.9167690084125197,1.2188656406543097,-0.4598135560474571,226.0
227,-1.202975166519145,-2.1655313193996775,-1.8829655506453438,0.9167690464280832,1.2188657070475306,-0.6191759429832078,227.0
228,-1.2029752317900255,-2.1655313273990076,-1.8829655656313744,0.9167690687120136,1.2188657724476544,-0.76853832991896,228.0
229,-1.2029752942867495,-2.165531328731651,-1.8829655792513356,0.9167690830049817,1.2188658350143182,-0.9079007168547297,229.0
230,-1.2029753520601254,-2.1655313194799857,-1.882965590633745,0.9167690845457985,1.2188658927631804,-1.0372631037905082,230.0
231,-1.20297540523705,-2.165531305215899,-1.8829656004480784,0.9167690795639396,1.2188659458686482,-1.156625490726304,231.0
232,-1.2029754530068422,-2.1655312892348872,-1.882965608899447,0.916769071562296,1.2188659935473094,-1.265987877662107,232.0
233,-1.2029754933952939,-2.165531265498629,-1.8829656148665803,0.9167690534134676,1.218866033771746,-1.3653502645979199,233.0
234,-1.202975529718984,-2.1655312441512304,-1.8829656202331653,0.9167690370911658,1.218866069947928,-1.4547126515337379,234.0
235,-1.2029755614829005,-2.1655312245046074,-1.8829656248132476,0.9167690217278586,1.2188661015745266,-1.5340750384695536,235.0
236,-1.2029755846855807,-2.1655312009965897,-1.882965627103607,0.9167690003107611,1.2188661245990184,-1.6034374254053785,236.0
237,-1.2029756045431221,-2.1655311808777307,-1.8829656290637646,0.9167689819813742,1.2188661443040614,-1.6627998123412002,237.0
238,-1.2029756210555258,-2.1655311641480326,-1.882965630693717,0.9167689667396958,1.2188661606896558,-1.7121621992770073,238.0
239,-1.2029756342227904,-2.165531150807494,-1.8829656319934673,0.916768954585728,1.2188661737558006,-1.7515245862128124,239.0
240,-1.2029756440449162,-2.165531140856114,-1.8829656329630167,0.9167689455194713,1.2188661835024963,-1.7808869731486183,240.0
241,-1.2029756505219034,-2.1655311342938934,-1.8829656336023648,0.9167689395409258,1.2188661899297426,-1.8002493600844283,241.0
242,-1.2032073341658998,-2.1660263404407107,-1.88197752501293,0.916275972451236,1.2190971894426592,-1.810379299131295,242.0
243,-1.2045424307692159,-2.1688800671732213,-1.8762833833317658,0.9134351848991643,1.2204283436622012,-1.8123604398730464,243.0
244,-1.205245851462472,-2.17038361492044,-1.8732833058713334,0.9119384554902914,1.2211296855971252,-1.8051624983770482,244.0
245,-1.2052458458979152,-2.1703836183634744,-1.8732833069891286,0.9119384525641439,1.2211296764187605,-1.7897563640405938,245.0
246,-1.2052458367214482,-2.1703836240413548,-1.8732833088324758,0.911938447738657,1.2211296612827915,-1.764350229704137,246.0
247,-1.2052458239330717,-2.170383631954081,-1.8732833114013747,0.9119384410138309,1.2211296401892189,-1.7289440953676853,247.0
248,-1.2052458075327852,-2.170383642101653,-1.8732833146958254,0.9119384323896654,1.221129613138042,-1.6835379610312384,248.0
249,-1.2052457880416065,-2.170383653941218,-1.8732833192988247,0.9119384198231435,1.2211295848438615,-1.6281318290488553,249.0
250,-1.2052457652307538,-2.170383667711146,-1.8732833249543752,0.9119384042113651,1.2211295532364699,-1.5627256978976602,250.0
251,-1.205245736809257,-2.1703836845843667,-1.8732833257152057,0.9119384027056114,1.2211295208083754,-1.4873195748966972,251.0
252,-1.205245702480543,-2.1703837047002916,-1.8732833207767847,0.9119384176097828,1.2211294881199841,-1.4019134595459573,252.0
253,-1.2052456641444667,-2.170383727245691,-1.8732833151899655,0.9119384345790786,1.2211294517147055,-1.306507354803116,253.0
254,-1.2052456201264652,-2.1703837474107575,-1.8732833080514415,0.9119384478698767,1.221129409055473,-1.2011012569344794,254.0
255,-1.205245569011577,-2.170383761144881,-1.8732832985730625,0.9119384527204293,1.2211293580266573,-1.0856951674656732,255.0
256,-1.2052455134655946,-2.1703837760700786,-1.873283288272179,0.9119384579945532,1.2211293025583496,-0.9602890867878152,256.0
257,-1.2052454531066183,-2.1703837753507242,-1.8732832751442878,0.9119384447885619,1.2211292421328093,-0.8248830124849469,257.0
258,-1.2052453882766447,-2.170383773991653,-1.8732832609771748,0.9119384299481366,1.2211291772260549,-0.6794769388201668,258.0
259,-1.2052453238478829,-2.1703837538880313,-1.8732832447284231,0.9119383943126338,1.2211291125636425,-0.5240708715233233,259.0
260,-1.20524525741895,-2.170383728279844,-1.8732832274106552,0.9119383521350118,1.2211290458522381,-0.35890288420528427,260.0
261,-1.2052452012528534,-2.1703836871926176,-1.8732832105201185,0.9119382948266057,1.221128989280718,-0.19658275385961288,261.0
262,-1.205245153750818,-2.170383643368009,-1.8732831951852555,0.9119382362502921,1.221128941358018,-0.04426262351392393,262.0
263,-1.2052451179776558,-2.1703835937030496,-1.8732831817094473,0.9119381735800023,1.221128905125263,0.09805750683176151,263.0
264,-1.20524508978068,-2.170383544553816,-1.8732831699305317,0.9119381130414881,1.221128876480301,0.23037763717746834,264.0
265,-1.2052450731047808,-2.1703834936029485,-1.8732831604329552,0.9119380528646008,1.2211288593519025,0.3526977675231819,265.0
266,-1.2052450577921818,-2.1703834468174557,-1.8732831517118238,0.9119379976073339,1.221128843623797,0.46501789786890313,266.0
267,-1.2052450558666954,-2.1703834009713416,-1.8732831459923647,0.9119379461482149,1.2211288413035561,0.5673380282146282,267.0
268,-1.2052450549196543,-2.1703833593938557,-1.8732831409781316,0.9119378996446128,1.2211288399992735,0.6596581585603556,268.0
269,-1.2052450540751956,-2.170383322319992,-1.8732831365070306,0.9119378581782209,1.2211288388362693,0.7419782889060933,269.0
270,-1.2052450605329188,-2.170383289900702,-1.8732831341523883,0.9119378233971293,1.221128845022267,0.814298419251829,270.0
271,-1.2052450678022235,-2.1703832619998975,-1.8732831324958192,0.911937793815549,1.2211288520593422,0.8766185495975649,271.0
272,-1.2052450739050826,-2.170383238576107,-1.873283131105064,0.9119377689806814,1.221128857967236,0.9289386799432915,272.0
273,-1.2052450788414961,-2.1703832196293305,-1.8732831299801238,0.9119377488925268,1.221128862745948,0.9712588102890074,273.0
274,-1.2052450826114636,-2.170383205159567,-1.8732831291210004,0.911937733551086,1.2211288663954782,1.003578940634731,274.0
275,-1.2052450852149856,-2.1703831951668158,-1.8732831285276939,0.9119377229563589,1.2211288689158266,1.025899070980452,275.0
276,-1.2052709690611847,-2.1704393953737453,-1.873170934829614,0.911881722923438,1.2211546737724306,1.0383227574161116,276.0
277,-1.2063704299562814,-2.1728269623953613,-1.8684050640093355,0.9095031414394986,1.222250781211059,1.043145665567468,277.0
278,-1.20746296057937,-2.175199486073666,-1.8636692297814694,0.9071395523214673,1.223339979058449,1.038218368221802,278.0
279,-1.2074861462452418,-2.1752498431230873,-1.8635687209545302,0.9070893879648967,1.2233630927984671,1.0256957024988334,279.0
280,-1.2074861433864748,-2.1752498502681292,-1.863568724252005,0.9070893863661659,1.223363087785136,1.0032670017589236,280.0
281,-1.2074861392531058,-2.17524986059884,-1.8635687290196832,0.9070893840546292,1.2233630805365743,0.9708383010190131,281.0
282,-1.2074861338451348,-2.175249874115221,-1.8635687352575647,0.907089381030287,1.2233630710527823,0.9284096002791092,282.0
283,-1.20748612684082,-2.175249891003358,-1.8635687427486214,0.9070893779227036,1.2233630564056726,0.8759809076877969,283.0
284,-1.2074861180586092,-2.1752499113682573,-1.863568751370389,0.9070893750871287,1.22336303494299,0.8135522252787741,284.0
285,-1.2074861103082946,-2.1752499370087537,-1.8635687599658144,0.9070893808490549,1.2233630155845605,0.7411235463379261,285.0
286,-1.2074861109673842,-2.1752499740161313,-1.86356876427718,0.9070894225920475,1.223363015096863,0.6586948798499033,286.0
287,-1.2074861117145979,-2.175250015558407,-1.8635687690686022,0.9070894695949918,1.223363014624928,0.5662662200523221,287.0
288,-1.2074861135814596,-2.175250061348984,-1.863568774544301,0.9070895217110542,1.2233630153414952,0.4638375675255742,288.0
289,-1.2074861288237178,-2.1752501078752995,-1.8635687832314458,0.90708957675054,1.2233630310317807,0.35140892578279737,289.0
290,-1.2074861454233041,-2.175250158538111,-1.863568792693194,0.9070896366786747,1.223363048132212,0.22898029207868426,290.0
291,-1.2074861736419775,-2.1752502072974957,-1.86356880446519,0.9070896968446774,1.2233630768184565,0.09655166461416316,291.0
292,-1.2074862092357637,-2.1752502566517165,-1.8635688179115761,0.9070897591746208,1.223363112875358,-0.045876960417539574,292.0
293,-1.207486256649242,-2.175250300040969,-1.8635688332269147,0.9070898172960213,1.2233631607099609,-0.19830558104038967,293.0
294,-1.2074863125285025,-2.1752503408586272,-1.863568850078357,0.907089874298173,1.223363216995243,-0.3607341953866577,294.0
295,-1.207486378662559,-2.1752503660536804,-1.8635688673384667,0.9070899160072028,1.2233632834103352,-0.5258275348322548,295.0
296,-1.2074864427293068,-2.1752503857809318,-1.8635688835155717,0.907089951197494,1.2233633477089336,-0.68112690556625,296.0
297,-1.2074865071381224,-2.17525038710757,-1.8635688976302167,0.9070899659554007,1.223363412191027,-0.8264262763002632,297.0
298,-1.2074865670977066,-2.17525038762328,-1.863568910686319,0.9070899788923841,1.2233634722126157,-0.9617256470342841,298.0
299,-1.2074866222773104,-2.175250372814215,-1.8635689209269148,0.9070899737681937,1.223363527317295,-1.0870250177683207,299.0
300,-1.2074866730530955,-2.175250359187049,-1.8635689303502128,0.9070899690529558,1.2233635780241352,-1.2023243885023667,300.0
301,-1.2074867168807832,-2.1752503389764772,-1.863568937503075,0.9070899555696041,1.223363621719356,-1.3076237592364202,301.0
302,-1.207486755172399,-2.175250316492094,-1.8635689431919693,0.9070899384112382,1.2233636598535542,-1.4029231299704812,302.0
303,-1.207486789445981,-2.1752502963670555,-1.8635689482839082,0.9070899230533398,1.2233636939862378,-1.4882225007045478,303.0
304,-1.2074868171231605,-2.175250275026155,-1.8635689518049006,0.907089904980634,1.2233637215056878,-1.5635218714386165,304.0
305,-1.207486838715891,-2.175250253179275,-1.863568953948341,0.9070898850896612,1.2233637429304793,-1.6288212421726875,305.0
306,-1.2074868570018928,-2.1752502346780447,-1.8635689557635324,0.907089868244808,1.2233637610742607,-1.684120612906748,306.0
307,-1.2074868719811658,-2.175250219522465,-1.863568957250473,0.9070898544460736,1.2233637759370322,-1.729419983640795,307.0
308,-1.2074868836537105,-2.175250207712534,-1.8635689584091661,0.90708984369346,1.223363787518793,-1.7647193543748465,308.0
309,-1.207486892019526,-2.1752501992482522,-1.8635689592396119,0.9070898359869668,1.2233637958195434,-1.7900187251088981,309.0
310,-1.2074868970786132,-2.17525019412962,-1.86356895974181,0.907089831326594,1.2233638008392833,-1.8053180958429542,310.0
311,-1.2081894904507018,-2.1768002520215455,-1.8604736569194438,0.9055444272932202,1.2240641811755693,-1.8124613769982978,311.0
312,-1.2094830745605523,-2.1796541666952174,-1.854774698393521,0.9026990893398238,1.225353690165054,-1.8104015703303837,312.0
313,-1.2096994523352997,-2.1801315508432997,-1.8538214190073095,0.9022231402221725,1.2255693839766368,-1.800223507196153,313.0
314,-1.209699445393209,-2.1801315551360356,-1.8538214204107002,0.9022231365942492,1.225569372442768,-1.7807927631777227,314.0
315,-1.209699434878383,-2.180131561638021,-1.8538214225363436,0.9022231310992208,1.2255693549730127,-1.7513620191592896,315.0
316,-1.2096994207908216,-2.180131570349255,-1.85382142538424,0.9022231237370879,1.2255693315673712,-1.711931275140862,316.0
317,-1.2096994032231154,-2.1801315811708397,-1.8538214290613093,0.9022231141346828,1.2255693030721881,-1.662500532420836,317.0
318,-1.2096993827129776,-2.180131593528424,-1.853821434188486,0.902223100124857,1.2255692744025608,-1.6030697972853925,318.0
319,-1.2096993587517402,-2.180131607965333,-1.853821440178377,0.9022230837576943,1.2255692409088927,-1.533639062149942,319.0
320,-1.2096993275189791,-2.1801316262858292,-1.8538214365242038,0.9022230948306875,1.225569210198985,-1.4542083413803708,320.0
321,-1.2096992919849696,-2.1801316471071175,-1.8538214313685395,0.902223110281046,1.225569176392486,-1.3647776246860372,321.0
322,-1.2096992524896792,-2.180131670329315,-1.8538214255668644,0.9022231277730072,1.225569138917244,-1.2653469183192283,322.0
323,-1.2096992055367144,-2.1801316859485684,-1.8538214171824048,0.9022231354641403,1.2255690925100855,-1.1559162210537033,323.0
324,-1.209699153244108,-2.1801317000077782,-1.8538214074299952,0.9022231403845365,1.2255690403000306,-1.0364855314713075,324.0
325,-1.2096990964302314,-2.180131709032286,-1.853821396114606,0.9022231387380022,1.2255689835102865,-0.9070548491587771,325.0
326,-1.2096990349767234,-2.180131707789517,-1.853821382608884,0.9022231246434951,1.2255689219828725,-0.7676241711661493,326.0
327,-1.2096989708332204,-2.1801316998787943,-1.853821367741204,0.9022231025594495,1.2255688577058383,-0.6181934957837801,327.0
328,-1.209698905798396,-2.1801316784105187,-1.8538213510994002,0.9022230651783688,1.2255687924210747,-0.4587628269956193,328.0
329,-1.2096988440410703,-2.1801316453936184,-1.8538213338240013,0.9022230156017745,1.225568730316511,-0.2924331939481044,329.0
330,-1.2096987898971618,-2.180131605901281,-1.8538213174490412,0.9022229603815248,1.2255686757764028,-0.13413991146724416,330.0
331,-1.2096987497920926,-2.1801315581676115,-1.8538213031656807,0.9022228988779644,1.2255686352170583,0.014153371013565872,331.0
332,-1.2096987154308974,-2.180131510579649,-1.8538212901480913,0.9022228387247233,1.2255686004084334,0.15244665349430309,332.0
333,-1.2096986942946732,-2.18013146012875,-1.8538212796720797,0.902222778115223,1.2255685788127089,0.2807399359749835,333.0
334,-1.2096986783540782,-2.180131411527741,-1.8538212705412926,0.9022227206423364,1.2255685624337538,0.3990332184555775,334.0
335,-1.209698668177741,-2.180131365849535,-1.8538212630044224,0.9022226676196554,1.2255685518500856,0.5073265009361254,335.0
336,-1.2096986671823717,-2.1801313221768734,-1.853821257697395,0.902222618731324,1.2255685504737512,0.6056197834166118,336.0
337,-1.2096986662882676,-2.180131282947313,-1.8538212529302789,0.9022225748167106,1.2255685492374404,0.6939130658970598,337.0
338,-1.2096986673418955,-2.180131248198199,-1.8538212491088821,0.9022225362993257,1.2255685499897373,0.7722063483774619,338.0
339,-1.2096986752176278,-2.180131218028131,-1.8538212473044544,0.9022225042971614,1.2255685576106066,0.8404996308578403,339.0
340,-1.2096986819401379,-2.180131192275784,-1.853821245764244,0.9022224769809873,1.2255685641155722,0.8987929133382017,340.0
341,-1.2096986875094262,-2.18013117094116,-1.8538212444882478,0.902222454350802,1.225568569504635,0.9470861958185427,341.0
342,-1.2096986919254922,-2.1801311540242567,-1.8538212434764696,0.9022224364066067,1.2255685737777946,0.985379478298877,342.0
343,-1.2096986951883357,-2.1801311415250746,-1.8538212427289094,0.9022224231484018,1.2255685769350508,1.0136727607792189,343.0
344,-1.2096986972979578,-2.180131133443613,-1.8538212422455678,0.9022224145761873,1.2255685789764041,1.0319660432595719,344.0
345,-1.2100258282806666,-2.180864337620224,-1.8523565476483024,0.901490858547882,1.2258946460991618,1.0413081217967735,345.0
346,-1.2113337970607734,-2.1837959354765895,-1.846500237103357,0.8985658831196559,1.2271983612830806,1.0422414694325075,346.0
347,-1.2118831929589073,-2.185027321500429,-1.8440403636741947,0.8973372813038735,1.2277459697551993,1.0342687106288215,347.0
348,-1.2118831908838583,-2.185027326660423,-1.8440403660804765,0.8973372801441021,1.2277459660521726,1.0178512625311746,348.0
349,-1.2118831875448801,-2.185027334963411,-1.844040369952444,0.8973372782779045,1.2277459600936027,0.9914338144335307,349.0
350,-1.211883182941973,-2.1850273464093926,-1.8440403752900976,0.8973372757052808,1.2277459518794895,0.9550163663358968,350.0
351,-1.2118831770751368,-2.1850273609983684,-1.8440403820934366,0.897337272426231,1.2277459414098328,0.9085989182382588,351.0
352,-1.2118831693217862,-2.185027379103243,-1.8440403899264393,0.8973372697117121,1.2277459229609682,0.8521814894882659,352.0
353,-1.211883160066816,-2.18502740049348,-1.8440403990586642,0.8973372667759923,1.2277459000713815,0.7857640643419019,353.0
354,-1.2118831565016426,-2.1850274309218727,-1.8440404054517674,0.8973372895862655,1.2277458900323877,0.7093466489275245,354.0
355,-1.211883157185277,-2.1850274692049165,-1.8440404099427037,0.8973373328149516,1.2277458895286084,0.6229292395539165,355.0
356,-1.2118831579628915,-2.1850275119991744,-1.8440404148754324,0.8973373813972918,1.2277458891044744,0.5265118421203587,356.0
357,-1.2118831653403013,-2.185027557392141,-1.844040421643965,0.8973374339833712,1.2277458960138175,0.4200944514204162,357.0
358,-1.211883180942329,-2.185027604914706,-1.8440404305884506,0.8973374902711606,1.227745912084072,0.30367706893831453,358.0
359,-1.2118831989019236,-2.185027655920073,-1.8440404404561823,0.8973375509276343,1.2277459305570204,0.17725969470812733,359.0
360,-1.2118832326033568,-2.185027702536634,-1.844040453261725,0.8973376099040056,1.2277459647030573,0.04084232661568422,360.0
361,-1.2118832693542563,-2.185027751985157,-1.8440404670638977,0.897337672670661,1.2277460019260564,-0.10557504071498862,361.0
362,-1.2118833225508083,-2.1850277907298796,-1.8440404831996036,0.8973377269143212,1.227746055514438,-0.2619924010959006,362.0
363,-1.2118833811421936,-2.185027826712691,-1.844040500188679,0.8973377791971998,1.2277461144787432,-0.4263079421900269,363.0
364,-1.211883444920666,-2.185027847722814,-1.8440405165569373,0.897337815858999,1.2277461785040558,-0.5835561876510764,364.0
365,-1.211883506609786,-2.1850278598704143,-1.8440405314324437,0.8973378422040055,1.2277462403602728,-0.7308044331120955,365.0
366,-1.2118835667560233,-2.185027861064036,-1.8440405446896475,0.8973378560132423,1.2277463005760652,-0.868052678573037,366.0
367,-1.2118836224078287,-2.1850278572528268,-1.8440405563809852,0.8973378633087501,1.227746356249136,-0.9953009240339227,367.0
368,-1.211883673453633,-2.185027843543912,-1.8440405659095795,0.8973378586109455,1.2277464072249131,-1.1125491694947311,368.0
369,-1.2118837201457873,-2.1850278310042213,-1.8440405746254815,0.8973378543138085,1.227746453853013,-1.2197974149554798,369.0
370,-1.211883759612942,-2.1850278108886334,-1.8440405808791447,0.8973378400692522,1.2277464931826008,-1.3170456604161784,370.0
371,-1.2118837942705596,-2.1850277905538,-1.844040586058221,0.8973378245823953,1.227746527696004,-1.4042939058768438,371.0
372,-1.2118838249558785,-2.1850277725496556,-1.84404059064369,0.89733781087057,1.227746558253638,-1.4815421513374658,372.0
373,-1.211883850161412,-2.185027754790984,-1.844040594062779,0.8973377962956403,1.2277465833282548,-1.548790396798051,373.0
374,-1.2118838688766291,-2.185027735879981,-1.84404059593153,0.8973377790891517,1.2277466018960774,-1.6060386422586168,374.0
375,-1.2118838843227122,-2.18502772027231,-1.8440405974738516,0.8973377648882555,1.2277466172205127,-1.6532868877191724,375.0
376,-1.211883896499662,-2.185027707967974,-1.8440405986897423,0.8973377536929505,1.2277466293015613,-1.6905351331797214,376.0
377,-1.2118839054074781,-2.185027698966971,-1.8440405995792029,0.8973377455032376,1.2277466381392228,-1.717783378640278,377.0
378,-1.2118839110461606,-2.185027693269301,-1.8440406001422351,0.8973377403191173,1.227746643733497,-1.7350316241008423,378.0
379,-1.2118320437767662,-2.184915007021794,-1.8442752010249148,0.8974596600340609,1.2276949881572552,-1.7424639418806065,379.0
380,-1.2113386565835382,-2.183843154405846,-1.846506732255767,0.8986193871743563,1.2272036147835341,-1.7412161004702988,380.0
381,-1.2112602187736923,-2.183672763732968,-1.8468614817882034,0.8988037537771034,1.2271254971396488,-1.730897005958783,381.0
382,-1.2111057686647446,-2.1833372513309612,-1.847560011031196,0.899166785865026,1.22697167746222,-1.710577911447266,382.0
383,-1.2108753062566961,-2.1828366171998264,-1.8486023199847434,0.8997084834381237,1.2267421557512472,-1.680258816935762,383.0
384,-1.210568405891984,-2.1821711343496353,-1.8499878858156151,0.9004285975363742,1.2264365040835126,-1.6399397031014533,384.0
385,-1.2101816252913933,-2.181343011064124,-1.8517124794479682,0.9013251143481418,1.2260512618559771,-1.5896204351787824,385.0
386,-1.2097179793832262,-2.1803503139841798,-1.8537798033511592,0.9023997968703372,1.2255894600433286,-1.529301167256127,386.0
387,-1.2091764291507148,-2.179193686470179,-1.8561886287682035,0.9036520614448023,1.2250500549505916,-1.4589818537455246,387.0
388,-1.2085543964186494,-2.1778747252651707,-1.8589359060273782,0.9050804594567707,1.2244304567932112,-1.3786623972635499,388.0
389,-1.207853716375265,-2.1763922802894937,-1.8620238338462438,0.9066860368241811,1.2237325086639868,-1.288342891579666,389.0
390,-1.2070709204737002,-2.1747484593824487,-1.865448392765157,0.9084668887413858,1.2229527253657553,-1.188023209241452,390.0
391,-1.206206355683259,-2.1729430053046497,-1.8692100805227703,0.9104232549675872,1.2220914557536025,-1.0777033787793513,391.0
392,-1.205259451727517,-2.1709762465279576,-1.873308273574597,0.9125548415555778,1.2211481269231654,-0.9573833960330108,392.0
393,-1.204227049514449,-2.1688499907839125,-1.8777395421873688,0.9148600327490597,1.2201195652991776,-0.827063155288236,393.0
394,-1.2031082797952353,-2.166564659711418,-1.8825030989673759,0.9173384646249079,1.219004898150497,-0.6867426486503311,394.0
395,-1.2019021935206131,-2.1641207236940767,-1.8875980635350753,0.9199897291750475,1.2178031725596075,-0.536421868353486,395.0
396,-1.2006070994474214,-2.161519621899943,-1.893021638590782,0.9228124721740119,1.2165126884108801,-0.37612846240833964,396.0
397,-1.1993108713418188,-2.158940247086811,-1.8984009161147428,0.9256126619737843,1.215220999505688,-0.21685950371012588,397.0
398,-1.1980874812727975,-2.156527364084158,-1.9034338884419064,0.9282330378265369,1.2140018267654638,-0.06759024198458888,398.0
399,-1.1969387486402003,-2.1542799393032177,-1.908122515314001,0.9306745222796555,1.2128569978867307,0.07167927107518583,399.0
400,-1.1958663814693016,-2.1521970357245683,-1.912468567804742,0.9329379459482883,1.2117882284603712,0.20094899089414903,400.0
401,-1.1948693971039828,-2.1502790789787056,-1.9164712610778758,0.9350229518036973,1.2107945322413873,0.3202189544541458,401.0
402,-1.193952052091686,-2.1485238831298195,-1.9201347009673215,0.9369314509208516,1.209880183629723,0.42948903848579945,402.0
403,-1.193115614999096,-2.146930819755165,-1.9234600635627361,0.9386639882941326,1.2090464563556402,0.5287592197374473,403.0
404,-1.1923582221464382,-2.14550075631931,-1.9264457361126541,0.9402198226674365,1.208291479530116,0.6180295561798508,404.0
405,-1.1916850471507605,-2.1442311897720363,-1.9290963915793196,0.9416011129422438,1.2076204474258043,0.6972999124439953,405.0
406,-1.1910928250090826,-2.1431236601014647,-1.9314091627489307,0.9428065389189958,1.207030082273569,0.7665703831114453,406.0
407,-1.1905855177746751,-2.1421762896818826,-1.9333875472444972,0.9438377120852645,1.2065243616772425,0.8258408719678291,407.0
408,-1.19016380241646,-2.141388757731302,-1.935032142609295,0.9446949077483672,1.2061039652626604,0.8751113608242379,408.0
409,-1.1898250352433881,-2.1407622910812774,-1.936340668739127,0.9453770783660611,1.2057662391393662,0.9143819268741179,409.0
410,-1.1895725175318133,-2.14029535734718,-1.937315973690484,0.9458855324541289,1.205514497321277,0.9436524934601515,410.0
411,-1.1894062700025503,-2.1399879469119307,-1.937958075337255,0.9462202782244662,1.2053487606091529,0.9629230600461878,411.0
412,-1.1893257357691354,-2.139839033032264,-1.9382691184840446,0.9463824339227284,1.2052684738216732,0.9721942319244747,412.0
413,-1.1887237738158016,-2.1387292002387466,-1.9405874932335023,0.9475911751244234,1.2046683549947983,0.9724843333442579,413.0
414,-1.1887100541928324,-2.138704301801239,-1.940639531192182,0.9476183193925956,1.2046546765923534,0.9640504082992847,414.0
415,-1.18870968274606,-2.138704480336222,-1.9406392161941792,0.947618183501032,1.2046543045682438,0.9456636366372062,415.0
416,-1.1887091092808038,-2.1387047559708954,-1.940638729878444,0.9476179737022232,1.204653730211655,0.9172768649751335,416.0
417,-1.1887083336869153,-2.1387051287630348,-1.9406380721759797,0.9476176901763783,1.2046529525363197,0.878890109668769,417.0
418,-1.1887073559395138,-2.138705598725685,-1.9406372430711754,0.9476173329639644,1.204651971320406,0.8305033685215993,418.0
419,-1.1887061761228312,-2.1387061658146638,-1.9406362426167854,0.9476169019271092,1.20465078731838,0.7721166273744533,419.0
420,-1.1887058881494643,-2.1387063301492915,-1.9406360008637717,0.9476168251326111,1.2046504981662867,0.7037299009169969,420.0
421,-1.1887058889256485,-2.1387063673228126,-1.9406360050582487,0.9476168665795174,1.204650498717557,0.6253431785691589,421.0
422,-1.1887058898055574,-2.1387064092667685,-1.9406360097621524,0.9476169134349938,1.2046504993804503,0.5369564620406262,422.0
423,-1.1887058952359113,-2.1387064547448302,-1.9406360158325948,0.9476169650766582,1.2046505047823177,0.4385697501826623,423.0
424,-1.188705910641645,-2.138706502271352,-1.9406360242947682,0.9476170208389731,1.2046505205964941,0.33018304602061055,424.0
425,-1.1887059274694933,-2.13870655418202,-1.940636033538464,0.947617081743189,1.2046505378762504,0.2117963500568903,425.0
426,-1.1887059580901598,-2.1387066031700623,-1.9406360453873748,0.9476171421714992,1.2046505689243603,0.0834096619543303,426.0
427,-1.188705994345647,-2.138706654054157,-1.9406360586384694,0.9476172058299612,1.2046506056240176,-0.05497702145664164,427.0
428,-1.1887060435188699,-2.138706698120447,-1.9406360738771706,0.9476172645386549,1.2046506551967642,-0.20336370348795058,428.0
429,-1.1887061006367423,-2.138706740437112,-1.9406360906060185,0.9476173229094478,1.2046507127065882,-0.3617503793757938,429.0
430,-1.1887061696209957,-2.138706767018326,-1.9406361081229102,0.9476173662413296,1.2046507819658365,-0.5258446010323898,430.0
431,-1.188706236778975,-2.138706788066547,-1.9406361246469044,0.9476174030771866,1.2046508493524675,-0.681127913806387,431.0
432,-1.1887063042813946,-2.1387067896776166,-1.9406361391140958,0.9476174184540603,1.204650916926593,-0.8264112265803352,432.0
433,-1.1887063671194016,-2.138706790377887,-1.9406361524939961,0.947617431882896,1.2046509798248832,-0.9616945393542662,433.0
434,-1.1887064249459633,-2.1387067748772095,-1.9406361630378113,0.9476174263586512,1.2046510375763078,-1.086977852128183,434.0
435,-1.1887064781568644,-2.1387067606137857,-1.9406361727400196,0.9476174212753423,1.204651090718069,-1.2022611649020718,435.0
436,-1.1887065240747647,-2.1387067393285433,-1.9406361801288798,0.94761740694622,1.2046511365036832,-1.3075444776759646,436.0
437,-1.188706564199813,-2.1387067156491497,-1.9406361860290329,0.9476173887989039,1.2046511764720413,-1.4028277904498359,437.0
438,-1.1887066001137319,-2.1387066944549145,-1.9406361913099588,0.9476173725561492,1.204651212245715,-1.4881111032236984,438.0
439,-1.1887066290997035,-2.138706671932822,-1.9406361949787074,0.9476173534476484,1.204651241074678,-1.563394415997551,439.0
440,-1.1887066517232132,-2.1387066488765214,-1.9406361972419544,0.9476173324663062,1.2046512635313273,-1.6286777287713932,440.0
441,-1.188706670881288,-2.138706629351952,-1.94063619915852,0.947617314698854,1.2046512825481013,-1.6839610415452588,441.0
442,-1.1887066865739278,-2.138706613359112,-1.940636200728402,0.9476173001452904,1.204651298125,-1.7292443543191451,442.0
443,-1.1887066988011323,-2.1387066008980016,-1.940636201951604,0.947617288805618,1.2046513102620224,-1.7645276670930288,443.0
444,-1.1887067075629012,-2.138706591968621,-1.940636202828126,0.9476172806798369,1.2046513189591688,-1.7898109798669026,444.0
445,-1.1887067128592346,-2.1387065865709682,-1.940636203357968,0.9476172757679465,1.2046513242164392,-1.8050942926407876,445.0
446,-1.189497529493363,-2.1402384336800044,-1.937577957725656,0.9460905464847404,1.2054402340750585,-1.8121753114444437,446.0
447,-1.1909390432051015,-2.1430307253196768,-1.9320033160250472,0.9433075922407418,1.2068782715028243,-1.8100203971704567,447.0
448,-1.1911637204596102,-2.1434659470892257,-1.9311344273771378,0.9428738261873739,1.2071024046179915,-1.79972981071101,448.0
449,-1.19116371312777,-2.143465951635134,-1.931134428806696,0.9428738222455261,1.2071023927087101,-1.7801252946642825,449.0
450,-1.1911637020560568,-2.1434659584998497,-1.9311344309654528,0.9428738162929946,1.207102374724664,-1.75052077861756,450.0
451,-1.1911636872444709,-2.1434659676833716,-1.9311344338534082,0.9428738083297794,1.2071023506658538,-1.7109162625708354,451.0
452,-1.1911636688060352,-2.1434659790746804,-1.9311344375875448,0.9428737979411385,1.2071023215238859,-1.6613117497634173,452.0
453,-1.191163647308554,-2.1434659921160297,-1.9311344427555595,0.9428737830434908,1.2071022922803873,-1.6017072540563189,453.0
454,-1.1911636222043855,-2.14346600734536,-1.9311344487906257,0.9428737656464266,1.2071022581306314,-1.5321027583492177,454.0
455,-1.191163589351072,-2.143466026715954,-1.9311344447872998,0.9428737779486336,1.2071022260874742,-1.4524982777698217,455.0
456,-1.191163552054536,-2.1434660486917867,-1.9311344394204082,0.942873794371173,1.2071021905896027,-1.3628938012210292,456.0
457,-1.1911635106076257,-2.1434660731957957,-1.931134433385041,0.9428738129521388,1.2071021512358437,-1.263289334637856,457.0
458,-1.1911634612560007,-2.1434660893845074,-1.9311344246893158,0.9428738209298686,1.2071021024106452,-1.1536848773669146,458.0
459,-1.1911634063808867,-2.1434661041160794,-1.9311344146400122,0.9428738262413796,1.2071020476165661,-1.0340804277156561,459.0
460,-1.1911633467604021,-2.143466113200539,-1.931134402970113,0.9428738243158717,1.207101988017129,-0.9044759852002251,460.0
461,-1.191163282283094,-2.1434661116829887,-1.931134389118689,0.9428738096185431,1.207101923467198,-0.7648715467831961,461.0
462,-1.1911632150757856,-2.143466102751866,-1.9311343738728564,0.9428737861556638,1.2071018561255298,-0.6152671110012584,462.0
463,-1.1911631468487023,-2.14346607979241,-1.9311343568681578,0.9428737469439178,1.2071017876512362,-0.45566268184775366,463.0
464,-1.1911630823272967,-2.143466044312066,-1.9311343392732743,0.9428736946073907,1.2071017227837788,-0.2893508268635827,464.0
465,-1.1911630256435946,-2.1434660023797703,-1.931134322632447,0.9428736367044641,1.2071016657082914,-0.13122258669505357,465.0
466,-1.1911629839089402,-2.1434659515270327,-1.931134308183598,0.9428735719356162,1.2071016235222567,0.016905653473457342,466.0
467,-1.1911629479381045,-2.1434659011070822,-1.931134295005629,0.942873508809822,1.207101587108639,0.15503389364192313,467.0
468,-1.1911629260763412,-2.1434658475519375,-1.9311342844774393,0.9428734450584889,1.207101564790933,0.28316213381037814,468.0
469,-1.1911629093885603,-2.1434657961313817,-1.9311342752820568,0.9428733847167075,1.2071015476691653,0.40129037397879175,469.0
470,-1.1911628989736516,-2.143465747760954,-1.931134267753373,0.9428733290207139,1.207101536850659,0.5094186141472026,470.0
471,-1.1911628979260651,-2.143465701611158,-1.9311342624569519,0.9428732776761221,1.2071015354258217,0.6075468543155994,471.0
472,-1.191162896985236,-2.1434656601643733,-1.9311342577002697,0.9428732315639244,1.2071015341461862,0.6956750944839822,472.0
473,-1.1911628982546314,-2.143465623470115,-1.9311342539352143,0.9428731911636162,1.2071015351174739,0.7738033346523765,473.0
474,-1.191162906483287,-2.1434655916401795,-1.9311342521820072,0.942873157557755,1.207101543093808,0.8419315748207655,474.0
475,-1.1911629135041235,-2.1434655644823053,-1.9311342506861393,0.9428731288846296,1.2071015498993596,0.9000598149891591,475.0
476,-1.1911629193171418,-2.1434655419964956,-1.9311342494476071,0.9428731051442383,1.2071015555341291,0.948188055157571,476.0
477,-1.1911629239223414,-2.143465524182747,-1.9311342484664147,0.9428730863365831,1.207101559998116,0.9863162953260018,477.0
478,-1.1911629273197224,-2.14346551104106,-1.9311342477425626,0.9428730724616642,1.207101563291321,1.0144445354944087,478.0
479,-1.191162929509285,-2.143465502571435,-1.9311342472760502,0.9428730635194815,1.2071015654137431,1.03257277566282,479.0
480,-1.191549455475961,-2.144226312558854,-1.9296147425480388,0.9421142178816543,1.2074871270085221,1.0417651022116412,480.0
481,-1.1930159432959346,-2.1471128659867866,-1.923849693693985,0.9392351494474895,1.2089499560106884,1.0424557868649433,481.0
482,-1.1935872180254834,-2.1482373365905927,-1.9216038984604618,0.9381135972644883,1.2095198047309696,1.0342866021172294,482.0
483,-1.1935872158284464,-2.1482373421527092,-1.9216039009350196,0.9381135959994049,1.2095198010206576,1.017547962785703,483.0
484,-1.1935872123188556,-2.1482373510377464,-1.9216039048879283,0.9381135939785357,1.2095197950937304,0.9908093234541865,484.0
485,-1.1935872074967109,-2.1482373632457037,-1.921603910319188,0.9381135912018801,1.2095197869501881,0.9540706841226587,485.0
486,-1.1935872013620121,-2.1482373787765816,-1.9216039172287982,0.9381135876694383,1.2095197765900307,0.9073320447911271,486.0
487,-1.1935871932101656,-2.148237398005686,-1.9216039251826098,0.9381135846269495,1.2095197577963726,0.8505934100385095,487.0
488,-1.1935871835093546,-2.148237420683637,-1.921603934469103,0.9381135812466541,1.2095197347001636,0.7838547759633399,488.0
489,-1.1935871801353621,-2.148237453285077,-1.9216039407315901,0.9381136065441403,1.2095197253551044,0.7071161524285443,489.0
490,-1.1935871808516554,-2.1482374939342064,-1.9216039452393374,0.9381136521301436,1.2095197248135061,0.620377534620329,490.0
491,-1.1935871816662087,-2.1482375393590396,-1.9216039501844193,0.9381137033571476,1.2095197243486462,0.5236389289777692,491.0
492,-1.1935871898624957,-2.1482375874262867,-1.9216039570915737,0.9381137587099901,1.2095197320867492,0.41690033002507515,492.0
493,-1.1935872062598272,-2.1482376378987964,-1.9216039661298447,0.9381138180295925,1.209519748949933,0.3001617392257659,493.0
494,-1.1935872256193192,-2.1482376917736907,-1.9216039761758703,0.9381138817137191,1.2095197688166088,0.17342315650702972,494.0
495,-1.193587261016391,-2.148237741325009,-1.9216039891754677,0.9381139437981281,1.209519804655411,0.03668457962285594,495.0
496,-1.1935873000760957,-2.148237793407205,-1.9216040032338055,0.9381140094285273,1.2095198441805042,-0.11005399643946848,496.0
497,-1.1935873559273908,-2.148237834662284,-1.9216040196699773,0.938114066458631,1.2095199004204897,-0.2667925655344398,497.0
498,-1.193587418346066,-2.1482378725399167,-1.9216040371309338,0.9381141210744428,1.2095199632059452,-0.4327066590487286,498.0
499,-1.1935874867590186,-2.1482378955159604,-1.921604054223241,0.9381141603868657,1.2095200318686128,-0.5937025030971484,499.0
500,-1.193587553467479,-2.1482379072312723,-1.9216040697104306,0.9381141868731233,1.2095200987327206,-0.7446983471454953,500.0
501,-1.1935876182003877,-2.1482379087332495,-1.9216040836503891,0.9381142016392748,1.209520163535575,-0.885694191193868,501.0
502,-1.1935876781584724,-2.148237902039675,-1.9216040956700957,0.9381142063552428,1.2095202234919968,-1.0166900352422021,502.0
503,-1.1935877333438898,-2.1482378872455397,-1.9216041057804931,0.938114201126754,1.2095202786049253,-1.1376858792905111,503.0
504,-1.1935877836787223,-2.148237872782609,-1.9216041148952923,0.9381141952836438,1.2095203288656742,-1.2486817233387888,504.0
505,-1.1935878257055828,-2.148237848009683,-1.9216041211047543,0.9381141763316718,1.2095203707263191,-1.3496775673870651,505.0
506,-1.1935878635711978,-2.148237825689624,-1.9216041266993884,0.9381141592562077,1.209520408442176,-1.440673411435317,506.0
507,-1.1935878972755671,-2.148237805822432,-1.9216041316791967,0.9381141440572527,1.2095204420132446,-1.5216692554835876,507.0
508,-1.1935879219829846,-2.1482377816386604,-1.9216041342683294,0.9381141222529792,1.2095204665438786,-1.5926650995318483,508.0
509,-1.1935879428706275,-2.148237760385777,-1.9216041363680407,0.938114102924159,1.2095204872754286,-1.6536609435801128,509.0
510,-1.1935879603338342,-2.148237742617212,-1.9216041381235107,0.9381140867642124,1.209520504608133,-1.7046567876283927,510.0
511,-1.1935879743726039,-2.1482377283329632,-1.9216041395347419,0.9381140737731404,1.2095205185419906,-1.7456526316766872,511.0
512,-1.1935879849869362,-2.148237717533031,-1.9216041406017357,0.9381140639509438,1.2095205290770021,-1.7766484757249719,512.0
513,-1.193587992176831,-2.1482377102174155,-1.9216041413244915,0.9381140572976225,1.2095205362131671,-1.7976443197732535,513.0
514,-1.1936882159756939,-2.1484381550402896,-1.9212036518547158,0.9379139762565671,1.2096205013375538,-1.8089868953533776,514.0
515,-1.1950046855079883,-2.151071207922208,-1.9159428990444183,0.9352857986282347,1.2109335733220903,-1.8125522216511507,515.0
516,-1.1959802957170822,-2.1530225212532734,-1.9120442443194978,0.9333381002539061,1.2119066642732998,-1.8065335010124415,516.0
517,-1.195980290595302,-2.15302252442785,-1.912044245323763,0.933338097519421,1.2119066558969542,-1.7926822255528518,517.0
518,-1.1959802817758263,-2.153022529894329,-1.912044247053063,0.9333380928107601,1.2119066414732624,-1.7688309500932604,518.0
519,-1.195980269258655,-2.15302253765271,-1.9120442495073973,0.9333380861279237,1.2119066210022247,-1.7349796746336739,519.0
520,-1.1959802530437877,-2.153022547702993,-1.9120442526867665,0.9333380774709115,1.2119065944838412,-1.691128399174078,520.0
521,-1.1959802335554937,-2.153022559618394,-1.912044257043815,0.9333380652399548,1.2119065656793395,-1.6372771338760108,521.0
522,-1.1959802107763453,-2.1530225734164423,-1.9120442625599514,0.9333380495007619,1.2119065344342304,-1.5734258758185933,522.0
523,-1.1959801829272847,-2.153022590083032,-1.9120442649357492,0.9333380430085776,1.2119065009778605,-1.4995746235424803,523.0
524,-1.1959801484316928,-2.153022610360703,-1.912044259969096,0.9333380580541351,1.2119064681249276,-1.415723381555357,524.0
525,-1.1959801098320586,-2.153022633117871,-1.9120442543532807,0.9333380751578326,1.211906431442031,-1.3218721480743683,525.0
526,-1.1959800661366213,-2.153022655494563,-1.9120442475612107,0.9333380909444305,1.211906389440188,-1.2180209216550115,526.0
527,-1.195980014518568,-2.15302266935389,-1.9120442380623068,0.9333380958981147,1.211906337908633,-1.1041697043624163,527.0
528,-1.1959799583645148,-2.153022684431598,-1.9120442277278156,0.9333381012903093,1.2119062818314403,-0.9803184964912844,528.0
529,-1.1959798973477662,-2.153022686266258,-1.9120442149083585,0.9333380909565244,1.211906220772555,-0.8464672943595566,529.0
530,-1.1959798316935548,-2.153022684765253,-1.9120442007349467,0.9333380759689851,1.2119061550431545,-0.7026160937528476,530.0
531,-1.1959797656040854,-2.1530226672241684,-1.9120441846926712,0.9333380431080709,1.211906088748054,-0.5487648984272622,531.0
532,-1.1959796963894238,-2.153022644025326,-1.9120441673571713,0.9333380033397372,1.2119060192789304,-0.38491370924407453,532.0
533,-1.1959796383227865,-2.153022601238403,-1.9120441502312042,0.9333379441147612,1.2119059608055789,-0.22103438696976233,533.0
534,-1.1959795869075145,-2.153022557890945,-1.912044134462225,0.933337885618012,1.2119059089849373,-0.06715504485191083,534.0
535,-1.1959795498832142,-2.1530225061263204,-1.912044120831577,0.9333378207087517,1.2119058714984976,0.0767242972659081,535.0
536,-1.195979518266968,-2.1530224562894307,-1.9120441085681696,0.9333377590343822,1.2119058394409488,0.2106036393837168,536.0
537,-1.1959795009752385,-2.1530224031273013,-1.9120440989927125,0.9333376965798867,1.2119058216932657,0.3344829815014851,537.0
538,-1.1959794850793624,-2.153022354256622,-1.9120440901902127,0.9333376391669463,1.2119058053782419,0.4483623236192483,538.0
539,-1.1959794809181805,-2.153022306905484,-1.9120440840595556,0.9333375858201656,1.2119058008210652,0.5522416657369965,539.0
540,-1.1959794799293237,-2.1530222633695097,-1.9120440790281374,0.9333375373473445,1.2119057994706737,0.6461210078547128,540.0
541,-1.1959794790457996,-2.1530222244709765,-1.9120440745326597,0.9333374940378317,1.2119057982641255,0.7300003499724396,541.0
542,-1.195979484262974,-2.1530221903469715,-1.9120440718674163,0.9333374572602664,1.21190580320332,0.8038796920901718,542.0
543,-1.195979491888382,-2.1530221609130638,-1.9120440702352728,0.9333374261717239,1.2119058105917682,0.8677590342078936,543.0
544,-1.1959794983200696,-2.1530221360868915,-1.9120440688586315,0.9333373999499406,1.2119058168235908,0.9216383763256313,544.0
545,-1.1959795035580365,-2.1530221158684553,-1.9120440677374924,0.9333373785949164,1.2119058218987877,0.9655177184433901,545.0
546,-1.1959795076022828,-2.1530221002577536,-1.9120440668718586,0.9333373621066525,1.2119058258173592,0.9993970605611389,546.0
547,-1.195979510452809,-2.153022089254786,-1.9120440662617297,0.9333373504851491,1.211905828579305,1.023276402678885,547.0
548,-1.1959795121096144,-2.153022082859554,-1.9120440659071056,0.9333373437304059,1.211905830184625,1.0371557447966357,548.0
549,-1.1969367293285598,-2.1549674165490336,-1.9081559051417367,0.931394195434443,1.2128604927318574,1.043202165695791,549.0
550,-1.1982381070492174,-2.15761218870455,-1.902869779287241,0.9287524030374007,1.21415839695572,1.0396746808827675,550.0
551,-1.1983403476795378,-2.1578199774731095,-1.902454479175363,0.9285448511706041,1.2142603636635583,1.0283678219125612,551.0
552,-1.198340344954293,-2.157819984339887,-1.9024544822584344,0.9285448496073776,1.2142603589824512,1.0074205073081144,552.0
553,-1.1983403409280484,-2.1578199944847825,-1.9024544868133275,0.9285448472978852,1.2142603520666388,0.9764731927036637,553.0
554,-1.198340335600804,-2.157820007907796,-1.9024544928400422,0.928544844242127,1.2142603429161212,0.9355258780991946,554.0
555,-1.1983403287529222,-2.157820024730019,-1.9024545001982376,0.9285448408456102,1.214260329572668,0.8845785642143422,555.0
556,-1.1983403199823859,-2.157820045173091,-1.9024545086310374,0.9285448378505612,1.2142603084520016,0.8236312520336633,556.0
557,-1.1983403105341306,-2.157820069604979,-1.9024545180129995,0.9285448372074742,1.2142602855700655,0.7526839409703562,557.0
558,-1.1983403111953161,-2.157820107017314,-1.9024545221882394,0.9285448792044229,1.214260285072792,0.671736644956437,558.0
559,-1.1983403119440372,-2.1578201490842974,-1.9024545268486825,0.9285449265314107,1.2142602845666355,0.580789353659109,559.0
560,-1.1983403127859158,-2.1578201958374574,-1.9024545319649504,0.928544979324655,1.2142602841020564,0.47984207059477635,560.0
561,-1.1983403271733795,-2.15782024341858,-1.9024545402925146,0.9285450351397777,1.2142602987984814,0.36889479841457734,561.0
562,-1.1983403439613873,-2.1578202949753864,-1.902454549593689,0.9285450957992674,1.2142603160769554,0.24794753360513905,562.0
563,-1.1983403702687192,-2.157820345994688,-1.9024545608816708,0.9285451577699448,1.214260342861095,0.11700027548615465,563.0
564,-1.198340406324871,-2.1578203963412546,-1.9024545741902177,0.9285452209494244,1.2142603793732558,-0.023946979352948723,564.0
565,-1.1983404522391465,-2.1578204428436063,-1.9024545891803188,0.9285452818714356,1.2142604257189453,-0.17489423071785987,565.0
566,-1.1983405089149457,-2.1578204845840836,-1.9024546059431287,0.9285453397023284,1.2142604827947445,-0.3358414756102802,566.0
567,-1.198340575283465,-2.1578205137017394,-1.9024546233768076,0.9285453855043266,1.2142605494667753,-0.501774530413734,567.0
568,-1.1983406411236663,-2.15782053572526,-1.9024546399091413,0.928545423330021,1.2142606155508142,-0.658559587069584,568.0
569,-1.1983407073258248,-2.157820538755335,-1.9024546544083516,0.9285454401618322,1.2142606818385746,-0.8053446437254036,569.0
570,-1.1983407693877128,-2.1578205401527546,-1.902454667840409,0.9285454543402273,1.2142607439686626,-0.9421297003811978,570.0
571,-1.1983408265758115,-2.1578205266352004,-1.9024546785724696,0.9285454509832113,1.2142608010960034,-1.0689147570369824,571.0
572,-1.1983408792154695,-2.1578205125199945,-1.902454688265073,0.9285454460377545,1.2142608536657704,-1.1856998136927448,572.0
573,-1.1983409253344632,-2.1578204934307035,-1.9024546960100015,0.9285454342482159,1.2142608996674067,-1.292484870348483,573.0
574,-1.1983409651367922,-2.1578204699938097,-1.902454701920513,0.9285454163509991,1.2142609393103274,-1.3892699270042024,574.0
575,-1.198341000826677,-2.1578204489784585,-1.9024547072203333,0.9285454003029503,1.2142609748572741,-1.4760549836599184,575.0
576,-1.198341030530646,-2.1578204277686166,-1.9024547112179888,0.928545382821157,1.214261004411229,-1.5528400403156244,576.0
577,-1.1983410531328955,-2.157820404806224,-1.9024547135016463,0.9285453619503764,1.214261026842365,-1.6196250969713417,577.0
578,-1.1983410723508179,-2.1578203852820854,-1.9024547154433624,0.928545344204663,1.2142610459147951,-1.6764101536270632,578.0
579,-1.1983410881844132,-2.1578203691962003,-1.9024547170431338,0.928545329584015,1.2142610616285199,-1.723195210282817,579.0
580,-1.198341100633681,-2.1578203565485685,-1.9024547183009646,0.9285453180884351,1.2142610739835387,-1.7599802669385611,580.0
581,-1.1983411096986216,-2.157820347339189,-1.9024547192168548,0.928545309717923,1.2142610829798515,-1.786765323594295,581.0
582,-1.1983411153792343,-2.1578203415680624,-1.9024547197908042,0.9285453044724787,1.2142610886174587,-1.8035503802500332,582.0
583,-1.1988817183494282,-2.158936651602428,-1.9002227178688258,0.9274294457430107,1.2148001999922895,-1.8117673954229219,583.0
584,-1.2002888223967525,-2.161842252946142,-1.8944131383016451,0.9245250325307613,1.2162034213088027,-1.811153494800967,584.0
585,-1.2006711859080712,-2.162631823787608,-1.8928344424235073,0.9237357850061789,1.2165847276692767,-1.802029176823348,585.0
586,-1.2006711793182436,-2.1626318278705403,-1.8928344437231233,0.9237357815118712,1.216584716817148,-1.784006925601794,586.0
587,-1.2006711690719207,-2.162631834218968,-1.8928344457438564,0.9237357760786782,1.2165846999435028,-1.755984674380238,587.0
588,-1.200671155169102,-2.162631842832891,-1.8928344484857065,0.9237357687065997,1.2165846770483406,-1.7179624231586796,588.0
589,-1.200671137609885,-2.1626318537122096,-1.8928344519487805,0.9237357593952622,1.2165846481325262,-1.669940171947831,589.0
590,-1.2006711171323752,-2.1626318660963575,-1.892834456945048,0.923735745284896,1.2165846198072923,-1.611917932739276,590.0
591,-1.2006710931256137,-2.1626318806148856,-1.8928344628024105,0.9237357287426406,1.2165845866002696,-1.5438956935307326,591.0
592,-1.2006710622999242,-2.1626318988178452,-1.8928344606410288,0.9237357354952153,1.216584554698403,-1.4658734667117455,592.0
593,-1.2006710265099712,-2.162631919838106,-1.892834455458544,0.9237357510734454,1.2165845206248158,-1.377851244386008,593.0
594,-1.2006709866683811,-2.162631943334147,-1.8928344496049745,0.9237357687999491,1.2165844828099845,-1.2798290341583312,594.0
595,-1.2006709398588549,-2.1626319609034734,-1.892834441538485,0.9237357786967415,1.2165844368451753,-1.1718068313889198,595.0
596,-1.2006708869739644,-2.162631975107738,-1.892834431755761,0.9237357837308433,1.2165843840438129,-1.05378463654433,596.0
597,-1.2006708295172315,-2.162631986581454,-1.892834420690972,0.9237357847927601,1.2165843266317466,-0.9257624493995393,597.0
598,-1.200670767259779,-2.1626319852016467,-1.8928344071813528,0.9237357705584173,1.2165842643018687,-0.7877402673786139,598.0
599,-1.200670701520393,-2.162631979759204,-1.8928343924718438,0.9237357511051435,1.2165841984531385,-0.6397180870616049,599.0
600,-1.2006706355490484,-2.1626319577362,-1.892834375863389,0.9237357132065447,1.2165841322357103,-0.48169591352739766,600.0
601,-1.2006705707989291,-2.1626319263723843,-1.8928343584751595,0.9237356651924236,1.2165840671620567,-0.3154026289631384,601.0
602,-1.2006705148896564,-2.162631885256966,-1.8928343418959221,0.9237356081617576,1.2165840108553365,-0.15569643203423583,602.0
603,-1.2006704714025491,-2.162631837659114,-1.8928343272585737,0.9237355464727721,1.2165839669276912,-0.005990235105379434,603.0
604,-1.2006704358740299,-2.1626317881101857,-1.8928343141109292,0.9237354842427643,1.2165839309495539,0.13371596182346016,604.0
605,-1.2006704118455533,-2.1626317368363868,-1.8928343032379462,0.9237354224453698,1.216583906467544,0.2634221587522604,605.0
606,-1.200670395333376,-2.162631686182309,-1.8928342940464975,0.9237353628693165,1.2165838895139733,0.38312835568103387,606.0
607,-1.2006703828512575,-2.162631639048876,-1.8928342861122271,0.9237353080221634,1.2165838766237964,0.49283455260979026,607.0
608,-1.2006703818148599,-2.1626315934472533,-1.8928342808041707,0.9237352572102215,1.2165838752027773,0.592540749538531,608.0
609,-1.200670380882407,-2.1626315524192337,-1.892834276028479,0.9237352114944449,1.2165838739242791,0.6822469464672605,609.0
610,-1.2006703806060726,-2.1626315159770546,-1.8928342719049758,0.9237351710010876,1.216583873341086,0.7619531433959655,610.0
611,-1.200670388830865,-2.162631484294625,-1.8928342701359993,0.9237351375238878,1.2165838813069016,0.831659340324684,611.0
612,-1.200670395875735,-2.1626314571573344,-1.8928342686207986,0.9237351088493028,1.2165838881299469,0.8913655372534068,612.0
613,-1.2006704017406826,-2.162631434565183,-1.8928342673593712,0.9237350849773307,1.2165838938102227,0.9410717341821565,613.0
614,-1.2006704064257072,-2.16263141651817,-1.8928342663517195,0.923735065907973,1.2165838983477282,0.9807779311109164,614.0
615,-1.200670409930809,-2.1626314030162943,-1.892834265597845,0.9237350516412304,1.2165839017424633,1.0104841280396593,615.0
616,-1.2006704122559881,-2.1626313940595567,-1.8928342650977472,0.9237350421771027,1.2165839039944286,1.0301903249684135,616.0
617,-1.2008694930491481,-2.1630490754195497,-1.8919988259942144,0.9233172283115606,1.2167824170438428,1.0405641455451375,617.0
618,-1.202206666771009,-2.165854579348852,-1.8863873679865375,0.9205108971055772,1.2181157775712035,1.0428711295301925,618.0
619,-1.202970213537258,-2.1674565703365873,-1.883183135754612,0.9189084368471092,1.2188771462972663,1.035908039887479,619.0
620,-1.202970211592245,-2.1674565752139694,-1.8831831379653732,0.9189084357348807,1.2188771428990657,1.0208269688363594,620.0
621,-1.2029702083575275,-2.1674565833254604,-1.8831831416420521,0.9189084338851525,1.2188771372475762,0.9957458977852431,621.0
622,-1.2029702038331054,-2.1674565946710604,-1.8831831467846487,0.9189084312979247,1.218877129342798,0.9606648267341225,622.0
623,-1.2029701980189784,-2.1674566092507686,-1.8831831533931633,0.918908427973197,1.2188771191847312,0.9155837556829908,623.0
624,-1.2029701903756282,-2.167456627372438,-1.8831831611100163,0.9189084249504134,1.2188771019132774,0.8605026924723849,624.0
625,-1.202970181102329,-2.1674566489223617,-1.8831831700672825,0.9189084218456472,1.2188770793235484,0.7954216324632661,625.0
626,-1.2029701760163507,-2.1674566784341045,-1.8831831771796472,0.9189084391361565,1.2188770659751282,0.7203405802033931,626.0
627,-1.202970176703799,-2.1674567172220005,-1.8831831815367366,0.9189084827208244,1.2188770654607384,0.6352595362455494,627.0
628,-1.2029701774848633,-2.16745676063962,-1.8831831863392925,0.9189085317343092,1.2188770650022018,0.540178502398616,628.0
629,-1.2029701831109945,-2.16745680729865,-1.8831831925893796,0.9189085852135292,1.2188770699067268,0.4350974754566669,629.0
630,-1.202970198896237,-2.1674568556751628,-1.8831832013809797,0.9189086422004143,1.218877086150642,0.3200164569776278,630.0
631,-1.2029702160550257,-2.1674569082532713,-1.8831832109387516,0.918908704131228,1.2188771038230337,0.19493544758333545,631.0
632,-1.2029702492215855,-2.1674569564036044,-1.883183223462945,0.9189087643697278,1.2188771374349843,0.05985444429932902,632.0
633,-1.2029702859018168,-2.1674570074941752,-1.8831832370736816,0.918908828586604,1.2188771745852978,-0.08522655820735113,633.0
634,-1.202970338546356,-2.16745704847614,-1.8831832529868056,0.9189088848509313,1.2188772276265678,-0.24030755467355736,634.0
635,-1.2029703973196368,-2.1674570882285527,-1.883183270080721,0.9189089410047251,1.2188772867915898,-0.4052407004423455,635.0
636,-1.2029704648272668,-2.1674571107188276,-1.8831832871214143,0.9189089797841494,1.218877354552848,-0.5678898628835742,636.0
637,-1.2029705298590299,-2.1674571253819157,-1.8831833027533103,0.9189090093683883,1.2188774197695709,-0.7205390253247794,637.0
638,-1.20297059382878,-2.1674571267769247,-1.8831833166715528,0.918909024007126,1.2188774838108007,-0.8631881877659457,638.0
639,-1.2029706531969702,-2.1674571229218453,-1.8831833290121605,0.9189090318763955,1.2188775432016676,-0.9958373502071022,639.0
640,-1.202970707837349,-2.1674571082642333,-1.8831833391264623,0.9189090267869021,1.2188775977687274,-1.1184865126482313,640.0
641,-1.2029707580227158,-2.16745709480171,-1.8831833484161034,0.9189090221123688,1.2188776478867531,-1.2311356750890252,641.0
642,-1.2029708001543848,-2.167457071506741,-1.8831833548725168,0.9189090048753377,1.2188776898602072,-1.333784837529907,642.0
643,-1.202970837813465,-2.1674570493530023,-1.8831833604944648,0.91890898798989,1.2188777273665774,-1.4264339999708753,643.0
644,-1.202970871407849,-2.1674570295904085,-1.8831833655096095,0.9189089729269556,1.218877760824734,-1.5090831624119514,644.0
645,-1.2029708970122879,-2.1674570067515466,-1.8831833684615014,0.9189089528142331,1.2188777862594142,-1.581732324853042,645.0
646,-1.2029709179689392,-2.1674569854916514,-1.8831833705902399,0.9189089335031545,1.21887780705536,-1.644381487294211,646.0
647,-1.2029709355805103,-2.167456967625241,-1.8831833723791889,0.9189089172744909,1.218877824531877,-1.6970306497353949,647.0
648,-1.2029709498470007,-2.167456953152316,-1.8831833738283499,0.9189089041282426,1.218877838688965,-1.739679812176608,648.0
649,-1.20297096076841,-2.1674569420728744,-1.8831833749377243,0.9189088940644108,1.2188778495266237,-1.772328974617825,649.0
650,-1.2029709683447385,-2.1674569343869177,-1.8831833757073122,0.9189088870829955,1.218877857044853,-1.7949781370590108,650.0
651,-1.2029876313872132,-2.1674924417935104,-1.8831123218360253,0.9188733363267838,1.2188944709692593,-1.807693536074179,651.0
652,-1.2040705830958065,-2.1698009763334833,-1.8784932433079418,0.9165625157160913,1.219974231731161,-1.8128016824686883,652.0
653,-1.2052074946066627,-2.172224547557473,-1.8736439971456469,0.9141365481211614,1.2211077921953577,-1.8081647290741116,653.0
654,-1.2052411635985685,-2.1722963323012503,-1.873500371644847,0.9140646928063613,1.2211413590505604,-1.7959132371121416,654.0
655,-1.205241155599742,-2.1722963372548794,-1.8735003732318574,0.9140646885928159,1.2211413457850304,-1.7737941295974222,655.0
656,-1.2052411439846638,-2.172296344448033,-1.8735003755363513,0.9140646824743357,1.2211413265221833,-1.741675022082679,656.0
657,-1.2052411287533336,-2.172296353880711,-1.873500378558329,0.914064674450921,1.2211413012620191,-1.699555914567941,657.0
658,-1.2052411101868077,-2.1722963652561753,-1.8735003826166903,0.9140646634036931,1.2211412725477915,-1.6474368082697801,658.0
659,-1.2052410884959135,-2.172296378351834,-1.8735003879506498,0.9140646484933544,1.2211412422872556,-1.585317703719873,659.0
660,-1.2052410625732566,-2.172296393905108,-1.8735003921196345,0.914064636989561,1.2211412086200126,-1.5131986021263644,660.0
661,-1.2052410295665057,-2.1722964132631066,-1.873500387322873,0.9140646512765811,1.2211411771920864,-1.431079513375409,661.0
662,-1.2052409925475938,-2.172296435021706,-1.8735003819009457,0.9140646674903157,1.2211411420028964,-1.3389604309318337,662.0
663,-1.2052409513215896,-2.1722964586287334,-1.8735003757334685,0.9140646850248292,1.2211411027774774,-1.2368413558198117,663.0
664,-1.2052409016636045,-2.172296471972464,-1.8735003664980803,0.9140646897102825,1.2211410532053404,-1.1247222918478679,664.0
665,-1.2052408475748766,-2.1722964865072263,-1.8735003564379173,0.91406469481656,1.2211409991963573,-1.002603235621966,665.0
666,-1.2052407888061412,-2.1722964912334515,-1.87350034427998,0.9140646880295762,1.2211409404115514,-0.8704841857565689,666.0
667,-1.205240725442609,-2.1722964898747494,-1.8735003304558835,0.9140646735166467,1.2211408769730903,-0.7283651385389547,667.0
668,-1.2052406607475463,-2.172296476399999,-1.8735003149832545,0.9140646452756569,1.221140812100414,-0.5762460955471076,668.0
669,-1.2052405938498025,-2.17229645415811,-1.8735002980503173,0.9140646068469264,1.2211407449495528,-0.4141270588561926,669.0
670,-1.2052405346998758,-2.1722964156327675,-1.8735002809595096,0.914064551925945,1.2211406854146911,-0.24882409573381115,670.0
671,-1.2052404814259676,-2.172296375576579,-1.873500264964508,0.9140644965109408,1.2211406317483082,-0.09321696171654303,671.0
672,-1.2052404448269824,-2.1722963246608833,-1.8735002513472128,0.914064432458888,1.221140594679805,0.05239017230082899,672.0
673,-1.2052404109280912,-2.1722962771322867,-1.8735002386930406,0.9140643727222703,1.2211405603428798,0.18799730631836797,673.0
674,-1.2052403938041811,-2.1722962247146316,-1.8735002291089704,0.9140643109991989,1.2211405427549906,0.31360444033605206,674.0
675,-1.205240378043563,-2.172296176470124,-1.8735002202879123,0.9140642541901031,1.221140526567332,0.42921157435384183,675.0
676,-1.2052403715688693,-2.1722961302729424,-1.8735002137004364,0.9140642015602805,1.2211405196918506,0.5348187083717562,676.0
677,-1.2052403705880086,-2.1722960871405896,-1.873500208642672,0.9140641534613906,1.2211405183415696,0.6304258423897349,677.0
678,-1.2052403697097407,-2.1722960485196547,-1.8735002041139173,0.9140641103933878,1.221140517132521,0.7160329764078126,678.0
679,-1.2052403732568995,-2.172296014502848,-1.8735002010573005,0.9140640733464095,1.2211405203924088,0.7916401104259557,679.0
680,-1.2052403809094272,-2.1722959850833057,-1.873500199402995,0.914064042247147,1.2211405278008152,0.8572472444441348,680.0
681,-1.205240387395538,-2.172295960147962,-1.8735001980008417,0.9140640158881098,1.221140534080014,0.912854378462376,681.0
682,-1.2052403927152318,-2.1722959396968187,-1.8735001968508387,0.914063994269297,1.221140539230006,0.9584615124806275,682.0
683,-1.2052403968685086,-2.1722959237298736,-1.87350019595299,0.9140639773907102,1.2211405432507902,0.9940686464988903,683.0
684,-1.2052403998553685,-2.172295912247127,-1.8735001953072956,0.9140639652523496,1.2211405461423672,1.0196757805171288,684.0
685,-1.2052404016758111,-2.1722959052485784,-1.873500194913755,0.914063957854215,1.2211405479047364,1.0352829145353577,685.0
686,-1.2059069498723218,-2.1737395258618077,-1.8706106884279003,0.912617919183201,1.2218050672635767,1.0426349265184485,686.0
687,-1.2072312030221308,-2.176607625493909,-1.864870003478209,0.9097450290764586,1.2231252894755167,1.0408651458632177,687.0
688,-1.2074814587489542,-2.177149641178417,-1.8637851319763634,0.9092021105287211,1.2233747824896792,1.030894649069931,688.0
689,-1.2074814563014007,-2.1771496472861003,-1.8637851347723131,0.9092021091320976,1.2233747781399984,1.0117531757595843,689.0
690,-1.2074814525751818,-2.1771496565845943,-1.8637851390289386,0.9092021070058421,1.223374771517932,0.9826117024492123,690.0
691,-1.207481447570298,-2.1771496690739,-1.8637851447462408,0.9092021041499545,1.22337476262348,0.943470229138836,691.0
692,-1.2074814412071875,-2.177149684801,-1.863785151869511,0.9092021007242792,1.2233747507325734,0.8943287579663401,692.0
693,-1.2074814328617673,-2.1771497041344303,-1.8637851599696147,0.9092020979826437,1.223374730165577,0.8351873031187924,693.0
694,-1.2074814231052526,-2.177149726736876,-1.863785169439334,0.9092020947774359,1.223374706120987,0.766045848271291,694.0
695,-1.2074814224691173,-2.1771497612867092,-1.8637851741973233,0.9092021301165706,1.22337470274138,0.6869044075785578,695.0
696,-1.207481423184578,-2.177149801395593,-1.8637851787162192,0.9092021752828136,1.2233747022374997,0.597762971052898,696.0
697,-1.2074814239940896,-2.177149846078969,-1.8637851836706887,0.9092022258404879,1.223374701803609,0.49862154517273,697.0
698,-1.2074814353908083,-2.1771498922926438,-1.8637851912650238,0.9092022797686559,1.2233747131941795,0.38948012806001775,698.0
699,-1.2074814515440384,-2.177149941687932,-1.8637852003123836,0.9092023380230333,1.2233747298297133,0.2703387186695362,699.0
700,-1.207481474214232,-2.1771499921875006,-1.8637852109011712,0.9092023988267213,1.2233747529921168,0.14119731661056786,700.0
701,-1.2074815089861626,-2.1771500405011452,-1.863785223875429,0.9092024596553938,1.2233747882159545,0.0020559189960003867,701.0
702,-1.2074815507579153,-2.177150087727335,-1.8637852382417908,0.9092025207170227,1.2233748304359366,-0.14708547622357362,702.0
703,-1.207481605505615,-2.177150127812022,-1.8637852546103457,0.9092025765173923,1.2233748855808693,-0.30622686479068795,703.0
704,-1.2074816685466225,-2.1771501595599565,-1.8637852718333803,0.9092026247634872,1.2233749489553,-0.4725831536202122,704.0
705,-1.207481733609471,-2.1771501811476304,-1.8637852883480543,0.9092026621385714,1.2233750142660909,-0.6311697363082093,705.0
706,-1.2074817981774297,-2.1771501875174666,-1.8637853030393576,0.9092026825059896,1.2233750789505202,-0.7797563189963254,706.0
707,-1.207481859609707,-2.1771501888120963,-1.8637853164796883,0.9092026965897875,1.2233751404525859,-0.9183429016845929,707.0
708,-1.207481916345548,-2.177150178424182,-1.8637853275861191,0.9092026967284792,1.223375197153164,-1.0469294843730141,708.0
709,-1.2074819685681821,-2.17715016440737,-1.863785337306591,0.9092026919067293,1.2233752493049876,-1.1655160670615645,709.0
710,-1.2074820151356027,-2.1771501477458517,-1.8637853455049656,0.9092026829828194,1.2233752957734325,-1.274102649750211,710.0
711,-1.2074820547474079,-2.1771501244632714,-1.8637853514513787,0.9092026652716625,1.2233753352226242,-1.3726892324389794,711.0
712,-1.207482090341243,-2.177150103542331,-1.8637853567946192,0.9092026493570105,1.2233753706703405,-1.4612758151277991,712.0
713,-1.207482121020938,-2.1771500837378355,-1.8637853612003241,0.9092026336710852,1.223375401208837,-1.5398623978167014,713.0
714,-1.207482143700279,-2.17715006076161,-1.8637853635169979,0.9092026128147874,1.2233754237120391,-1.6084489805056736,714.0
715,-1.2074821630729469,-2.1771500411353433,-1.863785365495898,0.9092025949993608,1.2233754429342494,-1.6670355631946783,715.0
716,-1.207482179138942,-2.1771500248590376,-1.8637853671370213,0.9092025802248042,1.2233754588754682,-1.7156221458837146,716.0
717,-1.2074821918982641,-2.1771500119326914,-1.8637853684403716,0.9092025684911191,1.2233754715356953,-1.754208728572763,717.0
718,-1.2074822013509128,-2.1771500023563033,-1.863785369405949,0.909202559798306,1.2233754809149302,-1.7827953112618014,718.0
719,-1.2074822074968883,-2.1771499961298746,-1.8637853700337532,0.9092025541463646,1.223375487013173,-1.8013818939508153,719.0
720,-1.2077856210088065,-2.1778176309982817,-1.8624485909475526,0.9085333482327986,1.223677946748566,-1.8109457445590662,720.0
721,-1.2091069850189085,-2.1807252197312166,-1.8566268658390173,0.9056189429374946,1.2249951569546442,-1.812171060358008,721.0
722,-1.2096947625912968,-2.182018600324564,-1.8540371964453821,0.9043225309430531,1.2255810850134434,-1.8044169035913669,722.0
723,-1.2096947568169245,-2.182018603898588,-1.8540371975982857,0.9043225279203355,1.2255810753681624,-1.788273598273084,723.0
724,-1.209694747465607,-2.182018609686547,-1.854037199465358,0.90432252302519,1.2255810597480945,-1.7621302929547846,724.0
725,-1.2096947345373439,-2.182018617688441,-1.854037202046598,0.9043225162576165,1.2255810381532397,-1.725986987636476,725.0
726,-1.2096947180321354,-2.1820186279042706,-1.8540372053420064,0.9043225076176152,1.2255810105835976,-1.679843682318172,726.0
727,-1.209694698514778,-2.182018639722894,-1.8540372100127627,0.9043224947950993,1.2255809822018628,-1.6237003844063398,727.0
728,-1.2096946756607598,-2.182018653495451,-1.8540372156789773,0.90432247911736,1.2255809500417383,-1.5575570881489187,728.0
729,-1.209694646972722,-2.1820186704786435,-1.8540372156074874,0.904322479809095,1.2255809179712838,-1.4814138011152165,729.0
730,-1.2096946127427237,-2.1820186905339307,-1.8540372106079241,0.9043224945695079,1.2255808853825276,-1.395270520495347,730.0
731,-1.2096945745526952,-2.182018712997513,-1.8540372049512044,0.9043225113896858,1.2255808491360003,-1.299127251491416,731.0
732,-1.209694530412893,-2.1820187321560685,-1.854037197577115,0.9043225234572705,1.2255808062028866,-1.192983989260917,732.0
733,-1.209694479561171,-2.1820187458292577,-1.8540371880656952,0.9043225282141694,1.2255807554373166,-1.0768407352971003,733.0
734,-1.2096944243136976,-2.1820187599950276,-1.8540371776541913,0.9043225326156743,1.225580700262678,-0.9506974896887644,734.0
735,-1.2096943643099618,-2.1820187587532267,-1.8540371644886338,0.9043225188465294,1.2255806401868925,-0.8145542504122644,735.0
736,-1.2096942999674773,-2.1820187571566203,-1.8540371503412938,0.9043225037866286,1.2255805757648248,-0.6684110117528848,736.0
737,-1.2096942362745096,-2.182018736066771,-1.8540371341280086,0.9043224671967935,1.2255805118274141,-0.5122677800676917,737.0
738,-1.2096941712347147,-2.182018709296854,-1.8540371169792897,0.9043224240162382,1.225580446492631,-0.34664496958482083,738.0
739,-1.2096941159670362,-2.1820186688904677,-1.8540371004079088,0.904322367698369,1.225580390821106,-0.18506426974229181,739.0
740,-1.2096940702791539,-2.182018624748892,-1.8540370854931103,0.9043223092073411,1.2255803447062323,-0.03348356989966019,740.0
741,-1.2096940351015268,-2.1820185759301034,-1.8540370723302195,0.9043222476883417,1.2255803090711965,0.10809712994311099,741.0
742,-1.2096940084783814,-2.182018526993194,-1.8540370610108523,0.9043221878043723,1.2255802819978785,0.2396778297860347,742.0
743,-1.2096939920949021,-2.1820184769480555,-1.8540370517887181,0.9043221288030155,1.225580265164503,0.3612585296290889,743.0
744,-1.2096939771763235,-2.182018430987618,-1.8540370433470053,0.9043220746437247,1.2255802498328716,0.47283922947226786,744.0
745,-1.2096939761475702,-2.182018385775895,-1.8540370380050932,0.9043220241844747,1.2255802484109757,0.5744199293155274,745.0
746,-1.2096939752200915,-2.182018345014992,-1.854037033189056,0.9043219786926285,1.2255802471290567,0.6660006291589116,746.0
747,-1.2096939743938873,-2.182018308704908,-1.8540370288988952,0.9043219381681865,1.2255802459871146,0.7475813290023285,747.0
748,-1.2096939814045817,-2.1820182770057808,-1.8540370268319006,0.9043219043863586,1.2255802527296344,0.8191620288458277,748.0
749,-1.209693988506038,-2.1820182497572533,-1.8540370252884786,0.9043218755695238,1.2255802596016068,0.88074272868936,749.0
750,-1.2096939944542995,-2.1820182269335757,-1.8540370239956878,0.9043218514322116,1.2255802653576497,0.9323234285329345,750.0
751,-1.2096939992493658,-2.182018208534747,-1.8540370229535306,0.9043218319744228,1.2255802699977631,0.9739041283765322,751.0
752,-1.209694002891237,-2.182018194560767,-1.8540370221620084,0.9043218171961581,1.225580273521947,1.005484828220127,752.0
753,-1.209694005379913,-2.182018185011635,-1.8540370216211208,0.9043218070974176,1.2255802759302012,1.0270655280636904,753.0
754,-1.209750486631748,-2.1821444449015335,-1.8537841216941924,0.904195157028976,1.2256365738268784,1.0388722071661067,754.0
755,-1.2108908867513601,-2.1846938936566715,-1.8486777616785672,0.90163804330127,1.2267732726462948,1.0430475106619566,755.0
756,-1.2118725675548234,-2.1868885194791976,-1.8442820937057423,0.8994368239406929,1.227751766739314,1.0375174454790521,756.0
757,-1.211878497929348,-2.1869017851553925,-1.8442555337539874,0.899423521604066,1.2277576765135005,1.0243619434712117,757.0
758,-1.2118784949967683,-2.1869017924370127,-1.8442555371219989,0.8994235199322655,1.2277576712120992,1.0012321126922654,758.0
759,-1.2118784907963103,-2.1869018028667844,-1.8442555419461435,0.899423517537675,1.2277576636186782,0.9681022819132792,759.0
760,-1.211878485327975,-2.1869018164447063,-1.8442555482264213,0.8994235144202949,1.2277576537332382,0.9249724511343032,760.0
761,-1.2118784782229721,-2.1869018333961447,-1.8442555556996827,0.8994235113522285,1.227757638165349,0.8718426321795095,761.0
762,-1.211878469399551,-2.1869018537710567,-1.8442555643075944,0.8994235085046302,1.2277576161634425,0.8087128243952464,762.0
763,-1.2118784624088685,-2.1869018800214888,-1.844255572401758,0.8994235171242422,1.2277575981719497,0.7355830211572878,763.0
764,-1.211878463066296,-2.186901916914476,-1.844255576602703,0.8994235586663628,1.2277575976844541,0.6524532291449135,764.0
765,-1.2118784638123226,-2.1869019582964677,-1.8442555812599843,0.8994236054265186,1.2277575972265518,0.559323444768249,765.0
766,-1.2118784666183364,-2.186902003600599,-1.844255586785136,0.899423657049332,1.2277575990149152,0.45619366758601787,766.0
767,-1.2118784817793327,-2.186902049868114,-1.8442555953258184,0.8994237116852865,1.2277576146276723,0.34306390036046314,767.0
768,-1.2118784982821789,-2.186902100223409,-1.8442556046235905,0.8994237711431229,1.2277576316361969,0.21993414188447652,768.0
769,-1.2118785273652009,-2.1869021480504154,-1.8442556163873676,0.899423830355538,1.227757661181695,0.08680438943852203,769.0
770,-1.2118785627244846,-2.186902197060723,-1.8442556296575996,0.8994238921683219,1.2277576970065127,-0.05632536097129386,770.0
771,-1.2118786107997803,-2.186902239129057,-1.8442556449072955,0.8994239488978379,1.2277577454971276,-0.2094551065396811,771.0
772,-1.2118786662212762,-2.186902279588823,-1.8442556615735652,0.899424005361063,1.227757801326249,-0.37241664068726693,772.0
773,-1.2118787305119525,-2.186902302534827,-1.8442556781805128,0.8994240441892072,1.2277578658802626,-0.5329524998847819,773.0
774,-1.2118787919896752,-2.1869023210897076,-1.8442556936758656,0.8994240775525619,1.22775792758021,-0.6834883590823226,774.0
775,-1.2118788535757778,-2.186902322340863,-1.8442557072281702,0.8994240916996956,1.2277579892374306,-0.8240242182799412,775.0
776,-1.2118789107796488,-2.186902323502995,-1.8442557198161356,0.8994241048401693,1.2277580465073594,-0.9545600774776359,776.0
777,-1.2118789632605274,-2.18690230960719,-1.8442557296642859,0.8994241002606395,1.227758098918091,-1.0750959366753623,777.0
778,-1.211879011383288,-2.186902296681688,-1.8442557386737488,0.8994240958572308,1.2277581469749252,-1.1856317958731268,778.0
779,-1.2118790534582848,-2.1869022797559596,-1.8442557459116942,0.8994240857536344,1.2277581889431275,-1.2861676550709167,779.0
780,-1.2118790894212872,-2.1869022586340137,-1.8442557513418623,0.8994240697186408,1.227758224756692,-1.3767035142686985,780.0
781,-1.2118791214120523,-2.186902239845063,-1.8442557561722432,0.8994240554547652,1.227758256614525,-1.457239373466518,781.0
782,-1.2118791494001062,-2.1869022233468667,-1.8442557603914078,0.8994240429087378,1.2277582844857542,-1.5277752326643352,782.0
783,-1.2118791691897646,-2.186902203323849,-1.8442557624248002,0.8994240247456402,1.2277583041197737,-1.5883110918621361,783.0
784,-1.2118791857103426,-2.186902186608461,-1.8442557641222934,0.8994240095829291,1.2277583205104232,-1.638846951059905,784.0
785,-1.2118791989618405,-2.1869021732007026,-1.8442557654838874,0.8994239974206041,1.2277583336577027,-1.6793828102576482,785.0
786,-1.2118792089442583,-2.186902163100574,-1.8442557665095807,0.8994239882586649,1.2277583435616124,-1.7099186694554398,786.0
787,-1.211879215657596,-2.1869021563080735,-1.8442557671993762,0.8994239820971125,1.2277583502221519,-1.7304545286531714,787.0
788,-1.2118792191018528,-2.1869021528232024,-1.8442557675532736,0.899423978935947,1.227758353639321,-1.7409903878509285,788.0
789,-1.2114099407954098,-2.1858854449624876,-1.8463782656184569,0.9005298045792902,1.2272909874407008,-1.7426014093533062,789.0
790,-1.2112896992682143,-2.1856249454183594,-1.8469220942802622,0.9008131427990257,1.2271712358556117,-1.735382800799102,790.0
791,-1.2111602380520758,-2.1853444813245577,-1.8475076077709902,0.9011182020222286,1.2270423021600552,-1.7183511601190444,791.0
792,-1.2109547646545094,-2.184899344843009,-1.8484369011134232,0.9016023744788151,1.2268376660128215,-1.6913195194389714,792.0
