Miguel-LA/TFM_MiguelLerinAlonso/workspace/ros_ur_driver/src/trayectories/data/saved_trajectories/20240528_1858_trajectory.csv
,shoulder_pan_joint,shoulder_lift_joint,elbow_joint,wrist_1_joint,wrist_2_joint,wrist_3_joint,time_from_start
0,1.3303816318511963,-0.932347599660055,1.9703187942504883,-4.184289757405416,-1.315728012715475,-0.45864564577211553,0.0
1,1.3307958297337228,-0.9327646567478844,1.9705353504765093,-4.184093041475413,-1.3161440845454264,-0.4536456457721155,1.25
2,1.3320384233813027,-0.9340158280113731,1.9711850191545728,-4.183502893685403,-1.3173923000352818,-0.43864564577211557,2.5
3,1.3341094127939357,-0.9361011134505206,1.9722678002846785,-4.182519314035386,-1.3194726591850405,-0.4136456457721157,3.75
4,1.3370087979716219,-0.9390205130653273,1.9737836938668267,-4.1811423025253625,-1.3223851619947027,-0.3786456457721159,5.0
5,1.3407427946838713,-0.9427705555077388,1.9757174009177945,-4.179360148053334,-1.3261360600376317,-0.3336456756832977,6.25
6,1.3453263137251579,-0.9473429256601431,1.9780322444536118,-4.1771447682255385,-1.330740349987316,-0.2786457133006155,7.5
7,1.3507712790764081,-0.9527309718485713,1.9806988901890143,-4.174473703934897,-1.3362100245027992,-0.2136457576508053,8.75
8,1.3570915261707786,-0.9589259934595615,1.983682454589303,-4.171321048459976,-1.3425590334313302,-0.1386458127012289,10.0
9,1.3643028713100112,-0.965917275324812,1.986942398327713,-4.167657306596876,-1.3498033510814054,-0.05364587794498865,11.25
10,1.37242312635731,-0.9736923578353798,1.9904327032631883,-4.163449288880361,-1.3579609772803884,0.04135403913436009,12.5
11,1.3814718381469824,-0.9822359004590613,1.994101405208344,-4.158660795811102,-1.3670517195823901,0.14635393902561233,13.75
12,1.3914698983892055,-0.9915292678096375,1.9978905690142348,-4.15325298771473,-1.3770967988684966,0.26135099950646556,15.0
13,1.4015295329697004,-1.000726468607514,2.001429573732306,-4.14769281144315,-1.3872044388333702,0.37601527358286413,16.25
14,1.4107896977863703,-1.0090577754721899,2.0044503921889643,-4.142473446669754,-1.3965095003292927,0.48067950854181896,17.5
15,1.4192281739794304,-1.016537868042267,2.0070095959391203,-4.137636317306349,-1.4049895404916626,0.5753437318446437,18.75
16,1.426825532518631,-1.023182025741372,2.0091588881967475,-4.133217434447452,-1.4126248750329058,0.6600079456420895,20.0
17,1.4335642470180598,-1.029003631716872,2.0109445103491304,-4.129249279901202,-1.419397749491342,0.7346721505706386,21.25
18,1.4394296057360538,-1.0340165223986677,2.012407707197198,-4.125758949234312,-1.4252932082109684,0.7993363471230703,22.5
19,1.4444087195517668,-1.0382323679861916,2.0135841748967955,-4.12277019216093,-1.4302981536973398,0.8540005342814252,23.75
20,1.4484909593059072,-1.0416617008953146,2.0145042127889035,-4.120302550231196,-1.4344017697142597,0.8986647154395002,25.0
21,1.4516678805840044,-1.0443137537000275,2.0151927125848346,-4.118371505855157,-1.4375954487022753,0.9333288915441982,26.25
22,1.453932928538503,-1.0461956931132157,2.015668996207264,-4.116989077060351,-1.4398725091745277,0.9579930637185372,27.5
23,1.4552817376125025,-1.0473139022343811,2.0159485745413788,-4.116164291337377,-1.4412284895036975,0.9726575262299918,28.75
24,1.458612910678733,-1.0500755024671031,2.016638990346579,-4.1141273004916865,-1.444577373651702,0.9773603467220605,30.0
25,1.461737162387954,-1.052665555512502,2.0172865196844882,-4.112216846380426,-1.447718236244351,0.9720794393402545,31.25
26,1.4617480107257301,-1.0526745402378335,2.017288767888371,-4.112210221222675,-1.447729142192358,0.9574852433372937,32.5
27,1.4617480127176958,-1.052674527191016,2.0172887679437648,-4.1122102343595905,-1.4477291440806774,0.9329015509859285,33.75
28,1.4617480155199098,-1.0526745088370708,2.0172887680216727,-4.112210252840377,-1.4477291467368718,0.8983178602540786,35.0
29,1.4617480191317036,-1.052674485175443,2.0172887681216896,-4.11221027666762,-1.447729150155688,0.8537341998448692,36.25
30,1.4617480235536133,-1.0526744562065735,2.0172887682441405,-4.112210305839252,-1.4477291543413355,0.7991505394356588,37.5
31,1.4617480266989056,-1.0526744227062346,2.017288769844268,-4.112210341002862,-1.447729157199878,0.7345668825893309,38.75
32,1.4617480259279172,-1.0526743856557563,2.017288774762916,-4.112210382977629,-1.44772915608254,0.659983232744219,40.0
33,1.461748025053547,-1.0526743436376826,2.0172887803410786,-4.112210430580096,-1.4477291548153173,0.5753995879282678,41.25
34,1.461748024075791,-1.0526742966520315,2.0172887865787708,-4.112210483810187,-1.4477291533981793,0.4808159491927464,42.5
35,1.461748008830844,-1.0526742482120826,2.017288795731966,-4.112210541276438,-1.4477291376856214,0.37623231464529083,43.75
36,1.4617479906660824,-1.0526741955031216,2.0172888059932483,-4.112210604093783,-1.4477291190104293,0.26164868554708454,45.0
37,1.4617479642641633,-1.0526741418320813,2.0172888179534882,-4.112210669495332,-1.4477290920796113,0.13706506281727657,46.25
38,1.461747924712817,-1.0526740898855187,2.0172888322060056,-4.112210735340966,-1.4477290520001405,0.0024814456772747247,47.5
39,1.461747877458405,-1.0526740385765647,2.017288847849348,-4.112210801867432,-1.4477290042145912,-0.1421021668239075,48.75
40,1.4617478147868317,-1.0526739951872266,2.017288865420797,-4.112210862255323,-1.4477289410675263,-0.296685773157253,50.0
41,1.4617477423919338,-1.0526739588627492,2.0172888839416716,-4.1122109164343446,-1.4477288682514557,-0.4605796228711076,51.25
42,1.4617476652567278,-1.0526739345406966,2.0172889018232842,-4.112210957923304,-1.447728790801014,-0.6199105997752099,52.5
43,1.4617475890682459,-1.0526739255960103,2.017288917543569,-4.112210981877366,-1.4477287144411584,-0.76924157667932,53.75
44,1.461747516115082,-1.0526739238892011,2.017288931713111,-4.112210997070736,-1.447728641387569,-0.9085725535834378,55.0
45,1.4617474486382835,-1.0526739338587237,2.017288943331809,-4.112210998084389,-1.4477285739250982,-1.0379035304875606,56.25
46,1.4617473865081165,-1.052673949269545,2.017288953227417,-4.112210991981953,-1.4477285118659746,-1.157234507391688,57.5
47,1.461747330702444,-1.0526739666328702,2.01728896166224,-4.112210982524842,-1.4477284561568056,-1.2665654842958207,58.75
48,1.4617472834674237,-1.0526739924663318,2.017288967367442,-4.112210961945486,-1.4477284091068632,-1.3658964611999582,60.0
49,1.4617472409877195,-1.052674015699045,2.0172889724982763,-4.112210943437923,-1.4477283667936045,-1.4552274381041,61.25
50,1.4617472038629895,-1.052674037118594,2.0172889768386586,-4.1122109260038435,-1.4477283298246948,-1.5345584150082436,62.5
51,1.4617471766932764,-1.0526740627666078,2.0172889787309556,-4.112210901985094,-1.4477283028615997,-1.6038893919123938,63.75
52,1.461747153442405,-1.052674084715263,2.0172889803503162,-4.1122108814307055,-1.4477282797875446,-1.6632203688165443,65.0
53,1.4617471341103754,-1.052674102964558,2.017288981696736,-4.112210864340675,-1.4477282606025297,-1.7125513457206916,66.25
54,1.4617471186971875,-1.0526741175144947,2.0172889827702196,-4.112210850715005,-1.4477282453065552,-1.7518823226248377,67.5
55,1.4617471072028416,-1.0526741283650736,2.0172889835707677,-4.112210840553696,-1.4477282338996205,-1.7812132995289862,68.75
56,1.4617470996273374,-1.0526741355162943,2.017288984098379,-4.112210833856747,-1.447728226381726,-1.800544276433133,70.0
57,1.4618238771995695,-1.0522468781479293,2.0164590399263673,-4.1118083069057025,-1.447806596791487,-1.810544951145972,71.25
58,1.462343089284436,-1.0493575880575534,2.010846655079823,-4.109086293366401,-1.4483365800660133,-1.8125803310445034,72.5
59,1.46260547747246,-1.047896567733344,2.0080085646610564,-4.10770976985677,-1.4486044156613365,-1.8055596318333027,73.75
60,1.462605158721055,-1.047896333333517,2.0080079070386905,-4.1077093463723235,-1.4486040995133298,-1.7902864935291745,75.0
61,1.4626046312689898,-1.0478959454617436,2.0080068188418396,-4.107708645613857,-1.4486035763692233,-1.7650133552250464,76.25
62,1.4626038951162643,-1.0478954041180233,2.0080053000705043,-4.107707667581371,-1.4486028462290164,-1.7297402169209193,77.5
63,1.4626029502628788,-1.0478947093023563,2.0080033507246835,-4.107706412274863,-1.4486019090927096,-1.6844670786167921,78.75
64,1.462601796989891,-1.047893861064129,2.0080009708117537,-4.107704879332189,-1.4486007670922478,-1.629193957334602,80.0
65,1.4626004351819628,-1.0478928593830317,2.007998160328532,-4.107703068901764,-1.4485994193532465,-1.563920842430282,81.25
66,1.4625996926186011,-1.047892289676922,2.00799658772711,-4.107702065198231,-1.4485986848709398,-1.488647735549685,82.5
67,1.4625997329724136,-1.0478922676872495,2.0079965828637016,-4.107702082547804,-1.4485987257079982,-1.4033746366347457,83.75
68,1.4625997780532016,-1.0478922431505635,2.007996577457198,-4.1077021018045965,-1.4485987712924169,-1.3081015480519012,85.0
69,1.4625998295698648,-1.0478922210900483,2.0079965704825344,-4.107702117139038,-1.448598823125978,-1.2028284663439381,86.25
70,1.462599889151039,-1.0478922063098217,2.007996560971144,-4.107702122944187,-1.4485988826263008,-1.0875553930645236,87.5
71,1.4625999539000043,-1.0478921902467866,2.0079965506342115,-4.107702129255823,-1.4485989472811496,-0.9622823286702672,88.75
72,1.4626000241979036,-1.0478921910300802,2.007996537049429,-4.107702115549541,-1.4485990176664028,-0.8270092704925582,90.0
73,1.4626000997116313,-1.047892192780105,2.0079965223388636,-4.107702099801402,-1.448599093283562,-0.6817362129524827,91.25
74,1.462600174772857,-1.0478922147444463,2.007996505103951,-4.107702061302948,-1.4485991686376931,-0.5264631616446617,92.5
75,1.4626002522620138,-1.047892242745143,2.0079964866235507,-4.107702015543506,-1.4485992464790964,-0.3613881330664664,93.75
76,1.4626003176497662,-1.0478922879900165,2.0079964682366693,-4.107701952513664,-1.4485993123660528,-0.1989294568524314,95.0
77,1.4626003731461235,-1.0478923359877055,2.0079964513914286,-4.1077018881784815,-1.4485993683757754,-0.04647078063839703,96.25
78,1.4626004147089653,-1.0478923905538648,2.0079964363702327,-4.1077018189653565,-1.4485994104970734,0.09598789557564161,97.5
79,1.4626004476709982,-1.0478924443983995,2.007996423091973,-4.107701752135924,-1.4485994440007695,0.2284465717896827,98.75
80,1.4626004669438601,-1.0478925003045962,2.0079964121730987,-4.10770168547446,-1.4485994638185642,0.3509052480037228,100.0
81,1.4626004846428964,-1.0478925516454771,2.0079964021458543,-4.107701624256583,-1.4485994820180337,0.4633639242178107,101.25
82,1.462600486928198,-1.0478926018559755,2.0079963952211464,-4.107701567126644,-1.4485994847751922,0.5658226004318865,102.5
83,1.4626004878769368,-1.047892647442275,2.007996389150171,-4.107701515463534,-1.4485994861510156,0.6582812766459472,103.75
84,1.462600488723063,-1.0478926880981212,2.007996383735807,-4.107701469388119,-1.4485994873780346,0.7407399528599972,105.0
85,1.4626004812038045,-1.0478927236319762,2.0079963805876857,-4.107701430623715,-1.4485994801820306,0.8131986290740356,106.25
86,1.4626004726037791,-1.047892754212705,2.007996378286729,-4.1077013976510175,-1.4485994718577124,0.875657305288067,107.5
87,1.4626004653806681,-1.047892779897279,2.007996376354167,-4.107701369957441,-1.4485994648661664,0.928115981502096,108.75
88,1.4626004595344715,-1.0478928006856987,2.0079963747900003,-4.107701347542986,-1.4485994592073927,0.970574657716119,110.0
89,1.4626004550651894,-1.0478928165779648,2.007996373594231,-4.107701330407654,-1.4485994548813907,1.0030333339301425,111.25
90,1.4626004519728217,-1.0478928275740775,2.007996372766859,-4.1077013185514435,-1.4485994518881613,1.0254920101441705,112.5
91,1.4626043031719738,-1.0478710478542574,2.0079540177317834,-4.107680751284032,-1.4486033847417314,1.037990325194622,113.75
92,1.4630128327341054,-1.0455610687509003,2.0034631056439625,-4.105500673547038,-1.4490205664024294,1.0429205053599315,115.0
93,1.4634392314840905,-1.043149434660855,1.9987745084764772,-4.103224603168096,-1.4494559987567428,1.0382413912348127,116.25
94,1.4634465197139255,-1.0431066029895992,1.998691082694888,-4.1031840244107665,-1.449463449477896,1.0260267436083175,117.5
95,1.463446062697836,-1.0431062486677707,1.9986901123720573,-4.103183407625463,-1.449462997530673,1.0038899753123782,118.75
96,1.4634453992306145,-1.0431057342856187,1.9986887037183845,-4.1031825122153425,-1.4494623414221124,0.9717532070164436,120.0
97,1.4634445293122598,-1.043105059843144,1.9986868567338685,-4.103181338180404,-1.4494614811522137,0.9296164387205086,121.25
98,1.463443452813993,-1.043104225247976,1.9986845713522023,-4.10317988593096,-1.4494604156424589,0.8774796730518849,122.5
99,1.463442169639482,-1.043103230431018,1.9986818475237582,-4.103178155773863,-1.4494591440861995,0.8153429111504299,123.75
100,1.4634409706854943,-1.0431022941294343,1.9986793037226607,-4.103176547237587,-1.4494579558181964,0.743206152281855,125.0
101,1.4634409697666548,-1.043102253888282,1.9986793090623702,-4.1031765930138935,-1.449457953918087,0.6610694065393815,126.25
102,1.4634409687330678,-1.0431022087665742,1.9986793150683355,-4.103176644287954,-1.4494579517640154,0.568932667015756,127.5
103,1.463440966874038,-1.0431021589474614,1.9986793218594314,-4.103176700966143,-1.4494579486791037,0.4667959347184761,128.75
104,1.4634409493514167,-1.0431021081454965,1.9986793318222982,-4.103176761549903,-1.4494579306520978,0.3546592135670446,130.0
105,1.4634409302670006,-1.0431020528133215,1.9986793426736522,-4.103176827535361,-1.4494579110240098,0.23252250011139003,131.25
106,1.4634408981866371,-1.043101999199748,1.998679355797622,-4.103176893972256,-1.4494578784027747,0.10038579291892268,132.5
107,1.463440857015657,-1.0431019451701593,1.99867937072135,-4.103176962552177,-1.4494578366766082,-0.04175091176459482,133.75
108,1.4634408025719514,-1.0431018971339148,1.9986793874222355,-4.103177026788087,-1.4494577817175867,-0.1938876122442771,135.0
109,1.463440737782435,-1.0431018523281672,1.9986794056951622,-4.103177089266272,-1.4494577164303477,-0.3560243063697728,136.25
110,1.4634406611636142,-1.0431018238343568,1.9986794241303192,-4.103177135477249,-1.4494576394532868,-0.5213233016477694,137.5
111,1.463440586675792,-1.0431018013263134,1.9986794413797193,-4.103177174535006,-1.4494575646660321,-0.676921920272415,138.75
112,1.4634405115363438,-1.0431017996015672,1.9986794560611387,-4.103177190228678,-1.4494574894218468,-0.8225205388970535,140.0
113,1.463440441562875,-1.0431017982475705,1.998679469700493,-4.103177204558441,-1.4494574193532137,-0.9581191575216821,141.25
114,1.4634403771091993,-1.0431018142547233,1.9986794800278855,-4.10317719826194,-1.4494573549741516,-1.0837177761463048,142.5
115,1.463440317787242,-1.0431018289874032,1.9986794895330164,-4.103177192466754,-1.4494572957208673,-1.1993163947709202,143.75
116,1.4634402663992452,-1.0431018505715022,1.9986794966236472,-4.103177177478756,-1.4494572444753262,-1.3049150133955334,145.0
117,1.4634402215924744,-1.0431018750843863,1.9986795020684078,-4.103177157977622,-1.4494571998463088,-1.4005136320201408,146.25
118,1.463440181472672,-1.0431018970331214,1.9986795069436183,-4.103177140516382,-1.4494571598856658,-1.486112250644747,147.5
119,1.4634401488597435,-1.0431019201182847,1.9986795102271302,-4.10317712039789,-1.4494571274514274,-1.5617108692693518,148.75
120,1.4634401235222358,-1.043101944036139,1.9986795120028402,-4.10317709800768,-1.4494571023090108,-1.627309487893957,150.0
121,1.4634401020472343,-1.0431019643079018,1.9986795135078559,-4.103177079030682,-1.4494570809993608,-1.6829081065185687,151.25
122,1.463440084434739,-1.0431019809335722,1.9986795147421756,-4.103177063466897,-1.4494570635224764,-1.7285067251431852,152.5
123,1.46344007068475,-1.0431019939131518,1.9986795157058033,-4.103177051316326,-1.4494570498783583,-1.7641053437677994,153.75
124,1.4634400607972675,-1.0431020032466407,1.9986795163987385,-4.103177042578969,-1.4494570400670064,-1.7897039623924145,155.0
125,1.4634400547722912,-1.0431020089340388,1.9986795168209812,-4.103177037254827,-1.4494570340884207,-1.8053025810170291,156.25
126,1.4636810281840484,-1.041717566602356,1.9959857166120418,-4.101868186520285,-1.4497032171740272,-1.812588656387071,157.5
127,1.4641887191285956,-1.038800508132902,1.9903097859336936,-4.099110382880094,-1.4502218852364466,-1.8109033801964534,158.75
128,1.4642744260749554,-1.0383068308680818,1.9893490828585345,-4.098643537709205,-1.4503094509844583,-1.8011599625913588,160.0
129,1.464274047213031,-1.0383065188503204,1.9893482330363434,-4.098642999606881,-1.4503090754373456,-1.7821724834773474,161.25
130,1.4642734688186025,-1.0383060425043928,1.9893469356443694,-4.098642178106048,-1.4503085021035174,-1.753185004363338,162.5
131,1.4642726908916708,-1.0383054018303,1.9893451906826123,-4.098641073206709,-1.450307730982974,-1.7141975252493236,163.75
132,1.4642717134662853,-1.038304596834695,1.9893429981525779,-4.098639684861881,-1.4503067623372183,-1.6652100481714913,165.0
133,1.464270536863776,-1.038303627580339,1.9893403580683655,-4.098638012628062,-1.4503055986344089,-1.6062225898308156,166.25
134,1.464269160794712,-1.0383024940106549,1.989337270417113,-4.098636056904521,-1.4503042376518993,-1.5372351314901396,167.5
135,1.4642690002805256,-1.0383023175220294,1.9893368337802482,-4.098635796704096,-1.4503040796333653,-1.4582476870411554,168.75
136,1.4642690417879602,-1.0383022949022571,1.9893368287537243,-4.0986358145014385,-1.4503041216228985,-1.3692602467947104,170.0
137,1.4642690879541171,-1.0383022697734963,1.989336823190984,-4.098635834166305,-1.450304168286002,-1.2702728173573121,171.25
138,1.4642691422625598,-1.0383022523772172,1.9893368149981,-4.098635843772816,-1.4503042226804506,-1.1612853965086134,172.5
139,1.464269202885896,-1.0383022373185287,1.9893368052611025,-4.098635849648694,-1.4503042832179784,-1.0422979834031603,173.75
140,1.4642692687285785,-1.038302226944392,1.9893367939052269,-4.098635849278983,-1.4503043490268286,-0.9133105776615169,175.0
141,1.464269339944514,-1.0383022285625385,1.9893367799479043,-4.098635834383817,-1.4503044203414652,-0.7743231764296923,176.25
142,1.464269414529391,-1.0383022365357963,1.9893367645140545,-4.0986358116871555,-1.4503044950895891,-0.6253357774751286,177.5
143,1.4642694898515476,-1.0383022602193632,1.9893367468955638,-4.0986357710970065,-1.4503045707253954,-0.4663483852041177,178.75
144,1.4642695621082122,-1.0383022956710763,1.9893367283388361,-4.0986357177674915,-1.4503046434034426,-0.2999847485549184,180.0
145,1.4642696250893719,-1.0383023392012758,1.9893367105222752,-4.098635657008532,-1.4503047068714132,-0.14124187471548028,181.25
146,1.464269672416068,-1.0383023910213094,1.9893366946497313,-4.098635589751668,-1.4503047547447898,0.007500999123952148,182.5
147,1.4642697123177995,-1.038302443362864,1.9893366801426149,-4.098635523267642,-1.4503047951893189,0.14624387296337116,183.75
148,1.46426973756131,-1.0383024983787246,1.9893366681172857,-4.098635456450284,-1.450304820983535,0.2749867468027863,185.0
149,1.464269755983173,-1.0383025517809785,1.9893366576185172,-4.098635392708456,-1.450304839932731,0.3937296206421933,186.25
150,1.4642697683812123,-1.0383026017973742,1.9893366487227158,-4.098635333898988,-1.4503048528189024,0.5024724944815979,187.5
151,1.4642697693803042,-1.0383026497636934,1.9893366422937822,-4.098635279498255,-1.4503048542731856,0.6012153683209983,188.75
152,1.4642697702782146,-1.0383026928723103,1.9893366365159206,-4.098635230606851,-1.450304855580189,0.6899582421603946,190.0
153,1.4642697694024167,-1.0383027310852155,1.9893366317169274,-4.098635187574621,-1.4503048550650393,0.7687011159997886,191.25
154,1.46426976007234,-1.0383027642505789,1.9893366292060923,-4.09863515179894,-1.4503048460377959,0.8374439898391852,192.5
155,1.4642697520995063,-1.0383027925913892,1.9893366270605073,-4.098635121227534,-1.4503048383237425,0.896186863678585,193.75
156,1.4642697454839153,-1.0383028161076453,1.9893366252801696,-4.0986350958604,-1.4503048319228784,0.9449297375179913,195.0
157,1.4642697402255669,-1.0383028347993484,1.9893366238650825,-4.098635075697541,-1.450304826835204,0.9836726113573968,196.25
158,1.4642697363244612,-1.038302848666499,1.9893366228152463,-4.098635060738959,-1.4503048230607194,1.0124154851968017,197.5
159,1.4642697337805983,-1.0383028577090971,1.989336622130661,-4.098635050984651,-1.4503048205994244,1.031158359036206,198.75
160,1.4643636668536804,-1.0377545496380873,1.9882688612162147,-4.098115796885917,-1.4504008265301258,1.0407257149742233,200.0
161,1.4648668488085752,-1.0348172990768265,1.9825489760996995,-4.095334227030673,-1.4509151124448814,1.042173027639344,201.25
162,1.4650925910444073,-1.033498613160704,1.979980932457192,-4.094085347015086,-1.4511458410241873,1.0347104422869577,202.5
163,1.4650922782909754,-1.0334983424822402,1.9799802110555875,-4.094084895749317,-1.4511455319423174,1.0188760270917896,203.75
164,1.4650917680225564,-1.0334979008606373,1.9799790340630468,-4.094084159493062,-1.451145027664183,0.993041611896619,205.0
165,1.4650910602391498,-1.0334972882958953,1.9799774014795695,-4.0940831382463205,-1.451144328189784,0.957207196701441,206.25
166,1.465090154940756,-1.0334965047880138,1.9799753133051563,-4.094081832009093,-1.4511434335191202,0.9113727815062712,207.5
167,1.4650890518840252,-1.0334955501547884,1.9799727694058948,-4.094080241589216,-1.451142341586623,0.8555383755974177,208.75
168,1.4650877511950808,-1.0334944244906479,1.9799697698511223,-4.094078366567825,-1.451141053463119,0.7897039722353649,210.0
169,1.465087108027188,-1.0334938473761621,1.979968290514401,-4.0940774638908906,-1.4511404159942793,0.7138695778443358,211.25
170,1.4650871070822666,-1.033493805938445,1.9799682960467995,-4.094077511067203,-1.4511404140390136,0.6280351905692472,212.5
171,1.4650871060220432,-1.033493759705952,1.9799683022524595,-4.094077563607125,-1.4511404118144746,0.5322008143083772,213.75
172,1.4650870983864424,-1.0334937102842243,1.9799683101648544,-4.094077620919187,-1.4511404032354676,0.4263664448465708,215.0
173,1.4650870805420806,-1.0334936585837338,1.9799683203718081,-4.09407768263959,-1.451140384871959,0.31053208370895297,216.25
174,1.4650870609902134,-1.0334936025118862,1.9799683314804277,-4.094077749614602,-1.4511403647629388,0.18469773095992523,217.5
175,1.4650870222015073,-1.0334935516519053,1.979968345625915,-4.094077814262882,-1.4511403254446815,0.04886338462272852,218.75
176,1.4650869805572144,-1.0334934970475762,1.9799683608127032,-4.094077883670819,-1.4511402832318654,-0.09697096138318816,220.0
177,1.4650869194552687,-1.033493454370479,1.9799683782119015,-4.094077943173169,-1.451140221650277,-0.2528053004927926,221.25
178,1.4650868517532003,-1.0334934134561187,1.979968396659322,-4.094078001897028,-1.4511401534774206,-0.41825255633900327,222.5
179,1.4650867755942771,-1.0334933895329457,1.9799684145282628,-4.094078042964684,-1.4511400769994462,-0.5801520303387226,223.75
180,1.4650867017910196,-1.0334933754339795,1.979968430659612,-4.094078072490154,-1.4511400029735393,-0.7320515043384825,225.0
181,1.465086629597458,-1.033493373810485,1.9799684448520236,-4.094078087612845,-1.4511399306780914,-0.8739509783382646,226.25
182,1.4650865626329321,-1.033493379084994,1.9799684571320761,-4.0940780939732955,-1.4511398636836454,-1.005850452338085,227.5
183,1.465086500963378,-1.0334933944211915,1.9799684670743583,-4.094078087982072,-1.4511398020863515,-1.1277499263379467,228.75
184,1.4650864443528737,-1.0334934084992837,1.9799684762010206,-4.094078082482334,-1.4511397455421802,-1.2396494003378344,230.0
185,1.46508639716512,-1.0334934339645647,1.9799684820176615,-4.094078062372427,-1.4511396985405078,-1.3415488743377306,231.25
186,1.4650863547021529,-1.0334934572031025,1.97996848720976,-4.094078043910806,-1.4511396562480676,-1.4334483483376568,232.5
187,1.4650863168597743,-1.0334934779129479,1.9799684918368796,-4.094078027458077,-1.4511396185576602,-1.5153478223376011,233.75
188,1.4650862884839901,-1.033493502448134,1.9799684941318,-4.094078004937597,-1.4511395903816164,-1.5872472963375663,235.0
189,1.4650862649139516,-1.033493524697405,1.9799684957942227,-4.094077984117414,-1.4511395669952971,-1.6491467703375433,236.25
190,1.4650862451517057,-1.0334935433522554,1.979968497188075,-4.094077966660778,-1.4511395473870898,-1.7010462443375245,237.5
191,1.465086229197253,-1.0334935584126854,1.9799684983133585,-4.094077952567688,-1.4511395315569957,-1.7429457183375092,238.75
192,1.4650862170505936,-1.0334935698786953,1.9799684991700743,-4.0940779418381466,-1.4511395195050145,-1.7748451923374928,240.0
193,1.4650862087117271,-1.0334935777502858,1.979968499758223,-4.094077934472153,-1.4511395112311463,-1.7967446663374707,241.25
194,1.4650966356265458,-1.033431720169703,1.9798479358588539,-4.094019250298953,-1.4511501731097265,-1.8087553278060597,242.5
195,1.4655141778205212,-1.0309555582989,1.97502207802819,-4.091670442561736,-1.4515771188513784,-1.8132482725762777,243.75
196,1.4658954380442886,-1.0286938969706518,1.9706142053743214,-4.0895250424246194,-1.4519669685877554,-1.8081339744207456,245.0
197,1.4658975839587207,-1.0286795114468485,1.9705860123029881,-4.089511239776196,-1.4519691705582805,-1.7954390713094595,246.25
198,1.4658971512603072,-1.028679114102368,1.9705849579996368,-4.089510582493437,-1.4519687419138612,-1.7727707505179853,247.5
199,1.4658965276794649,-1.0286785414716437,1.9705834385963952,-4.089509635254152,-1.4519681241754094,-1.7401024297265018,248.75
200,1.4658957132161938,-1.0286777935546754,1.9705814540932636,-4.089508398058339,-1.451967317342925,-1.69743410893502,250.0
201,1.4658947080343134,-1.0286768703866063,1.9705790045001914,-4.089506870664576,-1.451966322690783,-1.6447657920718395,251.25
202,1.4658935122053363,-1.0286757719827617,1.970576089821471,-4.089505052967413,-1.4519651407754341,-1.5820974797246619,252.5
203,1.465892482302192,-1.028674813697641,1.9705735580794577,-4.0895034783215545,-1.4519641230505957,-1.5094291711992633,253.75
204,1.4658925203190183,-1.0286747929676585,1.970573553442908,-4.089503494623111,-1.4519641615092496,-1.426760874661723,255.0
205,1.4658925629310269,-1.0286747697499643,1.970573548263037,-4.089503512816367,-1.4519642045917551,-1.3340925851184404,256.25
206,1.4658926105915542,-1.028674745382014,1.9705735422689747,-4.089503531330322,-1.45196425269174,-1.231424302807229,257.5
207,1.465892667188751,-1.0286747313042697,1.9705735331219998,-4.08950353678407,-1.4519643092106658,-1.1187560310017906,258.75
208,1.4658927288085273,-1.0286747159764718,1.9705735231627637,-4.089503542724515,-1.4519643707397756,-0.9960877674664175,260.0
209,1.465892795717751,-1.028674712073713,1.970573510675738,-4.089503534779738,-1.4519644376853564,-0.8634195100840614,261.25
210,1.465892867792209,-1.0286747136768852,1.9705734964622554,-4.089503519660317,-1.4519645098610332,-0.7207512549782321,262.5
211,1.4658929410032864,-1.0286747293058982,1.9705734801925936,-4.089503488465133,-1.4519645833099248,-0.5680830044264347,263.75
212,1.4658930169861915,-1.028674753149802,1.9705734623094333,-4.0895034474655585,-1.4519646596131317,-0.4054147601279962,265.0
213,1.4658930830261474,-1.0286747951997874,1.9705734439756117,-4.089503387707566,-1.4519647261358792,-0.24049732183059397,266.25
214,1.4658931421485162,-1.0286748385207531,1.9705734268194859,-4.089503327789015,-1.4519647857448699,-0.08543680970315332,267.5
215,1.4658931832811193,-1.0286748924303568,1.9705734117729667,-4.089503259214297,-1.451964827443881,0.05962370242429463,268.75
216,1.4658932204330282,-1.0286749432504112,1.970573397904163,-4.0895031948692875,-1.451964865127779,0.1946842145517615,270.0
217,1.4658932395626645,-1.0286749986667558,1.9705733869354622,-4.089503128652451,-1.4519648848117188,0.319744726679229,271.25
218,1.4658932571626706,-1.0286750496519321,1.9705733768438236,-4.089503067730393,-1.4519649029217052,0.43480523880670147,272.5
219,1.4658932634600297,-1.028675098638006,1.970573369209811,-4.089503011156388,-1.4519649096962415,0.5398657509341898,273.75
220,1.4658932644086458,-1.0286751441433206,1.9705733630705211,-4.089502959507201,-1.4519649110822135,0.6349262630616822,275.0
221,1.4658932652574712,-1.028675184861648,1.9705733575770554,-4.089502913291307,-1.4519649123223868,0.7199867751891721,276.25
222,1.4658932605521757,-1.0286752206716374,1.9705733538050354,-4.08950287365298,-1.4519649079546857,0.795047287316667,277.5
223,1.4658932518462113,-1.0286752516078521,1.9705733514481147,-4.089502840266317,-1.4519648995347676,0.8601077994441592,278.75
224,1.4658932444783803,-1.0286752777890749,1.9705733494534583,-4.089502812011287,-1.451964892409017,0.9151683115716528,280.0
225,1.465893238448683,-1.0286752992153052,1.9705733478210656,-4.089502788887888,-1.4519648865774333,0.9602288236991292,281.25
226,1.4658932337571184,-1.0286753158865454,1.9705733465509396,-4.089502770896122,-1.4519648820400168,0.9952893358266138,282.5
227,1.4658932304036876,-1.0286753278027947,1.9705733456430805,-4.089502758035987,-1.4519648787967676,1.0203498479540996,283.75
228,1.4658932283883903,-1.0286753349640538,1.970573345097488,-4.089502750307486,-1.4519648768476856,1.035410360081583,285.0
229,1.4661483439906104,-1.0271383341952,1.9675754770715683,-4.088042428682463,-1.452225855820556,1.0423009381623878,286.25
230,1.4666270000447785,-1.0242542270120245,1.9619501050251178,-4.085302187584792,-1.4527155145542663,1.040077765431642,287.5
231,1.4666936087233078,-1.0238515900216287,1.961164656818038,-4.08491951890433,-1.4527836608842424,1.0299390686839913,288.75
232,1.4666932400514918,-1.0238512352585412,1.9611637337510603,-4.084918949954131,-1.4527832967940577,1.0104407624899425,290.0
233,1.4666926823007826,-1.0238506985498605,1.96116233727528,-4.084918089209255,-1.4527827459747382,0.9809424562958963,291.25
234,1.46669193547118,-1.0238499798955876,1.9611604673906982,-4.0849169366697,-1.452782008426284,0.9414441501018529,292.5
235,1.4666909995210045,-1.0238490792631867,1.9611581240728848,-4.084915492479522,-1.4527810837900559,0.8919458472424756,293.75
236,1.4666898742200787,-1.023847996472973,1.9611553071868255,-4.084913757434002,-1.4527799700858748,0.8324475632425159,295.0
237,1.4666885597874924,-1.0238467316959619,1.9611520168608831,-4.084911730775783,-1.4527786691991222,0.7629492792425513,296.25
238,1.4666884475403386,-1.0238465894353863,1.9611517425826441,-4.084911598842433,-1.4527785572463958,0.6834510100349596,297.5
239,1.4666884465691723,-1.0238465468602733,1.9611517483110292,-4.084911647331766,-1.4527785552275916,0.5939527448805431,298.75
240,1.4666884454845976,-1.0238464995580203,1.961151754705985,-4.084911701117946,-1.452778552943809,0.4944544898375738,300.0
241,1.4666884320940479,-1.023846450580958,1.961151763746511,-4.084911759016676,-1.4527785388882037,0.38495624398226774,301.25
242,1.4666884139421281,-1.0238463980245998,1.9611517741938376,-4.08491182182714,-1.452778520204028,0.2654580057684234,302.5
243,1.4666883878011125,-1.0238463446092962,1.961151786308736,-4.084911887097008,-1.4527784935164263,0.1359597747303128,303.75
244,1.4666883485217048,-1.0238462931510501,1.961151800722377,-4.0849119526020266,-1.4527784536942079,-0.0035384521377165266,305.0
245,1.4666883007310871,-1.0238462433802065,1.9611518165735848,-4.084912017774072,-1.4527784053662862,-0.15303667643215593,306.25
246,1.4666882387745899,-1.0238462006345939,1.961151834263882,-4.084912077620006,-1.452778342922064,-0.3125348940889643,307.5
247,1.4666881671146785,-1.0238461675236459,1.9611518525807219,-4.084912128360528,-1.4527782708555637,-0.4788610658349354,308.75
248,1.46668809371859,-1.0238461445151346,1.9611518699095523,-4.084912167990689,-1.4527781971482332,-0.6370951021427376,310.0
249,1.4666880206348094,-1.0238461383310071,1.9611518849684462,-4.084912188524574,-1.4527781239158868,-0.7853291384505586,311.25
250,1.466687951287521,-1.023846136805515,1.9611518986872598,-4.084912203094709,-1.4527780544695186,-0.9235631747583877,312.5
251,1.4666878872256501,-1.0238461482750378,1.9611519096694816,-4.084912201980797,-1.4527779904403522,-1.0517972110662281,313.75
252,1.466687828245276,-1.0238461629633726,1.9611519192384819,-4.084912196283329,-1.4527779315299147,-1.1700312473740813,315.0
253,1.4666877758150774,-1.0238461809319315,1.9611519270998978,-4.084912185660801,-1.4527778792092643,-1.278265283681939,316.25
254,1.4666877310587465,-1.0238462054347552,1.9611519326074238,-4.08491216622283,-1.4527778346348503,-1.3764993199897961,317.5
255,1.4666876908585078,-1.0238462274432443,1.9611519375542898,-4.084912148763598,-1.4527777945980094,-1.4647333562976568,318.75
256,1.4666876564345026,-1.0238462485558362,1.9611519414927743,-4.084912131248339,-1.4527777603357868,-1.5429673926055256,320.0
257,1.4666876308151338,-1.023846272739858,1.961151943311611,-4.084912108626743,-1.4527777349185393,-1.6112014289133965,321.25
258,1.4666876089503966,-1.0238462933796044,1.9611519448638888,-4.084912089320443,-1.4527777132263018,-1.6694354652212615,322.5
259,1.4666875908402914,-1.023846310475074,1.9611519461496045,-4.084912073329434,-1.4527776952590745,-1.7176695015291163,323.75
260,1.466687576484818,-1.023846324026268,1.9611519471687626,-4.084912060653721,-1.452777681016857,-1.755903537836969,325.0
261,1.4666875658839766,-1.0238463340331874,1.9611519479213628,-4.084912051293304,-1.4527776704996498,-1.7841375741448262,326.25
262,1.4666875590377675,-1.0238463404958313,1.9611519484074051,-4.084912045248182,-1.4527776637074528,-1.8023716104526846,327.5
263,1.4667990947692906,-1.0231636977125596,1.9598194418583794,-4.084262421300333,-1.4528918152678694,-1.811593233309706,328.75
264,1.467285411942705,-1.020187210944724,1.95400940839194,-4.0814299203889215,-1.453389538011211,-1.8125599267478403,330.0
265,1.4674772027422327,-1.0190123854578694,1.9517160871031205,-4.080311837217724,-1.453585831448211,-1.804750202788428,331.25
266,1.4674769046425207,-1.0190120813751669,1.9517152987364266,-4.080311352722583,-1.453585536338233,-1.788435066813996,332.5
267,1.4674764238292155,-1.0190115909117299,1.9517140271578888,-4.080310571266913,-1.453585060347153,-1.7621199308395683,333.75
268,1.4674757603023165,-1.0190109140675583,1.9517122723675064,-4.080309492850714,-1.4535844034749703,-1.72580479486514,335.0
269,1.4674749140618244,-1.0190100508426523,1.95171003436528,-4.080308117473987,-1.4535835657216851,-1.6794896588907153,336.25
270,1.4674738853996763,-1.0190090013053321,1.9517073131743534,-4.080306444679661,-1.4535825493855279,-1.6231745323958016,337.5
271,1.4674726741401616,-1.0190077654144503,1.951704108780708,-4.080304474742728,-1.4535813530834836,-1.556859407788604,338.75
272,1.4674721648316484,-1.0190072121927833,1.9517027020783857,-4.080303620750433,-1.4535808505744507,-1.4805442927074746,340.0
273,1.4674722039735386,-1.0190071908410792,1.951702697274881,-4.080303637511915,-1.4535808901648324,-1.394229183803522,341.25
274,1.4674722476441382,-1.0190071670489025,1.9517026919445324,-4.08030365608113,-1.4535809342928623,-1.2979140866785888,342.5
275,1.4674722979718118,-1.0190071470443351,1.951702684785765,-4.0803036692157,-1.4535809848473724,-1.1915989963010145,343.75
276,1.4674723555911038,-1.019007132691026,1.9517026754136164,-4.08030367473683,-1.4535810423846922,-1.0752839141596644,345.0
277,1.4674724181849497,-1.0190071181278133,1.9517026650956593,-4.080303679572549,-1.4535811048954472,-0.9489688402944945,346.25
278,1.4674724860957096,-1.019007119604281,1.9517026516177503,-4.080303665283077,-1.4535811729026835,-0.8126537726133204,347.5
279,1.4674725588132458,-1.019007121811166,1.951702637103334,-4.08030364927379,-1.4535812457297919,-0.6663387056095577,348.75
280,1.4674726308170634,-1.019007144359516,1.9517026200488414,-4.0803036103691595,-1.453581318040828,-0.5100236455758441,350.0
281,1.4674727040735334,-1.0190071732658894,1.9517026019116803,-4.08030356403423,-1.4535813916677707,-0.3443095564084652,351.25
282,1.4674727663393088,-1.019007216198323,1.9517025840764135,-4.080303503863442,-1.453581454426659,-0.18289742296936173,352.5
283,1.4674728174972,-1.0190072633150993,1.9517025678625557,-4.080303441019781,-1.453581506104654,-0.03148528953024975,353.75
284,1.4674728570400628,-1.019007315094954,1.9517025533062367,-4.080303375055539,-1.4535815461986366,0.10992684390887261,355.0
285,1.4674728866339608,-1.0190073671298254,1.9517025406623185,-4.080303310651231,-1.4535815763339297,0.24133897734801066,356.25
286,1.4674729049485675,-1.0190074201481751,1.9517025300950446,-4.080303247229406,-1.4535815951856461,0.3627511107871659,357.5
287,1.4674729213647941,-1.019007468896887,1.951702520461593,-4.080303188993705,-1.4535816120952094,0.4741632442263258,358.75
288,1.467472922363088,-1.0190075167453065,1.9517025139624815,-4.080303134641993,-1.453581613559191,0.5755753776654828,360.0
289,1.4674729232629424,-1.0190075598755095,1.951702508104227,-4.080303085649769,-1.4535816148788128,0.6669875111046509,361.25
290,1.4674729240643578,-1.0190075982874969,1.9517025028868318,-4.080303042017031,-1.453581616054075,0.7483996445438206,362.5
291,1.4674729158603226,-1.0190076317875731,1.951702500078019,-4.080303005618077,-1.4535816081651627,0.8198117779829943,363.75
292,1.467472907756609,-1.0190076605737577,1.9517024978706212,-4.080302974536786,-1.4535816003309365,0.8812239114221733,365.0
293,1.4674729009724574,-1.0190076846725635,1.9517024960226612,-4.080302948516594,-1.453581593772391,0.9326360448613312,366.25
294,1.4674728955078684,-1.0190077040839916,1.9517024945341404,-4.080302927557501,-1.453581588489526,0.9740481783004837,367.5
295,1.4674728913628416,-1.0190077188080429,1.9517024934050604,-4.080302911659507,-1.4535815844823414,1.0054603117396443,368.75
296,1.4674728885373771,-1.019007728844717,1.951702492635421,-4.080302900822613,-1.4535815817508375,1.0268724451788058,370.0
297,1.467489846122807,-1.0189022979217637,1.9514965271016964,-4.080202402862985,-1.453598945193097,1.0384707228597494,371.25
298,1.4679046542993082,-1.0163233919853571,1.9464587477529425,-4.077744426312831,-1.4540236791542205,1.0425314153578416,372.5
299,1.468251430643229,-1.0141667287239617,1.9422457416613137,-4.075688833294931,-1.4543787570133373,1.037021652272571,373.75
300,1.4682517221313411,-1.0141631840402197,1.9422386667449958,-4.075685303785798,-1.4543790642979935,1.0238874869147343,375.0
301,1.4682513032679807,-1.0141627374356033,1.942237529240194,-4.075684612144111,-1.454378650945954,1.0007596090647393,376.25
302,1.4682507032970569,-1.0141620977286974,1.942235899902631,-4.075683621451342,-1.4543780588693287,0.9676317312147499,377.5
303,1.4682499222185696,-1.014161264919502,1.942233778732307,-4.075682331707492,-1.454377288068117,0.9245038533647626,378.75
304,1.4682489598884958,-1.0141602388909166,1.9422311656392313,-4.075680743429518,-1.4543763372871505,0.8713759868847188,380.0
305,1.4682478162742756,-1.014159019616454,1.942228060602942,-4.075678856733995,-1.4543752062431072,0.8082481312309155,381.25
306,1.4682468865408185,-1.0141580183874779,1.9422255382921572,-4.075677334946599,-1.4543742864766416,0.7351202801506251,382.5
307,1.4682468856537787,-1.014157979398815,1.942225543564814,-4.075677379410976,-1.4543742846381686,0.6519924404084176,383.75
308,1.4682468846565073,-1.014157935740917,1.9422255494905594,-4.0756774291393665,-1.4543742825498298,0.5588646082319291,385.0
309,1.4682468813793996,-1.0141578879598552,1.942225556425806,-4.075677483913335,-1.45437427816123,0.4557367832097155,386.25
310,1.4682468644307418,-1.0141578389232384,1.9422255662422998,-4.075677542584263,-1.4543742607060617,0.3426089681610985,387.5
311,1.4682468459847318,-1.0141577855522064,1.9422255769266101,-4.0756776064402205,-1.4543742417148224,0.21948116182044286,388.75
312,1.468246813329822,-1.0141577348016826,1.9422255900472378,-4.075677669995164,-1.4543742085246847,0.08635336145984404,390.0
313,1.4682467735824891,-1.0141576827775691,1.942225604725911,-4.075677736321523,-1.4543741682214382,-0.05677443693317316,391.25
314,1.4682467194598199,-1.0141576380672364,1.9422256212591391,-4.07567779704503,-1.4543741135955535,-0.20990223049247905,392.5
315,1.468246656964869,-1.014157595003908,1.942225639217852,-4.0756778574640755,-1.4543740506026948,-0.3730300178393079,393.75
316,1.4682465826140512,-1.0141575699537848,1.9422256571221979,-4.0756778996935985,-1.4543739759152643,-0.5375784782907156,395.0
317,1.4682465111008591,-1.0141575506275036,1.9422256737129122,-4.075677934911947,-1.454373904124878,-0.692181334573454,396.25
318,1.4682464395564976,-1.0141575490905383,1.942225687958024,-4.075677949989976,-1.454373832477043,-0.8367841908562064,397.5
319,1.4682463730007738,-1.014157549623425,1.9422257009503818,-4.0756779617939305,-1.4543737658442313,-0.9713870471389738,398.75
320,1.4682463116985427,-1.0141575649130805,1.9422257109608243,-4.075677955906706,-1.4543737046155452,-1.0959899034217482,400.0
321,1.4682462553161213,-1.0141575789756616,1.9422257201678705,-4.075677950491955,-1.4543736483007663,-1.21059275970471,401.25
322,1.4682462069635414,-1.0141576008109872,1.9422257267713667,-4.0756779347777545,-1.4543736001016787,-1.3151956159876161,402.5
323,1.468246164454711,-1.014157624092941,1.942225732036675,-4.075677916335866,-1.4543735577676964,-1.4097984722704766,403.75
324,1.4682461264392788,-1.0141576449138727,1.9422257367454083,-4.075677899843376,-1.4543735199086303,-1.4944013285532907,405.0
325,1.4682460961694053,-1.0141576675303847,1.9422257396965614,-4.075677879873479,-1.4543734898222371,-1.5690041848360856,406.25
326,1.4682460722472461,-1.0141576901129044,1.9422257414063528,-4.075677858758727,-1.4543734660910748,-1.6336070411188444,407.5
327,1.4682460520280438,-1.0141577091998317,1.9422257428514809,-4.075677840912368,-1.4543734460333044,-1.6882098974015842,408.75
328,1.4682460355117986,-1.014157724791167,1.9422257440319453,-4.0756778263344,-1.4543734296489261,-1.7328127536843168,410.0
329,1.46824602269851,-1.0141577368869108,1.942225744947748,-4.075677815024825,-1.4543734169379399,-1.7674156099670395,411.25
330,1.4682460135881783,-1.0141577454870636,1.94222574559889,-4.075677806983643,-1.4543734079003459,-1.792018466249781,412.5
331,1.4682460081808033,-1.0141577505916253,1.9422257459853707,-4.075677802210856,-1.454373402536144,-1.806621322532516,413.75
332,1.4685154465075034,-1.0124562093241483,1.938899378501479,-4.074053561723992,-1.454649418540003,-1.8132148372426016,415.0
333,1.4689643708827809,-1.0096208248208491,1.9333564174745013,-4.071346961222326,-1.455109303992519,-1.810562834455873,416.25
334,1.4690145823617826,-1.0093023729276314,1.9327337512926153,-4.0710428563674474,-1.4551607476757298,-1.8001139640452535,417.5
335,1.4690142336487864,-1.0093019790708766,1.932732751029128,-4.0710422497286185,-1.455160402705459,-1.7801866237644735,418.75
336,1.4690137099435474,-1.0093013875676977,1.9327312488103001,-4.071041338664402,-1.455159884621132,-1.750259283483688,420.0
337,1.4690130112460664,-1.0093005984180947,1.9327292446361315,-4.071040123174798,-1.4551591934227486,-1.7103319432029216,421.25
338,1.4690121376177816,-1.0092996116376598,1.9327267385127231,-4.071038603158056,-1.4551583295994828,-1.6604046072848178,422.5
339,1.4690110892927288,-1.009298427285743,1.9327237304631728,-4.071036778226415,-1.455157295015057,-1.6004772894741384,423.75
340,1.4690098660349258,-1.0092970453024357,1.932720220463984,-4.071034648770609,-1.455156087790763,-1.5305499716634143,425.0
341,1.4690098545826813,-1.009296974440151,1.93272008413401,-4.071034583436335,-1.4551560773325138,-1.4506226689395092,426.25
342,1.4690098948018777,-1.0092969524996764,1.9327200791746322,-4.071034600599821,-1.4551561179941068,-1.3606953701571756,427.5
343,1.4690099394884328,-1.0092969281464623,1.9327200736882406,-4.071034619562452,-1.4551561631358758,-1.2607680810298607,428.75
344,1.4690099924355147,-1.009296912498729,1.932720065357195,-4.071034627320612,-1.455156216103576,-1.1508408015863527,430.0
345,1.4690100510322617,-1.0092968978787817,1.9327200557629045,-4.071034632903512,-1.455156274613712,-1.0309135297318992,431.25
346,1.4690101146698678,-1.009296889414751,1.9327200443562675,-4.071034630577812,-1.4551563382355246,-0.9009862649698807,432.5
347,1.4690101834279647,-1.0092968908733237,1.932720030620609,-4.071034616065052,-1.455156407092577,-0.7610590042042913,433.75
348,1.46901025487779,-1.0092969003272445,1.932720015294192,-4.071034591990444,-1.4551564787237568,-0.611131746335945,435.0
349,1.4690103275393502,-1.0092969230322133,1.9327199979713918,-4.071034552676123,-1.4551565516990805,-0.4512044950146049,436.25
350,1.4690103956464473,-1.009296958706859,1.9327199798250576,-4.071034499519804,-1.455156620241714,-0.284955022203524,437.5
351,1.4690104556869334,-1.0092970000523207,1.9327199625151634,-4.071034441447592,-1.4551566807633987,-0.12715670715136523,438.75
352,1.4690104993025312,-1.009297050691077,1.9327199472073318,-4.071034375918829,-1.455156724931051,0.020641607900737855,440.0
353,1.4690105373088422,-1.0092971004130569,1.9327199331258653,-4.071034312477901,-1.4551567634734135,0.1584399229527896,441.25
354,1.469010559784027,-1.0092971535239426,1.9327199216537068,-4.071034248102572,-1.4551567864985986,0.2862382380047433,442.5
355,1.4690105773111033,-1.0092972042262178,1.932719911475603,-4.071034187381569,-1.4551568045458354,0.40403655305665065,443.75
356,1.4690105877102027,-1.0092972520321426,1.93271990308559,-4.07103413127521,-1.4551568154277443,0.5118348681084914,445.0
357,1.4690105886600702,-1.0092972975211223,1.9327198968639818,-4.071034079561249,-1.4551568168258704,0.6096331831602818,446.25
358,1.4690105895128123,-1.0092973383587927,1.9327198912785337,-4.071034033135102,-1.4551568180810364,0.6974314982120187,447.5
359,1.4690105877021011,-1.0092973744907041,1.9327198868419202,-4.071033992538486,-1.4551568166231792,0.775229813263714,448.75
360,1.4690105788781043,-1.0092974058245587,1.9327198844230913,-4.071033958689585,-1.4551568080961375,0.8430281283154009,450.0
361,1.4690105713556145,-1.0092974325367858,1.9327198823610308,-4.0710339298332725,-1.455156800826803,0.9008264433670613,451.25
362,1.469010565134631,-1.0092974546273838,1.9327198806557349,-4.0710339059695455,-1.4551567948151751,0.9486247584187038,452.5
363,1.4690105602151546,-1.009297472096355,1.9327198793072078,-4.071033887098405,-1.4551567900612545,0.9864230734703365,453.75
364,1.4690105565971847,-1.009297484943699,1.9327198783154502,-4.071033873219853,-1.455156786565041,1.0142213885219808,455.0
365,1.469010554280722,-1.0092974931694163,1.9327198776804613,-4.071033864333889,-1.4551567843265343,1.0320197035736332,456.25
366,1.4691330681798274,-1.0085116277227117,1.9311824487408709,-4.070282568640658,-1.4552823493839249,1.0409222444417507,457.5
367,1.4696003320543611,-1.0055142461828337,1.9253185368729835,-4.067417059735107,-1.4557612506875757,1.041453995358701,458.75
368,1.469769016171535,-1.0044311558323122,1.9231995529984651,-4.066381535003181,-1.4559341411963127,1.0333168685643133,460.0
369,1.4697687259208156,-1.0044308139431288,1.92319869862093,-4.066381021996289,-1.4559338549898784,1.0165943366588033,461.25
370,1.4697682621014514,-1.0044302676057284,1.923197333329414,-4.066380202213549,-1.4559333976332647,0.9898718047532945,462.5
371,1.4697676247134428,-1.0044295168201107,1.9231954571239167,-4.06637907565496,-1.4559327691264712,0.9531492728477974,463.75
372,1.4697668137567896,-1.0044285615862762,1.9231930700044384,-4.066377642320523,-1.4559319694694979,0.9064267409422941,465.0
373,1.4697658289868125,-1.0044274016971562,1.9231901718078683,-4.066375903120175,-1.4559309965042786,0.8497042180003034,466.25
374,1.4697646705657945,-1.0044260372900786,1.9231867626423222,-4.066373857450241,-1.455929851662375,0.7829816963893256,467.5
375,1.4697642158663768,-1.004425478981843,1.9231854292357289,-4.0663730821189485,-1.4559294017156406,0.7062591850075304,468.75
376,1.4697642149548922,-1.0044254388791423,1.9231854346954758,-4.066373127894779,-1.4559293998246234,0.6195366792036359,470.0
377,1.469764213932486,-1.004425394185939,1.9231854408154416,-4.066373178812199,-1.4559293976676002,0.522814185671488,471.25
378,1.4697642052391817,-1.0044253467913624,1.923185448830747,-4.066373234184668,-1.455929388121257,0.41609169883143404,472.5
379,1.4697641879890453,-1.0044252969180942,1.923185458887287,-4.066373293926361,-1.4559293703508633,0.2993692201527325,473.75
380,1.4697641676247202,-1.0044252436683516,1.9231854700088649,-4.066373358079319,-1.4559293494338872,0.17264674960147264,475.0
381,1.4697641301708797,-1.004425194692057,1.9231854839315687,-4.066373420618462,-1.4559293114499376,0.035924284962476856,476.25
382,1.4697640888526124,-1.0044251431955695,1.9231854989534873,-4.066373486739466,-1.4559292695717942,-0.11079817877889889,477.5
383,1.4697640296257306,-1.004425102437044,1.9231855160854683,-4.066373544051065,-1.4559292098674168,-0.2675206355853411,478.75
384,1.4697639641296143,-1.0044250652166293,1.9231855339855084,-4.0663735985291485,-1.4559291439209072,-0.4318507859113166,480.0
385,1.4697638933086663,-1.0044250431116104,1.9231855509257159,-4.066373636874733,-1.4559290727923564,-0.5887910055378626,481.25
386,1.4697638246252156,-1.0044250308476976,1.9231855661333332,-4.066373663665207,-1.4559290039013075,-0.7357312251643704,482.5
387,1.4697637577910816,-1.0044250294480506,1.92318557952911,-4.066373677795007,-1.455928936969336,-0.8726714447908186,483.75
388,1.4697636959551328,-1.0044250337814817,1.9231855911737865,-4.066373684488855,-1.4559288750985253,-0.9996116644170898,485.0
389,1.4697636392032625,-1.0044250479588765,1.9231856005031225,-4.066373679071346,-1.4559288184155272,-1.1165518840432278,486.25
390,1.4697635873044588,-1.0044250609239065,1.9231856090346657,-4.066373674117105,-1.455928766579707,-1.2234921036693407,487.5
391,1.4697635435419873,-1.004425082170807,1.9231856148555626,-4.066373658249143,-1.4559287229723432,-1.320432323295452,488.75
392,1.469763505006329,-1.0044251032861073,1.9231856196609236,-4.066373641549366,-1.45592868459706,-1.4073725429215507,490.0
393,1.469763470903102,-1.0044251219726905,1.9231856239135603,-4.066373626770424,-1.455928650635762,-1.4843127625476416,491.25
394,1.4697634430471662,-1.004425140603721,1.9231856269388483,-4.066373610881954,-1.455928622929057,-1.5512529821737362,492.5
395,1.4697634222485798,-1.004425160238454,1.9231856284356685,-4.066373592531365,-1.455928602298496,-1.6081932017998501,493.75
396,1.4697634051026993,-1.0044251764248808,1.923185629669613,-4.0663735774035565,-1.4559285852911317,-1.6551334214259827,495.0
397,1.4697633916095245,-1.0044251891629998,1.9231856306406796,-4.066373565498529,-1.455928571906964,-1.6920736410521147,496.25
398,1.4697633817690554,-1.0044251984528123,1.9231856313488702,-4.066373556816283,-1.4559285621459925,-1.7190138606782348,497.5
399,1.4697633755812918,-1.0044252042943187,1.9231856317941858,-4.066373551356819,-1.455928556008218,-1.7359540803043596,498.75
400,1.4697427755520163,-1.0045542123588718,1.9234494687612207,-4.066508336695646,-1.4559073786237857,-1.7430990197493432,500.0
401,1.4695751518112259,-1.005604074913209,1.92559660408147,-4.067605255157904,-1.455735056121612,-1.7416496361893623,501.25
402,1.4695476368049916,-1.0057764271231093,1.925949098645808,-4.067785339384763,-1.455706769690203,-1.7311334803423217,502.5
403,1.469493957288993,-1.006112672120837,1.9266367865730678,-4.068136668912164,-1.4556515851870842,-1.7106173244952982,503.75
404,1.4694141132632295,-1.0066128099063927,1.9276596678632498,-4.068659243740108,-1.455569502612255,-1.680101168648263,505.0
405,1.469307922903046,-1.0072765763507847,1.9290172034588586,-4.069352788789305,-1.4554603423468495,-1.6395849904457378,506.25
406,1.4691742082038741,-1.0081022598001956,1.9307059000659623,-4.070215521442796,-1.4553229406793236,-1.5890686656673414,507.5
407,1.4690140239030915,-1.0090913920858058,1.9327288839781114,-4.0712490370376955,-1.4551583395533791,-1.5285523408889798,508.75
408,1.4688269651935966,-1.0102434088203904,1.9350850035786025,-4.072452747865636,-1.454966139225032,-1.4580359622785775,510.0
409,1.4686121678698134,-1.0115571047679401,1.9377717996149513,-4.073825398887827,-1.4547454862995954,-1.3775194323542204,511.25
410,1.468370220807199,-1.0130333144793318,1.9407909751977421,-4.075367859432634,-1.4544969619700037,-1.2870028431266185,512.5
411,1.468099955869684,-1.014670442976067,1.9441392763922698,-4.077078469340031,-1.4542194119252194,-1.1864860641465333,513.75
412,1.4678014099932444,-1.0164685850190418,1.9478168971459362,-4.078957327888908,-1.4539128723782633,-1.075969114009592,515.0
413,1.4674744181567898,-1.0184275323373604,1.9518234127987122,-4.081004218525799,-1.4535771801478174,-0.955451992885824,516.25
414,1.467117900110299,-1.0205459083507749,1.9561560163181309,-4.083217709723377,-1.4532112671189585,-0.8249345877285412,517.5
415,1.4667314266946923,-1.0228232349162973,1.9608137336872655,-4.085597305178026,-1.4528147084826846,-0.6844168725339795,518.75
416,1.4663147063652302,-1.025259209585966,1.9657959491486579,-4.088142691288402,-1.4523872154950292,-0.5338988421226123,520.0
417,1.4658671899607123,-1.0278522005762007,1.9710993314618976,-4.0908521682019146,-1.4519282498530024,-0.3734327192114813,521.25
418,1.4654201572047754,-1.0304186020783082,1.9763483596414417,-4.09353388502034,-1.451469903677049,-0.21435998523766736,522.5
419,1.464998133700301,-1.0328200536450787,1.981260044564722,-4.096043262631513,-1.4510373104561496,-0.06528689240654578,523.75
420,1.4646017756184877,-1.0350573845171005,1.9858360770429941,-4.098381163259585,-1.4506311190375882,0.0737865014536665,525.0
421,1.4642317565473961,-1.037131405751398,1.990078110262393,-4.100548429705057,-1.4502519957686428,0.20286013946042797,526.25
422,1.4638876000443004,-1.039041656395145,1.9939852062254038,-4.102544584447794,-1.4498994685460025,0.32193408342809265,527.5
423,1.4635709112979818,-1.0407899407133678,1.9975610407711026,-4.104371500663067,-1.4495751261924692,0.4310081772997067,528.75
424,1.4632821959296232,-1.0423768019604116,2.0008067203047077,-4.106029742006002,-1.4492794693495383,0.5300823877267219,530.0
425,1.463020681879064,-1.0438014616099505,2.0037206600257242,-4.1075185014327875,-1.4490117332050665,0.6191567998901955,531.25
426,1.4627883373942716,-1.0450659823543151,2.006307060085424,-4.108839918365005,-1.4487738669849546,0.6982312330637451,532.5
427,1.4625838975406826,-1.046169076401953,2.008563298797285,-4.109992657646853,-1.4485646177143265,0.7673058176605266,533.75
428,1.4624088720936135,-1.0471122877507641,2.0104925195382446,-4.110978320162268,-1.4483854808460255,0.8263804226328799,535.0
429,1.4622634627683997,-1.0478958229471438,2.0120951428138683,-4.111797120071497,-1.4482366561799287,0.8754550287067178,536.25
430,1.462146723378218,-1.0485187382497556,2.0133692476561587,-4.1124480792051745,-1.4481172063375043,0.9145297363072642,537.5
431,1.4620598599352537,-1.0489822370548771,2.0143172835601173,-4.112932444863519,-1.448028326101293,0.943604443907794,538.75
432,1.4620028724395069,-1.049286319362509,2.0149392505257455,-4.113250217046532,-1.4479700154712951,0.9626791515083355,540.0
433,1.4619755931175342,-1.0494318778337073,2.0152369744551915,-4.1134023286640895,-1.4479421027923915,0.9717543180863876,541.25
434,1.4617651433281402,-1.0505515862389128,2.017527293222023,-4.114572523559076,-1.4477267840457881,0.9719429106169895,542.5
435,1.4617622815743818,-1.0505664225052873,2.0175576496447323,-4.114588038052976,-1.4477238581589678,0.9634945654288604,543.75
436,1.4617621486748353,-1.0505662798941326,2.0175573785003995,-4.114587909229518,-1.4477237267104135,0.9450745122559246,545.0
437,1.4617619436259064,-1.0505660598612934,2.017556960155442,-4.11458771046953,-1.4477235239002006,0.9166544590829875,546.25
438,1.4617616663845145,-1.0505657623507165,2.017556394567261,-4.114587442018731,-1.4477232493820071,0.878234417598635,547.5
439,1.4617613169419,-1.0505653873510115,2.0175556817271616,-4.114587103926887,-1.4477229030856225,0.8298143860361895,548.75
440,1.4617608953302668,-1.0505649349040822,2.01755482166698,-4.114586696010255,-1.447722485269998,0.7713943544737722,550.0
441,1.4617607938756276,-1.050564799540148,2.0175546193873815,-4.114586629113093,-1.4477223843375262,0.7029743365011337,551.25
442,1.46176079303725,-1.0505647604850283,2.017554624420056,-4.1145866733320915,-1.4477223829430834,0.6245543222158352,552.5
443,1.4617607920882714,-1.050564716460911,2.017554630104306,-4.114586723145476,-1.4477223813419555,0.5361343149175082,553.75
444,1.4617607859910842,-1.050564668721873,2.0175546372465236,-4.114586778050437,-1.4477223746147532,0.43771431238106095,555.0
445,1.4617607688024918,-1.0505646187552118,2.0175546468050096,-4.114586837420652,-1.4477223569387268,0.3292943173483943,556.25
446,1.4617607500288887,-1.0505645641801793,2.017554657245273,-4.114586902265629,-1.4477223376352022,0.21087433028256228,557.5
447,1.4617607156262462,-1.0505645126817478,2.0175546702806604,-4.114586966491586,-1.447722302715945,0.08245435106368557,558.75
448,1.4617606749476053,-1.0505644591415841,2.0175546847699666,-4.114587034157756,-1.447722261495354,-0.05596562338380107,560.0
449,1.4617606196180866,-1.05056441280369,2.0175547011519717,-4.1145870963748985,-1.447722205673269,-0.2043855963146794,561.25
450,1.4617605553915718,-1.0505643682295212,2.0175547190110823,-4.114587158221567,-1.4477221409600687,-0.36280556302318673,562.5
451,1.4617604777030913,-1.050564340257933,2.017554737355543,-4.114587203819464,-1.4477220629230216,-0.5268859227499458,563.75
452,1.4617604020909092,-1.0505643181070659,2.0175547545726866,-4.11458724248684,-1.4477219870185427,-0.6821307524643778,565.0
453,1.461760326042154,-1.0505643162894287,2.0175547693199487,-4.114587258340307,-1.447721910865175,-0.8273755821787714,566.25
454,1.4617602552482458,-1.050564315508761,2.0175547829337477,-4.114587272072198,-1.4477218399823182,-0.9626204118931405,567.5
455,1.461760190039901,-1.0505643316815476,2.0175547933523332,-4.114587265702124,-1.4477217748483795,-1.0878652416074668,568.75
456,1.4617601300380265,-1.0505643465630365,2.017554802939053,-4.114587259840654,-1.4477217149149704,-1.203110071321797,570.0
457,1.4617600782465512,-1.0505643688863038,2.017554810023809,-4.1145872441098605,-1.4477216632703143,-1.3083549010360966,571.25
458,1.461760032955351,-1.050564393679648,2.017554815557384,-4.114587224417855,-1.4477216181562984,-1.403599730750391,572.5
459,1.4617599924193905,-1.050564415869873,2.01755482050997,-4.114587206793361,-1.4477215777789194,-1.4888445604646725,573.75
460,1.461759959709069,-1.050564439498121,2.017554823787937,-4.114587186129021,-1.4477215452495218,-1.5640893901789412,575.0
461,1.4617599341411438,-1.0505644636651352,2.0175548256346483,-4.114587163561353,-1.4477215198757518,-1.629334219893211,576.25
462,1.4617599124919851,-1.0505644841280988,2.0175548271983152,-4.114587144452606,-1.4477214983909903,-1.6845790496075,577.5
463,1.4617598947615926,-1.0505645008870108,2.017554828478936,-4.114587128802775,-1.447721480795236,-1.7298238793218148,578.75
464,1.4617598809499668,-1.050564513941873,2.0175548294765147,-4.114587116611867,-1.4477214670884908,-1.7650687090361203,580.0
465,1.4617598710571074,-1.0505645232926846,2.0175548301910506,-4.1145871078798795,-1.4477214572707544,-1.7903135387504239,581.25
466,1.4617598650830146,-1.050564528939446,2.017554830622544,-4.114587102606813,-1.4477214513420267,-1.8055583684647318,582.5
467,1.462026585630314,-1.0490850768577757,2.01467107083792,-4.113183344980459,-1.4479937119181363,-1.8125773015600608,583.75
468,1.462544012887248,-1.0462146926726203,2.0090760733943807,-4.110459798955952,-1.448521887976975,-1.8105299305357345,585.0
469,1.4626180398558464,-1.0458027647529509,2.0082730183525666,-4.11006882478182,-1.4485974585726713,-1.8005211111765664,586.25
470,1.46261763589083,-1.0458024598349887,2.0082721858178822,-4.110068296856171,-1.4485970578954948,-1.781162490895991,587.5
471,1.462617023251327,-1.045801997406854,2.008270923224303,-4.110067496222219,-1.4485964502422162,-1.7518038706154053,588.75
472,1.4626162019373363,-1.0458013774685468,2.0082692305718286,-4.110066422879963,-1.448595635612836,-1.7124452503348162,590.0
473,1.4626151719980203,-1.0458006000302076,2.008267107863008,-4.110065076760178,-1.4485946143803092,-1.6630866332391678,591.25
474,1.4626139337428048,-1.045799665155626,2.0082645551137506,-4.110063457426979,-1.4485933888924716,-1.6037280363806237,592.5
475,1.4626124868817127,-1.0457985727849732,2.0082615723089683,-4.110061565288613,-1.4485919569496466,-1.5343694395220808,593.75
476,1.4626123766524288,-1.0457984449914863,2.008261270224023,-4.110061391006235,-1.4485918486222882,-1.4550108572183573,595.0
477,1.462612418937762,-1.045798421938218,2.0082612650782465,-4.110061409104384,-1.4485918914062859,-1.3656522790113756,596.25
478,1.4626124659494082,-1.0457983963375728,2.0082612593846134,-4.110061429097568,-1.4485919389329698,-1.2662937111072847,597.5
479,1.4626125214039767,-1.0457983791517533,2.008261250955711,-4.110061438270219,-1.4485919944548744,-1.1569351522270253,598.75
480,1.4626125830954884,-1.0457983638488113,2.0082612410761866,-4.110061444249782,-1.4485920560594638,-1.037576601016536,600.0
481,1.462612650096488,-1.045798354011751,2.008261229488676,-4.110061443114565,-1.4485921230331673,-0.9082180570338136,601.25
482,1.4626127225349728,-1.045798355726814,2.0082612153997554,-4.110061427993388,-1.448592195570715,-0.7688595173149012,602.5
483,1.462612798167347,-1.0457983647036149,2.0082611997844855,-4.110061404111779,-1.4485922713739594,-0.6195009800886656,603.75
484,1.462612874756903,-1.0457983889093518,2.0082611820677965,-4.110061362903247,-1.4485923482781669,-0.46014244951223093,605.0
485,1.462612947574302,-1.0457984257890787,2.0082611634770746,-4.110061308107011,-1.4485924215238755,-0.29380088329995846,606.25
486,1.4626130113172766,-1.0457984700030547,2.0082611457003594,-4.1100612467026245,-1.4485924857529022,-0.13542773011094236,607.5
487,1.4626130585903971,-1.045798523188191,2.008261129947764,-4.110061178193094,-1.4485925335764742,0.012945423078028744,608.75
488,1.4626130989612127,-1.0457985763013031,2.0082611155260945,-4.110061111021496,-1.4485925744890373,0.15131857626697798,610.0
489,1.4626131238464346,-1.0457986324570543,2.008261103686819,-4.110061043242746,-1.4485925999263323,0.27969172945590376,611.25
490,1.4626131424765085,-1.0457986866017563,2.0082610932987803,-4.110060978867994,-1.4485926190824676,0.3980648826447931,612.5
491,1.4626131544305998,-1.0457987374385878,2.0082610846059255,-4.110060919434459,-1.4485926315240374,0.5064380358336729,613.75
492,1.4626131554403927,-1.0457987860268223,2.0082610782922576,-4.11006086452631,-1.448592632987626,0.6048111890225403,615.0
493,1.4626131563475364,-1.0457988296758773,2.008261072620392,-4.110060815199778,-1.4485926343024356,0.6931843422113915,616.25
494,1.4626131550511665,-1.045798868336004,2.0082610679989386,-4.110060771893441,-1.448592633364693,0.7715574954002331,617.5
495,1.4626131456371376,-1.0457989018671447,2.008261065578162,-4.110060735841939,-1.4485926242520666,0.8399306485890723,618.75
496,1.4626131375999694,-1.0457989304941473,2.0082610635114393,-4.110060705063194,-1.4485926164722183,0.8983038017779236,620.0
497,1.462613130939661,-1.0457989542170094,2.0082610617987666,-4.110060679557204,-1.4485926100251485,0.946676954966798,621.25
498,1.4626131256562136,-1.0457989730357335,2.008261060440148,-4.110060659323971,-1.4485926049108575,0.9850501081556801,622.5
499,1.4626131217496263,-1.0457989869503195,2.0082610594355845,-4.110060644363497,-1.4485926011293446,1.0134232613445526,623.75
500,1.4626131192198997,-1.0457989959607674,2.0082610587850747,-4.1100606346757775,-1.4485925986806103,1.0317964145334229,625.0
501,1.462724284783049,-1.0451724054817475,2.0070387250459407,-4.109465121926089,-1.4487061215223955,1.0410869705712382,626.25
502,1.4632467966713285,-1.0422271514558121,2.0012932452306953,-4.10666597966038,-1.4492397135336998,1.0421560260746416,627.5
503,1.4634592624453289,-1.0410285571528075,1.9989549903696253,-4.105526759744941,-1.4494566896825865,1.034420075075528,628.75
504,1.4634589275892598,-1.0410282911080764,1.99895428014598,-4.105526314992536,-1.449456358532937,1.0181984251992375,630.0
505,1.4634583863077826,-1.0410278610573822,1.9989531320977916,-4.105525596068016,-1.4494558232427397,0.9919767753229364,631.25
506,1.4634576386008973,-1.0410272670007246,1.9989515462250593,-4.105524602971382,-1.4494550838119946,0.9557551254466462,632.5
507,1.463456684468604,-1.0410265089381041,1.9989495225277836,-4.105523335702633,-1.4494541402407013,0.9095334755703384,633.75
508,1.4634555236444915,-1.04102558666898,1.998947060860159,-4.105521795150061,-1.4494529902975257,0.8533118307187746,635.0
509,1.463454156284285,-1.0410245003105734,1.998944161307381,-4.105519980794338,-1.4494516352868971,0.7870901869750567,636.25
510,1.463453540619784,-1.0410239887929533,1.9989428598117596,-4.10551919041084,-1.4494510246233188,0.7108685528645913,637.5
511,1.4634535396548203,-1.0410239464728674,1.99894286528725,-4.105519238423629,-1.449451022627935,0.6246469252790707,638.75
512,1.4634535385721348,-1.0410238992799634,1.9989428714285002,-4.1055192918622545,-1.4494510203554756,0.5284253091740104,640.0
513,1.4634535301992004,-1.041023848994247,1.998942879379232,-4.105519350070802,-1.449451011055765,0.42220369981887945,641.25
514,1.463453512038193,-1.0410237962407551,1.9989428895422194,-4.1055194127994294,-1.4494509923734544,0.3059820987141909,642.5
515,1.4634534914699222,-1.0410237394109403,1.998942900683247,-4.105519480558902,-1.4494509712484378,0.17976050585748476,643.75
516,1.4634534520123643,-1.041023687520728,1.9989429148205038,-4.105519546228616,-1.449450931259475,0.04353891914347931,645.0
517,1.4634534093084999,-1.041023632151741,1.9989429300209123,-4.10551961641089,-1.449450887987867,-0.10268266708713147,646.25
518,1.4634533468830488,-1.0410235888761474,1.9989429474820004,-4.105519676569447,-1.449450825083443,-0.2589042462857612,647.5
519,1.4634532776215894,-1.041023547971101,1.9989429659568239,-4.105519735305598,-1.449450755357209,-0.42457171930707494,648.75
520,1.4634532005537901,-1.0410235236373016,1.9989429838374015,-4.1055197767969,-1.449450677970856,-0.5860854224793546,650.0
521,1.4634531256547891,-1.04102351007938,1.9989429999396697,-4.105519805751146,-1.4494506028568774,-0.7375991256516106,651.25
522,1.4634530526242875,-1.041023508366785,1.9989430141861866,-4.105519821018257,-1.4494505297246496,-0.8791128288238412,652.5
523,1.4634529849120874,-1.0410235143556958,1.9989430264378145,-4.105519826636951,-1.4494504619891693,-1.010626531996041,653.75
524,1.463452922555516,-1.0410235298410844,1.9989430364605725,-4.105519820578057,-1.4494503997046353,-1.1321402351682206,655.0
525,1.4634528654085368,-1.0410235442785447,1.9989430456149113,-4.105519814748409,-1.4494503426259802,-1.2436539383403693,656.25
526,1.4634528178301343,-1.0410235703322905,1.9989430514631639,-4.105519794083425,-1.4494502952360375,-1.345167641512508,657.5
527,1.463452774938626,-1.0410235938195096,1.9989430567353075,-4.105519775454122,-1.4494502525144242,-1.4366813446846394,658.75
528,1.463452736734012,-1.0410236147402026,1.998943061431344,-4.105519758860503,-1.4494502144611405,-1.518195047856766,660.0
529,1.4634527083450415,-1.0410236398390482,1.998943063713717,-4.105519735766816,-1.4494501862741864,-1.5897087510288852,661.25
530,1.463452684585781,-1.0410236622961673,1.9989430654404745,-4.105519714803986,-1.4494501626976055,-1.6512224542009932,662.5
531,1.4634526646889539,-1.0410236811025344,1.9989430668865182,-4.105519697248985,-1.4494501429537605,-1.7027361573731439,663.75
532,1.463452648654561,-1.0410236962581507,1.9989430680518507,-4.105519683101814,-1.449450127042652,-1.7442498605452967,665.0
533,1.4634526364826015,-1.0410237077630164,1.9989430689364727,-4.105519672362476,-1.44945011496428,-1.7757635637174403,666.25
534,1.4634526281730762,-1.0410237156171323,1.9989430695403845,-4.105519665030968,-1.4494501067186445,-1.7972772668895811,667.5
535,1.4634690852210774,-1.0409294391724597,1.9987590076233552,-4.105429913836401,-1.4494669201105652,-1.8089581061656694,668.75
536,1.463914304440968,-1.0383795118022854,1.993780834812251,-4.10300259665468,-1.449921776134448,-1.8131013725147138,670.0
537,1.4642865735663904,-1.036246691619463,1.9896169101750416,-4.100972268519133,-1.4503021062961514,-1.8076830593927895,671.25
538,1.4642867686943772,-1.0362438599143187,1.9896112266384622,-4.100969417448232,-1.450302313569894,-1.7946062901992035,672.5
539,1.4642863083950397,-1.0362434718856106,1.9896101951717218,-4.100968773674525,-1.4503018572848196,-1.7715345135972331,673.75
540,1.4642856485881626,-1.0362429156736215,1.989608716636358,-4.100967850869985,-1.4503012032321083,-1.7384627369952765,675.0
541,1.4642847892737463,-1.036242191278352,1.9896067910323707,-4.100966649034611,-1.4503003514117598,-1.6953909603933202,676.25
542,1.4642837306375625,-1.0362412987417933,1.9896044183727613,-4.100965167889591,-1.4502993032508815,-1.642319194267097,677.5
543,1.4642824727258557,-1.036240238074363,1.9896015986606412,-4.100963407365356,-1.4502980591051053,-1.5792474383501545,678.75
544,1.4642814518506753,-1.0362393634229186,1.9895992867030805,-4.100961968898658,-1.4502970496290821,-1.5061756869159357,680.0
545,1.4642814905993813,-1.0362393422842073,1.9895992819538884,-4.10096198548977,-1.4502970888364435,-1.4231039469017888,681.25
546,1.4642815340085344,-1.0362393186229433,1.9895992766522834,-4.100962003989323,-1.4502971327315328,-1.3300322143871104,682.5
547,1.464281582725333,-1.0362392943492522,1.989599270416986,-4.100962022172741,-1.450297181879157,-1.2269604890380224,683.75
548,1.464281640334224,-1.0362392800403568,1.9895992611353912,-4.100962027724993,-1.4502972394090021,-1.1138887737268814,685.0
549,1.4642817030371764,-1.0362392644653675,1.9895992510324907,-4.100962033771176,-1.450297302020063,-0.9908170670721808,686.25
550,1.464281771121142,-1.0362392612777902,1.9895992383168712,-4.1009620248862815,-1.4502973701480313,-0.857745366421072,687.5
551,1.4642818444290142,-1.0362392629795232,1.9895992239725624,-4.10096200954017,-1.4502974435575033,-0.7146736677785122,688.75
552,1.4642819186441547,-1.0362392798146713,1.9895992075351308,-4.100961976970874,-1.4502975180189497,-0.5616019739356277,690.0
553,1.4642819959005868,-1.0362393041843707,1.9895991895564964,-4.100961935352197,-1.4502975955967368,-0.39853028630876963,691.25
554,1.4642820622330004,-1.0362393477514413,1.9895991712496404,-4.100961874097626,-1.4502976624186972,-0.23393470131654442,692.5
555,1.464282121379214,-1.0362393923568245,1.9895991541961215,-4.1009618129891745,-1.450297722055753,-0.07927616388622036,693.75
556,1.4642821629821876,-1.0362394470450476,1.9895991392454884,-4.100961743730196,-1.450297764223959,0.06538237354408562,695.0
557,1.4642821998546947,-1.0362394989684596,1.989599125557018,-4.100961678453918,-1.4502978016300163,0.20004091097435386,696.25
558,1.4642822191945137,-1.0362395551386747,1.9895991147092167,-4.100961611602861,-1.450297821522728,0.3246994484045979,697.5
559,1.4642822369829094,-1.0362396068029585,1.989599104731607,-4.100961550114535,-1.4502978398196638,0.43935798583482194,698.75
560,1.4642822427237023,-1.0362396565696212,1.9895990973164501,-4.100961492971908,-1.4502978460368436,0.5440165232650224,700.0
561,1.4642822436818,-1.0362397026333299,1.9895990912924568,-4.100961440878917,-1.4502978474307318,0.6386750606952156,701.25
562,1.4642822445386816,-1.0362397438307331,1.98959908590485,-4.100961394289177,-1.4502978486773652,0.7233335981253936,702.5
563,1.464282239350943,-1.036239780023831,1.9895990823165843,-4.100961354446969,-1.4502978438250096,0.7979921355555819,703.75
564,1.4642822305755434,-1.0362398112696725,1.9895990800469057,-4.100961320837919,-1.450297835334069,0.8626506729857552,705.0
565,1.4642822231573354,-1.0362398376830746,1.9895990781282509,-4.1009612924267955,-1.450297828156325,0.9173092104159497,706.25
566,1.4642822170963181,-1.0362398592640372,1.9895990765606193,-4.100961269213601,-1.4502978222917784,0.9619677478461819,707.5
567,1.4642822123924923,-1.0362398760125615,1.9895990753440143,-4.100961251198337,-1.450297817740429,0.9966262852763906,708.75
568,1.4642822090458576,-1.0362398879286476,1.989599074478435,-4.100961238381002,-1.450297814502277,1.0212848227066038,710.0
569,1.4642822070564139,-1.0362398950122953,1.989599073963882,-4.100961230761596,-1.4502978125773218,1.0359433601368149,711.25
570,1.4645652872936044,-1.0345925418524355,1.9863805164523127,-4.099390619850392,-1.4505871468523432,1.0425304960114277,712.5
571,1.4650504100881643,-1.031769046179783,1.9808640190008726,-4.09669863510134,-1.4510829892187618,1.039897000148593,713.75
572,1.4651048654784293,-1.031450768063262,1.9802420577053406,-4.096395066157353,-1.4511386546397396,1.0294581057094916,715.0
573,1.4651044721138826,-1.0314504200710155,1.9802411512333347,-4.096394506996065,-1.4511382658842913,1.0095399497651665,716.25
574,1.4651038812588921,-1.0314498973676922,1.9802397896629704,-4.096393667105332,-1.451137681952417,0.9796217938208387,717.5
575,1.4651030929134579,-1.0314491999532927,1.980237972994249,-4.096392546485152,-1.4511369028441172,0.9397036378765083,718.75
576,1.4651021070217645,-1.0314483277840234,1.9802357011946101,-4.096391145329225,-1.4511359280855562,0.8897854842583164,720.0
577,1.4651009233673735,-1.0314472806900588,1.9802329741377396,-4.096389464388516,-1.4511347558395173,0.8298673403579633,721.25
578,1.4650995421677455,-1.0314460588420218,1.9802297919504706,-4.096387502908292,-1.451133387952232,0.7599491964576142,722.5
579,1.4650994866222007,-1.031445973143137,1.9802296707924303,-4.096387467599821,-1.4511333320254634,0.6800310680969506,723.75
580,1.4650994856302644,-1.0314459296638532,1.9802296764623273,-4.096387516939274,-1.4511333299633764,0.5901129436559642,725.0
581,1.4650994845230851,-1.031445881378379,1.9802296827884356,-4.0963875716480125,-1.4511333276327363,0.49019482875784626,726.25
582,1.4650994702511084,-1.0314458315531154,1.980229691885441,-4.096387630441117,-1.45113331272287,0.3802767235395772,727.5
583,1.4650994517777902,-1.0314457779274095,1.9802297022855955,-4.096387694272854,-1.4511332937150798,0.2603586258779089,728.75
584,1.4650994244602518,-1.0314457238271981,1.9802297144530847,-4.096387760273886,-1.4511332658516432,0.1304405352377943,730.0
585,1.465099384505474,-1.031445671327866,1.9802297288551713,-4.096387826807767,-1.4511332253520863,-0.00947755151017975,731.25
586,1.4650993352165176,-1.0314456211997813,1.9802297447604116,-4.096387892383343,-1.451133175529249,-0.15939563543644783,732.5
587,1.4650992722184717,-1.0314455775780778,1.9802297624888525,-4.096387953142023,-1.4511331120418458,-0.3193137127638142,733.75
588,1.4650991990502193,-1.0314455447249222,1.980229780814183,-4.096388003628035,-1.451133038474375,-0.4855701015631787,735.0
589,1.4650991248130167,-1.0314455213307911,1.9802297981432089,-4.096388043645517,-1.4511329639265118,-0.6433858032896048,736.25
590,1.4650990506625632,-1.0314455158568911,1.9802298131763927,-4.096388063442244,-1.4511328896356792,-0.7912015050160003,737.5
591,1.4650989805474748,-1.0314455142458965,1.9802298269380492,-4.096388078142098,-1.4511328194217061,-0.9290172067423749,738.75
592,1.4650989158073167,-1.0314455265580877,1.9802298378897314,-4.096388076156121,-1.4511327547212898,-1.0568329084687402,740.0
593,1.4650988562045533,-1.031445541379903,1.9802298475289204,-4.096388070396587,-1.451132695188225,-1.1746486101950868,741.25
594,1.465098803434136,-1.0314455600923857,1.9802298553522624,-4.0963880589949495,-1.4511326425325983,-1.2824643119214167,742.5
595,1.4650987582382209,-1.0314455848502897,1.9802298609422277,-4.096388039385389,-1.451132597517914,-1.3802800136477162,743.75
596,1.465098717662823,-1.0314456070771143,1.9802298659607072,-4.09638802178057,-1.4511325571052187,-1.4680957153740108,745.0
597,1.465098683194693,-1.0314456287263805,1.980229869871799,-4.096388003704746,-1.451132522801587,-1.5459114171003032,746.25
598,1.4650986573723506,-1.0314456531335807,1.9802298717604785,-4.096387980930748,-1.4511324971802395,-1.6137271188265885,747.5
599,1.4650986353577318,-1.0314456739417324,1.980229873370656,-4.09638796151497,-1.4511324753369772,-1.671542820552885,748.75
600,1.4650986171508356,-1.031445691150834,1.9802298747023284,-4.096387945457408,-1.451132457271799,-1.719358522279208,750.0
601,1.465098602751663,-1.0314457047608874,1.9802298757554992,-4.0963879327580655,-1.4511324429847057,-1.7571742240055284,751.25
602,1.4650985921602135,-1.0314457147718925,1.9802298765301694,-4.096387923416943,-1.4511324324756973,-1.7849899257318467,752.5
603,1.4650985853764875,-1.0314457211838495,1.9802298770263387,-4.096387917434039,-1.4511324257447742,-1.802805627458155,753.75
604,1.4652302281466079,-1.0306673651216274,1.978707999276865,-4.095644673209986,-1.451267036778148,-1.811715211518638,755.0
605,1.4657334549822139,-1.0276918962738848,1.9728902354341498,-4.0928034389888905,-1.45178161054367,-1.8122548744300078,756.25
606,1.4659100348231733,-1.0266468030121016,1.9708467356024948,-4.091805404851225,-1.4519621766939106,-1.8041361333404207,757.5
607,1.4659097151060148,-1.0266465032121452,1.9708459573072141,-4.091804926134863,-1.4519618599631792,-1.7873846138788894,758.75
608,1.465909204530254,-1.0266460244433748,1.9708447144001808,-4.091804161643609,-1.4519613541566254,-1.760633094417366,760.0
609,1.465908503095891,-1.0266453667057909,1.9708430068813958,-4.091803111377468,-1.4519606592742496,-1.723881574955838,761.25
610,1.4659076108029263,-1.0266445299993932,1.9708408347508584,-4.091801775336436,-1.4519597753160516,-1.6771300554943118,762.5
611,1.465906527971546,-1.0266435144027377,1.9708381980364595,-4.091800153009594,-1.4519587047733793,-1.6203785432347364,763.75
612,1.4659052543879574,-1.0266423198633539,1.9708350967195154,-4.091798244738013,-1.4519574459828994,-1.5536270320180479,765.0
613,1.4659047826660334,-1.0266418427561763,1.9708338882531773,-4.091797512919022,-1.4519569802840382,-1.4768755310774888,766.25
614,1.4659048225601918,-1.0266418209845745,1.9708338833340255,-4.091797529978002,-1.4519570206434973,-1.3901240356687496,767.5
615,1.4659048670462829,-1.026641796739233,1.9708338778796093,-4.0917975488587555,-1.451957065601273,-1.2933725525762934,768.75
616,1.4659049184887465,-1.0266417769571796,1.970833870472502,-4.091797561534294,-1.45195711725364,-1.1866210761720155,770.0
617,1.4659049771360066,-1.0266417623694277,1.9708338609643663,-4.091797567156201,-1.4519571758178107,-1.0698696079240346,771.25
618,1.4659050408440724,-1.0266417483544554,1.9708338504006593,-4.091797571201516,-1.4519572394501652,-0.9431181477961876,772.5
619,1.4659051099286402,-1.0266417499246248,1.9708338367987652,-4.0917975566971885,-1.451957308631599,-0.8063666935667018,773.75
620,1.4659051836361106,-1.0266417531364438,1.9708338220905586,-4.0917975394893,-1.4519573824573384,-0.6596152402574784,775.0
621,1.4659052568545907,-1.0266417761861746,1.97083380494616,-4.091797499995708,-1.4519574559841282,-0.5028637938779286,776.25
622,1.4659053306849619,-1.0266418065601515,1.9708337867485002,-4.09179745212829,-1.4519575301935381,-0.33694587669685716,777.5
623,1.465905393654766,-1.026641850136197,1.9708337689730802,-4.091797391372083,-1.4519575936554672,-0.17596860011954146,778.75
624,1.4659054446751825,-1.0266418986024592,1.9708337528916786,-4.091797327302739,-1.451957645200379,-0.024991323542263612,780.0
625,1.4659054846498851,-1.0266419511047888,1.9708337384379857,-4.09179726071709,-1.4519576857248704,0.1159859530349616,781.25
626,1.4659055138176218,-1.0266420042504192,1.9708337259985989,-4.091797195397832,-1.4519577154355576,0.2469632296121706,782.5
627,1.4659055323228474,-1.0266420579602071,1.970833715555597,-4.0917971314076045,-1.4519577344763124,0.367940506189367,783.75
628,1.4659055482408927,-1.0266421074935026,1.9708337061473766,-4.091797072604916,-1.4519577508868646,0.47891778276653296,785.0
629,1.4659055492488873,-1.0266421559168775,1.9708336997731148,-4.091797017802378,-1.451957752358839,0.5798950593436891,786.25
630,1.4659055501570575,-1.0266421995447774,1.9708336940301059,-4.091796968427051,-1.4519577536850405,0.6708723359208326,787.5
631,1.4659055509654042,-1.0266422383772038,1.9708336889183522,-4.091796924478939,-1.451957754865469,0.7518496124979767,788.75
632,1.465905542226097,-1.0266422721993747,1.9708336862980063,-4.091796887941753,-1.4519577464388878,0.8228268890751156,790.0
633,1.465905534066824,-1.026642301241529,1.970833684175063,-4.091796856689035,-1.4519577385473563,0.8838041656522619,791.25
634,1.4659055272456356,-1.026642325520899,1.9708336824002701,-4.091796830561621,-1.4519577319500008,0.9347814422294259,792.5
635,1.465905521762531,-1.0266423450374853,1.9708336809736298,-4.091796809559513,-1.451957726646821,0.97575871880661,793.75
636,1.4659055176175106,-1.0266423597912888,1.9708336798951431,-4.091796793682711,-1.4519577226378169,1.0067359953837771,795.0
637,1.4659055148105746,-1.0266423697823097,1.9708336791648107,-4.091796782931215,-1.4519577199229887,1.0277132719609492,796.25
638,1.4659308937734736,-1.0264899163030368,1.9705353662681364,-4.09165097729239,-1.451983682915532,1.0389548281715595,797.5
639,1.4663724503530244,-1.0238375024675772,1.9653454478893846,-4.089114408638942,-1.452435399371656,1.0426066197816453,798.75
640,1.4667059303392587,-1.0218335421967792,1.961424283581667,-4.087197911464168,-1.4527765563025168,1.0367732952787456,800.0
641,1.4667056735832409,-1.021833290206983,1.9614236412978943,-4.087197520720437,-1.4527763027316072,1.023192306156196,801.25
642,1.4667052277717603,-1.0218328526712053,1.9614225260855545,-4.0871968422629585,-1.4527758624505047,0.9996113170336587,802.5
643,1.4667045929048175,-1.021832229589446,1.9614209379446468,-4.08719587609173,-1.4527752354592092,0.9660303279110913,803.75
644,1.4667037689824123,-1.0218314209617045,1.9614188768751726,-4.087194622206752,-1.4527744217577212,0.922449338788522,805.0
645,1.4667027558412782,-1.0218304266546046,1.961416342775858,-4.08719308119716,-1.4527734199411282,0.8688683621007296,806.25
646,1.4667015534729666,-1.0218292466612335,1.961413335641347,-4.0871912530931285,-1.4527722299371917,0.805287395242464,807.5
647,1.4667006412293118,-1.0218283395767152,1.9614110563822444,-4.087189880253045,-1.452771326777317,0.7317064337059024,808.75
648,1.4667006403231955,-1.021828299735962,1.9614110616015268,-4.0871899255267845,-1.4527713249010619,0.6481254828513491,810.0
649,1.4667006393046322,-1.0218282551517845,1.9614110674659733,-4.087189976123176,-1.4527713227678107,0.5545445401263506,811.25
650,1.4667006352843504,-1.0218282065483706,1.9614110744467743,-4.087190031759479,-1.4527713176516621,0.45096360448510947,812.5
651,1.4667006180305726,-1.0218281564986031,1.961411084220034,-4.0871900913994725,-1.4527712998886724,0.3373826782912348,813.75
652,1.4667005992586333,-1.0218281020425397,1.9614110948538561,-4.087190156288981,-1.452771280569221,0.21380176123837913,815.0
653,1.4667005652685188,-1.0218280506799902,1.9614111080469971,-4.087190220521643,-1.4527712460448703,0.08022084999771577,816.25
654,1.4667005248396119,-1.0218279976043398,1.9614111227106559,-4.087190287883741,-1.452771205057966,-0.06336005957576057,817.5
655,1.4667004690696241,-1.0218279526710425,1.9614111393177476,-4.087190348895365,-1.4527711487886374,-0.21694096403572677,818.75
656,1.4667004055276338,-1.0218279087258166,1.9614111573110116,-4.087190410229215,-1.4527710847470197,-0.3805218623254639,820.0
657,1.4667003297543761,-1.0218278841910988,1.961411175199865,-4.087190451923413,-1.4527710086459993,-0.5446650513478952,821.25
658,1.4667002571983176,-1.0218278654574338,1.9614111917198684,-4.08719048647726,-1.4527709358218663,-0.6988163750538988,822.5
659,1.466700184883334,-1.021827863831905,1.9614112060027025,-4.0871905016830645,-1.452770863403633,-0.8429676987600645,823.75
660,1.466700117643043,-1.0218278651080974,1.9614112189263466,-4.087190512676433,-1.4527707960941472,-0.9771190224663626,825.0
661,1.466700055711671,-1.0218278805314285,1.961411229005545,-4.0871905067256264,-1.4527707342360667,-1.1012703461727906,826.25
662,1.4666999987686768,-1.021827894712454,1.9614112382728868,-4.087190501254136,-1.452770677360461,-1.2154216698793614,827.5
663,1.4666999501620301,-1.0218279173648854,1.9614112448331795,-4.087190484682719,-1.452770628912774,-1.3195729935860046,828.75
664,1.4666999072664695,-1.0218279408718616,1.9614112501725158,-4.08719046609107,-1.4527705861913114,-1.4137243172927723,830.0
665,1.466699868926932,-1.0218279618821133,1.961411254944746,-4.0871904494740745,-1.4527705480073805,-1.4978756409995986,831.25
666,1.4666998386930499,-1.0218279850555871,1.9614112578624254,-4.087190428917465,-1.452770517959729,-1.572026964706496,832.5
667,1.4666998146070205,-1.0218280078220865,1.961411259635648,-4.087190407683264,-1.4527704940634647,-1.6361782884134313,833.75
668,1.4666997942755555,-1.0218280270397109,1.9614112611324568,-4.087190389759078,-1.452770473892184,-1.690329612120413,835.0
669,1.4666997776986554,-1.02182804270846,1.961411262352851,-4.08719037514491,-1.452770457445887,-1.7344809358274142,836.25
670,1.4666997648763198,-1.021828054828335,1.9614112632968337,-4.08719036384076,-1.4527704447245742,-1.768632259534427,837.5
671,1.466699755808549,-1.0218280633993357,1.9614112639644046,-4.087190355846628,-1.4527704357282452,-1.792783583241409,838.75
672,1.466699750495343,-1.0218280684214625,1.9614112643555637,-4.087190351162514,-1.4527704304568998,-1.8069349069483955,840.0
673,1.4669994426917639,-1.0199991928826926,1.9578301578469026,-4.08543875889559,-1.4530771588830989,-1.8131891284418171,841.25
674,1.4674508512761635,-1.0172440523668014,1.9524353087931965,-4.082800012514872,-1.4535391676378144,-1.8100854363339358,842.5
675,1.4674892047596755,-1.0170085925636627,1.9519741376508095,-4.082574383208769,-1.4535784281858442,-1.7992916298546502,843.75
676,1.4674888321193875,-1.0170082052175509,1.9519731530001658,-4.082573785661657,-1.4535780592724041,-1.7788943131519361,845.0
677,1.4674882767882618,-1.0170076279709155,1.9519716856141414,-4.082572895160759,-1.4535775094952523,-1.7484969964492065,846.25
678,1.467487538766298,-1.0170068608237566,1.9519697354927361,-4.082571711706076,-1.4535767788543892,-1.708099679746476,847.5
679,1.4674866181331305,-1.0170059037971837,1.9519673026444202,-4.082570235163158,-1.4535758679768296,-1.657702365838285,848.75
680,1.4674855151024904,-1.017004756947831,1.9519643870918522,-4.082568465171061,-1.4535747785456143,-1.5973050606764547,850.0
681,1.4674842460678332,-1.0170034368611118,1.9519610316394846,-4.082566428324162,-1.4535735251666675,-1.526907755747885,851.25
682,1.467484282525754,-1.017003416956756,1.9519610271160417,-4.082566443892973,-1.453573562043805,-1.4465104662876196,852.5
683,1.4674843235162736,-1.0170033945876873,1.9519610220398538,-4.082566461353739,-1.453573603490609,-1.356113180874801,853.75
684,1.467484369036263,-1.017003369770197,1.9519610164255208,-4.082566480640736,-1.4535736494816969,-1.2557159044809278,855.0
685,1.4674844231560091,-1.0170033544734987,1.951961007839333,-4.082566487811481,-1.453573703597296,-1.1453186383226104,856.25
686,1.467484482796296,-1.0170033396160345,1.9519609981078712,-4.0825664934973,-1.453573763149748,-1.0249213796622099,857.5
687,1.467484547565165,-1.0170033318713412,1.9519609864578986,-4.082566490212952,-1.4535738279113286,-0.8945241279244853,858.75
688,1.4674846175088605,-1.017003333425331,1.9519609725989262,-4.082566475484485,-1.453573897954389,-0.7541268798749398,860.0
689,1.4674846899081624,-1.0170033440793023,1.951960957091497,-4.082566450028721,-1.4535739705446422,-0.6037296349964509,861.25
690,1.4674847637916948,-1.0170033672897636,1.9519609396813742,-4.082566410124092,-1.4535740447430836,-0.44333239662125956,862.5
691,1.467484832214328,-1.017003404519579,1.9519609215368154,-4.082566355408141,-1.4535741136096072,-0.2772040306246891,863.75
692,1.4674848929049684,-1.0170034464667594,1.9519609042962376,-4.082566296801785,-1.4535741747803321,-0.11987411249896092,865.0
693,1.467484936233329,-1.017003498512769,1.9519608891490372,-4.082566230017206,-1.4535742186652958,0.027455805626900177,866.25
694,1.4674849746346021,-1.0170035489035443,1.951960875176656,-4.082566166014969,-1.4535742576011337,0.1647857237529182,867.5
695,1.4674849965487822,-1.0170036031291403,1.9519608639313977,-4.08256610074265,-1.4535742800668547,0.29211564187906175,868.75
696,1.4674850142477533,-1.0170036544631469,1.9519608538807582,-4.082566039516151,-1.4535742982842352,0.4094455600053578,870.0
697,1.4674850240408253,-1.017003703016366,1.9519608457312598,-4.082565982895062,-1.4535743085591477,0.5167754781317226,871.25
698,1.467485024999238,-1.0170037490202692,1.9519608396345471,-4.082565930790402,-1.4535743099639384,0.6141053962582096,872.5
699,1.4674850258591803,-1.0170037902975748,1.951960834164225,-4.082565884039145,-1.4535743112243962,0.7014353143847806,873.75
700,1.4674850235349362,-1.017003826779711,1.9519608299317128,-4.082565843291122,-1.4535743092503721,0.7787652325114128,875.0
701,1.46748501465065,-1.0170038583916543,1.9519608276059137,-4.082565809257257,-1.453574300661161,0.8460951506381125,876.25
702,1.467485007085879,-1.0170038853085162,1.9519608256255476,-4.082565780278185,-1.4535742933476403,0.9034250687648383,877.5
703,1.4674850008406235,-1.0170039075302952,1.9519608239906114,-4.082565756353901,-1.4535742873098094,0.9507549868915897,878.75
704,1.4674849959148832,-1.0170039250569936,1.9519608227011092,-4.082565737484408,-1.453574282547669,0.9880849050183669,880.0
705,1.4674849923086586,-1.0170039378886109,1.9519608217570412,-4.082565723669706,-1.4535742790612183,1.0154148231451203,881.25
706,1.467484990021949,-1.0170039460251474,1.9519608211584067,-4.082565714909795,-1.4535742768504578,1.032744741271864,882.5
707,1.46762983320962,-1.0161060102811348,1.9502013302172814,-4.081704470119805,-1.4537225897626844,1.0412978445662568,883.75
708,1.4681120374000387,-1.013116501222137,1.9443434475051204,-4.07883712989672,-1.4542163457782407,1.0413521174775457,885.0
709,1.4682638967369253,-1.0121739555927465,1.942496462790582,-4.07793301632222,-1.454371848533103,1.0328704921141096,886.25
710,1.4682635850969155,-1.0121736173478646,1.9424956171745,-4.07793250839944,-1.4543715409867186,1.0156609110489812,887.5
711,1.4682630923717248,-1.0121730825584645,1.94249428019487,-4.077931705337125,-1.4543710547338438,0.9884513299838209,888.75
712,1.4682624185613535,-1.0121723512245462,1.9424924518516913,-4.077930607135273,-1.454370389774478,0.9512417489186646,890.0
713,1.4682615636658016,-1.0121714233461099,1.9424901321449641,-4.077929213793883,-1.4543695461086212,0.9040321678535119,891.25
714,1.4682605274164127,-1.0121702986948444,1.94248732089742,-4.077927526318724,-1.4543685213947792,0.8468226071537073,892.5
715,1.46825931000925,-1.0121689774373532,1.942484018238289,-4.077925543975431,-1.4543673173422775,0.7796130482150365,893.75
716,1.4682588988333984,-1.0121685061898626,1.9424829077332335,-4.077924904540633,-1.4543669100461236,0.702403500343945,895.0
717,1.468258897902444,-1.0121684652114369,1.942482913136531,-4.07792495114678,-1.454366908116762,0.6151939573159647,896.25
718,1.4682588968582455,-1.0121684195707283,1.9424829191923116,-4.077925002949197,-1.4543669059132138,0.517984427156338,897.5
719,1.4682588872825302,-1.012168371368106,1.9424829272708557,-4.077925059182907,-1.4543668955098767,0.4107749036264908,898.75
720,1.468258869722406,-1.0121683204648182,1.942482937281009,-4.077925119907243,-1.4543668774270078,0.2935653881671033,900.0
721,1.4682588481850323,-1.0121682665769882,1.9424829484548214,-4.077925184743105,-1.4543668553377624,0.16635588066081278,901.25
722,1.4682588100813305,-1.0121682165993235,1.9424829623635507,-4.077925248268714,-1.4543668167017685,0.029146378748629707,902.5
723,1.4682587672814644,-1.0121681647931728,1.942482977428139,-4.077925314733232,-1.4543667733459613,-0.11806312198987579,903.75
724,1.4682587070542308,-1.0121681231925872,1.9424829945922748,-4.077925372917241,-1.4543667126394433,-0.2752726158388425,905.0
725,1.4682586392670727,-1.0121680860102682,1.942483012668316,-4.077925427519211,-1.4543666444067107,-0.4413637498864872,906.25
726,1.4682585658349376,-1.0121680629665157,1.9424830300281013,-4.077925467206719,-1.45436657065974,-0.601884875064719,907.5
727,1.468258493943153,-1.012168052153072,1.9424830455095794,-4.077925492797268,-1.4543664985741178,-0.7524060002430477,908.75
728,1.4682584244190522,-1.0121680506265969,1.9424830593300206,-4.077925507460451,-1.4543664289495337,-0.8929271254215287,910.0
729,1.4682583600285242,-1.0121680581305743,1.942483070980497,-4.07792551097115,-1.4543663645527833,-1.0234482506001705,911.25
730,1.4682583007351875,-1.0121680729197273,1.9424830806931008,-4.077925505306872,-1.4543663053304448,-1.1439693757789071,912.5
731,1.4682582468833518,-1.012168087994518,1.9424830893025855,-4.077925498307306,-1.4543662515590905,-1.2544905009577907,913.75
732,1.4682582017158774,-1.012168112757071,1.942483094961587,-4.0779254787521815,-1.4543662065771326,-1.3550116261367584,915.0
733,1.4682581610417342,-1.012168135056204,1.9424831000576175,-4.077925461142428,-1.4543661660700509,-1.4455327513158163,916.25
734,1.4682581248609226,-1.0121681548919184,1.9424831045906796,-4.07792544547805,-1.4543661300378452,-1.5260538764949636,917.5
735,1.468258098605371,-1.0121681793887656,1.9424831065780195,-4.077925422703151,-1.4543661039885123,-1.5965750016741518,918.75
736,1.4682580761950512,-1.0121682005721437,1.9424831082389629,-4.077925402954115,-1.45436608175688,-1.6570961268534006,920.0
737,1.4682580574876232,-1.0121682182553582,1.9424831096254636,-4.077925386468241,-1.454366063198614,-1.7076172520326725,921.25
738,1.4682580424830876,-1.0121682324384098,1.9424831107375236,-4.07792537324553,-1.454366048313715,-1.7481383772119514,922.5
739,1.468258031181444,-1.012168243121299,1.942483111575144,-4.077925363285984,-1.4543660371021838,-1.7786595023912493,923.75
740,1.4682580235826925,-1.0121682503040261,1.942483112138325,-4.077925356589603,-1.4543660295640202,-1.799180627570509,925.0
741,1.4682938476409515,-1.0119426316120084,1.942040703110967,-4.077708643426247,-1.454402729235824,-1.8100838363153666,926.25
742,1.4687308261223448,-1.009190792429162,1.9366447866473253,-4.075065507868077,-1.4548503869100302,-1.8133333472049913,927.5
743,1.4690266299926784,-1.0073272050084443,1.9329905262889842,-4.07327547258152,-1.4551534235447185,-1.8071913750652318,928.75
744,1.4690263848838776,-1.0073269234185502,1.9329898237738081,-4.073275051507202,-1.4551531810598048,-1.7931827962210782,930.0
745,1.4690259648045787,-1.0073264408161926,1.9329886197693775,-4.073274329849702,-1.4551527654774505,-1.7691742173769698,931.25
746,1.4690253697547826,-1.0073257572013714,1.9329869142756926,-4.073273307609021,-1.4551521767976565,-1.7351656385328216,932.5
747,1.469024599734489,-1.0073248725740869,1.932984707292753,-4.07327198478516,-1.455151415020422,-1.6911570596887044,933.75
748,1.4690236549442743,-1.0073237869914895,1.9329819988459516,-4.0732703610210725,-1.4551504817431504,-1.6371484944081458,935.0
749,1.469022535365431,-1.0073225004481985,1.9329787889327594,-4.0732684363498555,-1.4551493768172579,-1.573139938084735,936.25
750,1.4690217571731714,-1.0073215843793744,1.9329765192848085,-4.073267081917333,-1.455148609124397,-1.4991313876235965,937.5
751,1.469021794746454,-1.0073215638570752,1.9329765145930802,-4.0732670979407795,-1.4551486471238482,-1.4151228468828423,938.75
752,1.4690218367876091,-1.0073215409157292,1.932976509364502,-4.073267115775282,-1.4551486896081627,-1.3211143149327544,940.0
753,1.4690218843424059,-1.00732151862189,1.9329765029674215,-4.073267131853798,-1.4551487375036034,-1.2171057900555786,941.25
754,1.4690219400469027,-1.0073215047232917,1.932976493818606,-4.073267137131397,-1.4551487931286502,-1.1030972741067535,942.5
755,1.4690220006365615,-1.0073214896049145,1.932976483866791,-4.073267142875116,-1.4551488536258212,-0.9790887677799623,943.75
756,1.469022066423192,-1.0073214880664256,1.9329764711308313,-4.073267132325076,-1.4551489194745786,-0.845080267195726,945.0
757,1.4690221371859817,-1.0073214896007374,1.9329764570175996,-4.0732671173785615,-1.4551489903392105,-0.7010717681149448,946.25
758,1.4690222082675024,-1.0073215075868955,1.9329764407138843,-4.073267083787574,-1.455149061685041,-0.5470632744095667,947.5
759,1.4690222826003025,-1.0073215312396988,1.9329764230379298,-4.0732670431881,-1.4551491363419415,-0.38305691028764915,948.75
760,1.4690223448923903,-1.0073215742388186,1.9329764052272564,-4.07326698298291,-1.455149199132708,-0.2193398664992963,950.0
761,1.4690223997902447,-1.0073216180044222,1.9329763887714084,-4.0732669232926435,-1.4551492545275693,-0.06562282271083203,951.25
762,1.4690224394289086,-1.0073216699710104,1.932976374255312,-4.073266857187772,-1.4551492947246476,0.07809422107775953,952.5
763,1.4690224729911305,-1.0073217201413376,1.9329763611663993,-4.073266794246694,-1.4551493288201391,0.21181126486652646,953.75
764,1.4690224913989933,-1.007321773493364,1.9329763506458506,-4.0732667305413575,-1.455149347773635,0.3355283086554097,955.0
765,1.4690225083189559,-1.0073218225329614,1.9329763409756648,-4.073266671985295,-1.4551493651951277,0.44924535244440444,956.25
766,1.4690225123920229,-1.0073218700955786,1.932976334022696,-4.07326661749666,-1.455149369739301,0.5529623962335246,957.5
767,1.469022513302527,-1.0073219137638025,1.932976328195327,-4.073266567997804,-1.455149371078825,0.6466794400227113,958.75
768,1.4690225141158766,-1.0073219527724422,1.9329763229897587,-4.073266523780681,-1.4551493722754163,0.7303964838119896,960.0
769,1.469022508226866,-1.0073219869782426,1.9329763197233532,-4.073266486240557,-1.455149366714264,0.8041135276013274,961.25
770,1.4690224999343346,-1.0073220164744394,1.9329763175387398,-4.073266454469357,-1.455149358700459,0.8678305713907001,962.5
771,1.469022492943265,-1.0073220413413881,1.9329763156969864,-4.073266427684452,-1.4551493519443714,0.9215476151801354,963.75
772,1.4690224872536577,-1.0073220615790883,1.932976314198093,-4.073266405885841,-1.4551493464460017,0.965264658969567,965.0
773,1.4690224828655123,-1.0073220771875415,1.9329763130420623,-4.073266389073526,-1.4551493422053494,0.99898170275901,966.25
774,1.469022479778829,-1.0073220881667473,1.9329763122288939,-4.073266377247506,-1.455149339222415,1.022698746548436,967.5
775,1.4690224779936076,-1.0073220945167058,1.932976311758588,-4.073266370407782,-1.455149337497198,1.0364157903378597,968.75
776,1.4693284397534647,-1.005364928971351,1.929136004613403,-4.07138389188391,-1.4554629269930275,1.0423523654888214,970.0
777,1.4697517819042696,-1.0026564371783566,1.9238214322962603,-4.068778728853814,-1.4558968255797073,1.0388304804280286,971.25
778,1.469780755265602,-1.0024696358257221,1.923454780961075,-4.068598941735904,-1.4559265287503789,1.0277060491477192,972.5
779,1.469780394229541,-1.0024692036553369,1.9234537190457373,-4.068598311345699,-1.4559261727370028,1.0069027198499563,973.75
780,1.4697798596462293,-1.0024685637439794,1.923452146675884,-4.068597377931783,-1.455925645590741,0.9760993905522122,975.0
781,1.4697791515156662,-1.0024677160916498,1.923450063851515,-4.0685961414941545,-1.4559249473115945,0.9352960612544448,976.25
782,1.4697782697636934,-1.0024666606328325,1.9234474705205489,-4.068594602320225,-1.4559240772453916,0.8844927347688383,977.5
783,1.469777214240694,-1.0024653972353423,1.9234443665778618,-4.06859276098973,-1.4559230340724993,0.823689415558531,978.75
784,1.4697760535167141,-1.0024640061418437,1.923440953638346,-4.068590738290382,-1.4559218868845032,0.7528860972208221,980.0
785,1.4697760526671293,-1.0024639687073793,1.9234409586074341,-4.068590780903092,-1.455921885122031,0.6720827938166041,981.25
786,1.4697760517101928,-1.0024639266522724,1.9234409642025527,-4.068590828740247,-1.455921883123217,0.5812794949740021,982.5
787,1.469776050643524,-1.002463879989617,1.9234409704356357,-4.068590881748812,-1.4559218808684153,0.48047620459651397,983.75
788,1.4697760355366642,-1.0024638322326411,1.9234409796190515,-4.068590938536177,-1.4559218651986008,0.36967292493163995,985.0
789,1.4697760176835954,-1.0024637805167038,1.923440989862878,-4.068591000300692,-1.455921846809891,0.24886965268191824,986.25
790,1.4697759898296334,-1.0024637291904517,1.923441002025831,-4.068591063509722,-1.4559218184150529,0.11806638720291943,987.5
791,1.469775951258,-1.002463678646365,1.9234410161978657,-4.068591127855611,-1.4559217792981474,-0.022736874861352327,988.75
792,1.4697759022982748,-1.0024636317427467,1.9234410319471935,-4.068591190033989,-1.455921729815441,-0.1735401335186692,990.0
