Miguel-LA/TFM_MiguelLerinAlonso/workspace/ros_ur_driver/src/trayectories/data/saved_trajectories/20240523_1838_trajectory.csv
,shoulder_pan_joint,shoulder_lift_joint,elbow_joint,wrist_1_joint,wrist_2_joint,wrist_3_joint,time_from_start
0,4.867567539215088,-2.1400631109820765,-1.9513285795794886,0.957654595375061,-4.851465884839193,-0.7083147207843226,0.0
1,4.868247206363576,-2.139867619196401,-1.9515990131461436,0.957734613595435,-4.8521457661469745,-0.7033147207843226,0.16666666600000002
2,4.870286207809042,-2.1392811438393746,-1.9524103138461086,0.9579746682565571,-4.854185410070318,-0.6883147207843225,0.333333333
3,4.873684543551485,-2.1383036849109978,-1.9537624816793837,0.9583747593584273,-4.857584816609224,-0.6633147207843229,0.5
4,4.87844221393046,-2.1369352430326654,-1.9556555152982185,0.9589348861842719,-4.862343986110412,-0.6283147209415829,0.666666666
5,4.884565856429612,-2.135187136978537,-1.9580647770385582,0.9596419089951809,-4.868469687972414,-0.5833147378038498,0.833333333
6,4.892068080525232,-2.133080856347526,-1.9609434888226929,0.9604708795238821,-4.875974782146607,-0.5283147544331954,1.0
7,4.900959535595037,-2.130634580122642,-1.9642520836084643,0.9614006973961402,-4.884870129813861,-0.46331477249912256,1.166666666
8,4.911250542750582,-2.127870456159563,-1.9679430757052323,0.9624063595746399,-4.8951662965683,-0.38831480103218885,1.3333333330000001
9,4.922952814304407,-2.1248141061566557,-1.9719615934509953,0.963459002089639,-4.906875276322766,-0.30331483084903405,1.5
10,4.93607723128808,-2.1214952236284645,-1.9762447891265644,0.9645259058699498,-4.920008249420203,-0.20831486865032778,1.666666666
11,4.950634931099843,-2.1179472857036554,-1.9807221202221506,0.9655704915916079,-4.934576678748428,-0.10331491324151221,1.8333333330000001
12,4.96663406923332,-2.114208402071302,-1.985314547507695,0.9665523691483706,-4.950589032743989,0.011685033693787372,2.0
13,4.984081207182886,-2.11032087626684,-1.9899350340747617,0.9674274044041038,-4.968052176464999,0.1366839708830233,2.1666666660000002
14,5.0015503627490805,-2.1066253221743363,-1.9941601327206833,0.9681014999885527,-4.9855388956620414,0.26148408633429565,2.333333333
15,5.017654745983933,-2.1033920516451285,-1.997702326690085,0.9685458064600336,-5.001660701656812,0.376284209997382,2.5
16,5.0323779710982794,-2.100581305899725,-2.0006463011531608,0.9688046846075746,-5.016400767553115,0.481084343629943,2.6666666660000002
17,5.045709227691289,-2.098155731181082,-2.003070316826946,0.9689185121107773,-5.02974794195087,0.5758844788875704,2.833333333
18,5.057640705961347,-2.0960810819505618,-2.0050455210231632,0.9689237016039041,-5.041694139147397,0.6606846240473323,3.0
19,5.068166919907915,-2.094326328201742,-2.0066359283512654,0.9688527967138789,-5.052233649480339,0.7354847729143267,3.1666666660000002
20,5.077285773030775,-2.09286350645716,-2.007898400619222,0.9687342795201737,-5.061364231333786,0.8002849313691286,3.333333333
21,5.084996185307535,-2.091668198927618,-2.0088823734491967,0.9685928026687911,-5.069084692081946,0.8550850903804726,3.5
22,5.091297547031636,-2.0907197149104437,-2.009629647699242,0.9684491639865591,-5.0753943328461695,0.899885256113895,3.6666666660000002
23,5.096191086002802,-2.0900007632169366,-2.010174648794653,0.968320220048529,-5.080294342640143,0.9346854272837246,3.833333333
24,5.0996777629279615,-2.0894979124207236,-2.010544115623805,0.9682190625665434,-5.083785652187702,0.9594856022788183,4.0
25,5.101780001940313,-2.0891978238419098,-2.010760672865525,0.9681550140450207,-5.085890691653301,0.9742890636828673,4.166666666
26,5.10650088435684,-2.088524244998864,-2.011246384500098,0.9680109033357878,-5.090617863490417,0.9793535472488626,4.333333333
27,5.111273639971714,-2.0878432702204153,-2.011737432825015,0.9678652141681275,-5.095396977596797,0.9744324950084461,4.5
28,5.111511464010495,-2.087809344447362,-2.011761901105125,0.9678579609829533,-5.095635118428224,0.961355352531873,4.666666666
29,5.111511467274143,-2.0878093562084135,-2.0117619007036875,0.9678579723475369,-5.095635121610998,0.9384897805754606,4.833333333
30,5.1115114719651125,-2.087809373113028,-2.011761900126686,0.9678579886822931,-5.095635126185724,0.9056242086190494,5.0
31,5.111511478083729,-2.0878093951614938,-2.011761899373815,0.9678580099883154,-5.095635132155184,0.8627586646202265,5.166666666
32,5.111511485629796,-2.0878094223536388,-2.0117618984452617,0.9678580362649374,-5.095635139517676,0.809893124468114,5.333333333
33,5.111511492902522,-2.0878094544803,-2.0117618982632157,0.9678580682095187,-5.095635146567949,0.747027586086692,5.5
34,5.111511492076648,-2.087809490579275,-2.0117619030705667,0.9678581090312914,-5.095635145461624,0.6741620566333796,5.666666666
35,5.111511491137427,-2.087809531632455,-2.01176190853766,0.9678581554554646,-5.095635144203435,0.5912965302938124,5.833333333
36,5.111511490084852,-2.0878095776398644,-2.0117619146644703,0.9678582074821457,-5.095635142793315,0.4984310119250265,6.0
37,5.1115114783099935,-2.0878096257798004,-2.011761923266324,0.9678582640021598,-5.095635130635024,0.3955654969439286,6.166666666
38,5.111511461460181,-2.08780967755429,-2.011761933376905,0.9678583256058606,-5.095635113369177,0.28269998669494545,6.333333333
39,5.111511439715253,-2.0878097319196636,-2.01176194482516,0.9678583910827641,-5.095635091184118,0.159834483125821,6.5
40,5.111511403157089,-2.087809783056046,-2.011761958899235,0.9678584558124586,-5.095635054198972,0.026968985589718976,6.666666666
41,5.111511362069894,-2.0878098362385127,-2.011761974165836,0.9678585237303015,-5.095635012665231,-0.11589650747792359,6.833333333
42,5.111511304176511,-2.0878098790162576,-2.011761991545416,0.9678585832073209,-5.095634954392571,-0.26876199463529193,7.0
43,5.11151123908591,-2.0878099185402723,-2.011762009984302,0.9678586404235233,-5.09563488894216,-0.4315453249403469,7.166666666
44,5.111511166353101,-2.087809943041862,-2.011762028061826,0.9678586822099771,-5.095634815960112,-0.5925980650807109,7.333333333
45,5.111511095460402,-2.0878099556995267,-2.0117620442399518,0.9678587102969677,-5.095634744911711,-0.7436508052210813,7.5
46,5.111511026639446,-2.0878099574067885,-2.0117620585859317,0.967858725645734,-5.095634676021833,-0.884703545361462,7.666666666
47,5.111510962891917,-2.0878099505010153,-2.011762070783919,0.9678587303034074,-5.095634612276422,-1.015756285501846,7.833333333
48,5.111510904219781,-2.0878099348964545,-2.011762080822498,0.9678587241730214,-5.095634553678113,-1.1368090256422376,8.0
49,5.111510850680353,-2.0878099197025355,-2.011762089860256,0.9678587175038563,-5.09563450021347,-1.2478617657826312,8.166666666
50,5.111510805995922,-2.0878098934819134,-2.011762095663698,0.9678586966872361,-5.095634455696684,-1.348914505923034,8.333333333
51,5.111510765733382,-2.087809869856039,-2.0117621008928364,0.9678586779305896,-5.0956344155852005,-1.4399672460634454,8.5
52,5.111510729892732,-2.0878098488249117,-2.011762105547675,0.967858661233918,-5.095634379879017,-1.5210199862038563,8.666666666
53,5.11151070359111,-2.087809823230908,-2.011762107658249,0.9678586375369242,-5.095634353755035,-1.5920727263442682,8.833333333
54,5.1115106813757105,-2.0878098007011676,-2.011762109323749,0.9678586164942344,-5.095634331696765,-1.653125466484679,9.0
55,5.111510662799034,-2.087809781861638,-2.01176211071645,0.9678585988981844,-5.095634313251481,-1.7041782066250886,9.166666666
56,5.1115106478610794,-2.0878097667123185,-2.0117621118363527,0.9678585847487753,-5.095634298419183,-1.7452309467654965,9.333333333
57,5.111510636561848,-2.0878097552532076,-2.01176211268346,0.967858574046008,-5.095634287199871,-1.776283686905906,9.5
58,5.11151062890134,-2.087809747484306,-2.0117621132577708,0.9678585667898826,-5.095634279593545,-1.7973364270463144,9.666666666
59,5.111398646753553,-2.0880070540838402,-2.011378561013029,0.9676722335898373,-5.095522508089178,-1.808720864076097,9.833333333
60,5.109894633943566,-2.090657195702347,-2.0062269470662257,0.9651695856628648,-5.09402132413474,-1.8122428182634462,10.0
61,5.108797538224187,-2.092590338380808,-2.002469113442917,0.963344034025553,-5.092926293110881,-1.8061832874266472,10.166666666
62,5.10879754365702,-2.092590341732857,-2.002469114579942,0.9633440311269871,-5.092926301346125,-1.7921843611649753,10.333333333
63,5.108797552970747,-2.0925903474794105,-2.0024691165291904,0.9633440261578581,-5.092926315464139,-1.768185434903303,10.5
64,5.108797566165366,-2.0925903556204686,-2.002469119290662,0.963344019118166,-5.09292633546492,-1.7341865086416313,10.666666666
65,5.108797583240879,-2.092590366156031,-2.0024691228643565,0.9633440100079109,-5.0929263613484705,-1.6901875823799601,10.833333333
66,5.1087976037154466,-2.0925903786999465,-2.0024691276454094,0.9633439974314875,-5.092926389063549,-1.6361886698364294,11.0
67,5.108797627628894,-2.0925903932841305,-2.0024691336011635,0.9633439815042382,-5.09292641894498,-1.572189766517419,11.166666666
68,5.108797657087004,-2.092590410951942,-2.002469136242389,0.9633439758835417,-5.092926452059398,-1.498190869351219,11.333333333
69,5.108797693788394,-2.0925904324594495,-2.0024691315810603,0.9633439925896834,-5.092926487057707,-1.4141919825219795,11.5
70,5.108797734850841,-2.092590456594394,-2.0024691263065812,0.9633440115699083,-5.092926526153191,-1.3201931042055277,11.666666666
71,5.1087977813974925,-2.092590480113988,-2.0024691197831075,0.9633440289115427,-5.0929265710038845,-1.2161942328531583,11.833333333
72,5.108797836305167,-2.0925904947326583,-2.0024691103522416,0.963344034714124,-5.0929266258296,-1.1021953704754823,12.0
73,5.1087978960317635,-2.0925905106344467,-2.0024691000931463,0.9633440410277693,-5.09292668548497,-0.978196517569032,12.166666666
74,5.1087979609317635,-2.0925905122105433,-2.002469086942829,0.9633440301299214,-5.092926750429468,-0.8441976702390257,12.333333333
75,5.108798030752952,-2.0925905104960285,-2.0024690723606287,0.9633440145487447,-5.092926820324863,-0.7001988241917434,12.5
76,5.108798100957247,-2.0925904914594398,-2.0024690554670777,0.9633439793747316,-5.0929268907365115,-0.5461999835219349,12.666666666
77,5.108798174401148,-2.092590466437697,-2.0024690371357656,0.9633439368235632,-5.092926964436516,-0.38220279905809285,12.833333333
78,5.108798236026487,-2.0925904209713977,-2.002469018600431,0.9633438735463822,-5.092927026468537,-0.2184608691720572,13.0
79,5.108798290383776,-2.092590374731423,-2.002469001460324,0.9633438108182193,-5.092927081232626,-0.06471893928602428,13.166666666
80,5.108798329687161,-2.0925903198299327,-2.0024689863003156,0.9633437412732468,-5.092927120998375,0.07902299060001303,13.333333333
81,5.108798363012676,-2.0925902668462415,-2.0024689726170437,0.9633436750577791,-5.092927154766337,0.2127649204861275,13.5
82,5.1087983813700575,-2.092590210509483,-2.002468961580394,0.9633436079901855,-5.0929271735802,0.3365068503722247,13.666666666
83,5.108798398243916,-2.0925901587254927,-2.0024689514356435,0.9633435463425464,-5.092927190873652,0.4502487802582991,13.833333333
84,5.108798402452901,-2.0925901085216774,-2.002468944099565,0.9633434889511983,-5.09292719547949,0.553990710144361,14.0
85,5.108798403508007,-2.0925900624265563,-2.002468937941734,0.9633434368059689,-5.09292719689667,0.6477326400304101,14.166666666
86,5.1087984044505586,-2.0925900212486743,-2.0024689324407903,0.9633433902233745,-5.092927198162672,0.7314745699164463,14.333333333
87,5.108798398768769,-2.0925899851479466,-2.0024689289567483,0.9633433506565618,-5.09292719275913,0.8052164998024773,14.5
88,5.108798390689278,-2.092589954020573,-2.0024689266068596,0.9633433171623307,-5.092927184916954,0.8689584296885002,14.666666666
89,5.108798383877321,-2.0925899277765443,-2.0024689246256253,0.963343288922761,-5.092927178305079,0.9227003595745173,14.833333333
90,5.108798378332893,-2.09258990641586,-2.0024689230130464,0.9633432659378529,-5.092927172923504,0.9664422894605311,15.0
91,5.108798374055998,-2.0925898899385182,-2.0024689217691245,0.9633432482076074,-5.092927168772231,1.0001842193465462,15.166666666
92,5.108798371046634,-2.0925898783445196,-2.0024689208938606,0.9633432357320244,-5.092927165851259,1.0239261492325649,15.333333333
93,5.108798327766658,-2.092589946002162,-2.0024687757015274,0.9633431581625254,-5.092927122703464,1.0376680786587487,15.5
94,5.107674833748585,-2.0946014024117914,-1.998555421876848,0.9614404182249912,-5.091805820039909,1.043540699029343,15.666666666
95,5.106215466865185,-2.097214199112615,-1.9934721516202571,0.9589688481078809,-5.090349299805105,1.0397828290849298,15.833333333
96,5.106123321452322,-2.09737917949671,-1.9931511870341982,0.9588127882446362,-5.090257334744324,1.0282145083906706,16.0
97,5.106123324279443,-2.0973791868923044,-1.993151190380417,0.9588127869160112,-5.090257338717581,1.0069282572187372,16.166666666
98,5.106123328434705,-2.097379197762252,-1.9931511952986458,0.9588127849632156,-5.090257344557424,0.9756420060468085,16.333333333
99,5.106123333918113,-2.097379212106552,-1.9931512017888842,0.9588127823862497,-5.09025735226385,0.9343557548748793,16.5
100,5.10612334099635,-2.0973792300262706,-1.9931512097314303,0.9588127794844642,-5.090257364091954,0.8830695091027796,16.666666666
101,5.106123350057926,-2.097379251668641,-1.9931512189519025,0.9588127766939541,-5.090257383326955,0.8217832745218687,16.833333333
102,5.106123359423932,-2.0973792778648255,-1.9931512290278062,0.958812777967005,-5.090257403392865,0.7504970416209796,17.0
103,5.106123358720046,-2.0973793176489304,-1.9931512342242221,0.958812823231151,-5.090257403900036,0.6692108235672187,17.166666666
104,5.106123357924191,-2.0973793623658485,-1.9931512400263358,0.9588128742281518,-5.090257404423944,0.5779246105530125,17.333333333
105,5.106123357032511,-2.097379412043192,-1.9931512464100625,0.9588129310759129,-5.090257404931839,0.4766384051900236,17.5
106,5.106123341210585,-2.097379462512358,-1.9931512561683653,0.9588129911499332,-5.0902573887481015,0.36535221110873506,17.666666666
107,5.106123323324676,-2.0973795173376826,-1.9931512669233988,0.9588130565139936,-5.090257370374008,0.24406602427518995,17.833333333
108,5.1061232947659665,-2.0973795712812073,-1.9931512797754318,0.958813122941336,-5.09025734134246,0.11277984391947149,18.0
109,5.106123256374087,-2.0973796248361247,-1.9931512946136114,0.9588131908280924,-5.090257302492671,-0.028506333504488012,18.166666666
110,5.106123206980513,-2.097379673797111,-1.993151311125342,0.9588132556923635,-5.090257252670034,-0.17979250729937424,18.333333333
111,5.106123146656452,-2.097379718236339,-1.9931513293051872,0.9588133176018174,-5.090257191945065,-0.3410786745995601,18.5
112,5.106123075832415,-2.097379748503928,-1.9931513478170297,0.9588133655939274,-5.090257120823341,-0.5068666086014535,18.666666666
113,5.106123006051652,-2.0973797719226615,-1.9931513652283135,0.9588134056616101,-5.0902570507998375,-0.6633227621331326,18.833333333
114,5.106122935719051,-2.0973797745588056,-1.9931513800663412,0.9588134224111525,-5.090256980388233,-0.8097789156648032,19.0
115,5.106122869965628,-2.0973797761564152,-1.9931513938262082,0.9588134370929869,-5.090256914567799,-0.9462350691964624,19.166666666
116,5.106122809403386,-2.097379761370445,-1.9931514043978025,0.9588134322902229,-5.090256854072286,-1.0726912227281193,19.333333333
117,5.106122753657774,-2.0973797465554513,-1.9931514139728166,0.9588134265111647,-5.090256798397614,-1.1891473762597682,19.5
118,5.106122704981815,-2.0973797260155624,-1.9931514213504324,0.9588134128940397,-5.090256749843675,-1.2956035297914101,19.666666666
119,5.106122662857349,-2.09737970133899,-1.9931514268427974,0.9588133933305976,-5.09025670787933,-1.3920596833230492,19.833333333
120,5.1061226251000935,-2.097379679220741,-1.9931514317657406,0.9588133757953737,-5.090256670265598,-1.4785158368546867,20.0
121,5.106122593888852,-2.097379656621449,-1.9931514352772066,0.958813356435563,-5.090256639207093,-1.5549719903863228,20.166666666
122,5.106122570005917,-2.097379632449834,-1.9931514370748533,0.9588133338678202,-5.0902566154953774,-1.621428143917958,20.333333333
123,5.106122549716772,-2.0973796119154473,-1.9931514386019984,0.9588133146959615,-5.090256595351686,-1.677884297449597,20.5
124,5.106122533021413,-2.097379595018289,-1.9931514398586394,0.958813298919986,-5.090256578776019,-1.7243404509812432,20.666666666
125,5.106122519919843,-2.097379581758358,-1.99315144084478,0.9588132865398954,-5.090256565768376,-1.7607966045128864,20.833333333
126,5.10612251041206,-2.0973795721356545,-1.9931514415604203,0.9588132775556899,-5.090256556328757,-1.7872527580445308,21.0
127,5.106122504498067,-2.0973795661501775,-1.99315144200556,0.9588132719673693,-5.090256550457162,-1.8037089115761724,21.166666666
128,5.105451161156623,-2.098600780229989,-1.9907735725597695,0.9576561341375058,-5.089586564512283,-1.81163583634135,21.333333333
129,5.103855289043864,-2.1015037880563057,-1.985121035877576,0.9549054574919261,-5.087993919450541,-1.810593347255799,21.5
130,5.103484606012923,-2.1021780961946077,-1.983808074593915,0.9542665330190574,-5.0876239878264755,-1.8011024624606295,21.666666666
131,5.103484613128438,-2.102178100581713,-1.983808076091636,0.9542665292466026,-5.087623998691706,-1.782552302185154,21.833333333
132,5.103484624079774,-2.102178107333814,-1.9838080783967464,0.954266523440497,-5.087624015414154,-1.7540021419096798,22.0
133,5.103484638866934,-2.102178116450911,-1.9838080815092467,0.9542665156007406,-5.087624037993819,-1.715451981634203,22.166666666
134,5.103484657451366,-2.102178127901299,-1.9838080854617703,0.9542665056121027,-5.087624066103044,-1.666901822604403,22.333333333
135,5.103484679084511,-2.102178141069337,-1.9838080908880122,0.9542664912370391,-5.087624093379436,-1.6083516856065798,22.5
136,5.103484704412463,-2.102178156486394,-1.9838080972410221,0.9542664744068036,-5.087624125314465,-1.5398015486087588,22.666666666
137,5.103484737507786,-2.1021781759590956,-1.9838080948356644,0.9542664840564486,-5.087624158342411,-1.4612514252231308,22.833333333
138,5.103484775722567,-2.102178198325163,-1.9838080899552675,0.9542665014332907,-5.087624194767776,-1.3727013062387352,23.0
139,5.103484818241789,-2.102178223305793,-1.9838080844457227,0.9542665211512685,-5.087624235211252,-1.2741511984600213,23.166666666
140,5.103484868423946,-2.1021782412224104,-1.9838080764006412,0.9542665315100366,-5.087624284645468,-1.1656010987586165,23.333333333
141,5.10348492482154,-2.102178256227705,-1.9838080666746092,0.9542665374247531,-5.087624340965009,-1.0470510068552912,23.5
142,5.103484986095116,-2.102178267371447,-1.983808055445245,0.954266538013301,-5.087624402205268,-0.9185009223884523,23.666666666
143,5.103485052446357,-2.1021782657768364,-1.9838080415320063,0.9542665231885764,-5.087624468628215,-0.7799508425878641,23.833333333
144,5.103485122209575,-2.1021782587752433,-1.9838080262127347,0.9542665015964625,-5.087624538508338,-0.631400764694946,24.0
145,5.103485192487819,-2.102178235233937,-1.9838080086416392,0.9542664612526952,-5.087624609032868,-0.4728506935883916,24.166666666
146,5.103485260650745,-2.102178200794855,-1.9838079900939598,0.9542664090355109,-5.087624677527111,-0.3064915463996342,24.333333333
147,5.1034853198223935,-2.102178157269753,-1.9838079722250859,0.9542663483378695,-5.08762473709495,-0.14730293234492828,24.5
148,5.103485365037477,-2.1021781061257894,-1.983807956251043,0.9542662817889559,-5.087624782755238,0.0018856817097681888,24.666666666
149,5.103485402624814,-2.1021780537619743,-1.9838079416944614,0.9542662153620207,-5.087624820791116,0.14107429576445743,24.833333333
150,5.103485427196355,-2.102177999122388,-1.9838079295314182,0.9542661489241973,-5.087624845818438,0.27026290981913426,25.0
151,5.103485444658287,-2.102177945664086,-1.9838079189902533,0.9542660852142457,-5.087624863720798,0.38945152387380866,25.166666666
152,5.10348545709721,-2.1021778957457196,-1.9838079099458663,0.9542660264822178,-5.087624876567749,0.4986401379284783,25.333333333
153,5.103485458198028,-2.1021778476895294,-1.9838079034851805,0.9542659720760411,-5.087624878052276,0.5978287519831411,25.5
154,5.103485459187864,-2.1021778044782726,-1.9838078976758426,0.9542659231549853,-5.0876248793871355,0.6870173660377988,25.666666666
155,5.103485458943342,-2.1021777661389485,-1.9838078927534202,0.954265879970051,-5.0876248794478,0.7662059800924605,25.833333333
156,5.103485450280279,-2.102177732844243,-1.9838078902243823,0.9542658441264251,-5.0876248710426974,0.83539459414712,26.0
157,5.103485442869309,-2.102177704361703,-1.9838078880608718,0.9542658134633664,-5.087624863852404,0.894583208201784,26.166666666
158,5.103485436710432,-2.1021776806913297,-1.9838078862628865,0.9542657879808729,-5.08762485787692,0.943771822256453,26.333333333
159,5.10348543180365,-2.102177661833122,-1.9838078848304295,0.9542657676789466,-5.087624853116247,0.982960436311121,26.5
160,5.103485428148962,-2.102177647787079,-1.9838078837635011,0.9542657525575879,-5.087624849570384,1.0121490503657884,26.666666666
161,5.103485425746366,-2.102177638553201,-1.9838078830621018,0.9542657426167968,-5.087624847239331,1.0313376644204586,26.833333333
162,5.103198401118445,-2.1027081045526836,-1.9827741543060142,0.953762282446198,-5.087338424009236,1.0413085762880416,27.0
163,5.101646422631047,-2.1055764384909423,-1.9771846305105742,0.9510400248545761,-5.085789697207897,1.0430007740222307,27.166666666
164,5.100884020751352,-2.1069854985644922,-1.9744388014111898,0.9497027272933429,-5.085028893111561,1.0355640203373728,27.333333333
165,5.100884022830923,-2.1069855039749843,-1.974438803880816,0.9497027263170691,-5.085028896095961,1.019769020080182,27.5
166,5.100884026227094,-2.1069855128109225,-1.9744388079139918,0.9497027247227049,-5.085028900969819,0.9939740198229893,27.666666666
167,5.100884030939865,-2.1069855250723064,-1.974438813510717,0.9497027225102501,-5.085028907733135,0.9581790195657939,27.833333333
168,5.100884036969235,-2.106985540759136,-1.9744388206709913,0.949702719679705,-5.08502891638591,0.9123840193086032,28.0
169,5.100884044964899,-2.10698556012872,-1.9744388290909556,0.9497027170075867,-5.0850289324818165,0.8565890322426641,28.166666666
170,5.100884054595884,-2.1069855830499793,-1.9744388389254062,0.9497027140983135,-5.085028953191644,0.7907940489691033,28.333333333
171,5.10088405903901,-2.1069856152053683,-1.9744388465580616,0.9497027362275238,-5.085028963799864,0.7149990748044431,28.5
172,5.100884058304618,-2.106985656585948,-1.9744388519946683,0.9497027833556076,-5.085028964327072,0.6292041080085535,28.666666666
173,5.100884057472776,-2.106985702872693,-1.9744388579917693,0.949702836331853,-5.08502896481388,0.5334091520246886,28.833333333
174,5.100884050429082,-2.106985752309769,-1.9744388657395402,0.9497028939196741,-5.085028958425062,0.4276142028242677,29.0
175,5.100884033565398,-2.106985803881902,-1.9744388759221472,0.9497029554754574,-5.08502894110314,0.3118192619528092,29.166666666
176,5.100884015156836,-2.106985859855266,-1.974438886997324,0.9497030223001759,-5.085028922182732,0.18602432943458339,29.333333333
177,5.100883978711407,-2.106985910560243,-1.9744389011416947,0.9497030866695961,-5.085028885296249,0.050229403268707944,29.5
178,5.100883939582166,-2.106985964998999,-1.9744389163277967,0.9497031557784789,-5.085028845693841,-0.09556552267166259,29.666666666
179,5.100883882361847,-2.10698600760865,-1.974438933719541,0.9497032151047011,-5.085028788082962,-0.25136044173213096,29.833333333
180,5.100883818952324,-2.106986048485375,-1.9744389521671475,0.9497032736939504,-5.085028724291634,-0.4167848807048433,30.0
181,5.100883747609812,-2.106986072338084,-1.9744389700418006,0.9497033146398006,-5.08502865269723,-0.5787302501763428,30.166666666
182,5.10088367852588,-2.1069860864769066,-1.9744389861847473,0.949703344183181,-5.085028583441318,-0.7306756196478725,30.333333333
183,5.100883610966084,-2.106986088082441,-1.97443900038116,0.9497033592881035,-5.085028515811473,-0.8726209891194492,30.5
184,5.100883548319258,-2.106986082881256,-1.9744390126746225,0.9497033657477718,-5.085028453153414,-1.0045663585910622,30.666666666
185,5.100883490661184,-2.1069860675669765,-1.974439022619189,0.9497033598174258,-5.0850283955695375,-1.1265117280626882,30.833333333
186,5.100883437731298,-2.1069860535085305,-1.9744390317482545,0.9497033543733884,-5.085028342707763,-1.238457097534353,31.0
187,5.100883393637906,-2.106986028143855,-1.9744390375765302,0.9497033344362666,-5.0850282987807525,-1.3404024670060437,31.166666666
188,5.100883353974853,-2.1069860049457527,-1.9744390427694918,0.9497033160714512,-5.0850282592704295,-1.4323478364777533,31.333333333
189,5.100883318625561,-2.106985984270683,-1.974439047397662,0.9497032997039959,-5.0850282240572575,-1.5142932059494822,31.5
190,5.100883292125214,-2.106985959808967,-1.9744390497010027,0.9497032773236976,-5.085028197730921,-1.5862385754212145,31.666666666
191,5.100883270135476,-2.1069859375964137,-1.9744390513631624,0.949703256593083,-5.08502817590095,-1.6481839448929643,31.833333333
192,5.100883251695598,-2.106985918969691,-1.9744390527569933,0.949703239209063,-5.085028157595047,-1.7001293143647227,32.0
193,5.100883236805579,-2.1069859039287984,-1.974439053882496,0.9497032251716389,-5.085028142813211,-1.742074683836485,32.166666666
194,5.10088322546542,-2.1069858924737344,-1.9744390547396733,0.9497032144808114,-5.085028131555444,-1.7740200533082513,32.333333333
195,5.100883217675122,-2.1069858846044998,-1.9744390553285245,0.9497032071365811,-5.085028123821745,-1.79596542278001,32.5
196,5.100835509022731,-2.1070754547293293,-1.9742643637131554,0.9496180542539279,-5.084980518734806,-1.8080691600983176,32.666666666
197,5.09950894891603,-2.1095663320214277,-1.9694065456709318,0.9472502415131314,-5.083656837713554,-1.8124734752193634,32.833333333
198,5.09832561091685,-2.111788290722495,-1.9650731899433074,0.9451380639141267,-5.082476069043559,-1.8071498529763146,33.0
199,5.098317465633279,-2.1118035974569995,-1.9650433450883915,0.9451235137360996,-5.0824679441112535,-1.7941040677382816,33.166666666
200,5.098317474360756,-2.1118036028345033,-1.965043346935788,0.9451235091395278,-5.082467957536333,-1.7710870265958307,33.333333333
201,5.098317486879977,-2.111803610548322,-1.9650433495858057,0.9451235025459261,-5.0824679767940815,-1.7380699854533757,33.5
202,5.098317503190944,-2.1118036205984554,-1.9650433530384444,0.9451234939552947,-5.082468001884501,-1.695052944310929,33.666666666
203,5.0983175229124535,-2.111803632663107,-1.9650433576269266,0.9451234821918933,-5.082468029532596,-1.6420359148118098,33.833333333
204,5.098317545938716,-2.111803646652974,-1.9650433634437272,0.9451234669294328,-5.082468058829505,-1.579018896931544,34.0
205,5.0983175738929996,-2.1118036634264383,-1.9650433671142995,0.9451234583325477,-5.082468091553699,-1.5060018835573916,34.166666666
206,5.098317609287098,-2.1118036840946077,-1.9650433625875299,0.945123474317384,-5.082468125296473,-1.4229848820329107,34.333333333
207,5.098317648937574,-2.111803707307402,-1.9650433574666124,0.9451234924628704,-5.082468163042461,-1.329967887839436,34.5
208,5.098317693472454,-2.1118037312650104,-1.9650433513837489,0.9451235106217549,-5.0824682057144415,-1.2269509007554908,34.666666666
209,5.098317746581468,-2.1118037453881366,-1.9650433421859033,0.945123516147429,-5.08246825874141,-1.1139339237893418,34.833333333
210,5.0983178043917565,-2.1118037607616356,-1.965043332173319,0.9451235221640862,-5.082468316478148,-0.990916955371509,35.0
211,5.098317867206422,-2.111803764075367,-1.9650433195641175,0.9451235135348978,-5.082468379323239,-0.8578999929068848,35.166666666
212,5.098317934861329,-2.111803762486113,-1.9650433053170862,0.9451234983977329,-5.082468447052483,-0.7148830323906531,35.333333333
213,5.098318003435527,-2.1118037461734103,-1.9650432889569376,0.9451234664634912,-5.082468515818521,-0.5618660766295176,35.5
214,5.098318074811453,-2.1118037223545563,-1.9650432710353112,0.9451234255058747,-5.082468587448292,-0.398849127130065,35.666666666
215,5.098318136277765,-2.1118036797857216,-1.9650432527220327,0.9451233653429493,-5.082468649311781,-0.23420196117712241,35.833333333
216,5.098318191134678,-2.1118036361550176,-1.9650432356416705,0.9451233052852271,-5.0824687045688135,-0.07948231575038714,36.0
217,5.098318229736959,-2.111803582518469,-1.9650432206280577,0.9451232371414924,-5.082468743638306,0.06523732967636776,36.166666666
218,5.098318264053426,-2.111803531642288,-1.9650432068642227,0.9451231729581796,-5.082468778395972,0.19995697510312654,36.333333333
219,5.098318282100775,-2.1118034765229416,-1.965043195922537,0.9451231071950557,-5.0824687969049505,0.3246766205298981,36.5
220,5.098318298701088,-2.1118034258230596,-1.965043185858145,0.9451230467048058,-5.082468813929883,0.4393962659566735,36.666666666
221,5.098318304247735,-2.111803376991687,-1.965043178331554,0.945122990503307,-5.082468819876565,0.5441159113834603,36.833333333
222,5.098318305284464,-2.111803331766453,-1.9650431722116817,0.9451229392609146,-5.082468821280278,0.6388355568102592,37.0
223,5.09831830621174,-2.1118032913158635,-1.9650431667379082,0.9451228934284212,-5.082468822535795,0.7235552022370564,37.166666666
224,5.098318301592622,-2.111803255767648,-1.9650431630551846,0.9451228542222945,-5.082468818200486,0.7982748476638503,37.333333333
225,5.098318293586829,-2.1118032250710668,-1.9650431607087038,0.9451228211593176,-5.082468810436332,0.8629944930906497,37.5
226,5.098318286818032,-2.111803199117495,-1.9650431587247823,0.945122793204986,-5.082468803871836,0.9177141385174405,37.666666666
227,5.098318281286231,-2.111803177906932,-1.9650431571034193,0.9451227703592999,-5.0824687985070005,0.9624337839442243,37.833333333
228,5.098318276991426,-2.111803161439377,-1.9650431558446182,0.9451227526222603,-5.082468794341825,0.9971534293710091,38.0
229,5.098318273933616,-2.11180314971483,-1.9650431549483787,0.9451227399938671,-5.082468791376309,1.0218730747977949,38.166666666
230,5.0983182721128015,-2.1118031427332906,-1.9650431544147007,0.9451227324741206,-5.082468789610452,1.0365927202245815,38.333333333
231,5.097417801143426,-2.1135209041135306,-1.9616905000226108,0.9434872746223677,-5.081570342407556,1.0432251532106052,38.5
232,5.095960714631958,-2.1163004887019103,-1.9562654362974004,0.9408408798415582,-5.08011653077608,1.0404734704520169,38.666666666
233,5.095787554835759,-2.116630819960472,-1.9556207196343633,0.9405263798566048,-5.07994376079999,1.029719516946556,38.833333333
234,5.095787557475126,-2.1166308267905385,-1.9556207227797577,0.9405263786197696,-5.079943764667117,1.009498762125593,39.0
235,5.095787561419771,-2.116630836998355,-1.9556207274806798,0.9405263767712684,-5.0799437704467,0.9792780073046332,39.166666666
236,5.09578756666969,-2.1166308505839213,-1.9556207337371294,0.9405263743111009,-5.0799437781387375,0.9390572524836761,39.333333333
237,5.095787573395188,-2.1166308676176815,-1.9556207414661053,0.9405263714555328,-5.0799437892147115,0.888836501181259,39.5
238,5.095787582123087,-2.1166308883175504,-1.9556207504108412,0.9405263688735781,-5.079943808226629,0.8286157623892089,39.666666666
239,5.095787592300304,-2.1166309124547515,-1.9556207608409022,0.940526365862875,-5.079943830395585,0.758395023597155,39.833333333
240,5.095787591703528,-2.1166309505215066,-1.9556207659274596,0.9405264090290354,-5.079943831046712,0.6781743011494418,40.0
241,5.095787590936044,-2.1166309934398626,-1.9556207715723506,0.9405264580443308,-5.079943831558195,0.5879535824980084,40.166666666
242,5.095787590073271,-2.1166310411852685,-1.9556207777804884,0.9405265127926058,-5.079943832037489,0.4877328729235556,40.333333333
243,5.095787576310795,-2.1166310901405776,-1.95562078700506,0.9405265709361557,-5.079943818108401,0.37751217338383425,40.5
244,5.095787559015962,-2.1166311429031954,-1.9556207974947246,0.9405266339822553,-5.07994380032946,0.25729148132198343,40.666666666
245,5.095787533056511,-2.1166311958235173,-1.9556208098161902,0.9405266988932546,-5.079943773887887,0.127070796137864,40.833333333
246,5.095787495881868,-2.116631247408404,-1.955620824307152,0.9405267644795272,-5.079943736257188,-0.013149885401588027,41.0
247,5.095787449625005,-2.116631296187818,-1.9556208403196926,0.9405268286943587,-5.0799436895606185,-0.16337056396611924,41.166666666
248,5.095787391155676,-2.116631339005785,-1.9556208580912757,0.9405268885942595,-5.0799436306914005,-0.3235912359385873,41.333333333
249,5.0957873231160145,-2.1166313705481907,-1.9556208763764844,0.9405269376563541,-5.079943562335527,-0.4897776854713919,41.5
250,5.095787254567039,-2.116631393380344,-1.95562089362657,0.9405269769854476,-5.079943493540932,-0.6472952532330971,41.666666666
251,5.095787186006747,-2.116631398052263,-1.955620908500014,0.9405269958142066,-5.079943424883195,-0.7948128209948296,41.833333333
252,5.095787121348746,-2.116631399552969,-1.9556209221462917,0.940527010291238,-5.079943360157001,-0.9323303887565696,42.0
253,5.095787061714702,-2.116631386898224,-1.9556209328931535,0.9405270077937993,-5.0799433005746195,-1.0598479565183072,42.166666666
254,5.095787006823954,-2.1166313723250654,-1.9556209424020308,0.9405270021927601,-5.07994324575529,-1.1773655242800627,42.333333333
255,5.095786958386489,-2.1166313535546033,-1.955620950018694,0.94052699057724,-5.079943197429078,-1.2848830920418226,42.5
256,5.095786916829345,-2.116631329284132,-1.955620955483662,0.9405269713920873,-5.0799431560340205,-1.3824006598035945,42.666666666
257,5.095786879533705,-2.116631307502494,-1.955620960388215,0.9405269541742851,-5.079943118883845,-1.469918227565362,42.833333333
258,5.095786848046143,-2.116631286063575,-1.955620964129512,0.9405269361951618,-5.079943087543976,-1.5474357953271336,43.0
259,5.095786824368349,-2.1166312621897245,-1.955620965927304,0.9405269139230712,-5.079943064040502,-1.6149533630889112,43.166666666
260,5.095786804197465,-2.116631241851821,-1.9556209674588256,0.9405268949496908,-5.079943044018118,-1.6724709308506833,43.333333333
261,5.095786787533488,-2.116631225049865,-1.9556209687240738,0.9405268792750184,-5.079943027476823,-1.719988498612441,43.5
262,5.09578677437642,-2.116631211783855,-1.9556209697230522,0.9405268668990572,-5.079943014416619,-1.7575060663741995,43.666666666
263,5.0957867647262605,-2.116631202053791,-1.9556209704557612,0.9405268578218069,-5.079943004837506,-1.7850236341359627,43.833333333
264,5.095786758583009,-2.1166311958596733,-1.955620970922201,0.9405268520432676,-5.079942998739481,-1.802541201897723,44.0
265,5.095304025484156,-2.1175667184393094,-1.9537936637454205,0.939634778960934,-5.079461388736695,-1.8112777279243173,44.166666666
266,5.093784708610789,-2.1205111382084216,-1.9480425011301055,0.9368271276059422,-5.077945606817327,-1.8113393846480823,44.333333333
267,5.093290273951687,-2.1214693555867905,-1.9461708759207845,0.9359134199362137,-5.077452324252364,-1.8026972891415054,44.5
268,5.093290280475163,-2.1214693596038514,-1.9461708773094397,0.9359134165237157,-5.077452334361673,-1.7852950580280562,44.666666666
269,5.093290290747284,-2.1214693659292716,-1.9461708794960706,0.9359134111502636,-5.077452350280183,-1.7578928269146084,44.833333333
270,5.09329030476805,-2.121469374563051,-1.9461708824806765,0.9359134038158572,-5.077452372007896,-1.7204905958011616,45.0
271,5.093290322537459,-2.1214693855051907,-1.946170886263258,0.9359133945204964,-5.077452399544811,-1.6730883646877197,45.166666666
272,5.0932903433273555,-2.1214693981246615,-1.946170891501236,0.9359133809472329,-5.077452426568326,-1.6156861550732176,45.333333333
273,5.09329036768669,-2.1214694128971887,-1.9461708976989902,0.9359133648427808,-5.077452457844965,-1.5482839468494753,45.5
274,5.093290399016206,-2.1214694313430744,-1.9461708966246172,0.9359133703819829,-5.077452490256045,-1.4708817502468572,45.666666666
275,5.09329043583283,-2.121469452808315,-1.9461708918971306,0.9359133869483853,-5.077452525349894,-1.3834795584146224,45.833333333
276,5.0932904768490035,-2.121469476826049,-1.9461708865420029,0.9359134058239218,-5.077452564347251,-1.2860773793567244,46.0
277,5.093290524781712,-2.1214694955868687,-1.9461708790202066,0.9359134174914121,-5.077452611307715,-1.1786752070324604,46.166666666
278,5.0932905792864815,-2.121469510076313,-1.9461708695377085,0.9359134231184607,-5.07745266573226,-1.061273042736251,46.333333333
279,5.09329063850278,-2.1214695228622964,-1.946170858850629,0.9359134258824899,-5.077452724898342,-0.9338708862975607,46.5
280,5.093290702716753,-2.1214695213903436,-1.9461708452670772,0.9359134114939437,-5.0774527891840275,-0.7964687352849065,46.666666666
281,5.093290770869736,-2.121469517001706,-1.9461708304789247,0.9359133930300142,-5.077452857435893,-0.6490665855089599,46.833333333
282,5.093290838954374,-2.1214694943671986,-1.9461708133065847,0.9359133539722444,-5.077452925766261,-0.4916644426249972,47.0
283,5.093290906699535,-2.121469463301803,-1.9461707950968066,0.9359133054595743,-5.077452993826184,-0.3255118499653805,47.166666666
284,5.093290964855503,-2.1214694207756657,-1.9461707773800967,0.935913245903144,-5.077453052382811,-0.16517949477317923,47.333333333
285,5.093291011037284,-2.121469372493297,-1.9461707614036379,0.9359131822184624,-5.077453099002117,-0.014847139580967495,47.5
286,5.093291048015542,-2.1214693212458196,-1.9461707469565657,0.9359131170088427,-5.077453136434235,0.1254852156112609,47.666666666
287,5.093291074016484,-2.1214692687814876,-1.9461707346385593,0.9359130526003812,-5.077453162889439,0.255817570803493,47.833333333
288,5.0932910912168765,-2.1214692163707083,-1.9461707241627033,0.9359129899965294,-5.077453180535954,0.37614992599573316,48.0
289,5.093291105103704,-2.121469167815282,-1.9461707148845662,0.9359129324037709,-5.077453194834296,0.4864822811879847,48.166666666
290,5.093291106186923,-2.121469120596061,-1.9461707084519144,0.9359128788576548,-5.077453196306834,0.5868146363802416,48.333333333
291,5.093291107162178,-2.121469078083123,-1.946170702660392,0.9359128306484111,-5.077453197632604,0.6771469915725005,48.5
292,5.09329110802947,-2.1214690402764664,-1.9461706975100028,0.9359127877760409,-5.07745319881161,0.7574793467647665,48.666666666
293,5.093291099479096,-2.1214690073895355,-1.9461706949700917,0.9359127523266564,-5.077453190524242,0.8278117019570308,48.833333333
294,5.093291092105107,-2.121468979179438,-1.9461706927996285,0.9359127219263501,-5.077453183375826,0.8881440571492991,49.0
295,5.093291085953347,-2.1214689556451245,-1.9461706909889136,0.935912696564849,-5.077453177412249,0.9384764123415537,49.166666666
296,5.093291081023816,-2.1214689367865938,-1.9461706895379494,0.9359126762421544,-5.077453172633511,0.9788087675338062,49.333333333
297,5.093291077316511,-2.1214689226038455,-1.9461706884467374,0.9359126609582664,-5.077453169039614,1.0091411227260596,49.5
298,5.093291074831434,-2.121468913096879,-1.9461706877152771,0.9359126507131853,-5.077453166630556,1.029473477918314,49.666666666
299,5.093135919622653,-2.1217743708963996,-1.9455735993825056,0.9356209320112927,-5.07729838501003,1.040304046415476,49.833333333
300,5.091730603444699,-2.1245411181403098,-1.9401654386462976,0.9329787198366306,-5.0758964522895145,1.0431812204061626,50.0
301,5.090828241410339,-2.1263176684861076,-1.936692822800749,0.9312821379946022,-5.074996263198536,1.036638530981385,50.166666666
302,5.0908282432954355,-2.1263176733382734,-1.9366928250555717,0.9312821371131009,-5.074996266017932,1.0220724691277085,50.333333333
303,5.0908282464747,-2.126317681521584,-1.9366928288583924,0.9312821356264247,-5.074996270772919,0.9975064072740348,50.5
304,5.090828250948135,-2.126317693036039,-1.9366928342092107,0.9312821335345737,-5.0749962774635,0.9629403454203604,50.666666666
305,5.09082825671574,-2.126317707881639,-1.9366928411080266,0.9312821308375479,-5.074996286089672,0.9183742835666892,50.833333333
306,5.090828264296074,-2.1263177262822768,-1.9366928492914461,0.9312821282336243,-5.074996301179958,0.8638082305525542,51.0
307,5.09082827356234,-2.1263177481832076,-1.936692858823874,0.9312821255520619,-5.074996321627056,0.7992421822118505,51.166666666
308,5.090828279234597,-2.126317777763317,-1.9366928670079566,0.9312821415417308,-5.074996334952197,0.7246761409053031,51.333333333
309,5.09082827852692,-2.126317817397495,-1.936692872278924,0.9312821867757046,-5.074996335455856,0.6401101089053838,51.5
310,5.090828277725379,-2.126317861786671,-1.9366928781116848,0.9312822376516348,-5.07499633592955,0.5455440862345668,51.666666666
311,5.090828272665654,-2.126317909739807,-1.9366928853214516,0.9312822933507028,-5.0749963317133595,0.44097807050091486,51.833333333
312,5.090828256385121,-2.1263179592984907,-1.936692895241814,0.9312823526405841,-5.074996314979386,0.32641206333242545,52.0
313,5.090828238681423,-2.126318013180966,-1.9366929060301319,0.9312824170982491,-5.0749962967664,0.20184606570986025,52.166666666
314,5.090828205264,-2.126318063032229,-1.9366929195892415,0.9312824800712917,-5.074996262897773,0.06728007378745451,52.333333333
315,5.090828167399589,-2.1263181154397888,-1.9366929344177768,0.9312825468085109,-5.074996224562543,-0.0772859171321618,52.5
316,5.0908281138154114,-2.126318158286705,-1.9366929512709736,0.9312826058677207,-5.074996170575393,-0.23185190231850583,52.666666666
317,5.090828053684702,-2.126318200178996,-1.936692969366684,0.9312826651492461,-5.074996110044283,-0.3963691760805122,52.833333333
318,5.090827983529568,-2.126318223457417,-1.9366929871028027,0.9312827053905093,-5.074996039634089,-0.5595393711457926,53.0
319,5.090827916204327,-2.1263182396931524,-1.9366930033184113,0.9312827371118932,-5.0749959721146745,-0.712709566211103,53.166666666
320,5.090827849697217,-2.1263182411983372,-1.9366930174200543,0.9312827520264988,-5.074995905536229,-0.8558797612764089,53.333333333
321,5.090827787936886,-2.126318238177686,-1.9366930299324392,0.9312827608841929,-5.074995843746283,-0.9890499563420281,53.5
322,5.0908277310964065,-2.1263182230907316,-1.9366930398248192,0.9312827551305344,-5.074995786980568,-1.1122201514075776,53.666666666
323,5.090827678870716,-2.1263182092286677,-1.936693048914044,0.9312827498440021,-5.074995734823574,-1.2253903464730629,53.833333333
324,5.090827634784027,-2.126318185865374,-1.9366930550486412,0.9312827322048339,-5.074995690891549,-1.3285605415384742,54.0
325,5.090827595555641,-2.1263181629858265,-1.9366930602314278,0.9312827141469884,-5.074995651818116,-1.4217307366038452,54.166666666
326,5.0908275605376545,-2.1263181425619533,-1.9366930648579395,0.9312826980272977,-5.074995616938453,-1.5049009316691797,54.333333333
327,5.090827533536498,-2.1263181193252647,-1.9366930674375564,0.9312826771365645,-5.074995590106029,-1.578071126734471,54.5
328,5.090827511648617,-2.1263180972945737,-1.9366930691073299,0.9312826565925798,-5.07499556838141,-1.6412413217997386,54.666666666
329,5.0908274932256425,-2.1263180787513964,-1.9366930705127718,0.9312826393007582,-5.074995550095853,-1.6944115168649914,54.833333333
330,5.090827478267574,-2.126318063695734,-1.9366930716538837,0.9312826252610997,-5.074995535249355,-1.7375817119302357,55.0
331,5.090827466774412,-2.126318052127585,-1.9366930725306668,0.9312826144736062,-5.074995523841922,-1.770751906995474,55.166666666
332,5.090827458746157,-2.1263180440469487,-1.9366930731431211,0.9312826069382771,-5.074995515873549,-1.7939221020607308,55.333333333
333,5.090822109661107,-2.126328728485009,-1.9366721643061446,0.9312723796191805,-5.0749901801344635,-1.8071116265146814,55.5
334,5.089723505165072,-2.1285259333839845,-1.9323741345039245,0.9291709622934312,-5.073894312002373,-1.812603280732366,55.666666666
335,5.088452945995569,-2.131067057688308,-1.9274033582279255,0.9267406230591784,-5.07262691837442,-1.808388315796451,55.833333333
336,5.088397515947185,-2.131177929406769,-1.9271864845965907,0.9266345853014749,-5.07257162887631,-1.7964844998320648,56.0
337,5.0883975239933115,-2.1311779343584902,-1.9271864863191377,0.926634581121273,-5.072571641438556,-1.7747763635686509,56.166666666
338,5.0883975357459414,-2.131177941591255,-1.927186488835188,0.9266345750154326,-5.072571659787687,-1.7430682273052485,56.333333333
339,5.088397551205073,-2.1311779511050624,-1.9271864921447406,0.926634566983954,-5.072571683923701,-1.7013600910418543,56.5
340,5.088397570104994,-2.1311779626634793,-1.9271864964956444,0.9266345561547408,-5.072571711514971,-1.6496519628347077,56.666666666
341,5.088397592165274,-2.1311779760169753,-1.927186502149475,0.9266345416073927,-5.072571740100731,-1.5879438483505526,56.833333333
342,5.088397618435602,-2.1311779918145817,-1.9271865071486598,0.9266345292686898,-5.072571772599566,-1.5162357362138157,57.0
343,5.088397652445083,-2.131178011612916,-1.9271865027643533,0.9266345445110429,-5.072571805014327,-1.4345276378981178,57.166666666
344,5.088397690611358,-2.1311780338750657,-1.9271864978064563,0.9266345617937294,-5.072571841347388,-1.3428195452832967,57.333333333
345,5.08839773294627,-2.131178058578681,-1.9271864922494932,0.9266345811478669,-5.072571881597567,-1.2411114599824595,57.5
346,5.088397784187492,-2.1311780721980638,-1.9271864832923702,0.9266345863953989,-5.072571932756918,-1.1294033863221031,57.666666666
347,5.088397840017455,-2.131178087037288,-1.9271864735326245,0.9266345921146026,-5.072571988510754,-1.0076953199573075,57.833333333
348,5.088397900677441,-2.1311780925352606,-1.9271864615370484,0.9266345862746715,-5.072572049182044,-0.8759872600279004,58.0
349,5.088397966112247,-2.1311780910738385,-1.9271864476293863,0.9266345715880446,-5.072572114691127,-0.7342792029106698,58.166666666
350,5.0883980331503,-2.1311780780036798,-1.9271864318492153,0.9266345434595651,-5.0725721818999645,-0.5825711497407393,58.333333333
351,5.08839810226076,-2.13117805511564,-1.9271864143351567,0.9266345038203732,-5.072572251263482,-0.42086310295667273,58.5
352,5.088398164092067,-2.131178016192474,-1.9271863962242877,0.9266344475053455,-5.072572313475327,-0.2553045302857835,58.666666666
353,5.088398220007688,-2.131177975423552,-1.927186379108948,0.926634390282309,-5.072572369781617,-0.09928019947472647,58.833333333
354,5.088398258046881,-2.1311779228938486,-1.927186364183635,0.9266343233259816,-5.072572408293744,0.04674413133626278,59.0
355,5.088398293459917,-2.13117787394019,-1.9271863502820414,0.9266342609350904,-5.072572444147482,0.1827684621471735,59.166666666
356,5.088398311707446,-2.1311778200976823,-1.92718633933104,0.9266341964372526,-5.072572462861204,0.3087927929580274,59.333333333
357,5.08839832809213,-2.131177770285734,-1.9271863293039404,0.9266341368665809,-5.072572479676737,0.4248171237688199,59.5
358,5.088398335401714,-2.1311777227332405,-1.9271863214779272,0.9266340816577219,-5.072572487390168,0.5308414545795559,59.666666666
359,5.088398336424495,-2.1311776781802307,-1.927186315366559,0.9266340310917687,-5.0725724887861094,0.6268657853902327,59.833333333
360,5.088398337340763,-2.131177638266987,-1.927186309891624,0.9266339857917651,-5.072572490036676,0.7128901162008703,60.0
361,5.088398334054806,-2.1311776030849927,-1.9271863059236494,0.926633946676993,-5.072572487041727,0.7889144470114706,60.166666666
362,5.088398326080517,-2.131177572645107,-1.927186303565954,0.9266339138565578,-5.072572479314628,0.8549387778220428,60.333333333
363,5.088398319314009,-2.1311775468156258,-1.9271863015653528,0.926633886007083,-5.072572472757871,0.9109631086325972,60.5
364,5.08839831375528,-2.1311775255965504,-1.9271862999218434,0.9266338631285675,-5.0725724673714545,0.9569874394431392,60.666666666
365,5.088398309404332,-2.1311775089878786,-1.92718629863543,0.9266338452210132,-5.07257246315538,0.9930117702536749,60.833333333
366,5.088398306261165,-2.1311774969896113,-1.9271862977061123,0.9266338322844199,-5.072572460109646,1.0190361010642224,61.0
367,5.088398304325778,-2.1311774896017472,-1.9271862971338902,0.9266338243187874,-5.072572458234253,1.035060431874774,61.166666666
368,5.087739532609573,-2.1325158915200424,-1.924566314465761,0.9253519071997847,-5.071915383553036,1.0426883705819951,61.333333333
369,5.08630357665444,-2.1354332821621584,-1.9188554061406917,0.9225576552156726,-5.070483126789014,1.0412813471649502,61.5
370,5.086000704540365,-2.136048624345808,-1.9176508568557724,0.9219682881940318,-5.070181035539389,1.0315555789828357,61.666666666
371,5.086000706957184,-2.136048630533482,-1.9176508597579773,0.9219682870661994,-5.070181039228606,1.0127224182320855,61.833333333
372,5.086000710657283,-2.1360486400066767,-1.9176508642011902,0.9219682853395126,-5.070181044876716,0.9838892574813451,62.0
373,5.08600071564066,-2.1360486527653917,-1.9176508701854114,0.9219682830139713,-5.070181052483721,0.9450560967306078,62.166666666
374,5.08600072196656,-2.1360486688363123,-1.917650877679277,0.9219682801740122,-5.070181062572479,0.8962229366974412,62.333333333
375,5.086000730328612,-2.136048688531866,-1.9176508863155926,0.9219682778082139,-5.070181081264563,0.8373897848218772,62.5
376,5.086000740111982,-2.136048711575116,-1.917650896419841,0.9219682750402957,-5.070181103133783,0.768556632946288,62.666666666
377,5.08600074109024,-2.136048746625549,-1.9176509022166235,0.9219683105038383,-5.070181106976978,0.6897234950065243,62.833333333
378,5.086000740352996,-2.1360487876916747,-1.9176509076986215,0.9219683574661224,-5.070181107479425,0.6008903613533785,63.0
379,5.086000739520493,-2.136048833461125,-1.9176509137243931,0.9219684100611305,-5.070181107929348,0.5020572386370604,63.166666666
380,5.086000728191859,-2.1360488809687737,-1.9176509223325229,0.9219684662912462,-5.07018109667656,0.39322412433007603,63.333333333
381,5.086000711506527,-2.136048931641891,-1.9176509325500395,0.9219685269857245,-5.070181079512963,0.2743910177823053,63.5
382,5.086000688567727,-2.136048983746896,-1.9176509442778382,0.9219685905310473,-5.070181056080525,0.14555791861593254,63.666666666
383,5.086000652638875,-2.1360490333501927,-1.917650958417192,0.9219686538006557,-5.070181019698563,0.006724824002445052,63.833333333
384,5.086000609929521,-2.13604908231334,-1.9176509738963698,0.9219687177006171,-5.070180976536272,-0.14210826847230196,64.0
385,5.086000553346549,-2.136049123509048,-1.9176509912588129,0.9219687755888395,-5.0701809195552885,-0.3009413542215227,64.166666666
386,5.086000489445468,-2.136049156490266,-1.9176510090679688,0.9219688256491951,-5.070180855318709,-0.4648766037896537,64.333333333
387,5.0860004236658165,-2.136049178233418,-1.9176510257791484,0.9219688633759745,-5.070180789296435,-0.6197127825641703,64.5
388,5.086000358913094,-2.136049186288326,-1.9176510404563514,0.9219688854179866,-5.070180724417277,-0.7645489613384725,64.666666666
389,5.086000297022174,-2.136049187651797,-1.9176510536433558,0.9219688993212478,-5.070180662458855,-0.8993851401126638,64.833333333
390,5.086000239927158,-2.1360491799529444,-1.9176510646188114,0.9219689020182998,-5.070180605376985,-1.0242213188868097,65.0
391,5.086000187562279,-2.136049166055247,-1.917651073776888,0.9219688967605078,-5.070180553081729,-1.1390574976609587,65.166666666
392,5.086000139853594,-2.136049153075539,-1.9176510820784292,0.9219688916108657,-5.070180505439154,-1.2438936764350976,65.333333333
393,5.086000100397744,-2.136049130091857,-1.9176510873169033,0.921968873499688,-5.070180466141121,-1.3387298552092286,65.5
394,5.086000065102315,-2.1360491095316907,-1.9176510920030034,0.9219688572982425,-5.070180430986868,-1.4235660339833491,65.666666666
395,5.0860000339673075,-2.13604909139504,-1.91765109613673,0.9219688430065289,-5.070180399976394,-1.4984022127574457,65.833333333
396,5.086000009655759,-2.136049072005272,-1.9176510986701139,0.9219688259348663,-5.0701803758061095,-1.5632383915315535,66.0
397,5.085999990880808,-2.136049053139052,-1.9176511001095697,0.921968808349459,-5.070180357173022,-1.6180745703056796,66.166666666
398,5.085999975529681,-2.1360490377133017,-1.9176511012865243,0.9219687939709507,-5.070180341937891,-1.6629107490798312,66.333333333
399,5.085999963602381,-2.1360490257280222,-1.917651102200976,0.9219687827993399,-5.070180330100714,-1.6977469278539665,66.5
400,5.085999955098906,-2.136049017183212,-1.9176511028529264,0.9219687748346279,-5.070180321661491,-1.7225831066281052,66.666666666
401,5.085999950019256,-2.1360490120788707,-1.9176511032423764,0.9219687700768151,-5.070180316620224,-1.7374192854022412,66.833333333
402,5.086212425631136,-2.1356314314470133,-1.9185052533778515,0.92240542468944,-5.070392085439044,-1.7427457931299557,67.0
403,5.0866118508153715,-2.1348464504599813,-1.9201109203297075,0.9232262706846506,-5.070790181929209,-1.7393130222433424,67.166666666
404,5.086718567457802,-2.1346367348142983,-1.9205398986162792,0.9234455761144812,-5.070896543559873,-1.7265173362568387,67.333333333
405,5.08690868458579,-2.134263123582319,-1.9213041291800825,0.9238362716753779,-5.071086028229642,-1.7037216502703407,67.5
406,5.087182202199336,-2.1337256167640417,-1.9224036120211174,0.9243983573673404,-5.071358635938515,-1.670925964283841,67.666666666
407,5.087540744693041,-2.133024948433322,-1.9238368496162164,0.9251310736517766,-5.071715998024543,-1.6281302401578892,67.833333333
408,5.087986250565707,-2.1321619949241217,-1.925602054227757,0.9260335137922133,-5.072160061273594,-1.575334447976572,68.0
409,5.088516139275386,-2.131135590224297,-1.927701604539703,0.9271068842479553,-5.0726882341137145,-1.512538655795288,68.166666666
410,5.089132876830274,-2.1299468065804885,-1.9301333136422567,0.9283500756476949,-5.073302991316296,-1.4397427990556606,68.333333333
411,5.089837064638007,-2.1285959057515913,-1.9328966476615537,0.9297628171672243,-5.074004936426879,-1.3569468750235363,68.5
412,5.090629306328902,-2.127083123240164,-1.93599112682073,0.9313448665473517,-5.074794676050787,-1.2641508798980785,68.666666666
413,5.091510537798681,-2.125408857784911,-1.93941593803754,0.9330958116773933,-5.075673149668824,-1.161354803182723,68.833333333
414,5.092483783697919,-2.1235743367456594,-1.9431685794451314,0.9350143852143351,-5.076643393218048,-1.0485585824205277,69.0
415,5.0935480932146335,-2.1215791341255,-1.9472499200359512,0.9371010279574189,-5.077704452073901,-0.9257622542375414,69.166666666
416,5.094705566363902,-2.119424083357152,-1.9516582612403028,0.9393548798497018,-5.078858433907971,-0.7929657841379623,69.333333333
417,5.0959593176421185,-2.117110373985784,-1.9563911794636928,0.9417747144918298,-5.0801084642554155,-0.6501691207212047,69.5
418,5.097310718257859,-2.1146384620463254,-1.9614477466940548,0.944360063441751,-5.081455918716709,-0.49737225756233994,69.666666666
419,5.0987531364377885,-2.1120233786740723,-1.9667972199235275,0.947095214231691,-5.082894193060137,-0.3354772083163785,69.833333333
420,5.100160904481772,-2.109494785165773,-1.9719698022818521,0.9497399669048434,-5.08429798559992,-0.17868666363396618,70.0
421,5.101488638016679,-2.107131016893303,-1.976805244114226,0.9522123799883044,-5.0856220305585165,-0.03189593120487414,70.166666666
422,5.1027342285177655,-2.10493124512157,-1.9813052342648345,0.9545133084785813,-5.086864211773754,0.10489495371679003,70.333333333
423,5.103895515133625,-2.102894659231916,-1.9854714240574305,0.9566435877369763,-5.0880223608368915,0.23168595855935004,70.5
424,5.104972041671653,-2.10102106031581,-1.9893042191304633,0.9586034234456211,-5.089096019765388,0.3484770805383523,70.666666666
425,5.105962757154639,-2.099310033803382,-1.9928044643194007,0.9603932433361042,-5.090084133762522,0.45526830332026746,70.833333333
426,5.106863253226366,-2.0977600831842818,-1.9959752056846374,0.9620145856062419,-5.090982280155937,0.5520595664608972,71.0
427,5.107676537757213,-2.0963721866968417,-1.9988144528108838,0.9634664459565883,-5.091793476282388,0.6388509181215719,71.166666666
428,5.108396740512791,-2.0951444030578155,-2.0013261561854945,0.9647508183159508,-5.092511833207041,0.7156422781379009,71.333333333
429,5.109027819385965,-2.09407800723032,-2.0035077218620074,0.9658663941080157,-5.093141321191581,0.7824337053058372,71.5
430,5.109564413248123,-2.0931712719869306,-2.005362663932915,0.9668149461008644,-5.0936765623526545,0.8392251324737714,71.666666666
431,5.110007339460906,-2.0924244544722432,-2.006890459339193,0.9675962105497542,-5.094118376562403,0.8860165700028358,71.833333333
432,5.110357866296615,-2.091837953571286,-2.00809029670809,0.9682097783334727,-5.094468035988261,0.9228080401739082,72.0
433,5.11061311919136,-2.0914108648651197,-2.008964015723107,0.968656577085982,-5.094722657237,0.9495995103449731,72.166666666
434,5.110773098145139,-2.0911431883537452,-2.009511616384246,0.9689366068072822,-5.094882240308619,0.9663909805160308,72.333333333
435,5.110939472974828,-2.0908653019942203,-2.010080115676585,0.9692273299149777,-5.095048204294912,0.9733844028670378,72.5
436,5.111511136326435,-2.0899117031961816,-2.0120310151878997,0.9702250101364419,-5.095618458134547,0.9714854052311785,72.666666666
437,5.1115113933811696,-2.089911788222683,-2.012030853584768,0.9702249341303113,-5.095618715460329,0.9605446035909011,72.833333333
438,5.111511885386455,-2.0899119509642405,-2.012030544274788,0.9702247886538319,-5.095619207984399,0.9396038019506235,73.0
439,5.11151261234229,-2.0899121914208547,-2.012030087257962,0.9702245737070038,-5.095619935706756,0.9086630003103459,73.166666666
440,5.111513574427672,-2.0899125096635203,-2.0120294824472715,0.9702242894841064,-5.095620900165,0.8677222225180078,73.333333333
441,5.111514771559774,-2.089912905659375,-2.0120287298829616,0.9702239358950302,-5.095622100646479,0.8167814510142763,73.5
442,5.111516151101292,-2.0899133631130016,-2.012027862777247,0.9702235296774461,-5.0956234840545145,0.7558406802021091,73.666666666
443,5.111516150361294,-2.089913398356384,-2.012027867311894,0.9702235694901102,-5.095623483527737,0.6848999274966683,73.833333333
444,5.111516149516391,-2.089913438572068,-2.0120278724820384,0.9702236149331949,-5.095623482921726,0.6039591756741435,74.0
445,5.111516148563004,-2.089913483785999,-2.0120278782652425,0.9702236661172544,-5.095623482206446,0.5130184295889102,74.166666666
446,5.111516139120125,-2.0899135317062267,-2.012027886165443,0.9702237218862225,-5.095623472642359,0.4120776903178742,74.333333333
447,5.111516122556223,-2.089913582702393,-2.012027895941048,0.9702237824097969,-5.095623455659412,0.30113695786840966,74.5
448,5.111516103657854,-2.089913637800439,-2.0120279067091418,0.970223847994295,-5.095623436303665,0.18019623211364086,74.666666666
449,5.111516067629483,-2.0899136883025062,-2.012027920419124,0.9702239117324161,-5.095623399854137,0.04925551560049667,74.833333333
450,5.111516028849628,-2.0899137426613845,-2.012027935176184,0.9702239803379775,-5.095623360621086,-0.09168519718456586,75.0
451,5.111515972414714,-2.0899137857433177,-2.0120279521388253,0.9702240397172676,-5.095623303807146,-0.24262590941452147,75.166666666
452,5.111515910061197,-2.0899138284291605,-2.0120279702648207,0.9702240998045153,-5.095623241072977,-0.4035666134676785,75.333333333
453,5.111515836606776,-2.089913853254243,-2.0120279884286334,0.9702241419937663,-5.095623167367281,-0.5662195593573238,75.5
454,5.111515765852309,-2.089913869688356,-2.0120280049880295,0.9702241742328563,-5.095623096428695,-0.7189528385695034,75.666666666
455,5.111515696212506,-2.089913871453578,-2.0120280194815354,0.9702241897795555,-5.095623026719273,-0.8616861177816345,75.833333333
456,5.11151563157726,-2.0899138676004885,-2.012028032245614,0.9702241980413115,-5.095622962061941,-0.9944193969937708,76.0
457,5.111515572091619,-2.0899138517809677,-2.012028042455373,0.9702241918600258,-5.095622902651028,-1.1171526762058575,76.166666666
458,5.111515517452717,-2.089913837250386,-2.0120280518332585,0.9702241861823718,-5.0956228480807635,-1.2298859554179375,76.333333333
459,5.111515471548556,-2.0899138120392333,-2.01202805808314,0.9702241668075942,-5.095622802334977,-1.3326192346299832,76.5
460,5.111515430543668,-2.0899137879552865,-2.0120280634701277,0.9702241477445719,-5.095622761483671,-1.425352513842027,76.666666666
461,5.111515393960588,-2.0899137664684613,-2.0120280682762,0.9702241307372308,-5.095622725037612,-1.5080857930540565,76.833333333
462,5.111515366035978,-2.0899137416401072,-2.012028070889195,0.9702241082904199,-5.095622697282856,-1.5808190722660882,77.0
463,5.111515343209552,-2.089913718460779,-2.012028072663899,0.9702240867027052,-5.0956226746176085,-1.6435523514781116,77.166666666
464,5.111515324021772,-2.089913698976353,-2.0120280741557037,0.9702240685561793,-5.095622655565315,-1.6962856306901641,77.333333333
465,5.111515308472638,-2.089913683186829,-2.012028075364611,0.9702240538508429,-5.095622640125974,-1.7390189099022395,77.5
466,5.111515296562153,-2.089913671092206,-2.012028076290622,0.970224042586697,-5.09562262829959,-1.771752189114305,77.666666666
467,5.111515288290314,-2.089913662692484,-2.0120280769337375,0.9702240347637421,-5.095622620086159,-1.7944854683263614,77.833333333
468,5.111497954231338,-2.0899440932500872,-2.011968712086723,0.9701950873431798,-5.095605318564463,-1.8072740908342348,78.0
469,5.1101919875920165,-2.0922377308054596,-2.0074948788831217,0.9680139049136921,-5.0943018015104835,-1.8123368632628727,78.166666666
470,5.108834224226931,-2.0946223473300503,-2.002843593720165,0.9657462078808612,-5.092946585841014,-1.8076448029010304,78.333333333
471,5.1088022126394135,-2.0946785800870606,-2.0027339163406284,0.965692732506567,-5.092914636843097,-1.7952252629260848,78.5
472,5.108802221312823,-2.0946785854414287,-2.0027339181358013,0.9656927278670964,-5.092914650075378,-1.7729075982012463,78.666666666
473,5.108802233872575,-2.0946785931949576,-2.002733920735347,0.9656927211487927,-5.092914669236721,-1.740589933476399,78.833333333
474,5.108802250318668,-2.094678603347648,-2.002733924139266,0.9656927123516555,-5.092914694327124,-1.6982722687515421,79.0
475,5.108802270309991,-2.094678615621296,-2.0027339286322143,0.9656927004669262,-5.092914722478484,-1.6459546138739936,79.166666666
476,5.108802293628081,-2.094678629837731,-2.0027339343964967,0.9656926848485552,-5.092914751853952,-1.5836369720603947,79.333333333
477,5.108802321656361,-2.0946786467694842,-2.0027339387917116,0.9656926736538034,-5.092914785097719,-1.5113193336270978,79.5
478,5.108802357622117,-2.0946786678630436,-2.002733934172537,0.9656926899776552,-5.092914819391906,-1.4290017083021063,79.666666666
479,5.108802397950732,-2.094678691568771,-2.0027339289489254,0.9656927084963132,-5.092914857799121,-1.3366840893497007,79.833333333
480,5.108802442945745,-2.094678717018521,-2.0027339229375305,0.9656927282115682,-5.092914900754887,-1.2343664775327359,80.0
481,5.108802497042638,-2.094678731420361,-2.002733913616726,0.9656927338978928,-5.092914954770571,-1.122048876660461,80.166666666
482,5.108802555957938,-2.0946787471050996,-2.0027339034652503,0.9656927400922952,-5.092915013612183,-0.9997312836176868,80.333333333
483,5.108802619972685,-2.0946787516975376,-2.0027338908874577,0.9656927327837763,-5.09291507764695,-0.867413696720075,80.5
484,5.108802688977593,-2.0946787499661617,-2.0027338764987537,0.9656927173702193,-5.092915146725092,-0.7250961121413133,80.666666666
485,5.108802759325041,-2.094678734583889,-2.002733860119047,0.9656926863570936,-5.092915217251229,-0.572778531861944,80.833333333
486,5.108802832170903,-2.0946787100110353,-2.002733842071361,0.9656926445303609,-5.092915290348144,-0.4104609579493623,81.0
487,5.108802896228368,-2.094678667347727,-2.002733823555338,0.9656925840933883,-5.092915354790815,-0.24527892544033553,81.166666666
488,5.10880295380612,-2.0946786231572943,-2.0027338061781146,0.9656925232052906,-5.092915412760442,-0.0898557779711826,81.333333333
489,5.10880299356883,-2.0946785674962682,-2.0027337910181706,0.9656924529064027,-5.092915452990124,0.055567369497939015,81.5
490,5.108803030078653,-2.0946785153584333,-2.00273377696895,0.9656923872008844,-5.0929154899367655,0.1909905169670078,81.666666666
491,5.108803048685416,-2.0946784581465154,-2.0027337659588325,0.9656923192885861,-5.092915509005424,0.3164136644360869,81.833333333
492,5.108803065808659,-2.094678405496114,-2.0027337558265446,0.9656922567909391,-5.092915526553737,0.4318368119051246,82.0
493,5.108803072562505,-2.0946783550450627,-2.0027337481001375,0.9656921987882296,-5.0929155337070515,0.5372599593741527,82.166666666
494,5.108803073636732,-2.09467830804006,-2.0027337419731412,0.9656921457658646,-5.092915535149222,0.6326831068431651,82.333333333
495,5.108803074598384,-2.094678265961015,-2.002733736488227,0.965692098300049,-5.092915536440257,0.7181062543121566,82.5
496,5.108803070550274,-2.0946782289308112,-2.0027337326665586,0.9656920574846662,-5.092915532678033,0.7935294017811565,82.666666666
497,5.108803062257963,-2.0946781969302393,-2.0027337303485013,0.9656920231487136,-5.092915524628881,0.8589525492501506,82.833333333
498,5.108803055233141,-2.0946781698209898,-2.00273372838476,0.9656919940610484,-5.092915517810051,0.9143756967191634,83.0
499,5.108803049475808,-2.094678147603065,-2.002733726775335,0.9656919702216704,-5.092915512221543,0.9597988441881956,83.166666666
500,5.108803044985963,-2.094678130276462,-2.0027337255202275,0.9656919516305809,-5.092915507863356,0.9952219916572324,83.333333333
501,5.108803041763608,-2.0946781178411813,-2.0027337246194388,0.9656919382877798,-5.092915504735492,1.020645139126267,83.5
502,5.10880303980874,-2.094678110297223,-2.0027337240729683,0.965691930193267,-5.092915502837949,1.0360682865952917,83.666666666
503,5.107960892985654,-2.0961809947543526,-1.9997999914982636,0.9642604722664416,-5.092074994229819,1.0432050831750976,83.833333333
504,5.106379522546118,-2.099003098988735,-1.9942910672387457,0.9615725057307135,-5.090496700104874,1.041112873197162,84.0
505,5.106128002302314,-2.0994519663544584,-1.9934148583501965,0.9611449762281189,-5.0902456697271194,1.0308234503357936,84.166666666
506,5.106128004915854,-2.0994519731756998,-1.993414861413821,0.9611449749633092,-5.090245673469737,1.0112190958700897,84.333333333
507,5.106128008862537,-2.0994519834763925,-1.993414866040172,0.9611449730533317,-5.0902456791214306,0.981614741404389,84.5
508,5.106128014142362,-2.0994519972565375,-1.9934148722292493,0.9611449704981865,-5.090245686682199,0.9420103869386698,84.666666666
509,5.106128020882085,-2.099452014565804,-1.9934148799225861,0.9611449674471635,-5.090245697223894,0.8924060350606182,84.833333333
510,5.106128029727175,-2.0994520356571242,-1.9934148888224565,0.9611449646604853,-5.090245716204657,0.8328016970485544,85.0
511,5.106128040056236,-2.099452060286999,-1.993414899215485,0.9611449614062776,-5.090245738369879,0.7631973590365083,85.166666666
512,5.106128040181833,-2.0994520986117835,-1.9934149046349,0.9611450025689665,-5.090245740489745,0.6835930364513088,85.333333333
513,5.106128039403072,-2.0994521425697736,-1.9934149102085572,0.961145052517884,-5.090245741026585,0.5939887178710309,85.5
514,5.1061280385261245,-2.0994521915121203,-1.9934149163355674,0.9611451083768611,-5.090245741527589,0.4943844090771517,85.666666666
515,5.106128025411073,-2.099452241998292,-1.9934149253340105,0.9611451678833469,-5.090245728372473,0.38478010959401876,85.833333333
516,5.10612800777351,-2.0994522961674957,-1.9934149357719382,0.961145232278624,-5.09024571025636,0.26517581768941073,86.0
517,5.1061279822935415,-2.099452351122159,-1.9934149479304768,0.9611452990674691,-5.090245684291968,0.13557153283257617,86.166666666
518,5.106127944359036,-2.0994524041513123,-1.9934149624224027,0.9611453660887843,-5.090245645905702,-0.00403274805534614,86.333333333
519,5.106127898097192,-2.099452455293715,-1.9934149783901915,0.9611454326183679,-5.090245599201279,-0.15363702639830018,86.5
520,5.106127838402932,-2.0994524993761106,-1.9934149962320407,0.9611454938411048,-5.09024553911096,-0.3132412980538137,86.666666666
521,5.106127769346858,-2.0994525333180767,-1.9934150147222909,0.9611455454974003,-5.090245469730933,-0.47955869265552087,86.833333333
522,5.106127698816974,-2.0994525570646303,-1.9934150322306627,0.961145585982635,-5.090245398956115,-0.6376967082310947,87.0
523,5.106127628593463,-2.099452563299743,-1.993415047468607,0.9611456067255862,-5.090245328625797,-0.7858347238066459,87.166666666
524,5.1061275620306485,-2.099452564952321,-1.9934150613755268,0.9611456216019028,-5.090245261995265,-0.9239727393821711,87.333333333
525,5.106127500593553,-2.09945255305249,-1.9934150725192472,0.9611456202431722,-5.090245200601371,-1.0521107549576652,87.5
526,5.106127444043818,-2.099452538024601,-1.993415082262843,0.9611456144126812,-5.090245144123484,-1.17024877053314,87.666666666
527,5.106127393841687,-2.099452519475419,-1.993415090256231,0.9611456033828429,-5.090245094026145,-1.2783867861086051,87.833333333
528,5.106127350983502,-2.0994524943452046,-1.9934150959086787,0.9611455835197312,-5.0902450513306015,-1.376524801684039,88.0
529,5.106127312492447,-2.099452471775694,-1.993415100985151,0.9611455656806143,-5.090245012985617,-1.4646628172594787,88.166666666
530,5.106127279606853,-2.099452450035789,-1.993415105012597,0.9611455476775921,-5.09024498024417,-1.5428008328349088,88.333333333
531,5.106127255119989,-2.0994524252206954,-1.9934151069239527,0.9611455245754605,-5.090244955932564,-1.610938848410341,88.5
532,5.1061272342268405,-2.0994524040474887,-1.9934151085547962,0.9611455048638198,-5.090244935188954,-1.6690768639857851,88.666666666
533,5.106127216927405,-2.0994523865161705,-1.9934151099051234,0.9611454885426678,-5.090244918013337,-1.7172148795612465,88.833333333
534,5.1061272032216865,-2.0994523726267387,-1.9934151109749387,0.9611454756120072,-5.090244904405714,-1.7553528951367139,89.0
535,5.106127193109683,-2.099452362379193,-1.993415111764243,0.9611454660718377,-5.090244894366086,-1.7834909107121717,89.166666666
536,5.106127186591396,-2.099452355773534,-1.9934151122730353,0.9611454599221595,-5.090244887894453,-1.8016289262876337,89.333333333
537,5.105698884191303,-2.1002289894827757,-1.9918979040781466,0.9604045885859509,-5.089817449244656,-1.8108177709169588,89.5
538,5.104094174530301,-2.1031388174063865,-1.9862133749500421,0.9576287747660414,-5.0882159759127745,-1.8114563972498794,89.666666666
539,5.103489296558573,-2.1042356535622906,-1.9840706422453978,0.9565824547258857,-5.087612319468276,-1.8032290277451388,89.833333333
540,5.10348930303756,-2.104235657559387,-1.9840706435939777,0.9565824512825083,-5.087612329424128,-1.7863613991690785,90.0
541,5.103489313357625,-2.1042356639261683,-1.984070645742066,0.9565824457977194,-5.087612345282324,-1.759493770593016,90.166666666
542,5.103489327518767,-2.104235672662634,-1.9840706486896622,0.956582438271519,-5.087612367042864,-1.7226261420169515,90.333333333
543,5.103489345520988,-2.104235683768785,-1.9840706524367662,0.956582428703907,-5.0876123947057454,-1.675758513440892,90.5
544,5.103489366648036,-2.1042356966454494,-1.9840706576001361,0.9565824149104899,-5.087612422183108,-1.6188909054521083,90.666666666
545,5.10348939138838,-2.104235711701249,-1.9840706637591587,0.9565823983809709,-5.087612453626731,-1.5520233001317842,90.833333333
546,5.10348942301013,-2.1042357304291426,-1.984070663206698,0.9565824022323945,-5.087612486735487,-1.4751557056585498,91.0
547,5.10348946049919,-2.1042357523763466,-1.9840706583756123,0.9565824191804544,-5.087612522477488,-1.3882881167660814,91.166666666
548,5.103489502291497,-2.1042357769458078,-1.9840706529040633,0.9565824384883284,-5.087612562228052,-1.2914205400968606,91.333333333
549,5.103489550906897,-2.1042357968524357,-1.984070645403036,0.9565824513152895,-5.087612609742024,-1.1845529701013682,91.5
550,5.1034896065026665,-2.104235811643886,-1.9840706357853115,0.9565824571146633,-5.08761266525745,-1.0676854082288334,91.666666666
551,5.103489666904212,-2.1042358256534683,-1.984070625077989,0.9565824610915048,-5.087612725601845,-0.9408178543602408,91.833333333
552,5.10348973244868,-2.104235824043843,-1.9840706113559654,0.9565824464340784,-5.087612791217045,-0.8039503061935973,92.0
553,5.103489802320812,-2.1042358205409686,-1.9840705965021224,0.956582428799035,-5.087612861178467,-0.6570827588641197,92.166666666
554,5.1034898718522825,-2.1042357971748467,-1.9840705792065356,0.956582388896983,-5.087612930953206,-0.5002152185135867,92.333333333
555,5.1034899418277755,-2.104235766174602,-1.9840705608539428,0.956582340324154,-5.087613001232922,-0.3342466124945189,92.5
556,5.103490001624078,-2.104235722083052,-1.9840705429452452,0.9565822790268916,-5.087613061428936,-0.173375508126265,92.666666666
557,5.103490049944711,-2.104235672877378,-1.9840705267566545,0.9565822142287337,-5.087613110180339,-0.02250440375804321,92.833333333
558,5.103490087986034,-2.1042356197687857,-1.984070512194593,0.9565821470570492,-5.087613148674869,0.11836670061013949,93.0
559,5.103490115610562,-2.10423556590929,-1.9840704996860214,0.9565820810829009,-5.087613176749908,0.2492378049783116,93.166666666
560,5.1034901333189495,-2.1042355115922184,-1.9840704891647754,0.9565820165379679,-5.087613194904197,0.37010890934643415,93.333333333
561,5.103490148397224,-2.1042354614594405,-1.9840704797151245,0.9565819572133677,-5.087613210392972,0.48098001371456117,93.5
562,5.103490149516908,-2.104235412501381,-1.9840704732929746,0.9565819019457142,-5.0876132119022275,0.5818511180826655,93.666666666
563,5.103490150525591,-2.1042353683968518,-1.9840704675074894,0.9565818521570963,-5.087613213261861,0.6727222224507665,93.833333333
564,5.103490151423272,-2.1042353291458498,-1.9840704623586716,0.9565818078475149,-5.0876132144718715,0.7535933268188733,94.0
565,5.1034901431472015,-2.1042352949709775,-1.9840704597438572,0.9565817710437042,-5.087613206460209,0.8244644311869622,94.166666666
566,5.1034901355258135,-2.1042352656308245,-1.9840704576054131,0.9565817395476984,-5.0876131990653946,0.8853355355550643,94.333333333
567,5.103490129156479,-2.1042352411107195,-1.984070455818273,0.9565817132259045,-5.087613192885412,0.9362066399231949,94.5
568,5.103490124039197,-2.1042352214106597,-1.9840704543824392,0.9565816920783231,-5.08761318792026,0.9770777442913277,94.666666666
569,5.103490120173969,-2.1042352065306464,-1.9840704532979132,0.9565816761049551,-5.087613184169941,1.0079488486594437,94.833333333
570,5.103490117560796,-2.104235196470679,-1.984070452564695,0.9565816653058006,-5.087613181634453,1.0288199530275715,95.0
571,5.1033718462440705,-2.1044530931814323,-1.9836444471439527,0.9563734782510537,-5.087495157529427,1.0400568349517898,95.166666666
572,5.101922277246826,-2.107123796847813,-1.9784231401170782,0.9538219146287057,-5.08604861797684,1.0434267769027754,95.333333333
573,5.100888721197462,-2.109028038514457,-1.9747002971158603,0.9520026252046254,-5.085017222312508,1.0372503260426085,95.5
574,5.100888723062254,-2.109028043355658,-1.9747002993091527,0.9520026243038445,-5.085017225037513,1.0231384596186857,95.666666666
575,5.100888726248481,-2.1090280516274493,-1.9747003030566637,0.9520026227647493,-5.085017229693521,0.9990265931947585,95.833333333
576,5.100888730756144,-2.109028063329829,-1.974700308358393,0.9520026205873398,-5.085017236280531,0.9649147267708273,96.0
577,5.100888736585242,-2.109028078462798,-1.9747003152143408,0.9520026177716158,-5.085017244798545,0.9208028603468921,96.166666666
578,5.100888744238238,-2.1090280972317843,-1.9747003233832374,0.9520026149457426,-5.085017259542731,0.8666910041747071,96.333333333
579,5.100888753656276,-2.1090281196127263,-1.9747003328933448,0.9520026120361396,-5.085017280009975,0.8025791546016137,96.5
580,5.100888759961396,-2.1090281494375183,-1.9747003413382966,0.9520026261870872,-5.085017294442838,0.7284673113637491,96.666666666
581,5.100888759241679,-2.109028190081064,-1.9747003465422381,0.9520026723518966,-5.085017294963717,0.6443554782673853,96.833333333
582,5.100888758426726,-2.109028235622641,-1.97470035230659,0.9520027242875502,-5.08501729546344,0.5502436538381421,97.0
583,5.100888753931621,-2.1090282850403943,-1.9747003593246422,0.9520027813022512,-5.085017291926077,0.4461318363658967,97.166666666
584,5.100888737313342,-2.1090283359607755,-1.9747003692002447,0.9520028419035246,-5.085017274858716,0.3320200277351955,97.333333333
585,5.100888719236535,-2.109028391341466,-1.9747003799433318,0.9520029078080339,-5.085017256276777,0.20790822869115183,97.5
586,5.100888685841082,-2.1090284430483033,-1.974700393403697,0.9520029725389808,-5.0850172224288785,0.07379643519133197,97.666666666
587,5.100888647163937,-2.109028496972054,-1.9747004082407298,0.9520030407902966,-5.085017183284731,-0.07031535708742948,97.833333333
588,5.100888593116125,-2.1090285418056443,-1.9747004251013411,0.9520031018377624,-5.0850171288321775,-0.2244271439167024,98.0
589,5.10088853220267,-2.1090285859345226,-1.974700443291621,0.9520031634417021,-5.085017067514454,-0.3885330848536518,98.166666666
590,5.10088846011971,-2.109028610112141,-1.9747004612594874,0.952003204798394,-5.085016995177405,-0.5521615557386728,98.333333333
591,5.100888391176401,-2.109028627945553,-1.9747004777734385,0.9520032384021567,-5.085016926033417,-0.7057900266236702,98.5
592,5.100888322816574,-2.1090286296056946,-1.9747004921148454,0.9520032536992101,-5.08501685760283,-0.8494184975086312,98.666666666
593,5.1008882593021765,-2.1090286273943173,-1.9747005049634494,0.9520032636895661,-5.0850167940527315,-0.9830469683935756,98.833333333
594,5.100888200849271,-2.109028611869242,-1.9747005150766512,0.9520032577099979,-5.085016735674928,-1.1066754392784814,99.0
595,5.100888147124473,-2.1090285975999548,-1.9747005243718119,0.9520032522140973,-5.085016682019155,-1.2203039101633666,99.166666666
596,5.100888101553986,-2.1090285740899266,-1.974700530808996,0.9520032347220347,-5.085016636598505,-1.3239323810482462,99.333333333
597,5.100888061165607,-2.1090285504448163,-1.974700536157838,0.9520032160599727,-5.085016596365399,-1.4175608519331193,99.5
598,5.100888025090913,-2.1090285293251267,-1.9747005409353924,0.9520031993911124,-5.085016560429394,-1.5011893228179745,99.666666666
599,5.100887996993474,-2.1090285056230327,-1.9747005437363234,0.9520031782503267,-5.085016532498018,-1.5748177937028425,99.833333333
600,5.100887974406704,-2.109028482777499,-1.9747005455068105,0.9520031569904197,-5.0850165100750875,-1.638446264587699,100.0
601,5.100887955369723,-2.1090284635224243,-1.9747005469990417,0.9520031390717689,-5.085016491176198,-1.6920747354725831,100.166666666
602,5.100887939882533,-2.109028447857808,-1.9747005482130175,0.9520031244943742,-5.085016475801348,-1.735703206357484,100.333333333
603,5.100887927945132,-2.109028435783649,-1.9747005491487402,0.9520031132582367,-5.085016463950538,-1.7693316772423677,100.5
604,5.100887919557521,-2.109028427299947,-1.9747005498062098,0.9520031053633567,-5.085016455623769,-1.7929601481272563,100.666666666
605,5.1008874401708635,-2.1090293107305333,-1.9746988122037163,0.9520022508518788,-5.085015977299608,-1.8065893726129376,100.833333333
606,5.099791216029134,-2.11108136517069,-1.9706840200670293,0.9500388201899067,-5.083922126504442,-1.8124100916586314,101.0
607,5.098404533880574,-2.1136771477017176,-1.9656054448107925,0.9475551488990688,-5.082538447352692,-1.8085841327266643,101.166666666
608,5.0983221737171265,-2.113831331538581,-1.9653037945988876,0.9474076244964497,-5.082456267922188,-1.7969843721971244,101.333333333
609,5.098322181816996,-2.113831336532773,-1.9653037962942708,0.9474076202205537,-5.082456280459124,-1.775651052645387,101.5
610,5.098322193713681,-2.113831343867994,-1.9653037987843651,0.9474076139403304,-5.082456298872753,-1.744317733093662,101.666666666
611,5.098322209407183,-2.113831353544243,-1.9653038020691709,0.9474076056557795,-5.082456323163074,-1.7029844135419203,101.833333333
612,5.098322228648657,-2.1138313653479566,-1.9653038063698625,0.9474075945843392,-5.082456351192185,-1.6516511017092437,102.0
613,5.098322251089892,-2.113831378980288,-1.9653038119959336,0.9474075796309512,-5.08245637996847,-1.5903178053972082,102.166666666
614,5.098322277668113,-2.1138313950480514,-1.9653038173776662,0.9474075656863477,-5.08245641294014,-1.5189845108373523,102.333333333
615,5.098322312343423,-2.1138314153136433,-1.965303812893008,0.947407581301394,-5.082456445995387,-1.437651230879574,102.5
616,5.098322351276994,-2.1138314381093215,-1.9653038078227563,0.94740759900066,-5.082456483070741,-1.3463179560906477,102.666666666
617,5.098322394465347,-2.1138314634613042,-1.9653038021435687,0.9474076188963029,-5.082456524136129,-1.2449846889780911,102.833333333
618,5.098322446620884,-2.113831477835946,-1.9653037931490325,0.9474076248559804,-5.082456576135777,-1.1336514332035765,103.0
619,5.098322503638534,-2.1138314929986417,-1.965303783242921,0.9474076307585797,-5.082456633077522,-1.01231818470275,103.166666666
620,5.098322565588992,-2.113831499226606,-1.9653037711894696,0.9474076256000421,-5.082456695033738,-0.8809849427214638,103.333333333
621,5.098322632446388,-2.1138314976216193,-1.965303757133054,0.9474076106289202,-5.08245676196449,-0.7396517037239171,103.5
622,5.098322701154913,-2.1138314848451665,-1.9653037412711116,0.9474075827223543,-5.082456830836266,-0.5883184684175803,103.666666666
623,5.0983227717926445,-2.113831461197203,-1.9653037236255477,0.947407542202786,-5.082456901724817,-0.42698523956559026,103.833333333
624,5.098322835656423,-2.1138314216953766,-1.9653037053653866,0.9474074851774525,-5.0824569659615735,-0.26122455972149955,104.0
625,5.098322893081345,-2.1138313794781594,-1.9653036880936232,0.9474074263644997,-5.082457023775916,-0.10482123165897192,104.166666666
626,5.098322932727597,-2.1138313257047816,-1.9653036730344253,0.947407358048679,-5.0824570638896995,0.041582096403530236,104.333333333
627,5.0983229691112415,-2.1138312750439514,-1.9653036590473953,0.9474072938777157,-5.082457100712993,0.17798542446600774,104.5
628,5.098322988466385,-2.113831219695777,-1.9653036479918473,0.9474072277853772,-5.082457120531122,0.30438875252846004,104.666666666
629,5.098323005310282,-2.1138311681529802,-1.9653036379409892,0.9474071664695645,-5.082457137805171,0.4207920805908878,104.833333333
630,5.098323013365389,-2.113831119088606,-1.9653036300265643,0.9474071096732326,-5.082457146262961,0.5271954086532984,105.0
631,5.098323014420716,-2.1138310729777054,-1.9653036239383779,0.9474070575786634,-5.08245714769119,0.6235987367156959,105.166666666
632,5.0983230153665735,-2.113831031649932,-1.965303618481718,0.9474070108879069,-5.082457148971268,0.7100020647780902,105.333333333
633,5.098323012365743,-2.113830995197411,-1.965303614463354,0.9474069704602271,-5.082457146261971,0.7864053928404897,105.5
634,5.098323004151933,-2.113830963650546,-1.9653036121495189,0.9474069365791831,-5.082457138295685,0.8528087209028864,105.666666666
635,5.098322997175081,-2.1138309368544776,-1.9653036101841348,0.94740690780045,-5.08245713152908,0.9092120489652911,105.833333333
636,5.098322991435186,-2.1138309148092063,-1.9653036085671998,0.9474068841240268,-5.082457125962157,0.9556153770277181,106.0
637,5.098322986932248,-2.11383089751473,-1.9653036072987171,0.9474068655499152,-5.082457121594916,0.992018705090157,106.166666666
638,5.098322983666268,-2.1138308849710494,-1.9653036063786868,0.9474068520781149,-5.0824571184273575,1.018422033152572,106.333333333
639,5.098322981637247,-2.113830877178164,-1.965303605807109,0.9474068437086262,-5.082457116459479,1.0348253612149845,106.5
640,5.0976792175844885,-2.1150552249727825,-1.9629064641587135,0.9462336621325778,-5.081814795796978,1.042716511005388,106.666666666
641,5.096150298916735,-2.1179630249740424,-1.9572133225169135,0.9434473986516517,-5.080289305190181,1.0416472434293287,106.833333333
642,5.095792271399231,-2.11864395115748,-1.9558801540843467,0.9427949354954077,-5.0799320810079776,1.0321520784246236,107.0
643,5.0957922738274295,-2.1186439574282447,-1.9558801569503736,0.9427949343254283,-5.079932084628338,1.013615586777812,107.166666666
644,5.095792277565586,-2.1186439670819404,-1.955880161362554,0.942794932524273,-5.0799320902017975,0.9850790951309754,107.333333333
645,5.095792282613697,-2.1186439801185655,-1.9558801673208888,0.9427949300919418,-5.079932097728357,0.9465426034841344,107.5
646,5.095792289010242,-2.1186439965545256,-1.9558801748061416,0.9427949270793982,-5.0799321075404675,0.8980061126488346,107.666666666
647,5.095792297523525,-2.1186440167173934,-1.955880183434205,0.942794924504319,-5.079932126276727,0.8394696368904833,107.833333333
648,5.095792307491166,-2.1186440403247584,-1.9558801935362322,0.9427949214893298,-5.0799321482137705,0.7709331611321708,108.0
649,5.095792308837005,-2.1186440760081338,-1.9558801994783281,0.9427949563709523,-5.079932152793874,0.6923966989526402,108.166666666
650,5.095792308086318,-2.1186441181875573,-1.9558802048999064,0.942795004364298,-5.079932153318968,0.6038602411779975,108.333333333
651,5.095792307237962,-2.1186441652170607,-1.9558802108569968,0.9427950581472954,-5.079932153791419,0.5053237946372537,108.5
652,5.095792296095215,-2.118644214185243,-1.9558802193364673,0.9427951157355869,-5.079932142793979,0.39678735615807803,108.666666666
653,5.09579227904301,-2.118644266308894,-1.9558802295152256,0.9427951778361543,-5.079932125267252,0.2782509254813676,108.833333333
654,5.095792256070134,-2.11864432020254,-1.955880241155091,0.9427952430816462,-5.079932101800662,0.1497145022501187,109.0
655,5.095792219342368,-2.1186443712751597,-1.9558802553061843,0.9427953078221827,-5.079932064622973,0.011178083700099994,109.166666666
656,5.095792176127794,-2.1186444221617364,-1.9558802707807237,0.9427953736336021,-5.079932020955267,-0.13735833294507177,109.333333333
657,5.0957921182738195,-2.1186444646316613,-1.9558802882201989,0.9427954328612672,-5.079931962706241,-0.2958947428051521,109.5
658,5.0957920521053435,-2.118644499677572,-1.95588030643825,0.9427954853728568,-5.079931896195909,-0.46225277746213445,109.666666666
659,5.095791982824384,-2.118644522827207,-1.955880323783322,0.9427955251071596,-5.079931826667107,-0.6214545781050178,109.833333333
660,5.095791914377167,-2.1186445310262223,-1.9558803390457782,0.9427955478469386,-5.079931758094347,-0.7706563787480137,110.0
661,5.095791848928265,-2.1186445325787684,-1.9558803528366564,0.9427955625129523,-5.0799316925765305,-0.9098581793911598,110.166666666
662,5.095791788438996,-2.1186445227567168,-1.955880364144767,0.942795563395615,-5.079931632115117,-1.0390599800344456,110.333333333
663,5.095791732762475,-2.1186445079747602,-1.9558803738198827,0.9427955577449554,-5.0799315765109245,-1.158261780677835,110.5
664,5.0957916828265395,-2.1186444911630993,-1.9558803820435455,0.942795548676371,-5.079931526668761,-1.2674635813213855,110.666666666
665,5.095791640552402,-2.118644466449705,-1.955880387666799,0.9427955292004997,-5.079931484559248,-1.3666653819649752,110.833333333
666,5.095791602539691,-2.1186444442275363,-1.9558803927231965,0.9427955116878834,-5.079931446694566,-1.4558671826087002,111.0
667,5.095791569402622,-2.118644423642475,-1.9558803969760967,0.9427954950558088,-5.079931413696405,-1.5350689832524589,111.166666666
668,5.095791545134649,-2.118644399141264,-1.9558803988868825,0.9427954722647327,-5.0799313896068155,-1.6042707838962955,111.333333333
669,5.095791524373518,-2.118644378180598,-1.9558804005215507,0.9427954527670792,-5.079931368998289,-1.6634725845401719,111.5
670,5.095791507119227,-2.118644360760479,-1.9558804018800973,0.942795436562846,-5.079931351870828,-1.7126743851840724,111.666666666
671,5.095791493371777,-2.118644346880905,-1.955880402962526,0.9427954236520355,-5.079931338224428,-1.7518761858280003,111.833333333
672,5.095791483131169,-2.1186443365418763,-1.955880403768838,0.9427954140346477,-5.079931328059094,-1.781077986471911,112.0
673,5.095791476397403,-2.118644329743393,-1.9558804042990325,0.942795407710683,-5.079931321374824,-1.8002797871158052,112.166666666
674,5.095516566279599,-2.1191755078844086,-1.954839672125932,0.9422856961966882,-5.079657049370072,-1.810272973903496,112.333333333
675,5.094029810261468,-2.1220482545331234,-1.949211162280645,0.9395290811813058,-5.078173744386828,-1.8120180028457857,112.5
676,5.093294997067097,-2.1234680866839204,-1.9464293206571102,0.9381666470922737,-5.077440638329909,-1.8046336006829506,112.666666666
677,5.0932950029666975,-2.1234680903195087,-1.9464293218988493,0.9381666439993512,-5.0774406475280305,-1.7889161761823194,112.833333333
678,5.093295012619841,-2.1234680962681916,-1.9464293239306283,0.9381666389385986,-5.077440662578334,-1.7631987516816998,113.0
679,5.093295026026524,-2.123468104529969,-1.9464293267524475,0.9381666319100159,-5.077440683480819,-1.7274813271810356,113.166666666
680,5.093295043186752,-2.123468115104841,-1.9464293303643063,0.9381666229136028,-5.077440710235486,-1.6817639026803977,113.333333333
681,5.093295063511397,-2.123468127473992,-1.9464293353068265,0.9381666100392247,-5.077440737726891,-1.6260464957969174,113.5
682,5.0932950872931455,-2.1234681418951755,-1.946429341311422,0.938166594235853,-5.077440768496437,-1.560329094153301,113.666666666
683,5.093295117207068,-2.123468159626661,-1.9464293420436727,0.9381665942156201,-5.077440801122428,-1.4846117013890194,113.833333333
684,5.093295153313146,-2.1234681806950775,-1.9464293373559571,0.9381666104125541,-5.077440835537435,-1.3988943160129028,114.0
685,5.093295193620435,-2.123468204302415,-1.9464293320484338,0.9381666288463109,-5.077440873871119,-1.3031769414840708,114.166666666
686,5.093295240031386,-2.12346822497563,-1.9464293250552989,0.9381666428841662,-5.077440918965357,-1.1974595737663694,114.333333333
687,5.093295293752659,-2.1234682392572037,-1.9464293156800414,0.9381666484008666,-5.077440972604225,-1.0817422143948798,114.5
688,5.093295352118415,-2.1234682547737274,-1.9464293054936583,0.9381666543965831,-5.077441030896081,-0.9560248634519166,114.666666666
689,5.093295415543253,-2.1234682533226144,-1.9464292921031583,0.9381666402132663,-5.077441094391362,-0.8203075189753987,114.833333333
690,5.09329548364225,-2.123468251726908,-1.9464292777212462,0.9381666249415355,-5.077441162566323,-0.6745901748206699,115.0
691,5.093295551151138,-2.123468229853557,-1.9464292608634888,0.9381665869511185,-5.07744123031334,-0.5188728374284788,115.166666666
692,5.09329562051407,-2.1234682022187577,-1.9464292428813779,0.9381665421055992,-5.0774412999631044,-0.3534977936755589,115.333333333
693,5.093295679280413,-2.1234681591423503,-1.9464292251264785,0.9381664819672497,-5.0774413591336724,-0.19148066851750212,115.5
694,5.093295728516166,-2.1234681127698156,-1.9464292089333464,0.9381664200027103,-5.0774414087923825,-0.03946354335932823,115.666666666
695,5.093295765937999,-2.1234680607979084,-1.9464291944821914,0.9381663540699677,-5.077441446672794,0.10255358179898222,115.833333333
696,5.093295794945575,-2.123468009109348,-1.946429181819111,0.9381662901211902,-5.077441476129309,0.23457070695745968,116.0
697,5.093295812386726,-2.1234679558626453,-1.946429171364374,0.9381662267062846,-5.077441494022112,0.35658783211604556,116.166666666
698,5.093295828398475,-2.1234679069798177,-1.9464291617664549,0.9381661684885905,-5.077441510448498,0.4686049572747322,116.333333333
699,5.093295829979721,-2.123467859009606,-1.9464291552897905,0.9381661141539235,-5.077441512424349,0.5706220824335613,116.5
700,5.093295830973313,-2.123467815626716,-1.9464291495233395,0.9381660651015551,-5.07744151377443,0.6626392075924411,116.666666666
701,5.093295831858927,-2.1234677769584818,-1.9464291443835575,0.9381660213799724,-5.0774415149777905,0.7446563327514255,116.833333333
702,5.093295824810035,-2.123467743188312,-1.9464291415233625,0.9381659847443149,-5.077441508199594,0.8166734579104429,117.0
703,5.093295817230354,-2.1234677141427043,-1.9464291393791342,0.9381659535342615,-5.077441500851416,0.8786905830695219,117.166666666
704,5.093295810872864,-2.123467689780579,-1.9464291375806513,0.9381659273566967,-5.0774414946881015,0.930707708228636,117.333333333
705,5.093295805737567,-2.1234676701019364,-1.9464291361279158,0.938165906211621,-5.077441489709649,0.9727248333877667,117.5
706,5.0932958018244605,-2.1234676551067753,-1.9464291350209284,0.9381658900990353,-5.07744148591606,1.0047419585469017,117.666666666
707,5.093295799133546,-2.1234676447950953,-1.9464291342596896,0.9381658790189392,-5.077441483307333,1.026759083705999,117.833333333
708,5.09325500683133,-2.123547711901413,-1.9462721398079559,0.938088929494831,-5.07740078903645,1.0389192379133017,118.0
709,5.091999167011815,-2.1260129355157042,-1.9414387166165428,0.9357200472114753,-5.076147965957278,1.0434073947657914,118.166666666
710,5.090844335942758,-2.128279884158514,-1.9369940480165004,0.9335416965883666,-5.07499590932908,1.0381611584274915,118.333333333
711,5.090832972954844,-2.128302197429359,-1.936950310140446,0.9335202586991157,-5.074984574515306,1.025238603767375,118.5
712,5.0908329759263715,-2.1283022050631857,-1.9369503136608428,0.9335202572713015,-5.074984579035126,1.0023578625849296,118.666666666
713,5.090832980196602,-2.128302216033367,-1.9369503187198247,0.9335202552194626,-5.074984585530327,0.9694771214024516,118.833333333
714,5.0908329857655366,-2.1283022303399033,-1.9369503253173916,0.9335202525435992,-5.0749845940009095,0.9265963802199765,119.0
715,5.090832993013108,-2.128302248151641,-1.936950333255757,0.9335202497759908,-5.074984607764835,0.873715645522191,119.166666666
716,5.090833002068132,-2.1283022695258276,-1.9369503424678634,0.9335202470971009,-5.074984627947023,0.8108349176933871,119.333333333
717,5.090833009539488,-2.128302296871565,-1.9369503514453454,0.933520255443138,-5.074984645088527,0.7379541941446297,119.5
718,5.090833008846152,-2.1283023357876014,-1.9369503564889776,0.9335202997368655,-5.0749846455857375,0.6550734826555972,119.666666666
719,5.090833008061224,-2.128302379450985,-1.9369503620942572,0.9335203495979364,-5.074984646073154,0.5621927783296851,119.833333333
720,5.090833005463573,-2.128302427380716,-1.9369503685890475,0.9335204047355565,-5.0749846446118765,0.459312081133699,120.0
721,5.090832989422578,-2.1283024763042464,-1.9369503782087114,0.9335204630928204,-5.074984628124603,0.3464313942143238,120.166666666
722,5.0908329719586884,-2.128302529560111,-1.936950388682389,0.9335205266133385,-5.074984610160696,0.2235507157135877,120.333333333
723,5.090832941581735,-2.1283025804238265,-1.9369504015576586,0.9335205899587742,-5.07498457932055,0.09067004321687433,120.5
724,5.090832904159106,-2.1283026323294556,-1.9369504160435043,0.9335206558577069,-5.074984541433258,-0.0522106272409342,120.666666666
725,5.090832853654984,-2.128302677323443,-1.9369504323705056,0.9335207165658002,-5.074984490512101,-0.20509129302869158,120.833333333
726,5.090832794931165,-2.1283027203057734,-1.9369504501541777,0.9335207766385949,-5.074984431381586,-0.367971952541866,121.0
727,5.090832725248604,-2.128302745893463,-1.9369504679882406,0.9335208192882972,-5.074984361426322,-0.5327299412137633,121.166666666
728,5.090832658068153,-2.1283027657544697,-1.9369504845636578,0.933520854989938,-5.074984294022673,-0.6875854286824779,121.333333333
729,5.0908325907791765,-2.1283027673111947,-1.9369504988079382,0.9335208700913256,-5.074984226661638,-0.8324409161513227,121.5
730,5.090832528170543,-2.1283027672288446,-1.9369505118645869,0.9335208824177044,-5.074984163998604,-0.9672964036203139,121.666666666
731,5.090832470553258,-2.128302751935041,-1.9369505219234036,0.9335208766166245,-5.074984106456991,-1.0921518910894623,121.833333333
732,5.090832417550688,-2.1283027378661616,-1.9369505311765751,0.9335208712801637,-5.074984053524034,-1.207007378558704,122.0
733,5.090832372012235,-2.1283027163332036,-1.9369505379120664,0.9335208560540074,-5.074984008123431,-1.311862866028064,122.166666666
734,5.090832332074959,-2.128302693017042,-1.9369505432492122,0.9335208377078178,-5.074983968343666,-1.4067183534975227,122.333333333
735,5.090832296348012,-2.128302672158955,-1.9369505480236924,0.933520821295746,-5.074983932757624,-1.49157384096705,122.5
736,5.090832267770711,-2.1283026496820168,-1.9369505510977787,0.9335208016416464,-5.074983904340893,-1.56642932843666,122.666666666
737,5.090832245299312,-2.128302627033933,-1.9369505528754778,0.9335207805835574,-5.07498388203685,-1.631284815906302,122.833333333
738,5.090832226292755,-2.1283026078779343,-1.9369505543790744,0.9335207627723923,-5.074983863171845,-1.6861403033759905,123.0
739,5.090832210751039,-2.1283025922140206,-1.936950555608567,0.9335207482081511,-5.074983847745877,-1.730995790845705,123.166666666
740,5.090832198674164,-2.1283025800421913,-1.9369505565639589,0.9335207368908349,-5.074983835758944,-1.765851278315424,123.333333333
741,5.090832190062132,-2.128302571362446,-1.9369505572452501,0.933520728820444,-5.07498382721105,-1.790706765785119,123.5
742,5.090832184914941,-2.128302566174785,-1.9369505576524404,0.9335207239969784,-5.074983822102193,-1.8055622532548112,123.666666666
743,5.089986993145929,-2.129988073273737,-1.9336436165775484,0.9318988549006859,-5.074140730879679,-1.8123265237494435,123.833333333
744,5.088583165289733,-2.1327876435878252,-1.9281509079485009,0.9292049924544056,-5.072740392537546,-1.8097491903551783,124.0
745,5.088402250559723,-2.1331484410129256,-1.9274430350455232,0.9288578185345521,-5.072559929685889,-1.7991480145928043,124.166666666
746,5.088402257990479,-2.133148445589615,-1.9274430366183646,0.9288578146659809,-5.072559941356646,-1.779125700790467,124.333333333
747,5.088402269132473,-2.133148452452098,-1.92744303897675,0.9288578088652798,-5.072559958856276,-1.74910338698812,124.5
748,5.088402283985704,-2.133148461600375,-1.92744304212068,0.9288578011324488,-5.072559982184782,-1.709081073185764,124.666666666
749,5.088402302408229,-2.1331484729061523,-1.9274430461846777,0.9288577909930548,-5.072560010096603,-1.6590587637575471,124.833333333
750,5.0884023238935265,-2.1331484859116125,-1.9274430516487895,0.9288577767540849,-5.072560038146964,-1.5990364716827201,125.0
751,5.088402348958376,-2.133148501083844,-1.9274430580232482,0.9288577601428347,-5.072560070870649,-1.5290141796079328,125.166666666
752,5.088402382150159,-2.133148520439205,-1.9274430539684242,0.9288577741908375,-5.072560102753501,-1.4489919033217795,125.333333333
753,5.088402419615857,-2.1331485422956424,-1.927443049061179,0.9288577910422379,-5.072560138432905,-1.3589696309322896,125.5
754,5.088402461233531,-2.1331485666508208,-1.927443043544364,0.9288578100696485,-5.072560177988597,-1.258947367973004,125.666666666
755,5.0884025109544195,-2.133148582193978,-1.927443035137667,0.9288578177235878,-5.072560227280367,-1.1489251148150785,125.833333333
756,5.088402566009752,-2.1331485968281907,-1.9274430254834594,0.9288578233336664,-5.072560282257333,-1.028902869200304,126.0
757,5.088402625825982,-2.133148605136742,-1.9274430140252452,0.928857820842494,-5.0725603420600756,-0.8988806305848644,126.166666666
758,5.088402690481388,-2.1331486036605085,-1.9274430003055403,0.9288578063203348,-5.072560406788771,-0.7588583958161523,126.333333333
759,5.08840275764339,-2.1331485940079578,-1.9274429850063335,0.9288577820840936,-5.072560474093116,-0.6088361639457119,126.5
760,5.088402826032425,-2.133148571287001,-1.9274429677639486,0.928857742874941,-5.072560542732187,-0.44881393865406427,126.666666666
761,5.088402890033795,-2.1331485354436666,-1.927442949746338,0.9288576897485599,-5.07256060708897,-0.28258141361819406,126.833333333
762,5.088402946552864,-2.133148494135282,-1.9274429325891695,0.9288576319507413,-5.072560664002319,-0.12487129479382408,127.0
763,5.088402987540366,-2.133148443414482,-1.9274429174674212,0.9288575666332726,-5.072560705448661,0.022838824030662834,127.166666666
764,5.0884030233919235,-2.133148393749842,-1.927442903556656,0.9288575035275767,-5.072560741745693,0.16054894285535362,127.333333333
765,5.088403044525586,-2.13314834062347,-1.9274428922789286,0.9288574394472718,-5.072560763340565,0.2882590616801116,127.5
766,5.088403061148263,-2.1331482899905874,-1.927442882266889,0.9288573790744297,-5.072560780399673,0.4059691805050454,127.666666666
767,5.088403070938139,-2.1331482422204493,-1.9274428740540328,0.9288573232869838,-5.072560790596063,0.5136792993300544,127.833333333
768,5.088403071979019,-2.133148196804456,-1.927442867975701,0.9288572718927915,-5.072560792016066,0.6113894181551712,128.0
769,5.088403072913371,-2.1331481560365,-1.927442862519441,0.9288572257584604,-5.072560793290741,0.6990995369803925,128.166666666
770,5.088403071237862,-2.1331481199737445,-1.927442858216464,0.9288571854462755,-5.072560791914051,0.7768096558057744,128.333333333
771,5.0884030630601975,-2.133148088705075,-1.9274428558927097,0.9288571518304984,-5.0725607839894975,0.8445197746311748,128.5
772,5.0884030560902795,-2.1331480620544254,-1.9274428539121466,0.9288571231793818,-5.072560777235309,0.9022298934565629,128.666666666
