Miguel-LA/TFM_MiguelLerinAlonso/workspace/ros_ur_driver/src/trayectories/data/saved_trajectories/20240615_2019_trajectory.csv
,shoulder_pan_joint,shoulder_lift_joint,elbow_joint,wrist_1_joint,wrist_2_joint,wrist_3_joint,time_from_start
0,-1.3915922885557466,-2.044431120891159,-1.8686842408665896,-2.284958518210174,-1.7351620627182371,-7.328639035113156e-05,0.0
1,-1.3911828061640885,-2.043831691798413,-1.8686645455621982,-2.286476690715985,-1.7344111406765783,-0.00507328639035112,1.25
2,-1.3899543589891137,-2.0420334045201747,-1.8686054596490238,-2.2910312082334165,-1.732158374551601,-0.020073286390351122,2.5
3,-1.3879069470308223,-2.0390362590564437,-1.8685069831270664,-2.2986220707624696,-1.7284037643433057,-0.045073286390351186,3.75
4,-1.3850405702892146,-2.0348402554072207,-1.8683691159963263,-2.309249278303144,-1.723147310051692,-0.08007328639035106,5.0
5,-1.3813245422788043,-2.029451085422239,-1.8681924672601151,-2.3228358976048646,-1.7162033228862397,-0.12507325134304356,6.25
6,-1.37668601718262,-2.0228822577059424,-1.8679784824862344,-2.3391993106763938,-1.707131009241876,-0.180073121176824,7.5
7,-1.371066417302255,-2.0151446363426744,-1.8677283241595533,-2.3581926632522876,-1.6955759090824447,-0.24507283740785,8.75
8,-1.3643995758855834,-2.0062470041947895,-1.8674579611632605,-2.379566486710041,-1.6811658205639857,-0.3200723609285637,10.0
9,-1.356606461478782,-1.9961979110143744,-1.8671946188148447,-2.402976317262075,-1.663471850068973,-0.4050716622437496,11.25
10,-1.3476066619505205,-1.9850070790742316,-1.866972213378274,-2.4280110399262376,-1.6420710531887521,-0.5000706671765243,12.5
11,-1.3373132480771335,-1.972683836870808,-1.8668424315938743,-2.4541173147965223,-1.6165360143956982,-0.6050693355875786,13.75
12,-1.3256523518160392,-1.959241138399907,-1.8668724476709164,-2.480601231561667,-1.5865457387760096,-0.7200676282100431,15.0
13,-1.3125590493739787,-1.9446972687290616,-1.8671380658108019,-2.5066710954986857,-1.551841833529155,-0.8450654941217662,16.25
14,-1.2979996421059856,-1.9290792863690125,-1.8677321933180018,-2.531368741579566,-1.5123697262493592,-0.9800629106690143,17.5
15,-1.2819875046571598,-1.9124268199365373,-1.868758189617515,-2.553618752934972,-1.4683437147305984,-1.1250598740954167,18.75
16,-1.2653029748476254,-1.8955028842416213,-1.870254407770111,-2.5716137489634763,-1.4222549890291845,-1.2737788360258742,20.0
17,-1.2495921590034047,-1.87983240442882,-1.8720782922203694,-2.5839047914788194,-1.379064376905963,-1.4129289196212738,21.25
18,-1.2350432216962186,-1.865445251432997,-1.8741460776210284,-2.591355791109029,-1.3395819212120574,-1.5420793589452513,22.5
19,-1.2217385215926502,-1.8523139866494978,-1.8763749400461476,-2.59490075896339,-1.3041744266096547,-1.661232788146862,23.75
20,-1.2097065495095167,-1.8404077285999056,-1.8786842085998687,-2.5954173365728925,-1.2729190034704296,-1.770387961716721,25.0
21,-1.1989516517450445,-1.8296959988873647,-1.8809988634222898,-2.593706664754094,-1.2457705316460639,-1.8695442673913643,26.25
22,-1.1894497189672777,-1.8201487329882189,-1.8832477399527994,-2.5905002442566927,-1.2225353222466668,-1.958701633308002,27.5
23,-1.1811587048553607,-1.8117418669308913,-1.8853692162484523,-2.586408792444137,-1.2028917906542034,-2.037883072598535,28.75
24,-1.1757214706490533,-1.8062151107844129,-1.8867888578083878,-2.5834946164122603,-1.1901223861443544,-2.1138243390553604,30.0
25,-1.1744361653658295,-1.8049088552098869,-1.8871242928365033,-2.582806033612653,-1.1871041526609805,-2.191106102080948,31.25
26,-1.1744362329547202,-1.8049092358774033,-1.8871240413719788,-2.5828065500042636,-1.1871047300721256,-2.2754782718405084,32.5
27,-1.1744362967382556,-1.804909671121301,-1.8871237320684682,-2.58280723330639,-1.1871052755516143,-2.3698504324003986,33.75
28,-1.1744363067191605,-1.8049097824720197,-1.8871236922802885,-2.5828073355278756,-1.18710535486839,-2.4742225839548455,35.0
29,-1.17443630348294,-1.804909819683069,-1.8871237187498098,-2.582807293874101,-1.1871053193136079,-2.5885947281514126,36.25
30,-1.1744363066595263,-1.8049098577134064,-1.8871237513586405,-2.5828072366014094,-1.1871052966746867,-2.7129668640802844,37.5
31,-1.1744363264720483,-1.804909893854633,-1.8871237929754576,-2.5828071576838365,-1.1871053163198337,-2.847338991835623,38.75
32,-1.1744363519285734,-1.804909930910065,-1.8871238371713661,-2.58280707549838,-1.1871053419778461,-2.991711110818344,40.0
33,-1.1744363942751097,-1.8049099641050717,-1.887123882344338,-2.5828069978309918,-1.187105385005472,-3.146083223003316,41.25
34,-1.1744364461901513,-1.8049099946966984,-1.8871239279649195,-2.582806922472021,-1.1871054375606318,-3.310455332024642,42.5
35,-1.1744365115439206,-1.8049100193801535,-1.887123972045835,-2.5828068547565763,-1.1871055034465736,-3.4833323747858023,43.75
36,-1.1744365832967427,-1.804910033135243,-1.8871240075654632,-2.5828068065926875,-1.1871055755716924,-3.6499712744445234,45.0
37,-1.1744366539700528,-1.804910042366811,-1.8871240383854389,-2.5828067676220163,-1.18710564654322,-3.8066101741032417,46.25
38,-1.174436725159885,-1.8049100388333321,-1.8871240570470993,-2.5828067535456896,-1.1871057178302578,-3.95324907376195,47.5
39,-1.1744367918101941,-1.804910034777494,-1.8871240737972368,-2.582806741834021,-1.1871057845597361,-4.089887973420652,48.75
40,-1.1744368532466962,-1.8049100210976672,-1.8871240796436086,-2.582806750544645,-1.187105845911736,-4.216526873079356,50.0
41,-1.1744369098007854,-1.8049100075796398,-1.8871240841323758,-2.582806760378703,-1.18710590237338,-4.33316577273806,51.25
42,-1.1744369592801276,-1.8049099911680662,-1.887124083635391,-2.5828067779781927,-1.187105951699217,-4.439804672396765,52.5
43,-1.1744370020587014,-1.8049099725437563,-1.8871240789255967,-2.5828068018969006,-1.1871059942748146,-4.536443572055471,53.75
44,-1.1744370404106357,-1.8049099558466573,-1.8871240747031561,-2.5828068233405492,-1.1871060324447762,-4.623082471714176,55.0
45,-1.1744370722229933,-1.8049099394199555,-1.8871240687141446,-2.5828068461835914,-1.1871060640653734,-4.699721371372883,56.25
46,-1.1744370965196247,-1.804909922498227,-1.8871240599172743,-2.582806872215975,-1.187106088146231,-4.766360271031591,57.5
47,-1.174437117170243,-1.8049099081158158,-1.8871240524404835,-2.582806894341875,-1.1871061086134551,-4.822999170690298,58.75
48,-1.1744371341748487,-1.8049098962727232,-1.8871240462837702,-2.5828069125612907,-1.187106125467046,-4.869638070349001,60.0
49,-1.174437147533441,-1.8049098869689475,-1.8871240414471382,-2.582806926874222,-1.1871061387070037,-4.906276970007708,61.25
50,-1.1744371572460195,-1.804909880204488,-1.8871240379305874,-2.5828069372806683,-1.1871061483333267,-4.932915869666413,62.5
51,-1.174437163312585,-1.804909875979345,-1.8871240357341177,-2.5828069437806294,-1.1871061543460162,-4.949554769325118,63.75
52,-1.1751413767342922,-1.806672251658482,-1.884823249862012,-2.583350500173722,-1.1878093888600474,-4.957529588612146,65.0
53,-1.1767799519199076,-1.810772998762627,-1.8794697232144397,-2.584615254767303,-1.189445686921269,-4.956370286787743,66.25
54,-1.1771428370499526,-1.811681176323746,-1.8782841007990931,-2.584895355716175,-1.189808070529298,-4.946585634465542,67.5
55,-1.1771428309581107,-1.8116811817886287,-1.8782841009624984,-2.5848953582529584,-1.189808070071226,-4.927621510876568,68.75
56,-1.1771428216539708,-1.8116811901352068,-1.878284101212069,-2.5848953621274164,-1.189808069371607,-4.898657387287592,70.0
57,-1.177142809137533,-1.8116812013634802,-1.8782841015478051,-2.5848953673395494,-1.189808068430442,-4.8596932636986185,71.25
58,-1.1771427934617065,-1.8116812154358122,-1.878284102080099,-2.5848953734787212,-1.1898080676987248,-4.810729140672948,72.5
59,-1.1771427751774914,-1.8116812319602507,-1.8782841039585763,-2.5848953762685705,-1.1898080718731188,-4.751765023114776,73.75
60,-1.1771427537923704,-1.8116812512871456,-1.878284106155633,-2.584895379531562,-1.1898080767554677,-4.682800905556602,75.0
61,-1.1771427204912976,-1.8116812671990918,-1.8782841101171268,-2.584895361971206,-1.1898080483708107,-4.603836802142952,76.25
62,-1.1771426815071093,-1.8116812840929146,-1.8782841148318838,-2.584895338606058,-1.189808010716693,-4.514872702858455,77.5
63,-1.1771426381099572,-1.811681302867676,-1.8782841201427833,-2.584895312323162,-1.189807968573384,-4.415908613612889,78.75
64,-1.1771425868500227,-1.8116813175496596,-1.8782841186248873,-2.584895297932087,-1.1898079177019172,-4.306944532889697,80.0
65,-1.1771425295191873,-1.8116813312270161,-1.8782841140725495,-2.5848952879424734,-1.1898078604006193,-4.187980459772604,81.25
66,-1.1771424672484356,-1.8116813424175233,-1.8782841055700907,-2.584895284328461,-1.1898077981221569,-4.05901639371833,82.5
67,-1.1771423998858341,-1.8116813464913712,-1.8782840885830354,-2.584895296251111,-1.189807730677211,-3.92005233182335,83.75
68,-1.1771423293048198,-1.8116813469140864,-1.8782840670611654,-2.584895316300716,-1.1898076599495526,-3.771088272053131,85.0
69,-1.1771422580287334,-1.8116813375757235,-1.8782840358736277,-2.5848953557363243,-1.1898075883709391,-3.612124219171452,86.25
70,-1.1771421895722536,-1.81168132075988,-1.878283998322491,-2.584895409033694,-1.189807519498913,-3.445743345888891,87.5
71,-1.1771421299137357,-1.8116812982033186,-1.8782839579468085,-2.5848954710112038,-1.1898074593523835,-3.2869442875792636,88.75
72,-1.1771420849987986,-1.8116812694189468,-1.878283916122335,-2.584895540867556,-1.1898074138821317,-3.1381452292696395,90.0
73,-1.1771420471682146,-1.8116812397386368,-1.878283875631578,-2.584895610389294,-1.189807375497273,-2.9993461709600084,91.25
74,-1.1771420231482728,-1.8116812073745345,-1.8782838368334756,-2.584895681100606,-1.1898073509101583,-2.870547112650379,92.5
75,-1.1771420056436588,-1.8116811755002031,-1.8782838005339366,-2.5848957489222126,-1.1898073328602434,-2.751748054340749,93.75
76,-1.1771419937996073,-1.8116811453096289,-1.8782837676233952,-2.584895811760348,-1.189807320509927,-2.6429489960311168,95.0
77,-1.1771419927919422,-1.811681115567546,-1.8782837385140556,-2.584895870511786,-1.1898073190265475,-2.544149937721484,96.25
78,-1.1771419918862684,-1.8116810888358295,-1.8782837123510283,-2.584895923316666,-1.189807317693309,-2.4553508794118506,97.5
79,-1.1771419926454287,-1.811681065019969,-1.8782836895284092,-2.5848959698984544,-1.1898073180749258,-2.3765518211022143,98.75
80,-1.1771420014361875,-1.8116810437349637,-1.8782836716516615,-2.5848960091306026,-1.1898073265457865,-2.3077527627925774,100.0
81,-1.1771420089492024,-1.8116810255437519,-1.878283656373314,-2.584896042660326,-1.1898073337854003,-2.2489537044829406,101.25
82,-1.1771420151844731,-1.811681010446336,-1.8782836436933636,-2.584896070487624,-1.1898073397937678,-2.200154646173307,102.5
83,-1.177142020142,-1.8116809984427125,-1.8782836336118134,-2.5848960926124964,-1.1898073445708888,-2.1613555878636763,103.75
84,-1.1771420238217825,-1.811680989532882,-1.8782836261286637,-2.584896109034944,-1.1898073481167628,-2.132556529554044,105.0
85,-1.177142026223821,-1.8116809837168435,-1.8782836212439151,-2.584896119754966,-1.1898073504313906,-2.1137574712444085,106.25
86,-1.1775188973975672,-1.812635735922544,-1.8770296599083347,-2.5851980637959677,-1.1901836651534898,-2.104099787719364,107.5
87,-1.1791375070206127,-1.8167362902642352,-1.8716440626009394,-2.5864948530830625,-1.1917998853822376,-2.1030847595133695,108.75
88,-1.1798098317903873,-1.8184395493339356,-1.8694070367274025,-2.5870335015344335,-1.1924712207360295,-2.11116423730265,110.0
89,-1.179809830561848,-1.8184395549033208,-1.8694070395661793,-2.5870334986510892,-1.192471226147816,-2.127927527554997,111.25
90,-1.1798098286004344,-1.818439563795076,-1.8694070440984043,-2.5870334940477098,-1.1924712347879582,-2.154690817807343,112.5
91,-1.1798098259061458,-1.8184395760092014,-1.8694070503240776,-2.5870334877242955,-1.1924712466564562,-2.1914541080596908,113.75
92,-1.1798098224789828,-1.8184395915456966,-1.8694070582431994,-2.587033479680847,-1.1924712617533098,-2.23821739831204,115.0
93,-1.179809817868229,-1.818439610858527,-1.8694070664772964,-2.587033475183503,-1.1924712761921623,-2.294980677892352,116.25
94,-1.1798098123720016,-1.818439633647428,-1.8694070759381312,-2.5870334707490867,-1.192471292543564,-2.361743955918168,117.5
95,-1.1798098106469435,-1.8184396577908144,-1.8694070942893535,-2.587033439900368,-1.1924712989786541,-2.438507223399215,118.75
96,-1.1798098113817355,-1.8184396838763317,-1.8694071193979576,-2.5870333899868463,-1.1924712990267403,-2.5252704851133028,120.0
97,-1.1798098121684244,-1.818439712947369,-1.869407147476894,-2.587033333986886,-1.1924712988072632,-2.622033735533802,121.25
98,-1.17980982067986,-1.8184397431544452,-1.8694071792712936,-2.58703327272047,-1.1924713070068769,-2.728796979319124,122.5
99,-1.179809837772623,-1.818439774289937,-1.8694072148678078,-2.5870332062649193,-1.192471324590724,-2.8455602150254355,123.75
100,-1.1798098579761895,-1.8184398073767145,-1.8694072533310062,-2.58703313503746,-1.1924713453344773,-2.9723234429067276,125.0
101,-1.1798098950221114,-1.8184398364542087,-1.8694072931168553,-2.5870330668078445,-1.1924713829288747,-3.1090866653301106,126.25
102,-1.1798099359191283,-1.818439866863076,-1.8694073353951535,-2.587032994816314,-1.1924714244043282,-3.255849887079834,127.5
103,-1.1798099944486073,-1.818439889014023,-1.8694073751415978,-2.587032933855691,-1.1924714834153043,-3.412613101686121,128.75
104,-1.179810059886734,-1.818439908468211,-1.869407414419661,-2.5870328761556767,-1.1924715493067244,-3.5785459957610044,130.0
105,-1.1798101316289247,-1.818439917893604,-1.869407445918158,-2.587032836329591,-1.1924716213553612,-3.739546165517295,131.25
106,-1.1798102016127014,-1.8184399202022294,-1.869407469955219,-2.587032811035274,-1.1924716915278812,-3.8905463352735805,132.5
107,-1.1798102695386652,-1.8184399161189777,-1.8694074871418267,-2.5870327989344366,-1.1924717595358367,-4.031546505029852,133.75
108,-1.1798103324709266,-1.8184399071271864,-1.8694074980047304,-2.58703279797737,-1.192471822460706,-4.162546674786117,135.0
109,-1.1798103904126176,-1.818439893319245,-1.869407502634664,-2.587032807981259,-1.192471880307106,-4.283546844542377,136.25
110,-1.1798104432555137,-1.8184398800874604,-1.8694075062364546,-2.587032818362646,-1.1924719330528717,-4.394547014298631,137.5
111,-1.1798104874102064,-1.818439860894807,-1.869407501341695,-2.5870328430548364,-1.192471976996195,-4.495547184054881,138.75
112,-1.179810527193156,-1.818439843602416,-1.8694074969315604,-2.58703286530226,-1.1924720165887024,-4.586547353811129,140.0
113,-1.1798105626043618,-1.8184398282102858,-1.8694074930060527,-2.587032885104917,-1.1924720518303937,-4.667547523567373,141.25
114,-1.1798105885673285,-1.8184398107338176,-1.8694074841132928,-2.587032911812197,-1.1924720775699966,-4.738547693323616,142.5
115,-1.1798106105319741,-1.818439795450713,-1.8694074761061998,-2.5870329353869743,-1.1924720993377074,-4.7995478630798605,143.75
116,-1.1798106288958687,-1.8184397826730303,-1.8694074694117386,-2.5870329550970452,-1.1924721175369515,-4.850548032836111,145.0
117,-1.1798106436590121,-1.8184397724007682,-1.869407464029912,-2.58703297094241,-1.1924721321677285,-4.891548202592365,146.25
118,-1.1798106548214036,-1.8184397646339254,-1.8694074599607202,-2.587032982923067,-1.192472143230038,-4.922548372348619,147.5
119,-1.1798106623830433,-1.8184397593725021,-1.869407457204164,-2.587032991039018,-1.1924721507238802,-4.943548542104872,148.75
120,-1.1799419029741038,-1.8187763192941644,-1.8689627864961602,-2.5871420476791216,-1.1926031859343857,-4.954924460594741,150.0
121,-1.1814256272334125,-1.8225814030055485,-1.8639354803419923,-2.5883749631637136,-1.1940845886682598,-4.958162207607233,151.25
122,-1.1824414840245734,-1.825186627220777,-1.860493441338065,-2.5892191018260156,-1.1950988577882204,-4.95182095318283,152.5
123,-1.182441479398684,-1.8251866313631215,-1.8604934414354226,-2.589219103851384,-1.1950988573434378,-4.937296462740007,153.75
124,-1.1824414715879052,-1.8251866383574384,-1.8604934415998104,-2.5892191072712016,-1.1950988565924254,-4.912771972297186,155.0
125,-1.1824414605922373,-1.825186648203728,-1.8604934418312284,-2.5892191120854706,-1.1950988555351838,-4.878247481854363,156.25
126,-1.18244144641168,-1.8251866609019896,-1.8604934421296764,-2.5892191182941895,-1.195098854171713,-4.833722991411536,157.5
127,-1.1824414294481551,-1.8251866761716127,-1.8604934433196851,-2.5892191228505865,-1.1950988559638773,-4.779198504664057,158.75
128,-1.1824414096116327,-1.8251866940754526,-1.8604934452165618,-2.589219126437129,-1.1950988601362296,-4.714674019944541,160.0
129,-1.1824413826188007,-1.825186711816216,-1.8604934481603137,-2.5892191203427366,-1.1950988492554484,-4.640149542183428,161.25
130,-1.1824413460435008,-1.82518672764782,-1.860493452598424,-2.5892190984831984,-1.1950988139904062,-4.555625073910852,162.5
131,-1.1824413051160705,-1.8251867453370538,-1.8604934576178507,-2.589219073791867,-1.1950987743441235,-4.461100614354392,163.75
132,-1.182441258538131,-1.8251867626345182,-1.8604934604002585,-2.589219051878948,-1.1950987287240071,-4.356576161538018,165.0
133,-1.1824412040280055,-1.8251867756003826,-1.8604934560445774,-2.589219042438119,-1.195098674247573,-4.24205171728914,166.25
134,-1.1824411447567889,-1.8251867896998748,-1.8604934513040612,-2.589219032190133,-1.1950986150022067,-4.117527282419837,167.5
135,-1.1824410803943661,-1.825186794903618,-1.8604934362864278,-2.589219041054228,-1.195098550572454,-3.9830028529237342,168.75
136,-1.18244101119952,-1.825186799040129,-1.8604934187173385,-2.5892190534682973,-1.1950984812919763,-3.838478424254385,170.0
137,-1.1824409419571145,-1.8251867919875548,-1.860493390226533,-2.5892190879581682,-1.1950984117851826,-3.683954001360811,171.25
138,-1.1824408698939914,-1.8251867815006957,-1.8604933575073925,-2.5892191300583014,-1.1950983393965202,-3.5194711361127453,172.5
139,-1.182440809323073,-1.8251867585578532,-1.8604933162327482,-2.5892191933064517,-1.1950982783245978,-3.356235927191628,173.75
140,-1.1824407567131394,-1.82518673406462,-1.8604932759318107,-2.5892192572458312,-1.195098225206062,-3.203000718270519,175.0
141,-1.1824407181528072,-1.8251867037866392,-1.860493234377298,-2.5892193284171006,-1.1950981860746794,-3.059765509349417,176.25
142,-1.1824406863159975,-1.8251866738715996,-1.8604931952754624,-2.5892193968741983,-1.1950981536873029,-2.9265303004283285,177.5
143,-1.1824406683797772,-1.825186641202349,-1.860493157827934,-2.5892194666310724,-1.1950981351864884,-2.8032950915072425,178.75
144,-1.1824406518990038,-1.8251866111840727,-1.860493123419102,-2.5892195307274797,-1.195098118186935,-2.6900598825861644,180.0
145,-1.1824406486184444,-1.8251865810219376,-1.860493092990712,-2.5892195911840648,-1.1950981144140356,-2.586824673665089,181.25
146,-1.182440647677875,-1.825186553300283,-1.86049306567195,-2.589219646132366,-1.1950981130254814,-2.493589464744015,182.5
147,-1.182440646838187,-1.8251865285519346,-1.8604930412832754,-2.589219695187153,-1.1950981117858572,-2.410354255822944,183.75
148,-1.1824406530235505,-1.825186506363003,-1.8604930215827107,-2.5892197371065513,-1.1950981176277586,-2.3371190469018734,185.0
149,-1.1824406610029246,-1.8251864870461691,-1.8604930052421158,-2.5892197728287663,-1.1950981253137796,-2.273883837980804,186.25
150,-1.1824406677204424,-1.8251864707840966,-1.8604929914856168,-2.589219802901879,-1.1950981317843352,-2.2206486290597267,187.5
151,-1.1824406731761044,-1.825186457576784,-1.8604929803132138,-2.5892198273258904,-1.1950981370394256,-2.1774134201386444,188.75
152,-1.1824406773699097,-1.8251864474242299,-1.8604929717249092,-2.589219846100799,-1.1950981410790504,-2.1441782112175667,190.0
153,-1.182440680301859,-1.8251864403264344,-1.8604929657207028,-2.589219859226606,-1.19509814390321,-2.1209430022964897,191.25
154,-1.182448210880732,-1.8252059823014501,-1.8604669861396363,-2.589226350735299,-1.19510566196055,-2.1076837116894707,192.5
155,-1.1836532182790152,-1.828334335960775,-1.8563094826971926,-2.5902641255059424,-1.1963086750987353,-2.102354856881299,193.75
156,-1.184992014164729,-1.8318100277499993,-1.851690382230453,-2.5914171182661474,-1.1976452570639042,-2.106818583891807,195.0
157,-1.1850351626053248,-1.8319220531905431,-1.8515415108336692,-2.5914542771933804,-1.197688338897477,-2.119204908627922,196.25
158,-1.1850351609705891,-1.8319220605103481,-1.8515415145306613,-2.591454273585574,-1.1976883458916205,-2.1414553620409946,197.5
159,-1.185035158601156,-1.8319220711198863,-1.851541519889189,-2.5914542683563146,-1.1976883560291356,-2.173705815454068,198.75
160,-1.1850351554970255,-1.8319220850191578,-1.8515415269092521,-2.5914542615056027,-1.197688369310022,-2.2159562688671444,200.0
161,-1.1850351514500435,-1.8319221024140528,-1.851541534964607,-2.5914542554114837,-1.1976883839211123,-2.2682067205737173,201.25
162,-1.1850351463143811,-1.8319221234488157,-1.8515415436165186,-2.591454251739972,-1.1976883985921356,-2.3304571699492262,202.5
163,-1.1850351416941345,-1.831922147258107,-1.851541555855061,-2.591454239933488,-1.1976884121482825,-2.4027076161094483,203.75
164,-1.1850351423821825,-1.8319221716803487,-1.8515415795351682,-2.5914541930130053,-1.1976884121760938,-2.4849580490494745,205.0
165,-1.1850351431378288,-1.831922199060962,-1.85154160613371,-2.591454140217254,-1.197688412072178,-2.5772084760363043,206.25
166,-1.1850351447641048,-1.8319222292015371,-1.8515416357440355,-2.5914540815697813,-1.1976884127028067,-2.6794588961947423,207.5
167,-1.1850351609961205,-1.8319222587739106,-1.8515416697807976,-2.5914540182238386,-1.1976884294041255,-2.791709305324205,208.75
168,-1.1850351786756381,-1.8319222909798336,-1.8515417068525617,-2.5914539492243946,-1.1976884476058391,-2.9139597068562315,210.0
169,-1.1850352085048028,-1.8319223211811169,-1.8515417457474665,-2.591453880628424,-1.1976884779776562,-3.04621010243177,211.25
170,-1.1850352465664287,-1.8319223510756348,-1.8515417869075153,-2.591453810224838,-1.197688516609054,-3.1884604958090144,212.5
171,-1.185035297016923,-1.831922376320077,-1.8515418273948048,-2.591453745317282,-1.1976885675794515,-3.340710884919471,213.75
172,-1.1850353568539393,-1.8319223990013487,-1.8515418683116986,-2.5914536826769305,-1.197688627914187,-3.5029612675383417,215.0
173,-1.1850354276307817,-1.8319224108403231,-1.851541902044523,-2.5914536381959956,-1.1976886990373208,-3.6682053213127994,216.25
174,-1.1850354963546554,-1.8319224192055172,-1.8515419317362063,-2.5914536011895613,-1.1976887680468165,-3.8237149410367306,217.5
175,-1.18503556559387,-1.8319224150885582,-1.8515419493770031,-2.5914535886889603,-1.197688837370944,-3.969224560760707,218.75
176,-1.1850356300656153,-1.8319224109872352,-1.8515419655410819,-2.591453577578236,-1.197688901917424,-4.104734180484713,220.0
177,-1.1850356894295415,-1.8319223968802887,-1.8515419703174478,-2.5914535877565337,-1.1976889611831159,-4.23024380020874,221.25
178,-1.1850357440636397,-1.8319223838973202,-1.8515419747132498,-2.591453597123876,-1.1976890157268063,-4.345753419932806,222.5
179,-1.1850357913283074,-1.8319223672304075,-1.8515419731984974,-2.5914536159652797,-1.197689062825372,-4.451263039656919,223.75
180,-1.1850358325701518,-1.8319223493323378,-1.8515419685943502,-2.5914536390337846,-1.1976891038680284,-4.5467726593810776,225.0
181,-1.185035869493915,-1.8319223333082264,-1.8515419644722584,-2.5914536596869837,-1.197689140613459,-4.632282279105235,226.25
182,-1.1850358994313415,-1.831922317062341,-1.8515419579467918,-2.5914536828603048,-1.1976891703536827,-4.707791898829397,227.5
183,-1.1850359227298872,-1.831922300867584,-1.8515419493936873,-2.5914537079110636,-1.1976891934413274,-4.773301518553559,228.75
184,-1.1850359424719255,-1.8319222871449468,-1.8515419421462074,-2.591453729137841,-1.1976892130046588,-4.82881113827772,230.0
185,-1.1850359586574566,-1.8319222758944298,-1.851541936204351,-2.5914537465406373,-1.197689229043677,-4.874320758001866,231.25
186,-1.1850359712864802,-1.8319222671160316,-1.8515419315681212,-2.591453760119452,-1.1976892415583813,-4.909830377726017,232.5
187,-1.1850359803589963,-1.8319222608097516,-1.8515419282375178,-2.5914537698742848,-1.197689250548772,-4.935339997450165,233.75
188,-1.1850359858750044,-1.8319222569755902,-1.8515419262125408,-2.591453775805135,-1.1976892560148487,-4.950849617174318,235.0
189,-1.1858651447997803,-1.8341013994536726,-1.8486290989375764,-2.592193355219293,-1.1985169661540067,-4.957980796682206,236.25
190,-1.1873704995890757,-1.8380576944065508,-1.8433407852163979,-2.593536076890744,-1.2000196914030095,-4.955770096122259,237.5
191,-1.1875949667682408,-1.8386476387108468,-1.8425522203790496,-2.5937362977698855,-1.2002437693144037,-4.94522062522047,238.75
192,-1.1875949604718612,-1.8386476443391753,-1.8425522204777216,-2.593736300650555,-1.2002437685804241,-4.925280779337236,240.0
193,-1.1875949510177943,-1.8386476527901574,-1.8425522206258784,-2.593736304975904,-1.2002437674783475,-4.895340933454001,241.25
194,-1.1875949384060402,-1.8386476640637937,-1.8425522208235199,-2.593736310745933,-1.2002437660081742,-4.855401087570773,242.5
195,-1.1875949227476743,-1.8386476780838334,-1.842552221294996,-2.5937363171372065,-1.2002437651365947,-4.805461244060757,243.75
196,-1.1875949044783483,-1.8386476945512125,-1.8425522229202365,-2.593736320920102,-1.2002437686551026,-4.745521410786313,245.0
197,-1.1875948831610783,-1.83864771376591,-1.8425522248166224,-2.593736325334113,-1.2002437727606172,-4.675581577511865,246.25
198,-1.1875948493362034,-1.8386477287853789,-1.8425522289171161,-2.5937363058172993,-1.2002437411544327,-4.595641760194196,247.5
199,-1.1875948108853782,-1.838647745394737,-1.8425522336295959,-2.5937362827691604,-1.2002437040408427,-4.505701946649317,248.75
200,-1.1875947681339025,-1.8386477638341774,-1.842552238926514,-2.593736256896455,-1.2002436625849904,-4.405762142151422,250.0
201,-1.1875947172321721,-1.8386477774513175,-1.8425522364552913,-2.5937362446965793,-1.2002436119517432,-4.295822347336029,251.25
202,-1.1875946608405166,-1.8386477908286243,-1.842552231915735,-2.5937362350043376,-1.2002435555902229,-4.175882559957604,252.5
203,-1.18759459959258,-1.8386478006729314,-1.8425522223740227,-2.5937362337879915,-1.200243494324818,-4.045942779373706,253.75
204,-1.1875945334096663,-1.8386478045889234,-1.8425522054513528,-2.5937362458189033,-1.2002434280583996,-3.9060030023826817,255.0
205,-1.1875944646230585,-1.8386478036407392,-1.8425521829355316,-2.5937362682538145,-1.2002433591043817,-3.7560632280756807,256.25
206,-1.1875943946552971,-1.8386477943857034,-1.8425521518927712,-2.5937363074797033,-1.2002432888325218,-3.5961234605037182,257.5
207,-1.1875943290489417,-1.8386477766061566,-1.8425521138476872,-2.5937363622739245,-1.2002432227930093,-3.4298580669801177,258.75
208,-1.1875942712015155,-1.8386477546657556,-1.842552074151346,-2.5937364229847044,-1.2002431644617853,-3.272041620521174,260.0
209,-1.1875942291488837,-1.838647725689118,-1.8425520325016937,-2.593736492901682,-1.200243121845693,-3.124225174062202,261.25
210,-1.1875941924981799,-1.8386476968963945,-1.842551992727647,-2.593736560840428,-1.2002430846463912,-2.9864087276032283,262.5
211,-1.1875941707944737,-1.8386476648645664,-1.8425519544629627,-2.5937366307234297,-1.2002430623742804,-2.85859228114424,263.75
212,-1.187594153854418,-1.838647634009472,-1.8425519188485373,-2.5937366968539397,-1.200243044895418,-2.740775834685243,265.0
213,-1.1875941437877222,-1.8386476044833642,-1.8425518866958719,-2.5937367583001745,-1.200243034326626,-2.6329593882262454,266.25
214,-1.1875941428115293,-1.838647575760081,-1.842551858183992,-2.593736815440964,-1.200243032881367,-2.5351429417672287,267.5
215,-1.187594141935135,-1.8386475499732509,-1.8425518325869414,-2.5937368667401195,-1.2002430315838597,-2.4473264953082206,268.75
216,-1.1875941436451618,-1.8386475269757514,-1.8425518105405179,-2.593736911745739,-1.2002430329238012,-2.369510048849204,270.0
217,-1.1875941520972804,-1.838647506521721,-1.8425517931072637,-2.5937369497026035,-1.2002430410619986,-2.3016936023901837,271.25
218,-1.1875941593030759,-1.8386474890837774,-1.842551778244662,-2.5937369820624685,-1.2002430480001631,-2.243877155931172,272.5
219,-1.1875941652625488,-1.8386474746619244,-1.8425517659527102,-2.593737008825333,-1.2002430537382947,-2.196060709472171,273.75
220,-1.1875941699756987,-1.8386474632561578,-1.842551756231412,-2.5937370299911975,-1.2002430582763932,-2.158244263013169,275.0
221,-1.187594173442526,-1.8386474548664773,-1.842551749080767,-2.5937370455600623,-1.2002430616144586,-2.1304278165541626,276.25
222,-1.1875941756630302,-1.8386474494928835,-1.8425517445007757,-2.593737055531927,-1.2002430637524912,-2.112611370095155,277.5
223,-1.18806975966472,-1.8399127768217305,-1.840850713734329,-2.5941761172704614,-1.2007177718506716,-2.1036999636905764,278.75
224,-1.1896094976165261,-1.844009384561945,-1.835343497031069,-2.5955975993736637,-1.2022546745728584,-2.1035919165477024,280.0
225,-1.1901182714219196,-1.8453630264826677,-1.8335237529571837,-2.596067297134789,-1.202762514707706,-2.112340258014417,281.25
226,-1.1901182701264323,-1.8453630322138634,-1.833523755828284,-2.5960672944424816,-1.2027625200924525,-2.12993581417369,282.5
227,-1.1901182680946873,-1.8453630412022424,-1.8335237603311025,-2.596067290220069,-1.2027625285374877,-2.157531370332963,283.75
228,-1.190118265326684,-1.8453630534478047,-1.8335237664656403,-2.5960672844675496,-1.2027625400428106,-2.1951269264922364,285.0
229,-1.1901182618224226,-1.8453630689505507,-1.8335237742318966,-2.596067277184924,-1.2027625546084213,-2.2427224826515064,286.25
230,-1.1901182570853603,-1.8453630881938323,-1.833523782157891,-2.596067273927603,-1.202762567865098,-2.300318036597827,287.5
231,-1.190118251499527,-1.8453631108038218,-1.8335237913820635,-2.596067270398992,-1.2027625831920277,-2.3679135904351276,288.75
232,-1.1901182503141838,-1.8453631343857748,-1.8335238105984344,-2.5960672368203017,-1.2027625877569865,-2.4455091321999554,290.0
233,-1.190118251037522,-1.8453631600700502,-1.833523835697187,-2.596067187255726,-1.202762587763123,-2.5331046691885266,291.25
234,-1.1901182518118172,-1.845363188663811,-1.8335238637428946,-2.5960671316819592,-1.2027625875010857,-2.6307001942748434,292.5
235,-1.1901182613937094,-1.8453632180697692,-1.8335238955888187,-2.5960670710475156,-1.202762596898011,-2.738295712424692,293.75
236,-1.1901182781947237,-1.845363248673082,-1.833523931067372,-2.5960670052330284,-1.202762614195588,-2.8558912226479762,295.0
237,-1.1901182993741999,-1.8453632806021354,-1.833523969229466,-2.5960669354807147,-1.2027626359162134,-2.983486725272866,296.25
238,-1.1901183357452452,-1.8453633091781343,-1.8335240088412161,-2.5960668679143897,-1.202762672837411,-3.121082222871963,297.5
239,-1.1901183771463573,-1.8453633381738144,-1.8335240504490493,-2.5960667980094145,-1.2027627148066111,-3.268677719348643,298.75
240,-1.1901184345629001,-1.845363359961465,-1.8335240899907788,-2.5960667375994086,-1.202762772706051,-3.426273208817903,300.0
241,-1.1901184994946763,-1.8453633779351422,-1.8335241281377566,-2.5960666825000187,-1.2027628380749575,-3.5924869768437295,301.25
242,-1.1901185691344942,-1.8453633871632893,-1.833524159145755,-2.5960666433313664,-1.202762908019356,-3.752648170740324,302.5
243,-1.190118637486443,-1.845363388411202,-1.8335241818824906,-2.596066620372925,-1.202762976542628,-3.9028093646369317,303.75
244,-1.190118703371613,-1.8453633845311834,-1.8335241987885067,-2.5960666083220785,-1.2027630425098725,-4.04297055853354,305.0
245,-1.190118764353997,-1.845363374987523,-1.8335242085692824,-2.5960666089711295,-1.2027631034709474,-4.173131752430163,306.25
246,-1.190118820498261,-1.8453633616808374,-1.8335242131185836,-2.596066618531907,-1.2027631595217214,-4.293292946326808,307.5
247,-1.1901188713092998,-1.8453633482780623,-1.8335242158950849,-2.596066629881505,-1.2027632102259236,-4.403454140223456,308.75
248,-1.1901189140342623,-1.8453633297656187,-1.833524211090796,-2.5960666537864734,-1.2027632527426886,-4.503615334120101,310.0
249,-1.1901189524936058,-1.8453633131014437,-1.8335242067661577,-2.596066675304794,-1.2027632910146209,-4.593776528016761,311.25
250,-1.1901189866024542,-1.8453632982188495,-1.833524202828737,-2.596066694594132,-1.2027633249555676,-4.673937721913418,312.5
251,-1.1901190112518472,-1.8453632811037937,-1.833524193714428,-2.59606672114512,-1.2027633493796874,-4.744098915810076,313.75
252,-1.1901190323879884,-1.845363266428128,-1.8335241858991718,-2.596066743911824,-1.2027633703226634,-4.804260109706737,315.0
253,-1.1901190500108785,-1.8453632541918554,-1.833524179382965,-2.5960667628942455,-1.2027633877844965,-4.8544213036033845,316.25
254,-1.190119064120517,-1.8453632443949732,-1.8335241741658113,-2.596066778092383,-1.202763401765186,-4.894582497500026,317.5
255,-1.190119074716904,-1.8453632370374813,-1.8335241702477107,-2.596066789506236,-1.2027634122647315,-4.924743691396672,318.75
256,-1.190119081800039,-1.8453632321193796,-1.833524167628664,-2.596066797135805,-1.202763419283133,-4.944904885293319,320.0
257,-1.1903147898929194,-1.8458903559200857,-1.8328115269692515,-2.5962536867923087,-1.20295874802926,-4.955631170191637,321.25
258,-1.1917659371019982,-1.849798994376908,-1.8275273109585572,-2.5976394434208228,-1.2044070827182787,-4.95810482938194,322.5
259,-1.1926090887778675,-1.8520700174764626,-1.8244570439543504,-2.5984446045341585,-1.2052486020734223,-4.951188426610576,323.75
260,-1.1926090840141894,-1.8520700217274757,-1.8244570440050278,-2.598444606800265,-1.2052486014231973,-4.9359724553232205,325.0
261,-1.1926090761198023,-1.8520700287722718,-1.8244570440890113,-2.598444610555666,-1.2052486003456417,-4.910756484035864,326.25
262,-1.1926090650947059,-1.8520700386108513,-1.8244570442063006,-2.5984446158003616,-1.205248598840756,-4.875540512748513,327.5
263,-1.1926090509389005,-1.8520700512432144,-1.8244570443568953,-2.5984446225343523,-1.2052485969085396,-4.830324541461163,328.75
264,-1.1926090340932045,-1.852070066371348,-1.8244570454184281,-2.5984446275584907,-1.2052485984251666,-4.775108581600593,330.0
265,-1.1926090143853174,-1.8520700841117361,-1.8244570470478636,-2.598444632123213,-1.2052486018755761,-4.709892626257943,331.25
266,-1.1926089870742045,-1.8520701011455005,-1.824457049952565,-2.5984446250981907,-1.2052485883193085,-4.634676679094751,332.5
267,-1.19260895109199,-1.8520701166738518,-1.8244570543715513,-2.5984446036187565,-1.2052485536688613,-4.549460740338186,333.75
268,-1.192608910861796,-1.852070134006834,-1.8244570593727532,-2.5984445793452613,-1.2052485147339764,-4.454244811330961,335.0
269,-1.1926088647984556,-1.852070150400667,-1.8244570614657865,-2.59844455918036,-1.2052484695592303,-4.349028889087264,336.25
270,-1.192608811282845,-1.8520701630628171,-1.824457057129114,-2.598444550035127,-1.2052484160782109,-4.233812975275631,337.5
271,-1.1926087531211256,-1.8520701768252918,-1.824457052411982,-2.598444540111461,-1.205248357943832,-4.108597070239029,338.75
272,-1.1926086899631263,-1.8520701811043425,-1.824457036716538,-2.5984445505939227,-1.2052482947103376,-3.9733811710925466,340.0
273,-1.1926086221138235,-1.8520701850831465,-1.8244570192423581,-2.5984445630875377,-1.2052482267743745,-3.828165272287794,341.25
274,-1.192608554606402,-1.8520701772080317,-1.8244569901475798,-2.598444599025353,-1.205248158987757,-3.6729493797104156,342.5
275,-1.1926084848575813,-1.852070165937255,-1.824456956985562,-2.5984446423828986,-1.2052480888991057,-3.5079129084335787,343.75
276,-1.192608425997563,-1.852070143593512,-1.8244569163026636,-2.598444704466953,-1.2052480295413663,-3.3453759412394612,345.0
277,-1.1926083759271207,-1.852070119038022,-1.8244568762047602,-2.598444768303315,-1.2052479789563666,-3.192838974045344,346.25
278,-1.1926083384769133,-1.852070089612539,-1.8244568352702566,-2.598444838021903,-1.2052479409395906,-3.050302006851215,347.5
279,-1.1926083086589028,-1.852070060084649,-1.824456796642766,-2.598444905649889,-1.2052479105702623,-2.9177650396570654,348.75
280,-1.1926082912510836,-1.8520700283857143,-1.824456759783056,-2.5984449738610182,-1.2052478926029886,-2.795228072462913,350.0
281,-1.1926082752638831,-1.8520699992736736,-1.8244567259313875,-2.5984450365055722,-1.2052478761019887,-2.682691105268754,351.25
282,-1.192608273054593,-1.8520699698234158,-1.8244566960927053,-2.5984450956807383,-1.2052478734039145,-2.5801541380745863,352.5
283,-1.1926082721408655,-1.8520699429896492,-1.8244566692518993,-2.5984451492681053,-1.2052478720472677,-2.4876171708804167,353.75
284,-1.1926082713258803,-1.8520699190556746,-1.8244566453116402,-2.598445197064558,-1.2052478708372272,-2.405080203686236,355.0
285,-1.192608277989635,-1.8520698975887608,-1.824456626172518,-2.598445237711558,-1.2052478771630561,-2.3325432364920613,356.25
286,-1.1926082856887705,-1.8520698789667154,-1.8244566101751605,-2.5984452723952227,-1.205247884573306,-2.270006269297882,357.5
287,-1.1926082921567727,-1.8520698633224377,-1.824456596735865,-2.5984453015327817,-1.2052478907986164,-2.217469302103711,358.75
288,-1.1926082973936412,-1.8520698506559272,-1.8244565858546329,-2.598445325124235,-1.2052478958389883,-2.174932334909555,360.0
289,-1.1926083013993765,-1.8520698409671819,-1.8244565775314656,-2.598445343169582,-1.2052478996944207,-2.142395367715387,361.25
290,-1.192608304173978,-1.8520698342562019,-1.824456571766363,-2.5984453556688227,-1.2052479023649143,-2.1198584005212218,362.5
291,-1.1926346237203203,-1.8521415950429794,-1.8243590066312296,-2.5984713434168674,-1.2052741682459465,-2.107231555784603,363.75
292,-1.1938553371378093,-1.855470263357579,-1.819833771490614,-2.5996764163116994,-1.2064923951779813,-2.102452072939604,365.0
293,-1.19504692715547,-1.8587195229285982,-1.8154164964933217,-2.600852736567706,-1.2076815599128141,-2.10747386160464,366.25
294,-1.1950647954854552,-1.8587682534668004,-1.8153502563863708,-2.6008703750048867,-1.207699396627001,-2.1203404491388915,367.5
295,-1.1950647938035133,-1.8587682608206277,-1.8153502600436604,-2.600870371709469,-1.207699403420662,-2.1431445853258833,368.75
296,-1.1950647913840116,-1.8587682713992333,-1.8153502653047338,-2.6008703669689544,-1.207699413193458,-2.1759487215128726,370.0
297,-1.1950647882269498,-1.8587682852026166,-1.8153502721695902,-2.6008703607833428,-1.2076994259453895,-2.218752857699858,371.25
298,-1.19506478409625,-1.858768302457366,-1.8153502799476504,-2.6008703557427135,-1.2076994395781162,-2.2715569914075093,372.5
299,-1.1950647789001416,-1.858768323251563,-1.815350288370466,-2.600870352853906,-1.2076994532759515,-2.334361122370427,373.75
300,-1.1950647746130194,-1.8587683465629374,-1.8153503010203342,-2.600870339666189,-1.207699464988424,-2.407165249156939,375.0
301,-1.195064775289685,-1.8587683705377986,-1.815350324636651,-2.600870293203072,-1.2076994649858954,-2.489969363540021,376.25
302,-1.1950647760314412,-1.8587683973954472,-1.815350351150156,-2.600870240936409,-1.2076994648402088,-2.58277347116442,377.5
303,-1.1950647784267168,-1.858768426751941,-1.8153503807289293,-2.6008701829864966,-1.207699466318824,-2.6855775718783095,378.75
304,-1.195064794350815,-1.858768455747538,-1.8153504145994521,-2.60087012037539,-1.207699482715358,-2.7983816622079525,380.0
305,-1.1950648116880969,-1.8587684873126038,-1.815350451475417,-2.6008700522035486,-1.2076995005788973,-2.921185744348062,381.25
306,-1.1950648418034682,-1.8587685165373258,-1.8153504900504034,-2.6008699849093446,-1.2076995312362753,-3.0539898206491567,382.5
307,-1.195064879099716,-1.8587685458400076,-1.81535053096608,-2.600869915328359,-1.2076995691028747,-3.1967938951218313,383.75
308,-1.195064929354389,-1.8587685700188574,-1.8153505708923645,-2.600869852041847,-1.2076996198701595,-3.3495979650137437,385.0
309,-1.195064987957701,-1.8587685922709005,-1.8153506115466,-2.6008697900744626,-1.2076996789717858,-3.512402028516932,386.25
310,-1.1950650575117974,-1.8587686031189812,-1.8153506443374383,-2.6008697475073728,-1.2076997488601913,-3.6772363123930374,387.5
311,-1.1950651246386084,-1.8587686106075167,-1.815350673022469,-2.6008697123600997,-1.2076998162603974,-3.832185651635717,388.75
312,-1.1950651919564241,-1.858768606675883,-1.8153506904225052,-2.600869699889772,-1.20769988366338,-3.9771349908783917,390.0
313,-1.1950652546008773,-1.8587686021609415,-1.8153507057639258,-2.6008696899897483,-1.2076999463729428,-4.112084330121086,391.25
314,-1.1950653122808494,-1.858768588523805,-1.8153507104715956,-2.600869699746448,-1.2077000039562578,-4.2370336693637904,392.5
315,-1.1950653653445553,-1.8587685759780872,-1.8153507148024908,-2.600869708722299,-1.2077000569310428,-4.351983008606501,393.75
316,-1.1950654109917411,-1.858768559425871,-1.815350712805793,-2.600869727910198,-1.207700102406582,-4.456932347849227,395.0
317,-1.1950654510064542,-1.858768542115048,-1.8153507082727862,-2.600869750306544,-1.2077001422245561,-4.551881687091956,396.25
318,-1.1950654868068464,-1.8587685266273926,-1.8153507042171881,-2.600869770344123,-1.2077001778489298,-4.636831026334688,397.5
319,-1.195065515500081,-1.8587685106900587,-1.8153506974654592,-2.6008697934197853,-1.207700206342869,-4.71178036557743,398.75
320,-1.1950655380437047,-1.8587684950553713,-1.8153506890680633,-2.6008698177471388,-1.2077002286784841,-4.776729704820159,400.0
321,-1.195065557116374,-1.8587684818278971,-1.8153506819635807,-2.6008698383289035,-1.2077002475751708,-4.8316790440628905,401.25
322,-1.1950655727180883,-1.8587684710076378,-1.8153506761520108,-2.6008698551650804,-1.2077002630329292,-4.876628383305604,402.5
323,-1.1950655848488472,-1.85876846259459,-1.8153506716333565,-2.6008698682556677,-1.2077002750517587,-4.911577722548315,403.75
324,-1.1950655935086512,-1.8587684565887546,-1.8153506684076175,-2.6008698776006653,-1.2077002836316595,-4.936527061791033,405.0
325,-1.1950655986975,-1.8587684529901314,-1.8153506664747943,-2.600869883200074,-1.207700288772631,-4.951476401033762,406.25
326,-1.1959256390822472,-1.8611427063962374,-1.8121051606242489,-2.6017470892651517,-1.2085584905055209,-4.958215196097537,407.5
327,-1.1973211569335067,-1.8649952311856912,-1.8068389251713637,-2.60317046165332,-1.2099510257292156,-4.955515905427734,408.75
328,-1.1974893304656937,-1.8654595100123712,-1.8062042800220728,-2.6033419968668516,-1.2101188425743092,-4.944641356111727,410.0
329,-1.1974893241465825,-1.8654595156422116,-1.80620428005931,-2.603341999979864,-1.2101188415887791,-4.92428319534583,411.25
330,-1.197489314723502,-1.8654595240374496,-1.8062042801148386,-2.6033420046219993,-1.210118840119153,-4.893925034579948,412.5
331,-1.1974893021964514,-1.8654595351980847,-1.806204280188658,-2.6033420107932566,-1.2101188381654309,-4.853566873814061,413.75
332,-1.1974892866999158,-1.8654595490344557,-1.8062042805449465,-2.6033420175373783,-1.2101188369223053,-4.803208716986376,415.0
333,-1.1974892686150942,-1.865459565292413,-1.8062042819325264,-2.6033420221438144,-1.2101188397761735,-4.742850573232074,416.25
334,-1.1974892474868721,-1.8654595842080228,-1.8062042835614547,-2.603342027383002,-1.2101188429228749,-4.672492429607624,417.5
335,-1.197489213962418,-1.8654595986539868,-1.8062042877046702,-2.6033420073807587,-1.2101188106577565,-4.592134302457941,418.75
336,-1.1974891762568989,-1.8654596148909546,-1.8062042923875485,-2.6033419847867942,-1.2101187742980761,-4.501776179091656,420.0
337,-1.197489134356134,-1.8654596329085908,-1.8062042976472543,-2.603341959442715,-1.2101187337212418,-4.4014180644068155,421.25
338,-1.197489084294887,-1.8654596458690693,-1.806204294782888,-2.6033419483759817,-1.2101186838766158,-4.291059959907608,422.5
339,-1.197489029058593,-1.8654596589078944,-1.806204290272029,-2.6033419390058437,-1.210118628671493,-4.17070186279701,423.75
340,-1.1974889690659938,-1.8654596680323445,-1.806204280336569,-2.6033419389177723,-1.2101185686573677,-4.0403437724042774,425.0
341,-1.1974889042697556,-1.8654596718032086,-1.806204263525084,-2.603341950999737,-1.210118503776786,-3.899985685410214,426.25
342,-1.1974888371581107,-1.8654596702810586,-1.80620424069902,-2.603341974339259,-1.2101184364886337,-3.749627601387675,427.5
343,-1.1974887686805133,-1.8654596611709104,-1.8062042098708795,-2.6033420132259835,-1.210118367706346,-3.5892695240118986,428.75
344,-1.1974887051596739,-1.8654596432407196,-1.8062041718183248,-2.6033420682076103,-1.2101183037453482,-3.4231147741073764,430.0
345,-1.197488648842596,-1.8654596218537438,-1.8062041326046547,-2.603342127905811,-1.2101182469467926,-3.2657233100126284,431.25
346,-1.1974886085323093,-1.8654595932112987,-1.8062040912354627,-2.6033421972354533,-1.210118206070395,-3.11833184591792,432.5
347,-1.1974885728636906,-1.8654595651905783,-1.8062040519600955,-2.603342263920841,-1.2101181698563965,-2.9809403818232743,433.75
348,-1.1974885523996184,-1.8654595337591138,-1.8062040141096825,-2.6033423328108265,-1.2101181488243689,-2.853548917728718,435.0
349,-1.1974885359203906,-1.8654595037668376,-1.8062039789600024,-2.6033423976245444,-1.210118131810022,-2.736157453634229,436.25
350,-1.1974885267128068,-1.865459474943755,-1.80620394728525,-2.6033424579063595,-1.2101181221030393,-2.6287659895397932,437.5
351,-1.1974885257611856,-1.8654594470574146,-1.8062039191660635,-2.6033425138222173,-1.2101181206860845,-2.53137452544541,438.75
352,-1.1974885249072753,-1.8654594220344052,-1.8062038939341045,-2.6033425639967236,-1.21011811941462,-2.44398306135108,440.0
353,-1.197488526976401,-1.8654593997103162,-1.8062038723223846,-2.6033426079032074,-1.2101181211175738,-2.366591597256781,441.25
354,-1.1974885351730777,-1.8654593798986774,-1.8062038551622859,-2.603342644944309,-1.2101181290035463,-2.299200133162508,442.5
355,-1.1974885421534767,-1.865459363026824,-1.8062038405485181,-2.6033426764890026,-1.2101181357193451,-2.241808669068255,443.75
356,-1.1974885479175974,-1.8654593490947575,-1.8062038284810786,-2.603342702537288,-1.2101181412649704,-2.1944172049740196,445.0
357,-1.19748855246544,-1.865459338102475,-1.806203818959971,-2.603342723089164,-1.2101181456404215,-2.157025740879787,446.25
358,-1.1974885557970043,-1.8654593300499767,-1.806203811985195,-2.603342738144632,-1.210118148845699,-2.1296342767855427,447.5
359,-1.1974885579122903,-1.865459324937262,-1.806203807556751,-2.6033427477036915,-1.2101181508808025,-2.112242812691298,448.75
360,-1.1979873142681265,-1.8668533031346268,-1.804287937239435,-2.603868070035186,-1.2106157894453644,-2.103636613018142,450.0
361,-1.1994412431814057,-1.8709169167976996,-1.798702962044766,-2.6053994314671587,-1.212066460476821,-2.1038838738323804,451.25
362,-1.1998800792097437,-1.872143432709932,-1.7970172606420873,-2.6058616381266346,-1.2125043163045848,-2.1128720510944095,452.5
363,-1.1998800778890202,-1.8721434384186364,-1.797017263462921,-2.6058616356847284,-1.2125043214900277,-2.1307533013875473,453.75
364,-1.199880075829689,-1.8721434473199055,-1.7970172678612915,-2.605861631877199,-1.2125043295754037,-2.158634551680675,455.0
365,-1.1998800730317496,-1.872143459413739,-1.7970172738371994,-2.605861626704046,-1.2125043405607125,-2.1965158019737956,456.25
366,-1.1998800694952023,-1.872143474700137,-1.7970172813906442,-2.6058616201652693,-1.2125043544459546,-2.244397052266928,457.5
367,-1.1998800647109267,-1.872143493661722,-1.7970172890502212,-2.6058616177443845,-1.212504366660377,-2.3022782975295195,458.75
368,-1.1998800590903835,-1.8721435159084483,-1.797017298005091,-2.605861615009721,-1.2125043808979727,-2.3701595427041955,460.0
369,-1.1998800580872913,-1.8721435389245178,-1.7970173173916497,-2.6058615809349623,-1.2125043846542254,-2.4480407752593125,461.25
370,-1.19988005879594,-1.8721435640462443,-1.7970173423544127,-2.6058615320009872,-1.2125043846242636,-2.5359220031362386,462.5
371,-1.1998800595567505,-1.8721435920038316,-1.7970173702387915,-2.605861477155783,-1.2125043843437586,-2.633803219261652,463.75
372,-1.1998800693479783,-1.8721436206577142,-1.7970174019268026,-2.6058614173713828,-1.2125043939951992,-2.741684428104662,465.0
373,-1.1998800857934186,-1.8721436505809508,-1.7970174371660916,-2.605861352467385,-1.212504410939705,-2.859565629056665,466.25
374,-1.199880106969566,-1.8721436816035555,-1.7970174750112973,-2.605861283937357,-1.2125044326575534,-2.987446822449285,467.5
375,-1.1998801425536731,-1.8721437095514561,-1.7970175143411102,-2.6058612172673556,-1.2125044687914814,-3.125328010918809,468.75
376,-1.1998801834797963,-1.8721437376137637,-1.7970175554867394,-2.6058611487483163,-1.2125045102812186,-3.2732091980639098,470.0
377,-1.1998802396369186,-1.8721437589405812,-1.7970175947363907,-2.605861089072213,-1.2125045669211312,-3.4310903782737583,471.25
378,-1.1998803025108749,-1.872143776034589,-1.7970176318854798,-2.605861035818891,-1.212504630222286,-3.595321461929718,472.5
379,-1.1998803686460138,-1.8721437848406515,-1.7970176617713658,-2.605860998143319,-1.2125046966535278,-3.75111943905668,473.75
380,-1.1998804333164332,-1.8721437863643287,-1.79701768389601,-2.6058609754698256,-1.2125047614951199,-3.896917416183634,475.0
381,-1.199880495634605,-1.8721437827499463,-1.797017700124675,-2.6058609637812618,-1.2125048238933496,-4.032715393310568,476.25
382,-1.1998805532065893,-1.872143774802671,-1.7970177105013903,-2.6058609621946607,-1.212504881462328,-4.158513370437465,477.5
383,-1.1998806060262535,-1.872143762343061,-1.7970177148444622,-2.605860971070583,-1.2125049341929122,-4.274311347564339,478.75
384,-1.1998806542845564,-1.8721437509594332,-1.7970177188124719,-2.6058609791800054,-1.2125049823698277,-4.380109324691199,480.0
385,-1.1998806944628233,-1.8721437342501863,-1.7970177148722635,-2.605861000387676,-1.21250502235955,-4.475907301818034,481.25
386,-1.1998807301904315,-1.8721437188183243,-1.7970177107940044,-2.6058610203926356,-1.2125050579099192,-4.561705278944882,482.5
387,-1.1998807617538856,-1.8721437051850927,-1.797017707191075,-2.6058610380659606,-1.2125050893167924,-4.637503256071727,483.75
388,-1.199880786921652,-1.8721436915978191,-1.7970177015970745,-2.6058610575885197,-1.212505114314334,-4.703301233198562,485.0
389,-1.1998808060580703,-1.87214367834266,-1.79701769441469,-2.605861078277708,-1.2125051332724843,-4.759099210325415,486.25
390,-1.1998808217648986,-1.8721436674630634,-1.797017688519518,-2.605861095259022,-1.2125051488329937,-4.804897187452293,487.5
391,-1.1998808340421374,-1.872143658959031,-1.7970176839115566,-2.605861108532462,-1.2125051609958621,-4.840695164579154,488.75
392,-1.1998808428897862,-1.872143652830561,-1.7970176805908074,-2.605861118098028,-1.2125051697610894,-4.866493141706019,490.0
393,-1.1998808483078447,-1.8721436490776535,-1.7970176785572713,-2.6058611239557194,-1.2125051751286753,-4.882291118832882,491.25
394,-1.1997315502995114,-1.8717315235695409,-1.7976036938014515,-2.6056862237477225,-1.2123563407508027,-4.888445700988082,492.5
395,-1.199275543595246,-1.8704727780561101,-1.7993935567757977,-2.605152019916159,-1.2119017501767917,-4.8857709827272675,493.75
396,-1.1991757583780234,-1.870197347819993,-1.7997852078879655,-2.6050351236431295,-1.2118022748671704,-4.873778361613669,495.0
397,-1.1989927676494476,-1.8696922511635758,-1.8005034357413292,-2.604820753872085,-1.2116198524614321,-4.851785740500073,496.25
398,-1.198726571409518,-1.8689574880868594,-1.801548240335889,-2.6045089106030264,-1.211354482959576,-4.8197931193864845,497.5
399,-1.1983759256557063,-1.8679928744589152,-1.8029180429342113,-2.6041013445238947,-1.2110049151985343,-4.777800462817174,498.75
400,-1.1979382273938617,-1.866798025379144,-1.8046095393729176,-2.603601719211492,-1.2105685311999013,-4.725807714144897,500.0
401,-1.1974163446499457,-1.865373365583402,-1.8066263689555524,-2.603005998707902,-1.210048215497372,-4.663814965472634,501.25
402,-1.1968082345990319,-1.8637185554340177,-1.8089660232829494,-2.6023170102208657,-1.2094419147847035,-4.591822153933511,502.5
403,-1.196112520882699,-1.861833366410099,-1.8116268116974084,-2.6015366588949096,-1.208748245640676,-4.50982925157021,503.75
404,-1.195329491219784,-1.8597178216867358,-1.8146091405307703,-2.60066451845557,-1.2079674966332794,-4.417836279281217,505.0
405,-1.1944572124909876,-1.8573715807095355,-1.817910677322853,-2.5997032424409836,-1.2070977242324992,-4.315843195395181,506.25
406,-1.193493786140341,-1.854794250181313,-1.8215292614620362,-2.5986553655575015,-1.2061370201133959,-4.203849958349962,507.5
407,-1.1924396346414723,-1.8519858836143142,-1.8254654492160545,-2.597520282176216,-1.2050858091667749,-4.081856596643172,508.75
408,-1.1912926673828792,-1.8489460487395315,-1.829716859895485,-2.596300783983608,-1.2039419899821844,-3.949863069448458,510.0
409,-1.1900489487080164,-1.845673872928865,-1.8342791428687895,-2.5950020539343295,-1.2027016069592507,-3.8078692959072944,511.25
410,-1.1887087164195367,-1.8421693189843276,-1.839152761645017,-2.5936236677446605,-1.2013648997120856,-3.655875309462332,512.5
411,-1.1872741055074398,-1.8384430149395548,-1.8443199739402614,-2.592172747154673,-1.1999339816373977,-3.494365621717886,513.75
412,-1.1858634907827388,-1.8348045872350083,-1.8493501676797366,-2.5907711004045844,-1.1985269162399743,-3.3367736066602816,515.0
413,-1.1845326223214552,-1.8313946781784294,-1.8540508100009454,-2.589471012449435,-1.1971993237146443,-3.1891813725335716,516.25
414,-1.183283599296615,-1.8282137308674389,-1.8584242718705761,-2.5882696906033438,-1.195953314024634,-3.0515889605696693,517.5
415,-1.1821185728372812,-1.8252622403447176,-1.8624728908137251,-2.5871643244112383,-1.1947910490772105,-2.923996408640265,518.75
416,-1.1810373151240152,-1.8225400963728884,-1.8661965499546143,-2.5861551383348407,-1.1937123003076693,-2.8064037086783338,520.0
417,-1.1800422858376556,-1.8200478948359815,-1.8695978552823491,-2.585238955928077,-1.1927195395191388,-2.698810905436142,521.25
418,-1.179137142206916,-1.817786621091468,-1.8726804561267103,-2.5844111808652994,-1.191816441279179,-2.6012180539217242,522.5
419,-1.178318375881985,-1.8157552776166854,-1.8754409706399922,-2.5836761554161267,-1.1909994809661053,-2.5136250927295967,523.75
420,-1.1775929093951543,-1.8139557913874544,-1.877886165652699,-2.5830252587431284,-1.1902756135039518,-2.4360321289118247,525.0
421,-1.176955842722244,-1.8123867578701116,-1.8800113439197348,-2.5824645407326976,-1.189639916222038,-2.368439082562559,526.25
422,-1.1764130263764483,-1.811049853780585,-1.881822114362029,-2.58198677770665,-1.1890982666737664,-2.310846036213272,527.5
423,-1.1759639096125536,-1.809944916948354,-1.8833179589004647,-2.581592644055164,-1.1886501115987047,-2.2632529820857172,528.75
424,-1.175606638987745,-1.809071401483356,-1.884497134284432,-2.5812844092000757,-1.18829358908989,-2.2256598875585674,530.0
425,-1.1753444046001245,-1.8084302466356434,-1.8853626415868543,-2.581058166758479,-1.1880319038146947,-2.1980667930314315,531.25
426,-1.1751772064496906,-1.8080214524052154,-1.8859144808077313,-2.580913916730373,-1.187865055773119,-2.1804736985042874,532.5
427,-1.1750466939546262,-1.8077026575165107,-1.8863446457612199,-2.580801605365677,-1.1877348158253294,-2.1727596870018178,533.75
428,-1.1744320660761067,-1.8062032451997418,-1.8883667314729886,-2.5802744949112975,-1.187121466820055,-2.1740736382255355,535.0
429,-1.1744318234903148,-1.8062031767800764,-1.8883665090520503,-2.580274782856558,-1.1871212234606074,-2.184434323970748,536.25
430,-1.1744313467638516,-1.8062030423226343,-1.8883660719532966,-2.580275348722863,-1.187120745213766,-2.2047950097159554,537.5
431,-1.1744306358967171,-1.806202841827415,-1.8883654201767275,-2.5802761925102127,-1.1871200320795308,-2.235155695461157,538.75
432,-1.1744296908012082,-1.8062025753991242,-1.8883645534225229,-2.5802773153408047,-1.18711908328161,-2.275516359176683,540.0
433,-1.1744285115076334,-1.806202243001357,-1.8883634717946705,-2.5802787168250876,-1.1871178990894529,-2.32587701490203,541.25
434,-1.174427098044436,-1.8062018446001262,-1.888362175390454,-2.580280396598893,-1.187116479754973,-2.3862376706273523,542.5
435,-1.174427061077453,-1.8062018549491832,-1.888362160989455,-2.580280400653203,-1.1871164426742382,-2.4565983078016567,543.75
436,-1.1744270618571881,-1.8062018794435764,-1.8883621845043683,-2.5802803531080927,-1.1871164434979056,-2.536958944104608,545.0
437,-1.174427062723337,-1.8062019069798578,-1.888362210968244,-2.5802802995458687,-1.187116444336549,-2.627319574788168,546.25
438,-1.1744270712052736,-1.8062019357451429,-1.8883622410325698,-2.5802802410919243,-1.1871164530455969,-2.7276801992865147,547.5
439,-1.1744270875651457,-1.8062019656759931,-1.8883622747209747,-2.580280177781521,-1.187116469896996,-2.8380408167095426,548.75
440,-1.174427105407905,-1.8062019983186055,-1.8883623114629398,-2.5802801087307343,-1.1871164882794556,-2.9584014274315336,550.0
441,-1.1744271410786986,-1.806202026540673,-1.8883623494728536,-2.5802800431107538,-1.187116524472003,-3.0887620283712915,551.25
442,-1.1744271795731196,-1.8062020568895965,-1.8883623903889215,-2.58027997250625,-1.1871165635279801,-3.229122625843511,552.5
443,-1.1744272348028284,-1.8062020796223388,-1.8883624291883396,-2.580279911862653,-1.1871166192341105,-3.3794832226913742,553.75
444,-1.1744272961257807,-1.8062021018585805,-1.8883624693945464,-2.580279850398233,-1.1871166810385665,-3.5398438117820867,555.0
445,-1.1744273697158591,-1.8062021115699682,-1.8883625014094083,-2.580279809796881,-1.1871167549390245,-3.7029505247967403,556.25
446,-1.1744274403731252,-1.8062021171011708,-1.8883625285202987,-2.5802797782239657,-1.1871168258345355,-3.8562771763398946,557.5
447,-1.1744275102843047,-1.8062021128808892,-1.8883625460737317,-2.580279765920876,-1.1871168958287215,-3.9996038278830355,558.75
448,-1.174427575225823,-1.8062021062284124,-1.8883625597660822,-2.5802797598300002,-1.1871169608042973,-4.132930479426139,560.0
449,-1.1744276350214888,-1.8062020919169712,-1.8883625645436812,-2.580279770214146,-1.1871170205023418,-4.256257130969218,561.25
450,-1.1744276899685975,-1.8062020787659852,-1.8883625689338783,-2.5802797797562893,-1.1871170753597453,-4.369583782512259,562.5
451,-1.1744277364436573,-1.8062020601467474,-1.8883625654774936,-2.5802798024712743,-1.1871171216408238,-4.472910434055312,563.75
452,-1.1744277777553054,-1.8062020421119802,-1.888362560985569,-2.580279825562036,-1.1871171627566586,-4.566237085598341,565.0
453,-1.17442781464039,-1.806202026009651,-1.8883625569749527,-2.5802798461786107,-1.187117199466911,-4.64956373714136,566.25
454,-1.1744278431766852,-1.8062020087474915,-1.8883625492767147,-2.5802798715148523,-1.187117227792247,-4.722890388684377,567.5
455,-1.174427866265292,-1.8062019926127173,-1.8883625409744358,-2.5802798962497757,-1.1871172506760084,-4.786217040227383,568.75
456,-1.1744278857079449,-1.8062019790258093,-1.8883625339831795,-2.5802799170787734,-1.1871172699461636,-4.839543691770431,570.0
457,-1.1744279015046444,-1.8062019679867671,-1.8883625283029462,-2.5802799340018456,-1.1871172856027123,-4.882870343313496,571.25
458,-1.1744279136553892,-1.8062019594955891,-1.8883625239337376,-2.5802799470189908,-1.187117297645654,-4.916196994856545,572.5
459,-1.1744279221601797,-1.806201953552275,-1.8883625208755548,-2.5802799561302097,-1.187117306074989,-4.939523646399597,573.75
460,-1.1744348608192503,-1.8062192818832548,-1.888339856768514,-2.5802853425139696,-1.1871242349967943,-4.9528712295212225,575.0
461,-1.1756908529150312,-1.8093587577675883,-1.8842347870662894,-2.581260092084522,-1.1883784710837066,-4.95824318017808,576.25
462,-1.1770889621779352,-1.8128534813112394,-1.8796652123352853,-2.5823451369296113,-1.1897746269725424,-4.953813879413193,577.5
463,-1.177133686497642,-1.8129652879256408,-1.8795190227553147,-2.582379851298538,-1.1898192924202682,-4.94140879958297,578.75
464,-1.1771336793379708,-1.8129652943594181,-1.879519022924052,-2.5823798543003997,-1.1898192918357056,-4.919137038729459,580.0
465,-1.177133668963613,-1.812965303681955,-1.879519023168552,-2.5823798586500937,-1.1898192909886747,-4.886865277875958,581.25
466,-1.1771336553745695,-1.812965315893252,-1.8795190234888148,-2.582379864347621,-1.1898192898791757,-4.844593517022425,582.5
467,-1.177133638829172,-1.812965330811645,-1.8795190244196447,-2.5823798694029385,-1.1898192907090808,-4.79232175823601,583.75
468,-1.177133619505715,-1.8129653483117538,-1.8795190263301516,-2.582379872442563,-1.189819294998073,-4.730050002254645,585.0
469,-1.1771335951758013,-1.8129653672735115,-1.8795190288684243,-2.582379871343862,-1.1898192926558533,-4.657778249496187,586.25
470,-1.177133559130398,-1.812965382943243,-1.8795190331658018,-2.5823798497994606,-1.1898192578808904,-4.575506509844946,587.5
471,-1.1771335186862726,-1.812965400507425,-1.87951903802312,-2.582379825470729,-1.1898192187342955,-4.4832347761146725,588.75
472,-1.1771334735750176,-1.8129654195052933,-1.8795190428886324,-2.582379799433966,-1.1898191748472338,-4.380963049156406,590.0
473,-1.1771334194709502,-1.8129654324291136,-1.8795190385659333,-2.58237979001098,-1.1898191207758093,-4.268691333198524,591.25
474,-1.1771333605467311,-1.812965446505252,-1.8795190338545553,-2.582379779762737,-1.1898190618785738,-4.146419624831741,592.5
475,-1.177133296556394,-1.8129654542194287,-1.8795190214581619,-2.5823797834991074,-1.1898189978455398,-4.014147922381026,593.75
476,-1.1771332275917261,-1.8129654583567456,-1.8795190040833472,-2.5823797957232486,-1.1898189287968017,-3.8718762221325997,595.0
477,-1.1771331572807622,-1.8129654542726583,-1.879518978403084,-2.5823798244288487,-1.1898188582697764,-3.7196045261937014,596.25
478,-1.177133084523007,-1.8129654446427519,-1.879518946644135,-2.5823798647053127,-1.1898187852034492,-3.557332836761291,597.5
479,-1.177133020481663,-1.8129654232842047,-1.8795189063276936,-2.582379925364418,-1.189818720686396,-3.392100741541111,598.75
480,-1.1771329628982454,-1.8129654004747318,-1.8795188666175477,-2.582379986960314,-1.1898186626181324,-3.236609509706662,600.0
481,-1.1771329232445327,-1.8129653691952667,-1.87951882432841,-2.582380059848436,-1.189818622383937,-3.091118277872222,601.25
482,-1.1771328867473574,-1.8129653398777161,-1.8795187848988835,-2.5823801279676935,-1.1898185853441252,-2.9556270460378142,602.5
483,-1.177132868257156,-1.8129653060443256,-1.8795187467088084,-2.5823801996189983,-1.1898185662784289,-2.830135814203431,603.75
484,-1.1771328512403807,-1.8129652749070186,-1.879518711561973,-2.5823802655606354,-1.1898185487320174,-2.7146445823690706,605.0
485,-1.1771328445176676,-1.8129652443579216,-1.879518680165515,-2.5823803273188712,-1.1898185415110842,-2.609153350534728,606.25
486,-1.1771328435438717,-1.812965215483188,-1.8795186521550602,-2.582380384107243,-1.1898185400779266,-2.5136621187004122,607.5
487,-1.1771328426720535,-1.8129651896322687,-1.8795186270779025,-2.5823804349486426,-1.1898185387948517,-2.4281708868660816,608.75
488,-1.1771328467574,-1.8129651665139188,-1.8795186061571976,-2.582380478982731,-1.1898185425228582,-2.3526796550317566,610.0
489,-1.1771328551254265,-1.812965146168597,-1.8795185892230255,-2.5823805163290268,-1.189818550586654,-2.2871884231974513,611.25
490,-1.1771328622157209,-1.8129651289298478,-1.879518574874568,-2.582380547972835,-1.1898185574191715,-2.231697191363123,612.5
491,-1.177132868028283,-1.8129651147976729,-1.879518563111825,-2.582380573914155,-1.1898185630204101,-2.1862059595287664,613.75
492,-1.1771328725631127,-1.8129651037720689,-1.879518553934798,-2.582380594152987,-1.18981856739037,-2.1507147276944116,615.0
493,-1.1771328758202098,-1.8129650958530363,-1.8795185473434879,-2.582380608689331,-1.1898185705290512,-2.1252234958600598,616.25
494,-1.1771328777995747,-1.8129650910405748,-1.8795185433378945,-2.5823806175231874,-1.1898185724364534,-2.1097322640257103,617.5
495,-1.1780045411475137,-1.8151706747991219,-1.8766172254499016,-2.5830826615199722,-1.1906889419240891,-2.1026492388622464,618.75
496,-1.179573923236668,-1.8191417167184354,-1.8713935593203916,-2.5843466471754324,-1.1922559955868528,-2.1049370654279516,620.0
497,-1.1798007703558868,-1.8197157183261028,-1.8706385010883215,-2.5845293494469543,-1.192482510191886,-2.115587892431753,621.25
498,-1.1798007688810643,-1.8197157250176277,-1.8706385044548934,-2.5845293460263807,-1.1924825166336253,-2.1356545316294873,622.5
499,-1.1798007666712795,-1.819715735043804,-1.8706385094991602,-2.5845293409011987,-1.1924825262855379,-2.1657211708272173,623.75
500,-1.1798007637265324,-1.8197157484046318,-1.870638516221123,-2.584529334071409,-1.192482539147624,-2.205787810024958,625.0
501,-1.1798007599492661,-1.8197157651971927,-1.870638524324791,-2.584529326668432,-1.1924825543787594,-2.255854446916807,626.25
502,-1.179800754989972,-1.8197157857692907,-1.8706385327497468,-2.5845293227456967,-1.1924825689655298,-2.3159210747716736,627.5
503,-1.1798007492050457,-1.819715809766269,-1.8706385425773044,-2.5845293181698974,-1.1924825859807322,-2.3859877026265304,628.75
504,-1.1798007497090524,-1.8197158340213546,-1.8706385653635487,-2.5845292730731586,-1.1924825864837616,-2.466054314540642,630.0
505,-1.1798007504622023,-1.819715861213055,-1.8706385913342074,-2.58452922115662,-1.1924825864541015,-2.5561209228039017,631.25
506,-1.1798007512733177,-1.8197158914073621,-1.870638620248568,-2.5845291632128404,-1.1924825862075017,-2.65618752235182,632.5
507,-1.1798007649918039,-1.8197159214844505,-1.8706386534134387,-2.5845291003939916,-1.1924826001303823,-2.76625411208816,633.75
508,-1.1798007825683179,-1.8197159536554643,-1.87063868987052,-2.5845290320465883,-1.1924826182161943,-2.8863206944561504,635.0
509,-1.179800808740988,-1.8197159854011558,-1.8706387285749106,-2.584528962029368,-1.1924826449305514,-3.01638727014494,636.25
510,-1.1798008466808994,-1.8197160153413985,-1.8706387691734154,-2.584528892139746,-1.1924826834318103,-3.1564538423264787,637.5
511,-1.1798008936656847,-1.8197160429956696,-1.8706388103761227,-2.584528824061268,-1.1924827309601094,-3.306520411653655,638.75
512,-1.1798009534273048,-1.819716065758437,-1.8706388508318699,-2.5845287617988744,-1.192482791212941,-3.4665869742189104,640.0
513,-1.1798010229012452,-1.819716080881678,-1.8706388869443809,-2.5845287116424367,-1.1924828610773877,-3.632828162612719,641.25
514,-1.1798010931700291,-1.8197160902073166,-1.870638917721031,-2.584528672614854,-1.1924829316460908,-3.790524805117361,642.5
515,-1.1798011634037886,-1.8197160881936691,-1.870638937568383,-2.5845286558232443,-1.1924830019992,-3.938221447621981,643.75
516,-1.179801229737081,-1.8197160842382158,-1.870638954336072,-2.584528643989417,-1.1924830684125256,-4.075918090126571,645.0
517,-1.1798012909581852,-1.8197160718351668,-1.8706389613839125,-2.584528650222863,-1.1924831295681746,-4.20361473263113,646.25
518,-1.1798013473169684,-1.819716058387022,-1.8706389659171618,-2.584528659940498,-1.1924831858343852,-4.321311375135669,647.5
519,-1.1798013971402987,-1.8197160428844135,-1.8706389664449237,-2.584528675614769,-1.1924832355183512,-4.429008017640184,648.75
520,-1.1798014398500543,-1.81971602426934,-1.8706389617691388,-2.5845286994901198,-1.1924832780238637,-4.526704660144692,650.0
521,-1.179801478188141,-1.819716007559667,-1.8706389575719502,-2.5845287209216465,-1.1924833161786126,-4.6144013026491955,651.25
522,-1.1798015106586204,-1.8197159915748626,-1.8706389522526197,-2.5845287426649612,-1.1924833484646444,-4.692097945153685,652.5
523,-1.1798015350341153,-1.819715974557178,-1.870638943427715,-2.5845287688230423,-1.1924833726218005,-4.759794587658183,653.75
524,-1.1798015558089152,-1.8197159600533086,-1.8706389359064057,-2.584528791117108,-1.192483393210514,-4.817491230162692,655.0
525,-1.1798015729830214,-1.8197159480632572,-1.8706389296886892,-2.5845288095471606,-1.1924834102307869,-4.865187872667221,656.25
526,-1.1798015865564324,-1.8197159385870203,-1.8706389247745685,-2.5845288241131987,-1.192483423682617,-4.902884515171747,657.5
527,-1.1798015965291486,-1.8197159316245979,-1.8706389211640444,-2.584528834815222,-1.1924834335660044,-4.93058115767627,658.75
528,-1.1798016029011695,-1.8197159271759902,-1.8706389188571164,-2.584528841653231,-1.1924834398809496,-4.948277800180799,660.0
529,-1.1803235498181028,-1.8210528615865484,-1.8688698057707154,-2.5849647725669254,-1.193004566015173,-4.9570884165342814,661.25
530,-1.1819315816674592,-1.8251717665185323,-1.863419432248032,-2.586307801685553,-1.1946100696058446,-4.9570276171673875,662.5
531,-1.1824325087276926,-1.8264548796185218,-1.861721546133368,-2.5867261796792924,-1.1951102115039312,-4.948123677322409,663.75
532,-1.1824325030468246,-1.8264548847140785,-1.8617215462345653,-2.5867261821821312,-1.195110210920729,-4.930300009496396,665.0
533,-1.182432494178696,-1.8264548926685062,-1.8617215463925394,-2.5867261860891926,-1.1951102100103206,-4.902476341670385,666.25
534,-1.1824324821233063,-1.8264549034818056,-1.8617215466072905,-2.586726191400476,-1.1951102087727057,-4.864652673844365,667.5
535,-1.1824324668806558,-1.8264549171539755,-1.8617215468788184,-2.586726198115982,-1.195110207207884,-4.816829006018353,668.75
536,-1.1824324490770584,-1.8264549332527282,-1.8617215484818819,-2.586726201523744,-1.1951102107101883,-4.759005344823253,670.0
537,-1.1824324282115224,-1.8264549521238536,-1.8617215503967965,-2.5867262053928854,-1.195110214964668,-4.691181683793454,671.25
538,-1.1824323968454769,-1.8264549684101565,-1.861721553997878,-2.5867261911043418,-1.1951101913579516,-4.6133580351526735,672.5
539,-1.1824323588419652,-1.8264549849045766,-1.86172155855795,-2.5867261683914275,-1.1951101547065632,-4.525534391170243,673.75
540,-1.182432316477683,-1.8264550032564053,-1.861721563713366,-2.5867261427597708,-1.1951101136010005,-4.427710758719675,675.0
541,-1.1824322668989122,-1.8264550184927217,-1.8617215632786184,-2.586726126589153,-1.195110064564493,-4.319887133466607,676.25
542,-1.1824322108190344,-1.8264550318496533,-1.86172155876642,-2.5867261168948734,-1.1951100085158815,-4.202063516080887,677.5
543,-1.1824321499022963,-1.8264550440228622,-1.861721551600541,-2.586726110977848,-1.1951099476038514,-4.0742399061887955,678.75
544,-1.1824320839167897,-1.8264550479356958,-1.8617215348625538,-2.586726122832048,-1.1951098815363186,-3.9364163011603956,680.0
545,-1.1824320141252083,-1.826455049746539,-1.8617215149100717,-2.5867261399399566,-1.1951098116215122,-3.78859269744839,681.25
546,-1.1824319442329454,-1.826455040448046,-1.861721484193035,-2.5867261788862197,-1.1951097414292806,-3.6307691007343053,682.5
547,-1.1824318753263632,-1.826455025219805,-1.8617214480529003,-2.5867262291833386,-1.1951096721299448,-3.4645009178198913,683.75
548,-1.1824318159809104,-1.826455002597053,-1.8617214077408164,-2.586726291168817,-1.195109612294036,-3.3045650616850057,685.0
549,-1.182431769522183,-1.8264549749857735,-1.8617213666156043,-2.5867263591342815,-1.1951095652929333,-3.1546292055501515,686.25
550,-1.1824317318508886,-1.8264549452464118,-1.8617213261665126,-2.586726428676889,-1.1951095270642376,-3.0146933494153356,687.5
551,-1.1824317060676077,-1.8264549136274264,-1.861721287597721,-2.586726498390977,-1.1951095007192152,-2.884757493280545,688.75
552,-1.1824316886120458,-1.826454881679323,-1.861721251300353,-2.5867265662861323,-1.195109482714673,-2.764821637145762,690.0
553,-1.182431675136048,-1.8264548517935548,-1.861721218233111,-2.5867266289540196,-1.195109468731309,-2.6548857810110102,691.25
554,-1.1824316741280243,-1.826454821947567,-1.861721189081127,-2.586726687853075,-1.1951094672435478,-2.554949924876266,692.5
555,-1.1824316732208677,-1.826454795088098,-1.8617211628462083,-2.5867267408584453,-1.1951094659046582,-2.4650140687415547,693.75
556,-1.182431672801907,-1.8264547711921788,-1.8617211396266047,-2.586726787900565,-1.19510946510244,-2.3850782126068326,695.0
557,-1.1824316816267326,-1.8264547497406691,-1.861721121643186,-2.58672682740693,-1.1951094736031327,-2.3151423564721165,696.25
558,-1.1824316891897126,-1.8264547313564716,-1.8617211062311831,-2.5867268612643524,-1.1951094808883267,-2.255206500337396,697.5
559,-1.1824316954908474,-1.8264547160395885,-1.8617210933905937,-2.586726889472832,-1.1951094869580223,-2.2052706442026446,698.75
560,-1.1824317005301361,-1.826454703790018,-1.8617210831214206,-2.586726912032369,-1.1951094918122198,-2.165334788067886,700.0
561,-1.1824317043075792,-1.8264546946077587,-1.861721075423664,-2.586726928942963,-1.1951094954509185,-2.135398931933131,701.25
562,-1.1824317068231769,-1.8264546884928108,-1.8617210702973244,-2.5867269402046142,-1.1951094978741186,-2.1154630757983783,702.5
563,-1.1826609220584148,-1.8270490373959254,-1.860929974785962,-2.5869253233473475,-1.1953383319594657,-2.1049185064854323,703.75
564,-1.1841889334692326,-1.8310111727687415,-1.8556563037601737,-2.588247768708573,-1.1968638029707594,-2.102727417249269,705.0
565,-1.1850262754344125,-1.8331824059759683,-1.8527663597672004,-2.588972460274207,-1.19769975549231,-2.109878722469818,706.25
566,-1.1850262742890385,-1.833182411108752,-1.8527663623258424,-2.588972457777189,-1.1976997603503443,-2.1254243066197636,707.5
567,-1.1850262724068799,-1.833182419543299,-1.85276636653038,-2.5889724536739163,-1.197699768333404,-2.1509698907697055,708.75
568,-1.185026269787937,-1.8331824312796092,-1.852766372380814,-2.588972447964388,-1.1976997794414892,-2.186515474919644,710.0
569,-1.1850262664322102,-1.8331824463176827,-1.8527663798771443,-2.588972440648604,-1.1976997936745997,-2.232061059069601,711.25
570,-1.185026261955042,-1.8331824650334663,-1.8527663878713385,-2.5889724360885076,-1.1976998076823895,-2.287606641007422,712.5
571,-1.1850262565319492,-1.833182487255418,-1.8527663968872352,-2.588972432293776,-1.1976998229935971,-2.3531522222167367,713.75
572,-1.1850262539937868,-1.8331825112046816,-1.8527664133534567,-2.588972407029196,-1.1976998311335296,-2.4286977947919364,715.0
573,-1.1850262547089065,-1.8331825367162469,-1.852766437872774,-2.588972358221878,-1.1976998311588356,-2.5142433595605453,716.25
574,-1.1850262554804467,-1.8331825651915725,-1.852766465325503,-2.5889723034180014,-1.1976998309584326,-2.6097889143811486,717.5
575,-1.1850262620340941,-1.8331825952526697,-1.8527664962736536,-2.5889722432231004,-1.197699837010062,-2.7153344625055147,718.75
576,-1.1850262787424195,-1.8331826258396193,-1.852766531167748,-2.588972178011666,-1.1976998542029194,-2.8308800022797502,720.0
577,-1.1850262968984133,-1.8331826590726872,-1.852766569084896,-2.588972107145013,-1.197699872897862,-2.9564255336540883,721.25
578,-1.185026332830657,-1.833182687856006,-1.8527666081986585,-2.58897203986141,-1.197699909373143,-3.0919710590330234,722.5
579,-1.1850263717731258,-1.833182718606781,-1.8527666501577658,-2.5889719678176726,-1.1976999488981825,-3.237516584197254,723.75
580,-1.1850264284044103,-1.8331827409996644,-1.852766689525702,-2.5889719069651362,-1.1977000060130056,-3.3930621026915433,725.0
581,-1.185026491349762,-1.833182761955388,-1.8527667294682209,-2.5889718470655185,-1.1977000694323183,-3.5583301947478168,726.25
582,-1.1850265627463867,-1.8331827714751054,-1.8527667609556695,-2.5889718071511503,-1.1977001411373074,-3.720544517180902,727.5
583,-1.1850266317694431,-1.8331827754794994,-1.8527667863549522,-2.588971778789432,-1.197700210374857,-3.872758839613951,728.75
584,-1.185026699439404,-1.8331827714883597,-1.852766803579104,-2.5889717665558587,-1.197700278127767,-4.014973162046983,730.0
585,-1.1850267622207105,-1.8331827639222862,-1.8527668158126895,-2.588971762804801,-1.197700340923891,-4.147187484479993,731.25
586,-1.1850268200250182,-1.8331827501681683,-1.8527668204942247,-2.5889717727022457,-1.1977003986326626,-4.2694018069129935,732.5
587,-1.1850268730995794,-1.8331827375394647,-1.8527668247926938,-2.588971781789849,-1.1977004516195044,-4.381616129345964,733.75
588,-1.1850269174635595,-1.8331827187501522,-1.852766820401877,-2.588971805580071,-1.1977004957777329,-4.483830451778916,735.0
589,-1.1850269572818124,-1.833182701423061,-1.8527668160119677,-2.5889718278433604,-1.1977005354038692,-4.576044774211863,736.25
590,-1.1850269927820547,-1.8331826859749742,-1.8527668120981096,-2.5889718476923522,-1.197700570732828,-4.658259096644797,737.5
591,-1.1850270195680594,-1.8331826689343993,-1.8527668039235667,-2.5889718732599363,-1.1977005973029877,-4.730473419077718,738.75
592,-1.185027041694291,-1.8331826535029532,-1.8527667958568463,-2.588971897045471,-1.197700619229124,-4.792687741510647,740.0
593,-1.18502706026407,-1.8331826405518774,-1.8527667890867257,-2.588971917007846,-1.1977006376309698,-4.844902063943601,741.25
594,-1.1850270752773961,-1.833182630081171,-1.8527667836132058,-2.588971933147061,-1.197700652508525,-4.88711638637656,742.5
595,-1.185027086734269,-1.833182622090833,-1.8527667794362888,-2.5889719454631144,-1.1977006638617893,-4.9193307088095155,743.75
596,-1.1850270946346888,-1.8331826165808631,-1.8527667765559739,-2.5889719539560074,-1.1977006716907628,-4.941545031242476,745.0
597,-1.1850708279847002,-1.8332974012698342,-1.852613106378134,-2.589011149596536,-1.1977443282640894,-4.953898579954816,746.25
598,-1.1863927990128071,-1.8367675470524027,-1.8479675533234114,-2.590195931360494,-1.1990639794479274,-4.958347356465316,747.5
599,-1.1875788502223024,-1.8398809168637371,-1.843799627231306,-2.5912589005970674,-1.200247950817442,-4.953007326608345,748.75
600,-1.1875861626848656,-1.8399001266976134,-1.8437739157298687,-2.5912654598794345,-1.2002552541136167,-4.939751508772471,750.0
601,-1.1875861553437583,-1.8399001332705986,-1.8437739158213382,-2.591265463257416,-1.200255253209646,-4.916520465140179,751.25
602,-1.1875861448426095,-1.8399001426729815,-1.8437739159521818,-2.591265468089479,-1.2002552519165541,-4.883289421507891,752.5
603,-1.1875861311814184,-1.8399001549047616,-1.843773916122399,-2.591265474375623,-1.2002552502343402,-4.840058377875599,753.75
604,-1.1875861146761841,-1.8399001697514872,-1.8437739169651577,-2.5912654797912205,-1.2002552509130027,-4.7868273411809374,755.0
605,-1.1875860953899904,-1.8399001871703455,-1.843773918606861,-2.5912654838721876,-1.2002552545015428,-4.723596310956585,756.25
606,-1.1875860703109096,-1.8399002053220486,-1.8437739210815256,-2.5912654814358205,-1.2002552481578976,-4.650365285597965,757.5
607,-1.187586034736955,-1.8399002207403252,-1.8437739253720153,-2.5912654602028953,-1.200255213882208,-4.567134271911078,758.75
608,-1.1875859948693972,-1.8399002379983207,-1.8437739302245695,-2.5912654362170526,-1.2002551753234205,-4.473903265452508,760.0
609,-1.1875859500118187,-1.8399002558876973,-1.843773934139152,-2.591265412446412,-1.2002551315986645,-4.370672265840536,761.25
610,-1.1875858967761013,-1.8399002685321217,-1.8437739298277036,-2.5912654032998015,-1.2002550783973163,-4.2574412761122264,762.5
611,-1.1875858388376035,-1.8399002822945403,-1.8437739251315057,-2.591265393360521,-1.200255020486348,-4.134210294959194,763.75
612,-1.1875857759189543,-1.8399002887315747,-1.8437739117352399,-2.591265399387815,-1.2002549575145178,-4.000979319468264,765.0
613,-1.1875857081807464,-1.8399002927071535,-1.8437738944319735,-2.591265411717539,-1.2002548896910712,-3.857748345551486,766.25
614,-1.1875856396671387,-1.8399002873527388,-1.8437738678065323,-2.591265442659792,-1.200254820940905,-3.7045173765191373,767.5
615,-1.187585568260941,-1.8399002778128724,-1.8437738362037748,-2.5912654827090127,-1.200254749224604,-3.541286413842173,768.75
616,-1.187585507197137,-1.8399002556894613,-1.8437737955862281,-2.5912655444761845,-1.200254687669692,-3.376803197933712,770.0
617,-1.1875854528205059,-1.8399002324926952,-1.8437737560140448,-2.591265606368297,-1.2002546327991948,-3.222278113121493,771.25
618,-1.187585414386547,-1.839900202137191,-1.8437737144572506,-2.591265677622154,-1.2002545937904432,-3.0777530283093006,772.5
619,-1.1875853805597092,-1.8399001730351443,-1.8437736755603487,-2.591265745034977,-1.200254559419144,-2.9432279434971536,773.75
620,-1.187585362655531,-1.8399001402664779,-1.8437736380713927,-2.591265814934243,-1.200254540945994,-2.8187028586850302,775.0
621,-1.1875853461891501,-1.839900110129311,-1.843773603592983,-2.5912658792202405,-1.2002545239563323,-2.704177773872916,776.25
622,-1.1875853410512605,-1.839900080273393,-1.8437735729290021,-2.591265939580621,-1.200254518324456,-2.599652689060818,777.5
623,-1.1875853401080545,-1.8399000523938716,-1.8437735454996422,-2.591265994798141,-1.2002545169283838,-2.5051276042487394,778.75
624,-1.1875853392646318,-1.8399000274637853,-1.8437735209720851,-2.5912660441740885,-1.2002545156800049,-2.4206025194366614,780.0
625,-1.1875853441606028,-1.8399000051521754,-1.843773500786873,-2.5912660866822352,-1.2002545202258967,-2.346077434624587,781.25
626,-1.1875853522024507,-1.8398999856112397,-1.8437734842815388,-2.5912661227945177,-1.2002545279693386,-2.281552349812507,782.5
627,-1.1875853589979852,-1.8398999690987294,-1.843773470334175,-2.591266153310174,-1.2002545345127138,-2.2270272650004177,783.75
628,-1.1875853645472065,-1.8398999556146456,-1.843773458944781,-2.5912661782292026,-1.2002545398560223,-2.1825021801882993,785.0
629,-1.1875853688501143,-1.839899945158986,-1.8437734501133596,-2.5912661975516045,-1.2002545439992636,-2.1479770953761914,786.25
630,-1.1875853719067087,-1.8398999377317502,-1.84377344383991,-2.5912662112773797,-1.200254546942438,-2.123452010564093,787.5
631,-1.1875853737169897,-1.8398999333329387,-1.8437734401244334,-2.5912662194065277,-1.2002545486855456,-2.1089269257519896,788.75
632,-1.188551145353497,-1.8424663605537583,-1.8403180916719035,-2.5921619431742964,-1.2012185344962192,-2.102552303574222,790.0
633,-1.1899771219889566,-1.846255737325494,-1.8352162145776143,-2.5934844886687527,-1.2026418756319714,-2.105730569406103,791.25
634,-1.1901095535233728,-1.8466076653771388,-1.8347423982443838,-2.5936073135564452,-1.2027740665517155,-2.117013533220023,792.5
635,-1.1901095519814966,-1.8466076722037241,-1.8347424016194547,-2.593607310392408,-1.2027740729038683,-2.1378964741555206,793.75
636,-1.190109549701278,-1.8466076822992865,-1.8347424066107116,-2.59360730571324,-1.2027740822978112,-2.168779415091015,795.0
637,-1.1901095466827172,-1.8466076956638255,-1.8347424132181538,-2.5936072995189425,-1.2027740947335448,-2.2096623560265276,796.25
638,-1.1901095427871264,-1.8466077124307496,-1.8347424210339351,-2.5936072933496446,-1.202774108990817,-2.260545296008546,797.5
639,-1.190109537741613,-1.8466077328625654,-1.8347424292555385,-2.5936072902358456,-1.202774122668553,-2.32142823356131,798.75
640,-1.1901095322602129,-1.8466077564731482,-1.834742439474934,-2.593607284392144,-1.2027741376248966,-2.3923111701331017,800.0
641,-1.1901095329283722,-1.8466077802927867,-1.834742462544956,-2.5936072386286977,-1.2027741376332457,-2.4731940911581614,801.25
642,-1.190109533668128,-1.8466078070494685,-1.8347424884958905,-2.5936071870841326,-1.2027741375490038,-2.5640770078370507,802.5
643,-1.1901095344681192,-1.8466078367350338,-1.8347425173572844,-2.5936071296314154,-1.2027741372755836,-2.6649599166296385,803.75
644,-1.190109549143255,-1.8466078660132177,-1.8347425505487827,-2.593607067490725,-1.20277415228643,-2.7758428146360123,805.0
645,-1.1901095664141117,-1.8466078976224636,-1.834742586871249,-2.593606999830536,-1.2027741700720618,-2.8967257054048305,806.25
646,-1.1901095934224784,-1.8466079282413137,-1.8347426252650834,-2.593606931265289,-1.2027741976221211,-3.02760858970707,807.5
647,-1.1901096306616998,-1.846607957655871,-1.8347426656735055,-2.59360686207867,-1.2027742354242534,-3.168491470993896,808.75
648,-1.1901096780011295,-1.8466079839633758,-1.8347427062115975,-2.5936067960128177,-1.2027742832969885,-3.3193743489623113,810.0
649,-1.1901097366142017,-1.8466080063462926,-1.8347427464485209,-2.5936067343311553,-1.2027743424025978,-3.4802572203023776,811.25
650,-1.1901098052470263,-1.846608020062972,-1.8347427813592063,-2.593606686767841,-1.2027744114090355,-3.646233637622707,812.5
651,-1.190109873456117,-1.846608029191633,-1.8347428116547964,-2.593606648388629,-1.202774479916216,-3.8031072930245737,813.75
652,-1.1901099420408001,-1.846608026263141,-1.8347428302887805,-2.5936066337006034,-1.202774548603814,-3.9499809484265462,815.0
653,-1.1901100063794647,-1.8466080225049377,-1.8347428467814202,-2.59360662191786,-1.2027746130225874,-4.086854603828662,816.25
654,-1.1901100657007253,-1.8466080096671416,-1.834742852831198,-2.5936066295575557,-1.2027746722653458,-4.213728259230919,817.5
655,-1.1901101203079905,-1.8466079967079958,-1.8347428572850077,-2.5936066388437484,-1.2027747267817908,-4.330601914633302,818.75
656,-1.19011016819783,-1.8466079811151352,-1.834742857060497,-2.593606655334282,-1.2027747745232529,-4.437475570035797,820.0
657,-1.1901102095197895,-1.84660796316223,-1.8347428524719016,-2.5936066784442415,-1.2027748156440548,-4.534349225438404,821.25
658,-1.1901102465761988,-1.8466079470625574,-1.834742848356968,-2.5936066991686255,-1.2027748525200712,-4.62122288084106,822.5
659,-1.1901102774639076,-1.8466079313128405,-1.8347428426506096,-2.5936067210432046,-1.2027748832195388,-4.698096536243812,823.75
660,-1.1901103009579557,-1.8466079149454977,-1.8347428340236296,-2.5936067463437755,-1.2027749064990787,-4.764970191646604,825.0
661,-1.1901103209388044,-1.846607901025658,-1.834742826686691,-2.593606767861008,-1.2027749262974965,-4.821843847049437,826.25
662,-1.1901103374064546,-1.8466078895533222,-1.8347428206397907,-2.5936067855949014,-1.202774942614792,-4.868717502452302,827.5
663,-1.1901103503609052,-1.8466078805284885,-1.834742815882933,-2.5936067995454564,-1.2027749554509646,-4.905591157855166,828.75
664,-1.1901103598021565,-1.8466078739511564,-1.8347428124161178,-2.593606809712672,-1.2027749648060144,-4.932464813258018,830.0
665,-1.1901103657302081,-1.8466078698213264,-1.8347428102393446,-2.5936068160965484,-1.202774970679941,-4.949338468660868,831.25
666,-1.1907104651603277,-1.848222277732235,-1.8325569756910238,-2.5941824414409327,-1.203373902603909,-4.957536917468314,832.5
667,-1.1922211231271562,-1.852286326615831,-1.8270544489313965,-2.5956314896107475,-1.204881622057976,-4.956727362987826,833.75
668,-1.1926004540698985,-1.8533068323979716,-1.8256727367177465,-2.595995354194396,-1.20526021754788,-4.947284407404987,835.0
669,-1.192600448273872,-1.8533068375785793,-1.825672736760906,-2.595995356966272,-1.205260216718362,-4.928784756867787,836.25
670,-1.1926004393447995,-1.8533068455595685,-1.8256727368273955,-2.5959953612364877,-1.2052602154404475,-4.900285106330555,837.5
671,-1.1926004272826807,-1.8533068563409394,-1.8256727369172145,-2.5959953670050435,-1.2052602137141364,-4.861785455793312,838.75
672,-1.1926004121130334,-1.853306869905637,-1.825672737080757,-2.595995374088194,-1.2052602117637983,-4.813285806003963,840.0
673,-1.1926003944221144,-1.8533068858618462,-1.8256727384757774,-2.5959953782645075,-1.2052602147442006,-4.75478617204805,841.25
674,-1.1926003737070883,-1.8533069045456296,-1.825672740109264,-2.5959953831547256,-1.2052602182340764,-4.686286538092153,842.5
675,-1.192600342174301,-1.8533069201013919,-1.825672743762584,-2.595995367733731,-1.2052601924750141,-4.6077869177637805,843.75
676,-1.1926003048028786,-1.8533069362703074,-1.8256727483058914,-2.5959953454046762,-1.205260156461719,-4.5192873018464415,845.0
677,-1.192600263179708,-1.8533069542461826,-1.8256727534353883,-2.5959953202395063,-1.205260116131238,-4.420787696840679,846.25
678,-1.192600214190835,-1.8533069686169958,-1.8256727523441105,-2.5959953057244753,-1.2052600676060128,-4.312288099837864,847.5
679,-1.1926001591505204,-1.8533069816571164,-1.8256727478532189,-2.5959952963368957,-1.2052600125978319,-4.193788510589275,848.75
680,-1.192600099365047,-1.8533069927869357,-1.8256727399904091,-2.5959952921730616,-1.2052599528107626,-4.065288928664874,850.0
681,-1.1926000346549013,-1.8533069965507916,-1.825672723341711,-2.59599530410277,-1.2052598880176166,-3.926789351246443,851.25
682,-1.1925999665950386,-1.8533069973747522,-1.82567270275698,-2.5959953228499453,-1.2052598198200557,-3.778289775531567,852.5
683,-1.1925998980947234,-1.8533069881932298,-1.825672672221947,-2.5959953615164633,-1.2052597510187313,-3.619790206696325,853.75
684,-1.1925998315905115,-1.8533069723647708,-1.8256726357953532,-2.5959954127331333,-1.2052596841092285,-3.4534280533020096,855.0
685,-1.1925997739208118,-1.8533069503342676,-1.8256725960628977,-2.595995473572919,-1.2052596259522819,-3.294174918189859,856.25
686,-1.1925997298022009,-1.8533069227734669,-1.8256725551658504,-2.595995541295249,-1.2052595812859255,-3.1449217830775624,857.5
687,-1.192599693215577,-1.8533068938731843,-1.8256725153224718,-2.5959956094124346,-1.2052595441462757,-3.00566864796514,858.75
688,-1.192599669249851,-1.8533068627099034,-1.825672477226529,-2.5959956782278484,-1.205259519618369,-2.8764155128525726,860.0
689,-1.1925996523089857,-1.8533068317129646,-1.8256724415016985,-2.5959957446113786,-1.2052595021335328,-2.7571623777398764,861.25
690,-1.192599640188366,-1.853306802509507,-1.825672409050863,-2.5959958060044634,-1.2052594895088853,-2.647909242627063,862.5
691,-1.1925996392084728,-1.8533067736014652,-1.8256723803913983,-2.5959958634782723,-1.2052594880543621,-2.5486561075141494,863.75
692,-1.1925996383273063,-1.8533067476059855,-1.8256723546194407,-2.595995915161452,-1.205259486746386,-2.4594029724011586,865.0
693,-1.1925996385925681,-1.8533067244621306,-1.825672332004538,-2.595995960860903,-1.205259486633973,-2.3801498372880925,866.25
694,-1.1925996471184965,-1.853306703756144,-1.8256723143769777,-2.5959959992654165,-1.2052594948402888,-2.3108967021749587,867.5
695,-1.1925996544133,-1.8533066860400562,-1.8256722992947978,-2.5959960321244027,-1.2052595018616308,-2.251643567061785,868.75
696,-1.192599660476978,-1.85330667131387,-1.8256722867579964,-2.595996059437862,-1.205259507697999,-2.2023904319485927,870.0
697,-1.1925996653095308,-1.8533066595775822,-1.8256722767665756,-2.5959960812057945,-1.205259512349393,-2.1631372968353815,871.25
698,-1.1925996689109581,-1.8533066508311926,-1.8256722693205367,-2.5959960974282,-1.2052595158158133,-2.1338841617221807,872.5
699,-1.1925996712812603,-1.853306645074701,-1.825672264419879,-2.595996108105078,-1.2052595180972596,-2.114631026608989,873.75
700,-1.1928840579497342,-1.8540811816975715,-1.8246177391060787,-2.5962780734039583,-1.2055433234199062,-2.1046067946032356,875.0
701,-1.1943527606076956,-1.8580812743818422,-1.8191716786134289,-2.597734249506703,-1.2070090241726565,-2.1030260137521353,876.25
702,-1.19505624611005,-1.859997260445176,-1.81656310013087,-2.5984317340253384,-1.207711074519881,-2.11062641133241,877.5
703,-1.1950562449203954,-1.8599972656505925,-1.816563102685608,-2.598431731724756,-1.20771107928161,-2.126710638001544,878.75
704,-1.1950562429911002,-1.8599972740923576,-1.8165631068286956,-2.5984317279938387,-1.2077110870038352,-2.1527948646706965,880.0
705,-1.1950562403221645,-1.8599972857704714,-1.8165631125601331,-2.598431722832587,-1.207711097686557,-2.1888790913398597,881.25
706,-1.1950562369135882,-1.8599973006849337,-1.8165631198799206,-2.5984317162410004,-1.207711111329775,-2.234963318009027,882.5
707,-1.1950562323529828,-1.8599973192269084,-1.8165631275914076,-2.5984317127097376,-1.207711124268329,-2.2910475397263586,883.75
708,-1.1950562268699825,-1.8599973411785804,-1.8165631363609362,-2.5984317097382217,-1.2077111385431256,-2.35713176022644,885.0
709,-1.19505622467298,-1.8599973645830188,-1.8165631532867184,-2.5984316830058067,-1.2077111452199156,-2.4332159711103865,886.25
710,-1.1950562253759802,-1.8599973896155102,-1.8165631777282674,-2.598431634698761,-1.2077111452138722,-2.519300175028769,887.5
711,-1.1950562261337176,-1.8599974175354812,-1.8165632050826654,-2.5984315804662024,-1.2077111449758298,-2.61538436813649,888.75
712,-1.1950562333403427,-1.8599974468148435,-1.8165632359754071,-2.5984315210123645,-1.2077111517617662,-2.7214685545380375,890.0
713,-1.1950562497273887,-1.859997476795797,-1.8165632706881154,-2.5984314565793794,-1.2077111686371984,-2.8375527326876684,891.25
714,-1.1950562680532217,-1.8599975091307897,-1.8165633083343353,-2.5984313868830347,-1.2077111875039048,-2.9636369026886538,892.5
715,-1.195056303593635,-1.8599975372025612,-1.816563347179934,-2.5984313205724883,-1.207711223587153,-3.099721066693689,893.75
716,-1.1950563418394973,-1.8599975672719835,-1.8165633888451684,-2.5984312494911634,-1.207711262415173,-3.2458052306206286,895.0
717,-1.1950563980227986,-1.8599975887398645,-1.8165634276952258,-2.598431190072999,-1.207711319075827,-3.401889387386742,896.25
718,-1.1950564602086828,-1.859997608557937,-1.8165634668131059,-2.598431132122213,-1.207711381725228,-3.567486223325296,897.5
719,-1.1950565296595292,-1.8599976178788236,-1.8165634978852752,-2.5984310927944922,-1.207711451483171,-3.729155329165974,898.75
720,-1.1950565970702978,-1.8599976211465556,-1.8165635223540746,-2.598431066076307,-1.2077115190970464,-3.880824435006735,900.0
721,-1.1950566628635484,-1.8599976173352322,-1.81656353934257,-2.598431053874032,-1.207711584973493,-4.022493540847677,901.25
722,-1.1950567238658552,-1.8599976094675854,-1.8165635508266638,-2.5984310511497233,-1.20771164598172,-4.154162646688724,902.5
723,-1.19505678003065,-1.8599975961715156,-1.8165635554406472,-2.5984310606367647,-1.2077117020525094,-4.2758317525299345,903.75
724,-1.1950568315694203,-1.859997583950266,-1.8165635596545868,-2.5984310693826744,-1.2077117535046835,-4.387500858371264,905.0
725,-1.1950568744153869,-1.8599975653646603,-1.816563554861478,-2.5984310933525294,-1.2077117961402015,-4.489169964212673,906.25
726,-1.195056913047098,-1.8599975486071056,-1.8165635505398074,-2.598431114964752,-1.2077118345821638,-4.580839070054201,907.5
727,-1.1950569474645538,-1.859997533677601,-1.8165635466895762,-2.5984311342193402,-1.2077118688305697,-4.6625081758957805,908.75
728,-1.1950569731094394,-1.859997516975707,-1.8165635383286225,-2.5984311596208594,-1.2077118942578369,-4.734177281737431,910.0
729,-1.1950569945141996,-1.8599975020814286,-1.8165635304108374,-2.598431182713009,-1.2077119154652847,-4.795846387579126,911.25
730,-1.1950570124480553,-1.8599974896023448,-1.8165635237769644,-2.598431202060635,-1.2077119332338246,-4.847515493420856,912.5
731,-1.1950570269110061,-1.859997479538454,-1.8165635184270046,-2.5984312176637365,-1.2077119475634548,-4.889184599262602,913.75
732,-1.1950570379030523,-1.8599974718897556,-1.81656351436096,-2.5984312295223133,-1.2077119584541751,-4.920853705104345,915.0
733,-1.195057045424193,-1.8599974666562495,-1.8165635115788308,-2.5984312376363645,-1.2077119659059856,-4.9425228109460715,916.25
734,-1.195125976230283,-1.8601875177416174,-1.816303333868397,-2.59850184024241,-1.2077807488352537,-4.954421909919308,917.5
735,-1.1964240189314412,-1.8637666519478322,-1.8114036420722615,-2.599831360625994,-1.2090760074067117,-4.958422454720863,918.75
736,-1.197479711589405,-1.866677557100272,-1.807418732836592,-2.600912656575059,-1.2101294372288158,-4.952701267072838,920.0
737,-1.1974808613277168,-1.8666807427768577,-1.807414376961145,-2.6009138406314465,-1.2101305880396478,-4.93906221083729,921.25
738,-1.1974808539860757,-1.8666807493280815,-1.8074143769811024,-2.6009138442660604,-1.2101305868456245,-4.915427445202403,922.5
739,-1.1974808435381457,-1.8666807586511638,-1.8074143770095037,-2.6009138494385,-1.2101305851464035,-4.881792679567463,923.75
740,-1.197480829983927,-1.8666807707461053,-1.8074143770463493,-2.6009138561487646,-1.2101305829419846,-4.838157913932541,925.0
741,-1.1974808136595894,-1.8666807853913363,-1.807414377746588,-2.600913862025492,-1.2101305832185916,-4.784523158128719,926.25
742,-1.1974807945792836,-1.8666808025775308,-1.8074143791377901,-2.6009138669688587,-1.2101305861019307,-4.720888410073133,927.5
743,-1.1974807694931042,-1.8666808201625946,-1.8074143814928874,-2.600913864323128,-1.2101305779866298,-4.647253667588515,928.75
744,-1.1974807346025171,-1.8666808352391626,-1.8074143857531837,-2.600913843521829,-1.2101305444087234,-4.563618936137782,930.0
745,-1.1974806955207615,-1.866680852104233,-1.8074143905740474,-2.600913820015128,-1.2101305066484123,-4.469984212557935,931.25
746,-1.1974806513861058,-1.8666808692634602,-1.8074143940678395,-2.60091379751686,-1.2101304636144636,-4.366349495884462,932.5
747,-1.197480599237084,-1.8666808815888316,-1.8074143897836406,-2.600913788673401,-1.210130411501358,-4.252714788621349,933.75
748,-1.1974805424975623,-1.8666808950001692,-1.8074143851183861,-2.600913779066846,-1.2101303547903863,-4.129080090388474,935.0
749,-1.1974804808805146,-1.86668090080284,-1.8074143713731996,-2.6009137860935607,-1.2101302931155051,-3.9954453977549456,936.25
750,-1.1974804145728086,-1.8666809046302428,-1.8074143541874106,-2.600913798471633,-1.2101302267217109,-3.851810706495355,937.5
751,-1.1974803477306677,-1.8666808988177652,-1.8074143273029053,-2.6009138301520185,-1.2101301596343361,-3.6981760203756537,938.75
752,-1.1974802778551432,-1.8666808894299818,-1.8074142959246744,-2.600913869845517,-1.2101300894481513,-3.534541340525551,940.0
753,-1.1974802188548086,-1.866680867312087,-1.80741425539973,-2.60091393154443,-1.2101300299509186,-3.370432384407714,941.25
754,-1.197480166516576,-1.8666808442879959,-1.8074142160856095,-2.6009139930361167,-1.2101299771156535,-3.2163176673395077,942.5
755,-1.1974801291033146,-1.8666808147405831,-1.8074141750418606,-2.6009140629868446,-1.2101299391308298,-3.0722029502711594,943.75
756,-1.1974800968134351,-1.8666807861480315,-1.8074141365623122,-2.6009141294978715,-1.2101299062965785,-2.938088233202388,945.0
757,-1.1974800793908689,-1.8666807542869979,-1.8074140995528507,-2.6009141980212958,-1.2101298883087555,-2.813973516133437,946.25
758,-1.1974800633720504,-1.8666807249930357,-1.807414065525256,-2.6009142610237457,-1.210129871770223,-2.699858799064451,947.5
759,-1.197480058936418,-1.8666806958591415,-1.8074140353188928,-2.6009143202189273,-1.210129866843328,-2.595744081995406,948.75
760,-1.197480058016962,-1.8666806687928144,-1.8074140082685861,-2.6009143742487613,-1.2101298654746055,-2.501629364926379,950.0
761,-1.1974800571952011,-1.8666806446023783,-1.8074139840924601,-2.6009144225377465,-1.2101298642513145,-2.4175146478573013,951.25
762,-1.1974800623425559,-1.8666806229489565,-1.8074139643122211,-2.600914463990135,-1.2101298690523568,-2.343399930788251,952.5
763,-1.197480070140644,-1.8666806040240713,-1.807413948067841,-2.600914499225217,-1.2101298765551216,-2.279285213719178,953.75
764,-1.197480076722461,-1.8666805880509103,-1.8074139343571025,-2.600914528964668,-1.2101298828876772,-2.2251704966501493,955.0
765,-1.1974800820880067,-1.866680575029473,-1.8074139231800055,-2.6009145532084883,-1.2101298880500235,-2.181055779581167,956.25
766,-1.1974800862372814,-1.8666805649597578,-1.8074139145365518,-2.6009145719566775,-1.2101298920421604,-2.146941062512159,957.5
767,-1.1974800891702848,-1.866680557841764,-1.8074139084267418,-2.600914585209236,-1.2101298948640875,-2.122826345443153,958.75
768,-1.1974800908870171,-1.866680553675492,-1.8074139048505755,-2.6009145929661632,-1.2101298965158052,-2.1087116283741363,960.0
769,-1.1984474269450758,-1.8693809449647867,-1.8036971370829418,-2.601937605305945,-1.2110950580115878,-2.102608161747679,961.25
770,-1.1997701083773011,-1.8730733167066291,-1.79861503368226,-2.60333641170615,-1.2124147674122518,-2.1061254098193793,962.5
771,-1.1998716934944131,-1.8733569056584667,-1.7982247144695056,-2.6034438427638027,-1.2125161283292838,-2.117616443481244,963.75
772,-1.1998716919275347,-1.8733569124362046,-1.7982247177742512,-2.6034438399056894,-1.2125161344242312,-2.1387709253603218,965.0
773,-1.1998716896199726,-1.8733569224178677,-1.7982247226411932,-2.603443835696508,-1.2125161434003404,-2.169925407239403,966.25
774,-1.1998716865717265,-1.873356935603456,-1.7982247290703315,-2.6034438301362584,-1.2125161552576107,-2.211079889118474,967.5
775,-1.1998716826311109,-1.8733569521350815,-1.798224736626813,-2.603443824846415,-1.2125161686343493,-2.2622343691261393,968.75
776,-1.1998716775532818,-1.8733569722421348,-1.7982247446087183,-2.603443822444282,-1.2125161813325773,-2.323388844972797,970.0
777,-1.1998716722309377,-1.8733569953690827,-1.7982247548744372,-2.603443816322903,-1.2125161947706637,-2.3945433193683963,971.25
778,-1.199871672886336,-1.8733570186691595,-1.7982247778183513,-2.603443771150149,-1.2125161947522374,-2.475697778611074,972.5
779,-1.1998716736114707,-1.8733570448314882,-1.7982248036210784,-2.6034437202772898,-1.212516194635893,-2.566852233083922,973.75
