Miguel-LA/TFM_MiguelLerinAlonso/workspace/ros_ur_driver/src/trayectories/data/saved_trajectories/20240522_1805_trajectory.csv
,shoulder_pan_joint,shoulder_lift_joint,elbow_joint,wrist_1_joint,wrist_2_joint,wrist_3_joint,time_from_start
0,1.2174730220086405,-1.3993621215238408,1.9938826288391476,-0.6007475054180065,-5.0608861143394686,-2.420196458392687,0.0
1,1.2185979837366618,-1.3992117451757078,1.9936777580654292,-0.6006889214552834,-5.05975438119008,-2.415196458392687,1.0
2,1.2219728689207257,-1.3987606161313093,1.9930631457442742,-0.6005131695671143,-5.056359181741913,-2.400196458392687,2.0
3,1.2275976775608322,-1.398008734390645,1.992038791875683,-0.6002202497534992,-5.05070051599497,-2.3751964583926872,3.0
4,1.2354724093285452,-1.3969560969112234,1.9906046926210035,-0.5998101611705113,-5.042778384405641,-2.340196458450439,4.0
5,1.2455925572104907,-1.3955592311037819,1.9887059970133532,-0.599270842640534,-5.03259912015189,-2.2951964690862545,5.0
6,1.2579495895492299,-1.3937358050581423,1.9862388237952864,-0.5985794516681584,-5.020174713382618,-2.2401964922965374,6.0
7,1.272536213931429,-1.3914161207318276,1.9831152163086259,-0.5977166404381808,-5.005515388206398,-2.1751965348882703,7.0
8,1.2893324868292522,-1.388521749313803,1.9792334622086702,-0.5966588406537707,-4.988645052269208,-2.10019660210497,8.0
9,1.3083144266159892,-1.384962423900478,1.9744762525364479,-0.5953787654242118,-4.969592307189517,-2.0151966882928836,9.0
10,1.3294447656621886,-1.3806403857986487,1.968713110701895,-0.5938444047774301,-4.948399884053469,-1.9201967980741488,10.0
11,1.3514997771092403,-1.3757226331542531,1.9621645805413248,-0.5921157186430972,-4.926299570508002,-1.8205364523980845,11.0
12,1.371383187985893,-1.3709324709406614,1.9557862902689696,-0.5904408066212627,-4.906393151649506,-1.730150983123824,12.0
13,1.3889635919013714,-1.3664123396903252,1.9497646579670267,-0.5888651533667475,-4.888807266948658,-1.6497655103569153,13.0
14,1.4042658163148976,-1.3622588871672336,1.9442244783332985,-0.5874185986784148,-4.87351299900443,-1.5793800205309099,14.0
15,1.4173247904013841,-1.358550815714045,1.9392727483430647,-0.5861274425633667,-4.860470203156915,-1.5189945213478881,15.0
16,1.4281677895308418,-1.3553576559512752,1.9350025026271087,-0.5850126106315607,-4.849645987811252,-1.4686090170731043,16.0
17,1.4368229900084746,-1.3527336319449859,1.931489090120996,-0.5840940708658375,-4.841009095648931,-1.4282234987839226,17.0
18,1.4433140550801635,-1.3507214585304919,1.928792462067669,-0.5833883302688374,-4.834533713093622,-1.3978379710940896,18.0
19,1.447659331356189,-1.3493542526408278,1.9269590988430982,-0.5829081867705965,-4.830199826372914,-1.3774524358683793,19.0
20,1.4518614401849939,-1.348033477987065,1.9252251404348493,-0.5826283879606372,-4.82604050084437,-1.3670348091709867,20.0
21,1.458667319671973,-1.3459026293704839,1.9224938423801656,-0.5825033892402809,-4.819359770061752,-1.3665953395584307,21.0
22,1.462896855498898,-1.3445832873120258,1.920841667726875,-0.5826181465051791,-4.8152407614797905,-1.375958575585509,22.0
23,1.4628763546800734,-1.3445983412492892,1.9209307631774246,-0.5829632467583359,-4.815321793166987,-1.3932627038224743,23.0
24,1.462825232608492,-1.3446274068188269,1.9210775553994708,-0.5835043308350834,-4.815477184951789,-1.420555814095687,24.0
25,1.4627530171967242,-1.3446667531907819,1.9212765678223067,-0.5842366772722727,-4.815709937367956,-1.4578489243928572,25.0
26,1.4626575136349178,-1.344716037926736,1.9215263480478373,-0.5851537952519799,-4.816039026122766,-1.505142034592764,26.0
27,1.462534400460454,-1.344776900837835,1.9218237949309032,-0.5862431145722553,-4.816490547878352,-1.562435128475359,27.0
28,1.4623748879044056,-1.344856117577082,1.9221622422914786,-0.5874793814010637,-4.817100834039358,-1.629728216435941,28.0
29,1.4621731709349124,-1.3449553142797357,1.9225366609318728,-0.5888410858857434,-4.817904955820609,-1.7070222657995318,29.0
30,1.4619299610403829,-1.3450653630431402,1.9229433013638353,-0.5903038921232238,-4.81892625096696,-1.7943153438509347,30.0
31,1.4616407766909534,-1.345188167157733,1.9233671439529658,-0.5918198353386259,-4.820196168039413,-1.891608412050675,31.0
32,1.4613004377754804,-1.3453289275155844,1.923785141077075,-0.5933197080279129,-4.821743444364721,-1.9989014761954635,32.0
33,1.4609081175610428,-1.3454756613492802,1.9241962361651224,-0.594764158748994,-4.823593340723193,-2.116194534359064,33.0
34,1.4604646055990196,-1.345642474664945,1.9245724158986466,-0.5960504461666289,-4.825763119997934,-2.2434875813287305,34.0
35,1.4599679601769204,-1.3458183052585584,1.9248963086573987,-0.5971027720876307,-4.828258065986824,-2.3807806145853614,35.0
36,1.459433638762086,-1.3460031056809243,1.9251290060328916,-0.5978009108565772,-4.8310532223196265,-2.5280736324858872,36.0
37,1.4588600897016688,-1.3461905483043,1.925253903140419,-0.5980459594485978,-4.834117639048789,-2.685366634967887,37.0
38,1.4582986858462181,-1.346364836882075,1.9252269742430048,-0.5977527895038577,-4.837296238068696,-2.849921558399427,38.0
39,1.4577928155030975,-1.3465033086583171,1.9250638472190271,-0.5969682530308233,-4.8402476647915975,-3.0067492445677977,39.0
40,1.45737046371142,-1.3466137334355501,1.9247903295043436,-0.5957862996681627,-4.842865234020376,-3.1535769293354665,40.0
41,1.4570075579965636,-1.3466936046515654,1.9244422553532345,-0.5943291920800462,-4.845148100938779,-3.290404613817231,41.0
42,1.4567301761036724,-1.3467496768754308,1.9240322022994913,-0.5926784958401541,-4.847062977958398,-3.4172323014393915,42.0
43,1.4565056680045867,-1.3467846395436611,1.923594135449144,-0.5909362537360607,-4.848652153891756,-3.5340599898536835,43.0
44,1.4563426010315421,-1.3467964429699917,1.9231501384271183,-0.5891880937115594,-4.849929014081781,-3.640887676787231,44.0
45,1.4562335917574076,-1.3467904769786803,1.922715002453069,-0.5874904381515798,-4.850927202675571,-3.737715365394501,45.0
46,1.4561526995621161,-1.3467769031466539,1.9223014982699231,-0.5858833484987382,-4.8516985355883335,-3.8245430531667797,46.0
47,1.4561068462565796,-1.3467580044699028,1.9219205073348906,-0.5844073407259724,-4.852264573050924,-3.9013707376565816,47.0
48,1.4560904275601851,-1.3467362176407573,1.921578786095643,-0.5830871241407181,-4.8526619231062895,-3.9681984227392713,48.0
49,1.4560867936034478,-1.346714829310295,1.921281756161699,-0.5819431179472367,-4.8529361767626895,-4.025026107906678,49.0
50,1.456089268823126,-1.3466954837492313,1.9210328134801662,-0.5809869525930438,-4.853119642227519,-4.071853792967087,50.0
51,1.4560942816930362,-1.3466793046756718,1.9208346882770453,-0.5802274238983365,-4.853240088538932,-4.108681477708093,51.0
52,1.4560981952115584,-1.3466674364082518,1.9206901608283335,-0.579673488925271,-4.853325793816081,-4.13550916233091,52.0
53,1.4561006499688878,-1.346659992028911,1.920599505881384,-0.5793260328119558,-4.853379552513287,-4.152336846953728,53.0
54,1.456312979170504,-1.3450614804788223,1.9184956035076053,-0.5786937622467869,-4.853191477731546,-4.1604265951106365,54.0
55,1.4568725744635553,-1.3408340711658033,1.913038530737146,-0.5774775098322695,-4.852621774832792,-4.15959834498925,55.0
56,1.456999206823955,-1.3398718920004027,1.9118396296131133,-0.5773867334123227,-4.852462438800299,-4.150309275438215,56.0
57,1.4569964224017449,-1.3398817378822725,1.911939514437361,-0.5777654863064008,-4.852403811006265,-4.131921605644019,57.0
58,1.4569921236918402,-1.339896938375129,1.912093720894184,-0.578350221197283,-4.852313298914387,-4.10353393584982,58.0
59,1.4569869885050526,-1.3399172794663343,1.912301726427553,-0.5791392553483803,-4.852185598496327,-4.065146280814986,59.0
60,1.4569849450777062,-1.3399415208952479,1.9125605030613224,-0.580122838344483,-4.851989969983883,-4.016758634870154,60.0
61,1.4569894531619436,-1.3399685703176054,1.9128673839600436,-0.5812923826959846,-4.8516993396366885,-3.9583709888516343,61.0
62,1.45700891893717,-1.3399951912839159,1.9132185584688197,-0.582636001749723,-4.851279185041399,-3.889983354744759,62.0
63,1.4570599563347013,-1.34001457844776,1.9136083693467945,-0.5841365074517721,-4.850683222082836,-3.8115957240919065,63.0
64,1.4571446458650188,-1.3400251115881001,1.9140292426783168,-0.5857653298516396,-4.849879183351128,-3.7232081071801995,64.0
65,1.4572587732307838,-1.3400269986437516,1.9144698479638054,-0.5874789592437075,-4.848842190985991,-3.624820496375775,65.0
66,1.457431123801741,-1.340009986517717,1.9149080505059963,-0.589222731456644,-4.847522053002901,-3.5167568114413195,66.0
67,1.457633246854006,-1.3399762577399392,1.9152868888680015,-0.5907594184024276,-4.846083283671575,-3.4119687519785282,67.0
68,1.4578348423834857,-1.3399348368918407,1.9155913111960006,-0.5920044376617142,-4.844666769660915,-3.317180690498385,68.0
69,1.4580454143357091,-1.339890847206917,1.915827617480594,-0.5929855751938433,-4.8433016690206685,-3.2323926273474823,69.0
70,1.4582472922066674,-1.3398455793439301,1.916008120713041,-0.5937451178826976,-4.842034944020808,-3.1576045647996227,70.0
71,1.4584264773814093,-1.3398004008870976,1.916143970999773,-0.5943222786871445,-4.840903240889363,-3.092816501098058,71.0
72,1.4585840010440183,-1.3397587588404873,1.9162429909065075,-0.594749134881873,-4.839921355678353,-3.038028436845612,72.0
73,1.4587198860878496,-1.3397233045863675,1.9163120820844846,-0.5950535680418838,-4.839101777166682,-2.99324037223934,73.0
74,1.4588298564106497,-1.3396948923147673,1.9163583845012173,-0.5952623895276972,-4.838454693335835,-2.958452307561687,74.0
75,1.4574487413588497,-1.3396033236827332,1.9164166286487885,-0.5962397986150603,-4.83715810683873,-2.9323340508772895,75.0
76,1.4476411823807733,-1.3391150910550467,1.9166252622157829,-0.6019801694328113,-4.831326323695399,-2.9108381845527123,76.0
77,1.432346681120993,-1.3383750337520743,1.9169241053904171,-0.610775843674721,-4.822675615080217,-2.8988378381588853,77.0
78,1.4150298830178516,-1.3375486005102357,1.9172481916203779,-0.6206504324655013,-4.813119924708376,-2.8968353276146157,78.0
79,1.396855212942714,-1.3366905830846965,1.9175766980189644,-0.6309456557395042,-4.803285575441457,-2.9041783299098305,79.0
80,1.370128426988534,-1.33543078136916,1.918057350184349,-0.6460709734597391,-4.788864385583755,-2.9169518764795455,80.0
81,1.3357274648922315,-1.3338092474092096,1.9186760140577845,-0.6655392882238251,-4.770302377921147,-2.93339314600344,81.0
82,1.300820879852324,-1.332163880256115,1.919303771009719,-0.685293746921633,-4.751467547163437,-2.950076068161061,82.0
83,1.2659142948124162,-1.3305185131030206,1.9199315279616533,-0.7050482056194407,-4.7326327164057265,-2.9667589903186813,83.0
84,1.2310077097725094,-1.3288731459499261,1.920559284913588,-0.724802664317248,-4.713797885648018,-2.983441912476302,84.0
85,1.1961011247326019,-1.3272277787968318,1.9211870418655228,-0.7445571230150559,-4.694963054890308,-3.0001248346339224,85.0
86,1.161194539692695,-1.3255824116437374,1.9218147988174572,-0.7643115817128633,-4.676128224132598,-3.0168077567915423,86.0
87,1.1262879546527866,-1.323937044490643,1.9224425557693918,-0.7840660404106714,-4.6572933933748875,-3.0334906789491636,87.0
88,1.0913813696128798,-1.3222916773375486,1.9230703127213264,-0.8038204991084789,-4.638458562617178,-3.050173601106784,88.0
89,1.0564747845729727,-1.320646310184454,1.923698069673261,-0.8235749578062862,-4.619623731859468,-3.0668565232644043,89.0
90,1.0215681995330652,-1.3190009430313598,1.9243258266251955,-0.843329416504094,-4.600788901101758,-3.0835394454220246,90.0
91,0.9866616144931583,-1.3173555758782654,1.92495358357713,-0.8630838752019014,-4.5819540703440484,-3.100222367579645,91.0
92,0.9517550294532502,-1.3157102087251709,1.9255813405290647,-0.8828383338997096,-4.563119239586338,-3.116905289737266,92.0
93,0.916848444413343,-1.3140648415720766,1.9262090974809993,-0.9025927925975169,-4.544284408828628,-3.133588211894886,93.0
94,0.8819418593734355,-1.312419474418982,1.926836854432934,-0.9223472512953248,-4.525449578070919,-3.150271134052507,94.0
95,0.8470352743335288,-1.3107741072658876,1.9274646113848686,-0.9421017099931321,-4.506614747313209,-3.1669540562101273,95.0
96,0.812128689293621,-1.3091287401127931,1.9280923683368032,-0.9618561686909398,-4.487779916555499,-3.1836369783677476,96.0
97,0.7772221042537135,-1.3074833729596989,1.9287201252887378,-0.9816106273887477,-4.468945085797789,-3.2003199005253684,97.0
98,0.7423155192138065,-1.3058380058066044,1.9293478822406722,-1.001365086086555,-4.450110255040079,-3.217002822682989,98.0
99,0.707408934173899,-1.30419263865351,1.9299756391926068,-1.0211195447843628,-4.4312754242823695,-3.233685744840609,99.0
100,0.672502349133992,-1.3025472715004156,1.9306033961445415,-1.0408740034821702,-4.41244059352466,-3.2503686669982295,100.0
101,0.6375957640940838,-1.3009019043473211,1.931231153096476,-1.0606284621799784,-4.393605762766949,-3.2670515891558507,101.0
102,0.602689179054177,-1.2992565371942268,1.9318589100484107,-1.0803829208777858,-4.374770932009239,-3.283734511313471,102.0
103,0.5677825940142692,-1.2976111700411321,1.932486667000345,-1.1001373795755935,-4.35593610125153,-3.3004174334710914,103.0
104,0.5328760089743623,-1.295965802888038,1.93311442395228,-1.1198918382734009,-4.337101270493821,-3.3171003556287117,104.0
105,0.49796942393445487,-1.2943204357349436,1.9337421809042143,-1.1396462969712087,-4.31826643973611,-3.3337832777863325,105.0
106,0.46306283889454736,-1.292675068581849,1.934369937856149,-1.1594007556690165,-4.2994316089784,-3.3504661999439533,106.0
107,0.4281562538546396,-1.2910297014287546,1.9349976948080834,-1.1791552143668242,-4.28059677822069,-3.3671491221015737,107.0
108,0.3932496688147328,-1.2893843342756603,1.9356254517600182,-1.1989096730646316,-4.261761947462981,-3.3838320442591945,108.0
109,0.3583430837748258,-1.2877389671225659,1.9362532087119526,-1.218664131762439,-4.24292711670527,-3.400514966416814,109.0
110,0.3234364987349183,-1.2860935999694714,1.9368809656638872,-1.2384185904602467,-4.2240922859475605,-3.4171978885744347,110.0
111,0.2885299136950107,-1.284448232816377,1.937508722615822,-1.2581730491580547,-4.205257455189851,-3.4338808107320555,111.0
112,0.2536233286551032,-1.2828028656632826,1.9381364795677567,-1.2779275078558623,-4.186422624432141,-3.4505637328896763,112.0
113,0.2187167436151961,-1.2811574985101883,1.9387642365196909,-1.2976819665536699,-4.167587793674431,-3.4672466550472967,113.0
114,0.1838101585752886,-1.2795121313570936,1.9393919934716255,-1.3174364252514774,-4.1487529629167215,-3.4839295772049166,114.0
115,0.14890357353538164,-1.2778667642039996,1.9400197504235601,-1.337190883949285,-4.129918132159012,-3.5006124993625374,115.0
116,0.11399698849547413,-1.2762213970509049,1.9406475073754947,-1.3569453426470925,-4.111083301401301,-3.5172954215201577,116.0
117,0.0790904034555664,-1.2745760298978104,1.9412752643274294,-1.3766998013449006,-4.092248470643591,-3.5339783436777785,117.0
118,0.04418381841565955,-1.2729306627447161,1.941903021279364,-1.396454260042708,-4.0734136398858825,-3.550661265835399,118.0
119,0.009277233375751814,-1.2712852955916216,1.9425307782312986,-1.4162087187405157,-4.054578809128172,-3.5673441879930192,119.0
120,-0.02562935166415481,-1.2696399284385271,1.9431585351832332,-1.435963177438323,-4.035743978370462,-3.5840271101506396,120.0
121,-0.06053593670406299,-1.2679945612854326,1.9437862921351676,-1.4557176361361313,-4.016909147612752,-3.6007100323082604,121.0
122,-0.09544252174397005,-1.2663491941323386,1.9444140490871022,-1.4754720948339386,-3.9980743168550426,-3.617392954465881,122.0
123,-0.13034910678387712,-1.264703826979244,1.9450418060390366,-1.495226553531746,-3.9792394860973324,-3.634075876623501,123.0
124,-0.16525569182378463,-1.2630584598261496,1.9456695629909715,-1.514981012229554,-3.9604046553396226,-3.650758798781122,124.0
125,-0.20016227686369148,-1.2614130926730551,1.9462973199429063,-1.5347354709273613,-3.9415698245819133,-3.6674417209387427,125.0
126,-0.23506886190359988,-1.2597677255199606,1.9469250768948405,-1.554489929625169,-3.922734993824202,-3.684124643096363,126.0
127,-0.2699754469435067,-1.2581223583668664,1.9475528338467754,-1.5742443883229769,-3.903900163066493,-3.700807565253984,127.0
128,-0.30488203198341424,-1.256476991213772,1.9481805907987098,-1.5939988470207844,-3.885065332308783,-3.717490487411604,128.0
129,-0.3397886170233211,-1.2548316240606776,1.9488083477506444,-1.613753305718592,-3.866230501551074,-3.7341734095692245,129.0
130,-0.37469520206322815,-1.2531862569075831,1.949436104702579,-1.6335077644163993,-3.8473956707933636,-3.750856331726845,130.0
131,-0.40960178710313633,-1.2515408897544886,1.9500638616545136,-1.6532622231142076,-3.8285608400356534,-3.7675392538844656,131.0
132,-0.4445083721430433,-1.2498955226013944,1.9506916186064482,-1.673016681812015,-3.8097260092779437,-3.784222176042086,132.0
133,-0.4794149571829506,-1.2482501554482999,1.9513193755583829,-1.6927711405098225,-3.7908911785202344,-3.8009050981997063,133.0
134,-0.5143215422228578,-1.2466047882952054,1.9519471325103175,-1.71252559920763,-3.772056347762524,-3.817588020357327,134.0
135,-0.5492281272627653,-1.2449594211421111,1.952574889462252,-1.7322800579054378,-3.7532215170048144,-3.834270942514947,135.0
136,-0.5841347123026728,-1.2433140539890166,1.9532026464141865,-1.7520345166032456,-3.7343866862471042,-3.8509538646725683,136.0
137,-0.6190412973425805,-1.2416686868359221,1.953830403366121,-1.7717889753010534,-3.715551855489394,-3.8676367868301886,137.0
138,-0.6539478823824901,-1.2400233196828276,1.9544581603180555,-1.7915434339988623,-3.696717024731683,-3.8843197089878103,138.0
139,-0.6888544674224009,-1.2383779525297332,1.9550859172699901,-1.8112978926966719,-3.6778821939739714,-3.9010026311454324,139.0
140,-0.7237610524623102,-1.2367325853766387,1.9557136742219248,-1.8310523513944807,-3.65904736321626,-3.917685553303054,140.0
141,-0.7586676375022224,-1.235087218223544,1.9563414311738598,-1.850806810092291,-3.6402125324585475,-3.9343684754606763,141.0
142,-0.7935742225421334,-1.2334418510704492,1.9569691881257945,-1.8705612687901008,-3.621377701700836,-3.951051397618299,142.0
143,-0.8284808075820441,-1.2317964839173547,1.957596945077729,-1.8903157274879103,-3.6025428709431244,-3.967734319775921,143.0
144,-0.8633873926219537,-1.2301511167642603,1.9582247020296637,-1.9100701861857192,-3.5837080401854133,-3.984417241933543,144.0
145,-0.8982939776618649,-1.2285057496111655,1.9588524589815983,-1.9298246448835288,-3.564873209427701,-4.001100164091165,145.0
146,-0.9332005627017755,-1.226860382458071,1.959480215933533,-1.9495791035813386,-3.54603837866999,-4.017783086248787,146.0
147,-0.9681071477416864,-1.2252150153049763,1.9601079728854676,-1.9693335622791481,-3.5272035479122774,-4.034466008406409,147.0
148,-1.003013732781597,-1.2235696481518819,1.9607357298374022,-1.9890880209769577,-3.5083687171545668,-4.051148930564032,148.0
149,-1.037920317821508,-1.2219242809987871,1.9613634867893368,-2.008842479674767,-3.4895338863968544,-4.067831852721653,149.0
150,-1.0728269028614188,-1.2202789138456926,1.9619912437412714,-2.0285969383725773,-3.4706990556391433,-4.084514774879276,150.0
151,-1.1077334879013296,-1.218633546692598,1.962619000693206,-2.0483513970703866,-3.451864224881431,-4.1011976970368975,151.0
152,-1.1426400729412407,-1.2169881795395034,1.9632467576451407,-2.0681058557681964,-3.433029394123719,-4.11788061919452,152.0
153,-1.1775466579811513,-1.215342812386409,1.9638745145970753,-2.0878603144660057,-3.4141945633660074,-4.134563541352143,153.0
154,-1.2124532430210624,-1.2136974452333142,1.9645022715490101,-2.1076147731638155,-3.3953597326082954,-4.151246463509764,154.0
155,-1.2473598280609732,-1.2120520780802198,1.9651300285009448,-2.127369231861625,-3.376524901850584,-4.167929385667387,155.0
156,-1.2822664131008836,-1.2104067109271253,1.9657577854528794,-2.1471236905594346,-3.357690071092872,-4.184612307825009,156.0
157,-1.3171729981407947,-1.2087613437740305,1.966385542404814,-2.1668781492572444,-3.3388552403351603,-4.20129522998263,157.0
158,-1.352079583180704,-1.207115976620936,1.9670132993567486,-2.186632607955053,-3.3200204095774493,-4.217978152140253,158.0
159,-1.386986168220615,-1.2054706094678416,1.9676410563086835,-2.206387066652863,-3.3011855788197377,-4.234661074297875,159.0
160,-1.421892753260526,-1.2038252423147469,1.9682688132606179,-2.2261415253506724,-3.2823507480620253,-4.251343996455497,160.0
161,-1.4567993383004372,-1.2021798751616524,1.9688965702125527,-2.2458959840484822,-3.2635159173043142,-4.26802691861312,161.0
162,-1.4917059233403465,-1.2005345080085577,1.969524327164487,-2.2656504427462907,-3.2446810865466027,-4.2847098407707405,162.0
163,-1.5266125083802586,-1.1988891408554632,1.970152084116422,-2.2854049014441014,-3.225846255788891,-4.301392762928364,163.0
164,-1.5615190934201695,-1.1972437737023685,1.9707798410683566,-2.3051593601419107,-3.2070114250311788,-4.318075685085985,164.0
165,-1.596425678460079,-1.1955984065492742,1.9714075980202912,-2.3249138188397196,-3.188176594273468,-4.334758607243607,165.0
166,-1.6313322634999912,-1.1939530393961792,1.9720353549722258,-2.34466827753753,-3.1693417635157553,-4.35144152940123,166.0
167,-1.6662388485399007,-1.1923076722430848,1.9726631119241604,-2.364422736235339,-3.150506932758044,-4.3681244515588515,167.0
168,-1.7011454335798115,-1.1906623050899903,1.973290868876095,-2.3841771949331485,-3.131672102000332,-4.384807373716474,168.0
169,-1.736052018619724,-1.1890169379368958,1.9739186258280297,-2.403931653630959,-3.1128372712426198,-4.401490295874097,169.0
170,-1.7709586036596332,-1.1873715707838013,1.9745463827799643,-2.423686112328768,-3.0940024404849087,-4.418173218031718,170.0
171,-1.8058651886995443,-1.1857262036307066,1.9751741397318991,-2.443440571026578,-3.075167609727197,-4.43485614018934,171.0
172,-1.8407717737394549,-1.1840808364776119,1.9758018966838338,-2.4631950297243868,-3.0563327789694856,-4.451539062346962,172.0
173,-1.8756783587793657,-1.1824354693245174,1.9764296536357684,-2.4829494884221965,-3.0374979482117737,-4.468221984504584,173.0
174,-1.9105849438192766,-1.1807901021714229,1.977057410587703,-2.5027039471200063,-3.018663117454062,-4.484904906662207,174.0
175,-1.9454915288591872,-1.1791447350183284,1.9776851675396376,-2.522458405817816,-2.99982828669635,-4.5015878288198286,175.0
176,-1.9803981138990983,-1.1774993678652337,1.9783129244915723,-2.542212864515626,-2.9809934559386386,-4.518270750977451,176.0
177,-2.015304698939009,-1.175854000712139,1.978940681443507,-2.561967323213435,-2.9621586251809267,-4.534953673135073,177.0
178,-2.05021128397892,-1.1742086335590445,1.9795684383954417,-2.5817217819112446,-2.9433237944232147,-4.551636595292695,178.0
179,-2.0851178690188306,-1.17256326640595,1.9801961953473763,-2.6014762406090544,-2.924488963665503,-4.568319517450318,179.0
180,-2.1200244540587407,-1.1709178992528555,1.980823952299311,-2.6212306993068637,-2.905654132907792,-4.585002439607939,180.0
181,-2.1549310390986527,-1.1692725320997606,1.9814517092512456,-2.640985158004674,-2.8868193021500796,-4.601685361765562,181.0
182,-2.1898376241385624,-1.167627164946666,1.9820794662031802,-2.660739616702483,-2.867984471392368,-4.618368283923184,182.0
183,-2.2247442091784744,-1.1659817977935716,1.9827072231551148,-2.680494075400293,-2.849149640634656,-4.6350512060808065,183.0
184,-2.2596507942183854,-1.164336430640477,1.9833349801070495,-2.700248534098103,-2.830314809876944,-4.651734128238429,184.0
185,-2.2945573792582947,-1.1626910634873826,1.983962737058984,-2.7200029927959117,-2.811479979119233,-4.66841705039605,185.0
186,-2.329463964298206,-1.161045696334288,1.9845904940109187,-2.739757451493721,-2.7926451483615216,-4.685099972553672,186.0
187,-2.3643705493381164,-1.1594003291811932,1.9852182509628533,-2.759511910191531,-2.7738103176038096,-4.701782894711294,187.0
188,-2.3992771343780275,-1.1577549620280987,1.985846007914788,-2.77926636888934,-2.754975486846098,-4.718465816868917,188.0
189,-2.4341837194179377,-1.1561095948750042,1.9864737648667226,-2.79902082758715,-2.736140656088386,-4.735148739026538,189.0
190,-2.4690903044578487,-1.1544642277219097,1.9871015218186572,-2.8187752862849598,-2.7173058253306746,-4.751831661184161,190.0
191,-2.50399688949776,-1.152818860568815,1.9877292787705918,-2.838529744982769,-2.698470994572963,-4.7685145833417835,191.0
192,-2.538903474537672,-1.1511734934157203,1.9883570357225264,-2.8582842036805793,-2.67963616381525,-4.785197505499406,192.0
193,-2.5738100595775815,-1.1495281262626258,1.9889847926744615,-2.8780386623783882,-2.660801333057539,-4.801880427657028,193.0
194,-2.608716644617492,-1.1478827591095313,1.989612549626396,-2.897793121076198,-2.6419665022998275,-4.818563349814649,194.0
195,-2.643623229657403,-1.1462373919564368,1.9902403065783307,-2.917547579774008,-2.6231316715421156,-4.835246271972272,195.0
196,-2.6785298146973138,-1.144592024803342,1.9908680635302654,-2.937302038471817,-2.604296840784404,-4.851929194129894,196.0
197,-2.7134363997372244,-1.1429466576502474,1.9914958204822,-2.957056497169627,-2.585462010026692,-4.868612116287516,197.0
198,-2.748342984777136,-1.141301290497153,1.9921235774341346,-2.9768109558674367,-2.56662717926898,-4.885295038445139,198.0
199,-2.783249569817047,-1.1396559233440582,1.9927513343860692,-2.9965654145652465,-2.547792348511268,-4.9019779606027605,199.0
200,-2.8181561548569563,-1.1380105561909637,1.9933790913380038,-3.016319873263055,-2.5289575177535575,-4.918660882760382,200.0
201,-2.853062739896867,-1.1363651890378692,1.9940068482899385,-3.0360743319608647,-2.510122686995846,-4.935343804918005,201.0
202,-2.8879693249367793,-1.1347198218847745,1.994634605241873,-3.0558287906586754,-2.4912878562381335,-4.952026727075627,202.0
203,-2.922875909976689,-1.13307445473168,1.9952623621938077,-3.0755832493564843,-2.472453025480422,-4.968709649233249,203.0
204,-2.957782495016601,-1.1314290875785853,1.9958901191457423,-3.0953377080542945,-2.4536181947227096,-4.9853925713908716,204.0
205,-2.9926890800565107,-1.1297837204254908,1.996517876097677,-3.115092166752103,-2.434783363964999,-5.002075493548493,205.0
206,-3.027595665096421,-1.1281383532723963,1.9971456330496116,-3.1348466254499128,-2.415948533207287,-5.018758415706115,206.0
207,-3.062502250136332,-1.1264929861193016,1.9977733900015462,-3.1546010841477226,-2.397113702449575,-5.035441337863737,207.0
208,-3.097408835176243,-1.124847618966207,1.9984011469534808,-3.1743555428455323,-2.3782788716918635,-5.052124260021359,208.0
209,-3.1323154202161536,-1.1232022518131126,1.9990289039054154,-3.1941100015433412,-2.359444040934152,-5.068807182178981,209.0
210,-3.1672220052560647,-1.121556884660018,1.9996566608573503,-3.213864460241151,-2.34060921017644,-5.085490104336604,210.0
211,-3.2021285902959753,-1.1199115175069234,2.0002844178092847,-3.233618918938961,-2.3217743794187284,-5.102173026494226,211.0
212,-3.237035175335886,-1.1182661503538287,2.0009121747612193,-3.2533733776367706,-2.3029395486610165,-5.118855948651849,212.0
213,-3.271941760375797,-1.1166207832007342,2.001539931713154,-3.2731278363345804,-2.284104717903305,-5.13553887080947,213.0
214,-3.3068483454157076,-1.1149754160476397,2.0021676886650885,-3.2928822950323893,-2.265269887145593,-5.152221792967093,214.0
215,-3.3417549304556182,-1.113330048894545,2.0027954456170236,-3.3126367537301986,-2.246435056387882,-5.168904715124714,215.0
216,-3.37666151549553,-1.1116846817414505,2.0034232025689582,-3.3323912124280093,-2.2276002256301695,-5.185587637282337,216.0
217,-3.411568100535441,-1.1100393145883558,2.004050959520893,-3.352145671125819,-2.208765394872457,-5.20227055943996,217.0
218,-3.44647468557535,-1.1083939474352613,2.0046787164728275,-3.371900129823628,-2.1899305641147464,-5.218953481597581,218.0
219,-3.4813812706152625,-1.1067485802821668,2.005306473424762,-3.3916545885214378,-2.171095733357034,-5.235636403755204,219.0
220,-3.516287855655172,-1.1051032131290721,2.0059342303766967,-3.4114090472192466,-2.152260902599323,-5.252319325912826,220.0
221,-3.551194440695083,-1.1034578459759776,2.0065619873286313,-3.4311635059170564,-2.1334260718416114,-5.269002248070447,221.0
222,-3.586101025734995,-1.101812478822883,2.007189744280566,-3.450917964614867,-2.1145912410838985,-5.28568517022807,222.0
223,-3.621007610774904,-1.1001671116697884,2.0078175012325006,-3.4706724233126756,-2.095756410326188,-5.3023680923856915,223.0
224,-3.655914195814815,-1.098521744516694,2.008445258184435,-3.4904268820104853,-2.076921579568476,-5.319051014543313,224.0
225,-3.690820780854726,-1.0968763773635992,2.0090730151363703,-3.5101813407082947,-2.0580867488107644,-5.335733936700936,225.0
226,-3.725727365894637,-1.0952310102105047,2.009700772088305,-3.5299357994061045,-2.0392519180530524,-5.3524168588585574,226.0
227,-3.760633950934548,-1.09358564305741,2.0103285290402395,-3.5496902581039143,-2.020417087295341,-5.36909978101618,227.0
228,-3.795540535974458,-1.0919402759043155,2.010956285992174,-3.5694447168017236,-2.0015822565376293,-5.385782703173803,228.0
229,-3.8304471210143687,-1.090294908751221,2.0115840429441088,-3.5891991754995334,-1.9827474257799174,-5.402465625331425,229.0
230,-3.8653537060542793,-1.0886495415981263,2.0122117998960434,-3.6089536341973427,-1.9639125950222058,-5.419148547489046,230.0
231,-3.9002602910941917,-1.0870041744450318,2.012839556847978,-3.628708092895153,-1.9450777642644934,-5.4358314696466685,231.0
232,-3.9351668761341023,-1.0853588072919371,2.0134673137999126,-3.6484625515929627,-1.9262429335067817,-5.452514391804292,232.0
233,-3.9700734611740116,-1.0837134401388426,2.0140950707518472,-3.668217010290771,-1.9074081027490708,-5.469197313961913,233.0
234,-4.004980046213924,-1.0820680729857481,2.014722827703782,-3.687971468988582,-1.8885732719913584,-5.485880236119536,234.0
235,-4.039886631253833,-1.0804227058326534,2.0153505846557165,-3.7077259276863908,-1.8697384412336473,-5.502563158277157,235.0
236,-4.074793216293744,-1.078777338679559,2.015978341607651,-3.7274803863842,-1.8509036104759353,-5.51924608043478,236.0
237,-4.109699801333656,-1.0771319715264642,2.0166060985595857,-3.7472348450820103,-1.832068779718223,-5.535929002592402,237.0
238,-4.1446063863735665,-1.0754866043733697,2.0172338555115203,-3.766989303779819,-1.813233948960512,-5.552611924750024,238.0
239,-4.179512971413477,-1.0738412372202752,2.017861612463455,-3.786743762477629,-1.7943991182028003,-5.5692948469076455,239.0
240,-4.214419556453388,-1.0721958700671805,2.0184893694153896,-3.806498221175439,-1.7755642874450885,-5.585977769065268,240.0
241,-4.249326141493298,-1.070550502914086,2.019117126367324,-3.826252679873248,-1.7567294566873768,-5.60266069122289,241.0
242,-4.284232726533209,-1.0689051357609913,2.019744883319259,-3.8460071385710575,-1.7378946259296653,-5.619343613380512,242.0
243,-4.31913931157312,-1.0672597686078968,2.0203726402711935,-3.8657615972688673,-1.7190597951719533,-5.636026535538134,243.0
244,-4.35404589661303,-1.0656144014548024,2.021000397223128,-3.885516055966677,-1.7002249644142415,-5.652709457695757,244.0
245,-4.3889524816529395,-1.0639690343017079,2.0216281541750627,-3.905270514664486,-1.6813901336565307,-5.669392379853378,245.0
246,-4.423859066692852,-1.0623236671486131,2.0222559111269973,-3.925024973362296,-1.662555302898818,-5.686075302011002,246.0
247,-4.458765651732763,-1.0606782999955184,2.022883668078932,-3.9447794320601055,-1.6437204721411063,-5.702758224168623,247.0
248,-4.493672236772674,-1.059032932842424,2.0235114250308666,-3.964533890757915,-1.624885641383395,-5.719441146326245,248.0
249,-4.5285788218125855,-1.0573875656893292,2.0241391819828016,-3.9842883494557255,-1.6060508106256823,-5.736124068483868,249.0
250,-4.563485406852496,-1.0557421985362347,2.0247669389347362,-4.004042808153534,-1.5872159798679715,-5.752806990641489,250.0
251,-4.598391991892406,-1.0540968313831403,2.025394695886671,-4.023797266851344,-1.5683811491102597,-5.769489912799111,251.0
252,-4.633298576932318,-1.0524514642300455,2.0260224528386055,-4.043551725549154,-1.5495463183525473,-5.7861728349567345,252.0
253,-4.668205161972227,-1.050806097076951,2.02665020979054,-4.063306184246962,-1.5307114875948364,-5.802855757114355,253.0
254,-4.703111747012138,-1.0491607299238563,2.0272779667424747,-4.083060642944773,-1.5118766568371247,-5.819538679271978,254.0
255,-4.736761113953386,-1.0475746233762164,2.0278831139948172,-4.102103612306808,-1.4937201935016853,-5.835620738536504,255.0
256,-4.761653283770146,-1.0464012986714675,2.028330772585119,-4.116190677540541,-1.4802889224347835,-5.847517466071223,256.0
257,-4.779106815162988,-1.0455761981883558,2.028643971750089,-4.126071416514074,-1.4709124027960552,-5.85353602796098,257.0
258,-4.7962696400455105,-1.0447549221597927,2.028949135761254,-4.135801494384268,-1.4618612025998259,-5.849876599249394,258.0
259,-4.811027498041797,-1.044037844918974,2.0292084453898567,-4.144183397158169,-1.4542639214919864,-5.83622004692436,259.0
260,-4.8195344491145615,-1.04360934603835,2.0293536154289122,-4.149036273684802,-1.4501429437233033,-5.81371812614972,260.0
261,-4.820166616049442,-1.0435521469377473,2.0293575440697413,-4.1494308265969195,-1.450279100614913,-5.786975302982111,261.0
262,-4.820037079692991,-1.0435261558548916,2.029349049252792,-4.14938853444982,-1.4509815083044364,-5.750925389009302,262.0
263,-4.819872237001015,-1.043500608667589,2.0293447841704744,-4.14930327541753,-1.4518739114324086,-5.704875474966214,263.0
264,-4.819672467960785,-1.0434812828402826,2.02934953443412,-4.149152026861735,-1.4529526334475715,-5.648825566069055,264.0
265,-4.8194634025346454,-1.0434800986970458,2.0293653140938543,-4.1489336652213,-1.4540627558735775,-5.590495105249335,265.0
266,-4.8192880118389425,-1.0434955546924662,2.0293865881026543,-4.148702981351583,-1.4549744029480625,-5.5420172713579605,266.0
267,-4.819147815910508,-1.0435177028544296,2.0294083776478007,-4.148490310490942,-1.455691406285541,-5.5035394375077775,267.0
268,-4.819043929635694,-1.0435353575904198,2.0294251310030464,-4.148329131464491,-1.456221225628513,-5.4750616037520885,268.0
269,-4.818976523057934,-1.0435468128604881,2.0294360014124933,-4.1482245505022854,-1.4565649987477736,-5.456583769996406,269.0
270,-4.818945596177226,-1.0435520686646342,2.029440988876141,-4.148176567604327,-1.4567227256433233,-5.448105936240726,270.0
271,-4.818943390007788,-1.0435524435874917,2.0294413446569255,-4.148173144743676,-1.4567339770934757,-5.447501169859116,270.34778337
