Miguel-LA/TFM_MiguelLerinAlonso/workspace/ros_ur_driver/src/trayectories/data/saved_trajectories/20240614_1132_trajectory.csv
,shoulder_pan_joint,shoulder_lift_joint,elbow_joint,wrist_1_joint,wrist_2_joint,wrist_3_joint,time_from_start
0,-1.0821270113564672,-1.8084440330244294,-2.4678067143297935,-1.9104068381445585,-1.2196916298401261,3.7531358655753846,0.0
1,-1.0829680405633557,-1.807198310006634,-2.464469949503388,-1.9154068381445586,-1.2196465734175903,3.7558489282979086,1.0
2,-1.085491128184021,-1.803461140953248,-2.4544596550241726,-1.9304068381445587,-1.219511404149983,3.7639881164654816,2.0
3,-1.089696274218463,-1.797232525864271,-2.437775830892146,-1.9554068381445584,-1.2192861220373044,3.777553430078102,3.0
4,-1.0955593027371127,-1.7887246414786189,-2.4142444797986,-1.9904065392520356,-1.2189269148468822,3.796640682980904,4.0
5,-1.1029226680490267,-1.7793205977979878,-2.3827310640962702,-2.0354043448472985,-1.2181481638471512,3.821874684475251,5.0
6,-1.111628715725805,-1.770394730514279,-2.342110750578793,-2.0903975250249927,-1.2166690077446727,3.8538711103024768,6.0
7,-1.1214318542131343,-1.7633857513833833,-2.291606473365009,-2.1549639915609475,-1.2142872605832051,3.8928975679983546,7.0
8,-1.131902890083302,-1.760017355308528,-2.2311072653380286,-2.2276605675031833,-1.21083074771457,3.9386410216638774,8.0
9,-1.1420169348039209,-1.7613604397772802,-2.165175085581284,-2.302301484063415,-1.2065762391948844,3.98734562852564,9.0
10,-1.1503016721310098,-1.7663082183335042,-2.104754765672026,-2.3673325387486464,-1.2024186611460983,4.030987875727904,10.0
11,-1.1569324431468995,-1.7731061841153224,-2.05157731253158,-2.4223622493770702,-1.198662632330991,4.068638351800056,11.0
12,-1.1621000081550965,-1.780391107488843,-2.006715793747954,-2.4673895253872837,-1.195470540609599,4.099860067775899,12.0
13,-1.1659665320757366,-1.7870465157606343,-1.9710420772912391,-2.5024147247985358,-1.1929514957899132,4.124330913894726,13.0
14,-1.168646948020585,-1.7923331129132327,-1.9451285978859938,-2.5274475134862384,-1.1911377167821866,4.141909482544,14.0
15,-1.1702992678725217,-1.7958832200016974,-1.9286423326243585,-2.5432042771097576,-1.189990419822136,4.1524826211773735,15.0
16,-1.1717910181628732,-1.7991387899463598,-1.9136694946099988,-2.5574861555370774,-1.1889495910838825,4.15383855027729,16.0
17,-1.173188442541433,-1.802188427050606,-1.8996436077914627,-2.570864799315825,-1.187974627669709,4.145195881971663,17.0
18,-1.1741980070947786,-1.8043915301249513,-1.8895108943762693,-2.580529946666387,-1.1872703335664558,4.126559740388789,18.0
19,-1.1744356729273715,-1.8049100082976666,-1.887125916844571,-2.5828049072988373,-1.1871046422305986,4.101278725026112,19.0
20,-1.1744357737259803,-1.8049099681716199,-1.8871255524573742,-2.5828053121236447,-1.1871047460155266,4.068055157994646,20.0
21,-1.1744359048645348,-1.8049099160183693,-1.8871250782295688,-2.58280583946179,-1.1871048810343319,4.024831598855719,21.0
22,-1.1744360663439584,-1.804909851938771,-1.8871244938342242,-2.5828064906439177,-1.1871050472780809,3.9716080593484024,22.0
23,-1.174436258163233,-1.8049097758194628,-1.8871237996387145,-2.5828072641745656,-1.1871052447568344,3.9083845198410856,23.0
24,-1.1744362983806151,-1.8049097783678318,-1.8871236739645507,-2.582807388448122,-1.1871052863985418,3.835160992214285,24.0
25,-1.1744362992288169,-1.8049098036300055,-1.887123698381444,-2.5828073394381104,-1.18710528759978,3.751937467451849,25.0
26,-1.1744363001614895,-1.8049098319283248,-1.8871237257341569,-2.582807284518669,-1.187105288799546,3.6587139566279934,26.0
27,-1.1744363086917016,-1.8049098614372605,-1.887123756727898,-2.582807224559643,-1.1871052977067071,3.555490451380834,27.0
28,-1.174436325475005,-1.8049098919971363,-1.8871237914248682,-2.582807159633908,-1.1871053149842177,3.442266953251757,28.0
29,-1.1744363443819419,-1.8049099249765586,-1.8871238291171504,-2.582807089326694,-1.1871053344282843,3.3190434621759337,29.0
30,-1.1744363809196956,-1.8049099536268673,-1.8871238680936935,-2.5828070223261608,-1.187105371498867,3.185819973727979,30.0
31,-1.1744364202000723,-1.804909984427734,-1.8871239099958521,-2.582806950296564,-1.1871054113523083,3.0425964912324432,31.0
32,-1.1744364777021197,-1.8049100065986448,-1.8871239492189436,-2.582806889824154,-1.187105469329357,2.889373017375108,32.0
33,-1.174436541355694,-1.8049100276567818,-1.8871239892753617,-2.5828068297197992,-1.1871055334535159,2.7261712867111854,33.0
34,-1.174436614579165,-1.8049100372214513,-1.8871240212074425,-2.5828067893429245,-1.1871056069860597,2.5638802858701233,34.0
35,-1.1744366853308117,-1.8049100412570347,-1.8871240470375015,-2.5828067605443765,-1.1871056779538751,2.4115892850290654,35.0
36,-1.1744367547381243,-1.8049100370334221,-1.8871240644805174,-2.582806748348254,-1.1871057474436317,2.269298284188009,36.0
37,-1.1744368191370218,-1.804910029250848,-1.887124076936277,-2.582806744613394,-1.1871058118578186,2.1370072833469567,37.0
38,-1.1744368784316133,-1.8049100150777586,-1.8871240816425674,-2.582806754923991,-1.1871058710554852,2.0147162825059066,38.0
39,-1.1744369328775606,-1.8049100020636386,-1.8871240859640062,-2.58280676439147,-1.1871059254124332,1.9024252816648592,39.0
40,-1.174436978423737,-1.804909982833601,-1.8871240815277361,-2.5828067886819253,-1.1871059707519935,1.800134280823815,40.0
41,-1.1744370192776528,-1.8049099650472236,-1.8871240770298385,-2.5828068115245024,-1.1871060114120653,1.707843279982779,41.0
42,-1.1744370557049282,-1.8049099491880543,-1.8871240730192975,-2.58280683189202,-1.1871060476665,1.6255522791417374,42.0
43,-1.1744370832349222,-1.8049099317505437,-1.8871240647271514,-2.582806857982213,-1.1871060749795075,1.553261278300694,43.0
44,-1.1744371059463041,-1.804909915932884,-1.8871240565042386,-2.5828068823160972,-1.1871060974891938,1.4909702774596485,44.0
45,-1.1744371250116732,-1.8049099026545434,-1.887124049601404,-2.582806902743498,-1.187106116385247,1.4386792766186007,45.0
46,-1.1744371404310292,-1.8049098919155202,-1.8871240440186485,-2.5828069192644136,-1.1871061316676668,1.3963882757775519,46.0
47,-1.1744371522043715,-1.8049098837158137,-1.8871240397559743,-2.5828069318788445,-1.1871061433364525,1.3640972749365021,47.0
48,-1.1744371603317005,-1.8049098780554234,-1.8871240368133813,-2.5828069405867904,-1.1871061513916044,1.3418062740954542,48.0
49,-1.1744819370261945,-1.8050219230220124,-1.8869777563048034,-2.5828415033690435,-1.1871508658107035,1.329382742494122,49.0
50,-1.175881526503684,-1.8085245711421487,-1.882405045675742,-2.583921793679817,-1.1885485097925839,1.3249315830279922,50.0
51,-1.1771359390928573,-1.811663906396956,-1.8783066442646796,-2.584890029034434,-1.1898011802867958,1.3302825642494218,51.0
52,-1.1771428347959887,-1.811681178345737,-1.8782841008595523,-2.5848953566547777,-1.1898080703598126,1.3436163435646846,52.0
53,-1.1771428273074722,-1.8116811850635517,-1.8782841010604214,-2.5848953597731685,-1.1898080697967186,1.3669283659713158,53.0
54,-1.1771428166066578,-1.8116811946630618,-1.878284101347456,-2.5848953642292343,-1.189808068992078,1.4002403883779486,54.0
55,-1.177142802693545,-1.8116812071442672,-1.8782841017206562,-2.5848953700229753,-1.1898080679458907,1.4435524107845805,55.0
56,-1.1771427858929349,-1.8116812222761223,-1.8782841028576964,-2.584895374633583,-1.1898080694267201,1.4968644300057752,56.0
57,-1.1771427662604772,-1.8116812400190407,-1.8782841048746888,-2.5848953776291497,-1.1898080739089258,1.5601764463816041,57.0
58,-1.177142740584322,-1.8116812584888131,-1.878284107692942,-2.584895373988293,-1.189808067756973,1.6334884578385056,58.0
59,-1.1771427040821782,-1.811681274312407,-1.8782841120968548,-2.584895352157361,-1.1898080325389557,1.7168004578919178,59.0
60,-1.1771426631772857,-1.8116812920228835,-1.878284117075069,-2.5848953275048494,-1.1898079929164602,1.810112450780859,60.0
61,-1.1771426171219561,-1.8116813103280018,-1.8782841210275327,-2.5848953032111637,-1.1898079479556607,1.9134244369321032,61.0
62,-1.177142562515579,-1.8116813233548719,-1.8782841166934938,-2.58489529368844,-1.1898078933820952,2.0267364132998593,62.0
63,-1.1771425030888127,-1.81168133753276,-1.8782841119727953,-2.5848952833413317,-1.1898078339813416,2.150048381085541,63.0
64,-1.1771424385554767,-1.8116813441527655,-1.8782840983345062,-2.5848952894068304,-1.1898077693940519,2.283360343318569,64.0
65,-1.1771423690852771,-1.8116813483540906,-1.8782840808159103,-2.584895301702731,-1.189807699839203,2.4266723039633527,65.0
66,-1.1771422988656375,-1.811681342926042,-1.8782840537422087,-2.584895333142101,-1.1898076293811708,2.579984259608986,66.0
67,-1.177142225640049,-1.811681333332264,-1.8782840217016463,-2.5848953736563156,-1.1898075558447863,2.7432962088668105,67.0
68,-1.1771421631717138,-1.8116813107779772,-1.8782839804551408,-2.5848954364604504,-1.1898074928824147,2.9077149232800363,68.0
69,-1.1771421075866444,-1.811681287140439,-1.8782839402985096,-2.584895499357589,-1.1898074368009228,3.062166082772006,69.0
70,-1.1771420682155427,-1.8116812562514975,-1.878283898158915,-2.584895571710356,-1.1898073968529757,3.206617242263975,70.0
71,-1.1771420336938245,-1.81168122657704,-1.8782838587019166,-2.5848956402418786,-1.1898073617842235,3.3410684017559498,71.0
72,-1.1771420153563934,-1.8116811931862193,-1.8782838206753594,-2.5848957112902333,-1.1898073428755476,3.465519561247923,72.0
73,-1.177141998492427,-1.8116811624784528,-1.878283785704335,-2.5848957766296516,-1.1898073254862374,3.579970720739897,73.0
74,-1.1771419933489524,-1.8116811320081776,-1.8782837546049234,-2.584895838035555,-1.18980731984652,3.6844218802318727,74.0
75,-1.1771419923856323,-1.8116811035749714,-1.8782837267766113,-2.5848958942014897,-1.1898073184284201,3.7788730397238495,75.0
76,-1.1771419915243038,-1.81168107815213,-1.8782837018946124,-2.5848959444208663,-1.189807317160462,3.8633241992158283,76.0
77,-1.1771419966245633,-1.8116810553853182,-1.8782836814365047,-2.5848959876568744,-1.1898073219092582,3.9377753587078073,77.0
78,-1.177142004859772,-1.811681035445463,-1.8782836646895151,-2.584896024409666,-1.1898073298447853,4.002226518199787,78.0
79,-1.1771420118172367,-1.8116810185994023,-1.8782836505409242,-2.584896055460032,-1.1898073365490656,4.056677677691765,79.0
80,-1.1771420174969571,-1.8116810048471361,-1.878283638990732,-2.5848960808079733,-1.1898073420220996,4.10112883718374,80.0
81,-1.1771420218989337,-1.8116809941886627,-1.8782836300389403,-2.584896100453489,-1.189807346263887,4.135579996675715,81.0
82,-1.177142025023166,-1.8116809866239814,-1.8782836236855491,-2.58489611439658,-1.1898073492744277,4.160031156167694,82.0
83,-1.1771420268696542,-1.8116809821530926,-1.8782836199305586,-2.5848961226372458,-1.1898073510537217,4.174482315659672,83.0
84,-1.1781876207351485,-1.8143298659499978,-1.8748046179535927,-2.5857338285707585,-1.1908514011876539,4.180754785770894,84.0
85,-1.1796851329014078,-1.8181236367223947,-1.869821947569994,-2.586933596594255,-1.1923467038111981,4.177425962269811,85.0
86,-1.1798098313462817,-1.818439551347216,-1.8694070377535934,-2.587033500492132,-1.1924712226923393,4.165961299092516,86.0
87,-1.1798098297990962,-1.818439558361134,-1.8694070413286643,-2.5870334968609336,-1.1924712295077822,4.1448501100225155,87.0
88,-1.1798098275190358,-1.818439568697422,-1.8694070465971833,-2.587033491509701,-1.1924712395515806,4.113738920952518,88.0
89,-1.179809824506101,-1.8184395823560802,-1.8694070535591512,-2.5870334844384333,-1.1924712528237351,4.072627731882522,89.0
90,-1.1798098206106031,-1.8184395994878757,-1.8694070617567589,-2.5870334773960812,-1.1924712680335376,4.021516546574,90.0
91,-1.1798098155796797,-1.8184396203474948,-1.8694070704166503,-2.587033473337077,-1.1924712830006485,3.9604053697305206,91.0
92,-1.1798098102690928,-1.818439644376908,-1.8694070813778025,-2.5870334655673055,-1.1924712989539268,3.889294194212249,92.0
93,-1.1798098109560176,-1.8184396687631117,-1.8694071048507332,-2.5870334189053477,-1.1924712989988806,3.808183033680484,93.0
94,-1.1798098117149176,-1.8184396961476912,-1.8694071312472103,-2.58703336636121,-1.1924712989434911,3.717071877670545,94.0
95,-1.1798098125349166,-1.818439726523683,-1.8694071605925786,-2.5870333078242433,-1.192471298697174,3.615960729119705,95.0
96,-1.1798098279315616,-1.8184397563643169,-1.8694071943733408,-2.5870332445269457,-1.192471314465525,3.5048495916014653,96.0
97,-1.1798098456615955,-1.8184397886586696,-1.8694072312969028,-2.5870331755910856,-1.1924713327109036,3.3837384612253834,97.0
98,-1.1798098737505442,-1.818439819758069,-1.8694072702720423,-2.5870331059849,-1.1924713613423683,3.252627337163748,98.0
99,-1.1798099119742314,-1.8184398497600065,-1.8694073113226521,-2.5870330355865248,-1.192471400132124,3.1115162159922622,99.0
100,-1.179809960908389,-1.8184398763204594,-1.8694073523649666,-2.587032968789071,-1.192471449599167,2.96040509836761,100.0
101,-1.1798100210612088,-1.8184398990857784,-1.8694073932137887,-2.587032906137685,-1.192471510246826,2.7992939873856617,101.0
102,-1.1798100916270415,-1.8184399126382083,-1.8694074283552848,-2.587032858535749,-1.1924715811826103,2.633409328443096,102.0
103,-1.1798101614317962,-1.818439921809067,-1.869407459003142,-2.5870328197851893,-1.1924716512855353,2.4767570575044977,103.0
104,-1.1798102317381591,-1.8184399183912878,-1.8694074775775558,-2.5870328056684997,-1.1924717216897027,2.330104786565907,104.0
105,-1.1798102975695515,-1.8184399144339511,-1.8694074942341907,-2.587032793940807,-1.1924717876005582,2.1934525156273246,105.0
106,-1.1798103582517763,-1.8184399009834147,-1.869407500064796,-2.587032802428548,-1.192471848199156,2.066800244688745,106.0
107,-1.1798104141114498,-1.8184398876716368,-1.8694075045283585,-2.5870328120729678,-1.1924719039669631,1.950147973750175,107.0
108,-1.1798104629907002,-1.8184398715091965,-1.8694075040487141,-2.587032829398958,-1.1924719526935852,1.843495702811611,108.0
109,-1.1798105052446028,-1.8184398531427572,-1.869407499364666,-2.5870328530281888,-1.1924719947452171,1.7468434318730524,109.0
110,-1.179810543126763,-1.8184398366765815,-1.869407495165241,-2.587032874212653,-1.1924720324460347,1.660191160934494,110.0
111,-1.1798105745599452,-1.8184398204802212,-1.8694074892196086,-2.5870328967779948,-1.192472063688204,1.5835388899959373,111.0
112,-1.1798105985597722,-1.8184398037810279,-1.8694074804706013,-2.5870329225371433,-1.1924720874728483,1.5168866190573809,112.0
113,-1.1798106189588478,-1.818439789587255,-1.8694074730342283,-2.5870329444315856,-1.1924721076890257,1.4602343481188214,113.0
114,-1.1798106357571723,-1.8184397778989043,-1.8694074669104865,-2.587032962461321,-1.1924721243367364,1.4135820771802543,114.0
115,-1.179810648954745,-1.8184397687159732,-1.86940746209938,-2.5870329766263502,-1.19247213741598,1.3769298062416866,115.0
116,-1.1798106585515662,-1.8184397620384614,-1.869407458600909,-2.5870329869266717,-1.192472146926756,1.3502775353031218,116.0
117,-1.1798106645476354,-1.8184397578663691,-1.8694074564150729,-2.587032993362287,-1.1924721528690647,1.3336252643645559,117.0
118,-1.1804879934895778,-1.8201767935428317,-1.8671124683784046,-2.587595827141762,-1.1931484219829758,1.3256257256139852,118.0
119,-1.1820812040248734,-1.8242626654425944,-1.8617141846733771,-2.5889197217776854,-1.1947391401812981,1.326732384756166,119.0
120,-1.182441482404623,-1.8251866286713936,-1.860493441372159,-2.589219102535283,-1.1950988576324606,1.336450717276742,120.0
121,-1.182441476393976,-1.825186634053747,-1.8604934414986611,-2.5892191051669444,-1.1950988570545327,1.3553231065372537,121.0
122,-1.1824414671984396,-1.8251866422880725,-1.860493441692193,-2.589219109193055,-1.1950988561703748,1.3841954957977642,122.0
123,-1.182441454818014,-1.8251866533743706,-1.8604934419527548,-2.5892191146136163,-1.195098854979988,1.423067885058277,123.0
124,-1.1824414393001001,-1.8251866672795467,-1.8604934423775887,-2.5892191210693043,-1.1950988538916496,1.471940273858313,124.0
125,-1.1824414212011822,-1.825186683615078,-1.860493444108306,-2.58921912434168,-1.1950988576985195,1.5308126573955194,125.0
126,-1.1824414000280017,-1.8251867027253454,-1.8604934461330012,-2.5892191281698973,-1.1950988621520207,1.5996850409327263,126.0
127,-1.1824413672479281,-1.8251867184694919,-1.8604934500254422,-2.589219111156204,-1.1950988344352151,1.678557410360564,127.0
128,-1.1824413287860749,-1.8251867351122966,-1.86049345470343,-2.5892190881216415,-1.195098797313101,1.7674297755852562,128.0
129,-1.1824412859663398,-1.8251867536091837,-1.8604934599757028,-2.5892190621986586,-1.195098755761544,1.8663021305551744,129.0
130,-1.1824412354225329,-1.8251867681328218,-1.8604934585532202,-2.589219047875326,-1.1950987056227818,1.9751744771005915,130.0
131,-1.1824411788423357,-1.825186781591573,-1.8604934540302258,-2.5892190380835203,-1.1950986490728879,2.0940468160022023,131.0
132,-1.182441117386231,-1.825186792692239,-1.8604934456788769,-2.589219034417846,-1.1950985876103732,2.2229191477746837,132.0
133,-1.182441050897429,-1.8251867966669588,-1.8604934287969492,-2.589219046346147,-1.195098521038954,2.361791475316507,133.0
134,-1.182440981180027,-1.8251867971535662,-1.8604934075068624,-2.589219066112192,-1.195098451176568,2.5106638008417423,134.0
135,-1.1824409108220002,-1.825186787886782,-1.860493376509421,-2.589219105299474,-1.1950983805163395,2.669536119488679,135.0
136,-1.1824408431024267,-1.825186771352679,-1.8604933392509047,-2.589219158034052,-1.1950983123833527,2.8359159264565728,136.0
137,-1.1824407841448636,-1.8251867490209417,-1.8604932990756375,-2.5892192195975374,-1.19509825293813,2.9948032365599984,137.0
138,-1.1824407396167083,-1.8251867206403207,-1.860493257507856,-2.589219288800919,-1.1950982078564454,3.143690546663415,138.0
139,-1.1824407022268737,-1.8251866912814307,-1.860493217214725,-2.5892193578117864,-1.1950981699128946,3.282577856766821,139.0
140,-1.1824406783386743,-1.825186659341605,-1.8604931786202794,-2.589219427899305,-1.1950981454588705,3.4114651668702223,140.0
141,-1.1824406610352676,-1.8251866278249715,-1.8604931424939446,-2.5892194951950644,-1.1950981276107888,3.530352476973618,141.0
142,-1.182440649194687,-1.8251865980056987,-1.8604931097276367,-2.5892195575198134,-1.1950981152647375,3.6392397870770057,142.0
143,-1.1824406481970988,-1.8251865686035003,-1.8604930807527604,-2.589219615799189,-1.1950981137920063,3.738127097180389,143.0
144,-1.1824406473003914,-1.8251865421746103,-1.8604930547079697,-2.58921966818505,-1.1950981124682056,3.8270144072837704,144.0
145,-1.1824406479553626,-1.825186518632304,-1.8604930319616202,-2.5892197144171907,-1.1950981127458973,3.9059017173871524,145.0
146,-1.1824406566479506,-1.8251864975888894,-1.8604930141604674,-2.589219753332336,-1.1950981211189118,3.9747890274905346,146.0
147,-1.1824406640786824,-1.825186479600234,-1.860492998943412,-2.5892197865983784,-1.1950981282764608,4.033676337593917,147.0
148,-1.182440670247558,-1.825186464666341,-1.8604929863104511,-2.5892198142153187,-1.1950981342185445,4.082563647697308,148.0
149,-1.1824406751545775,-1.8251864527872064,-1.860492976261588,-2.5892198361831573,-1.1950981389451627,4.121450957800701,149.0
150,-1.1824406787997408,-1.8251864439628307,-1.8604929687968232,-2.589219852501894,-1.1950981424563154,4.150338267904089,150.0
151,-1.1824406811830477,-1.8251864381932135,-1.8604929639161565,-2.589219863171528,-1.1950981447520028,4.169225578007478,151.0
152,-1.1827921300790507,-1.8260988393976703,-1.8592804001980092,-2.5895225412245786,-1.1954490119717713,4.178957357879486,152.0
153,-1.1843614314496338,-1.830172950490178,-1.8538660126876036,-2.590874050353873,-1.1970157164922273,4.180098759811693,153.0
154,-1.18503516320431,-1.8319220505084834,-1.8515415094790495,-2.5914542785153216,-1.1976883363347433,4.172133216976055,154.0
155,-1.1850351619848332,-1.8319220559688985,-1.8515415122369248,-2.591454275823977,-1.1976883415522215,4.155534864745298,155.0
156,-1.1850351600306586,-1.8319220647190462,-1.8515415166563356,-2.5914542715111795,-1.1976883499130713,4.128936512514538,156.0
157,-1.1850351573417865,-1.8319220767589273,-1.851541522737282,-2.5914542655769286,-1.1976883614172924,4.092338160283779,157.0
158,-1.1850351539182171,-1.8319220920885413,-1.8515415304797642,-2.5914542580212254,-1.1976883760648844,4.045739808053019,158.0
159,-1.1850351493184803,-1.831922111144558,-1.8515415385555936,-2.591454253887618,-1.197688390010339,3.9891414592842533,159.0
160,-1.1850351438241162,-1.831922133648499,-1.8515415478118002,-2.591454249959669,-1.197688405706064,3.9225431110910574,160.0
161,-1.1850351419830123,-1.8319221575118072,-1.851541565797175,-2.591454220233881,-1.1976884121599594,3.8459447732591228,161.0
162,-1.1850351427074315,-1.8319221832250503,-1.8515415907290536,-2.591454170833101,-1.1976884121892404,3.7593464415014224,162.0
163,-1.1850351434845094,-1.8319222118865386,-1.8515416186160407,-2.591454115398218,-1.1976884119610631,3.6627481209611474,163.0
164,-1.1850351516439388,-1.8319222417355951,-1.851541650170295,-2.591454054721017,-1.1976884197815518,3.556149807073359,164.0
165,-1.185035168505089,-1.831922272453157,-1.8515416855262121,-2.5914539889185786,-1.197688437133281,3.4395515013114033,165.0
166,-1.1850351881755519,-1.8319223052140425,-1.851541723763221,-2.5914539182322653,-1.1976884573441933,3.3129532034622895,166.0
167,-1.1850352247248308,-1.8319223339207114,-1.851541763287951,-2.591453850625609,-1.1976884944404165,3.176354911209187,167.0
168,-1.1850352648277456,-1.831922364118747,-1.8515418053836556,-2.591453779014513,-1.1976885351225168,3.0297566194659447,168.0
169,-1.1850353225803012,-1.8319223860098952,-1.851541844875191,-2.59145371855627,-1.197688593355468,2.8731583348649146,169.0
170,-1.1850353869969623,-1.8319224054763397,-1.8515418840800228,-2.5914536609022236,-1.1976886582278654,2.707298959396955,170.0
171,-1.1850354579316371,-1.831922414840279,-1.8515419154407415,-2.5914536212638413,-1.197688729469149,2.5461372384907297,171.0
172,-1.1850355270438473,-1.8319224173807394,-1.8515419395552122,-2.5914535956488667,-1.1976887987736446,2.3949755175844603,172.0
173,-1.1850355942141617,-1.8319224133868,-1.8515419566688889,-2.5914535835217904,-1.1976888660263345,2.2538137966781555,173.0
174,-1.185035656457622,-1.8319224047155704,-1.851541967664558,-2.591453582103302,-1.1976889282657577,2.122652075771828,174.0
175,-1.1850357137650667,-1.831922391097318,-1.851541972275459,-2.5914535919290045,-1.1976889854783712,2.001490354865474,175.0
176,-1.1850357661079551,-1.8319223781754965,-1.8515419760140406,-2.5914536018583494,-1.197689037726828,1.89032863395908,176.0
177,-1.1850358097904232,-1.8319223592182476,-1.8515419711374288,-2.59145362629201,-1.1976890811983207,1.7891669130526693,177.0
178,-1.1850358491548096,-1.8319223421349564,-1.8515419667428732,-2.5914536483103645,-1.197689120372587,1.6980051921462402,178.0
179,-1.1850358842011142,-1.8319223269256213,-1.851541962830377,-2.5914536679134126,-1.1976891552496263,1.6168434712397926,179.0
180,-1.185035909998315,-1.831922309717266,-1.851541954067561,-2.5914536942219883,-1.197689180825003,1.5456817503333284,180.0
181,-1.1850359317505272,-1.8319222945973612,-1.8515419460821294,-2.5914537176101193,-1.197689202380312,1.4845200294268508,181.0
182,-1.1850359499462324,-1.831922281949577,-1.851541939402321,-2.591453737174268,-1.1976892204113079,1.4333583085203652,182.0
183,-1.18503596458543,-1.8319222717739128,-1.8515419340281376,-2.591453752914436,-1.19768923491799,1.3921965876138755,183.0
184,-1.1850359756681201,-1.8319222640703665,-1.8515419299595812,-2.5914537648306215,-1.1976892459003583,1.3610348667073866,184.0
185,-1.1850359831943025,-1.8319222588389386,-1.851541927196651,-2.5914537729228257,-1.197689253358413,1.3398731458009077,185.0
186,-1.1851481282588614,-1.8322169788773748,-1.851147974456977,-2.591553802902507,-1.1978012024450424,1.3283741885761682,186.0
187,-1.186574275940239,-1.83596509946674,-1.8461379215834512,-2.592825873923813,-1.199224858282306,1.3249377335640415,187.0
188,-1.1875949689302585,-1.838647636778221,-1.8425522203451676,-2.593736296780736,-1.2002437695664339,1.3311178422898353,188.0
189,-1.1875949644186357,-1.8386476408111567,-1.8425522204158704,-2.5937362988448576,-1.2002437690405063,1.345405586990735,189.0
190,-1.1875949567493258,-1.8386476476667468,-1.842552220536058,-2.5937363023536593,-1.200243768146482,1.3696933316916322,190.0
191,-1.1875949459223283,-1.8386476573449904,-1.84255222070573,-2.5937363073071404,-1.2002437668843604,1.4039810763925384,191.0
192,-1.187594931937644,-1.838647669845888,-1.8425522209248875,-2.5937363137053016,-1.2002437652541418,1.44826882109344,192.0
193,-1.187594915178869,-1.83864768490611,-1.8425522219683172,-2.5937363187044236,-1.2002437665942784,1.5025565579389475,193.0
194,-1.1875948955843276,-1.8386477025679953,-1.842552223711449,-2.5937363227617216,-1.2002437703680109,1.5668442900310393,194.0
195,-1.1875948691735596,-1.8386477202116154,-1.8425522264957273,-2.593736317665816,-1.2002437602690574,1.641132015511589,195.0
196,-1.1875948331470512,-1.8386477357823776,-1.8425522308931979,-2.593736296147792,-1.2002437255550973,1.7254197310695434,196.0
197,-1.1875947928230892,-1.83864775318531,-1.842552235867518,-2.593736271838069,-1.2002436865259485,1.8197074381091418,197.0
198,-1.1875947470251758,-1.8386477703841124,-1.842552238852361,-2.59373624982227,-1.200243641725592,1.9239951383607679,198.0
199,-1.187594693291695,-1.838647783130243,-1.842552234529101,-2.593736240577777,-1.2002435880266582,2.0382828299661573,199.0
200,-1.1875946348551996,-1.838647796993115,-1.8425522298230643,-2.5937362305414573,-1.2002435296166742,2.1625705119819654,200.0
201,-1.1875945713980234,-1.838647802341175,-1.8425522151648255,-2.5937362389131926,-1.200243466094593,2.296858188701767,201.0
202,-1.1875945031588568,-1.838647806378852,-1.8425521977163186,-2.5937362513181252,-1.2002433977695894,2.4411458644935493,202.0
203,-1.18759443473931,-1.8386477996878434,-1.8425521696769402,-2.5937362850074877,-1.2002433290907477,2.595433534692471,203.0
204,-1.1875943633662716,-1.838647789622054,-1.8425521373970863,-2.5937363262579445,-1.2002432573973463,2.7597044248568183,204.0
205,-1.1875943034470733,-1.8386477668958658,-1.842552096279051,-2.5937363891430434,-1.200243196977024,2.9231729724981177,205.0
206,-1.1875942510405757,-1.838647742887194,-1.8425520562589726,-2.5937364523214494,-1.2002431440650658,3.0766415201394417,206.0
207,-1.1875942128867596,-1.8386477129136234,-1.8425520148537258,-2.593736523046487,-1.2002431053401525,3.220110067780777,207.0
208,-1.1875941810051711,-1.8386476834626206,-1.8425519759297206,-2.5937365908629575,-1.2002430729097462,3.35357861542212,208.0
209,-1.1875941632524367,-1.8386476511272862,-1.8425519386067406,-2.5937366601659986,-1.2002430545923564,3.4770471630634723,209.0
210,-1.1875941469375366,-1.838647621410871,-1.8425519043066272,-2.5937367238560283,-1.2002430377585336,3.5905157107048353,210.0
211,-1.187594143351021,-1.8386475916339589,-1.8425518739410383,-2.5937367838621954,-1.2002430336800871,3.6939842583462035,211.0
212,-1.1875941424182197,-1.8386475641874158,-1.8425518466964965,-2.5937368384631014,-1.200243032299069,3.7874528059875803,212.0
213,-1.1875941415852165,-1.8386475396773232,-1.8425518223667867,-2.593736887222373,-1.200243031065803,3.870921353628951,213.0
214,-1.187594147473198,-1.838647517711948,-1.8425518026448495,-2.5937369289367247,-1.2002430366096597,3.9443899012703305,214.0
215,-1.1875941553834277,-1.8386474985692813,-1.842551786329289,-2.59373696446007,-1.2002430442260947,4.00785844891171,215.0
216,-1.1875941620473347,-1.8386474824427037,-1.8425517725843799,-2.5937369943864157,-1.2002430506424973,4.061326996553085,216.0
217,-1.187594167464919,-1.8386474693322143,-1.842551761410122,-2.5937370187157613,-1.2002430558588664,4.104795544194448,217.0
218,-1.1875941716361806,-1.8386474592378117,-1.8425517528065178,-2.5937370374481072,-1.200243059875203,4.138264091835813,218.0
219,-1.1875941745611192,-1.838647452159495,-1.8425517467735673,-2.593737050583453,-1.2002430626915062,4.161732639477186,219.0
220,-1.1875973240537911,-1.838655823126444,-1.8425404844528346,-2.593739964179102,-1.2002462063245833,4.175211222884453,220.0
221,-1.1887300583159766,-1.8416695585208638,-1.838489008309386,-2.5947857036442987,-1.2013768544503276,4.180760350472603,221.0
222,-1.1900612214050548,-1.8452112369304048,-1.833727805661477,-2.5960146292094533,-1.2027055675926002,4.176550263442118,222.0
223,-1.1901182709491218,-1.8453630285743108,-1.8335237540050133,-2.596067296152211,-1.20276251667291,4.164423417585514,223.0
224,-1.190118269333517,-1.8453630357216968,-1.8335237575855683,-2.5960672927946296,-1.202762523388239,4.142479962608603,224.0
225,-1.1901182669816546,-1.8453630461262662,-1.833523762797842,-2.596067287906942,-1.2027625331638565,4.110536507631692,225.0
226,-1.1901182638935335,-1.8453630597880193,-1.8335237696418345,-2.596067281489148,-1.2027625459997617,4.068593052654784,226.0
227,-1.1901182598770004,-1.8453630768940052,-1.8335237775479127,-2.596067275691102,-1.2027625602051362,4.016649598578428,227.0
228,-1.1901182547582345,-1.8453630976134272,-1.8335237860007925,-2.596067272457541,-1.2027625742504822,3.95470614592349,228.0
229,-1.1901182499414797,-1.8453631211654746,-1.833523797680807,-2.5960672623274483,-1.2027625877504857,3.8827626960013717,229.0
230,-1.1901182506188586,-1.8453631451929842,-1.8335238211582183,-2.5960672159689526,-1.2027625877623005,3.8008192598706483,230.0
231,-1.190118251364429,-1.8453631721423294,-1.8335238475380788,-2.596067163792494,-1.202762587652491,3.7088758293805117,231.0
232,-1.1901182525298835,-1.8453632019234147,-1.833523876871089,-2.596067105768797,-1.2027625877745725,3.6069324057947876,232.0
233,-1.1901182685228229,-1.8453632310561694,-1.833523910643358,-2.596067043121429,-1.2027626042359292,3.4949889936001792,233.0
234,-1.1901182859458026,-1.8453632627904881,-1.833523947435142,-2.5960669748682,-1.202762622179841,3.3730455887375186,234.0
235,-1.1901183148631636,-1.845363292771501,-1.8335239860985297,-2.596066906706886,-1.2027626516394458,3.2411021899739803,235.0
236,-1.1901183523835226,-1.8453633222505057,-1.8335240269618875,-2.596066837005881,-1.2027626897274866,3.0991587935774283,236.0
237,-1.1901184016628252,-1.8453633474769893,-1.8335240673330966,-2.5960667722147566,-1.2027627395292755,2.94721540120991,237.0
238,-1.19011846066343,-1.8453633698657441,-1.8335241079657345,-2.596066710138108,-1.2027627990260883,2.7852720153495847,238.0
239,-1.1901185303076325,-1.8453633820182422,-1.8335241418576125,-2.5960666651693867,-1.202762869022679,2.61983312557603,239.0
240,-1.190118598168202,-1.8453633907266802,-1.8335241717934965,-2.5960666275645,-1.2027629371754076,2.4640198304970733,240.0
241,-1.1901186667102368,-1.845363386690193,-1.8335241893812662,-2.5960666150276928,-1.2027630058028267,2.3182065354180925,241.0
242,-1.1901187305516039,-1.8453633829305383,-1.8335242057628414,-2.596066603350673,-1.2027630697237224,2.1823932403391098,242.0
243,-1.1901187893390714,-1.8453633690658384,-1.833524210593794,-2.5960666132258248,-1.2027631284144176,2.0565799452601157,243.0
244,-1.190118843451819,-1.845363356240643,-1.8335242149784798,-2.596066622440657,-1.2027631824370582,1.9407666501811052,244.0
245,-1.1901188904098143,-1.8453633400019356,-1.833524213747292,-2.5960666405684005,-1.2027632292333619,1.8349533551021007,245.0
246,-1.1901189312801281,-1.8453633222930996,-1.8335242091515511,-2.5960666634356784,-1.2027632699045163,1.7391400600230862,246.0
247,-1.1901189678848239,-1.845363306432533,-1.8335242050354603,-2.596066683916307,-1.202763306330838,1.6533267649440675,247.0
248,-1.1901189977514472,-1.845363290477659,-1.833524198706308,-2.5960667066032226,-1.2027633360026688,1.577513469865044,248.0
249,-1.190119020873314,-1.8453632744232253,-1.833524190156814,-2.596066731508842,-1.2027633589132225,1.5117001747860166,249.0
250,-1.190119040481929,-1.8453632608081827,-1.8335241829063718,-2.596066752630178,-1.2027633783426328,1.4558868797069997,250.0
251,-1.1901190565772932,-1.8453632496325327,-1.8335241769549797,-2.5960667699672313,-1.2027633942909,1.4100735846279924,251.0
252,-1.1901190691594055,-1.8453632408962728,-1.8335241723026412,-2.59606678352,-1.2027634067580235,1.3742602895489877,252.0
253,-1.190119078228266,-1.845363234599403,-1.833524168949356,-2.596066793288485,-1.202763415744003,1.3484469944699788,253.0
254,-1.1901190837838749,-1.8453632307419234,-1.8335241668951245,-2.596066799272685,-1.2027634212488385,1.332633699390969,254.0
255,-1.1908750594863382,-1.8473994302227676,-1.8307713595135642,-2.5967887099058466,-1.2035179317075015,1.3252508750587721,255.0
256,-1.1923536756914233,-1.8513820610066625,-1.8253871127169936,-2.5982006985553303,-1.2049936827105832,1.327121937192421,256.0
257,-1.1926090870913506,-1.8520700189814774,-1.824457043972292,-2.5984446053364434,-1.2052486018432187,1.337383892723559,257.0
258,-1.1926090809664718,-1.8520700244471988,-1.8244570440374506,-2.5984446082500794,-1.2052486010071948,1.3569477628285567,258.0
259,-1.192609071710884,-1.852070032706704,-1.8244570441359151,-2.598444612653011,-1.2052485997438405,1.3865116329335547,259.0
260,-1.192609059324587,-1.8520700437599924,-1.824457044267685,-2.598444618545237,-1.2052485980531555,1.4260755030385426,260.0
261,-1.192609043895587,-1.8520700575475677,-1.8244570446079735,-2.5984446252880726,-1.205248596708989,1.4756393707288684,261.0
262,-1.1926090258957323,-1.8520700737504416,-1.82445704609619,-2.5984446294571817,-1.2052485998603604,1.535203224889155,262.0
263,-1.1926090048739348,-1.8520700926735678,-1.8244570478342583,-2.5984446343262304,-1.2052486035408063,1.604767079049442,263.0
264,-1.1926089719483333,-1.8520701076731654,-1.8244570518101773,-2.5984446160688646,-1.2052485737532732,1.6843309178188175,264.0
265,-1.1926089341232482,-1.8520701239889874,-1.8244570564720535,-2.5984445934186464,-1.2052485372751465,1.773894752628,265.0
266,-1.1926088920491655,-1.8520701421087375,-1.824457061718685,-2.5984445679634534,-1.2052484965038714,1.8734585778451627,266.0
267,-1.192608842101187,-1.8520701557709518,-1.8244570596266545,-2.5984445553010294,-1.2052484468770388,1.98302239381306,267.0
268,-1.1926087865654562,-1.8520701689115513,-1.8244570551244412,-2.5984445458177983,-1.2052483913724414,2.1025862022473953,268.0
269,-1.1926087262455478,-1.8520701789766965,-1.8244570460607865,-2.5984445439132213,-1.2052483310393889,2.2321500037244615,269.0
270,-1.1926086610370352,-1.8520701828006174,-1.824457029266806,-2.5984445559202753,-1.2052482657472665,2.371713801357287,270.0
271,-1.19260859305311,-1.852070182310621,-1.8244570073286188,-2.5984445773313594,-1.2052481976035458,2.5212775965764287,271.0
272,-1.1926085240915851,-1.8520701731581535,-1.8244569765111374,-2.5984446162436727,-1.2052481283387482,2.6808413850374633,272.0
273,-1.1926084588208739,-1.8520701560535073,-1.8244569389894985,-2.5984446698457564,-1.2052480626422315,2.8471705656970094,273.0
274,-1.1926084015353746,-1.8520701343074688,-1.824456899394871,-2.5984447302690494,-1.2052480048723253,3.00535963407349,274.0
275,-1.1926083593213102,-1.8520701059904563,-1.8244568580539786,-2.5984447992172597,-1.2052479620993337,3.153548702449966,275.0
276,-1.1926083230134719,-1.8520700774625625,-1.824456818368123,-2.598444866809176,-1.205247925242209,3.291737770826468,276.0
277,-1.1926083009156025,-1.8520700459844113,-1.8244567802469274,-2.5984449359913846,-1.2052479025781069,3.419926839202981,277.0
278,-1.192608284125454,-1.852070015410233,-1.8244567446950823,-2.5984450017822227,-1.2052478852483541,3.5381159075794955,278.0
279,-1.1926082736147179,-1.8520699862728156,-1.824456712546417,-2.5984450628310847,-1.2052478742355541,3.646304975956018,279.0
280,-1.1926082726451805,-1.8520699578000563,-1.8244566840661942,-2.5984451196915352,-1.205247872796044,3.744494044332542,280.0
281,-1.1926082717743856,-1.8520699322270913,-1.8244566584865152,-2.598445170761071,-1.2052478715031403,3.832683112709081,281.0
282,-1.1926082730934306,-1.8520699094313036,-1.8244566363459107,-2.5984452156547553,-1.2052478724505666,3.910872181085621,282.0
283,-1.1926082814884151,-1.8520698891261946,-1.8244566189027096,-2.5984452534731357,-1.2052478805305558,3.979061249462159,283.0
284,-1.1926082886522664,-1.8520698717988517,-1.8244566040175727,-2.59844528574541,-1.2052478874256058,4.037250317838694,284.0
285,-1.192608294584984,-1.8520698574492778,-1.8244565916904958,-2.5984453124715783,-1.2052478931357171,4.085439386215217,285.0
286,-1.1926082992865685,-1.8520698460774694,-1.8244565819214844,-2.5984453336516404,-1.2052478976608891,4.12362845459174,286.0
287,-1.1926083027570191,-1.8520698376834264,-1.824456574710538,-2.598445349285597,-1.2052479010011223,4.151817522968271,287.0
288,-1.1926083049963363,-1.8520698322671485,-1.824456570057656,-2.598445359373447,-1.2052479031564163,4.170006591344795,288.0
289,-1.1930197353040746,-1.853191724707434,-1.8229313824092779,-2.5988515214755505,-1.2056584953836702,4.1792137502512805,289.0
290,-1.1945131143684282,-1.8572639069994576,-1.8173953634531579,-2.6003257645102638,-1.2071488329557394,4.179729452786784,290.0
291,-1.195064796109856,-1.858768250736779,-1.815350255028645,-2.600870376228272,-1.2076993941049352,4.171310623571246,291.0
292,-1.1950647948447906,-1.8587682562679293,-1.81535025777946,-2.600870373749637,-1.2076993992147587,4.154158588566614,292.0
293,-1.1950647928421652,-1.8587682650238575,-1.8153502621340585,-2.6008703698259055,-1.2076994073037173,4.127006553561973,293.0
294,-1.19506479010198,-1.8587682770045637,-1.8153502680924405,-2.6008703644570774,-1.2076994183718113,4.08985451855734,294.0
295,-1.1950647866242345,-1.858768292210048,-1.8153502756546058,-2.600870357643153,-1.2076994324190407,4.042702483552713,295.0
296,-1.1950647819386946,-1.858768311091642,-1.8153502834450164,-2.6008703545432077,-1.2076994452658036,3.985550453298783,296.0
297,-1.195064776382862,-1.8587683333254108,-1.8153502924509397,-2.600870351454409,-1.2076994599119333,3.9183984235182194,297.0
298,-1.1950647748971854,-1.8587683566311988,-1.8153503109380256,-2.6008703201539665,-1.2076994649873622,3.841246405122808,298.0
299,-1.1950647756093817,-1.8587683818649383,-1.8153503357943939,-2.6008702712511527,-1.2076994649847008,3.754094391922082,299.0
300,-1.1950647763727438,-1.858768409970927,-1.815350363585733,-2.6008702163837243,-1.207699464719253,3.656942390845059,300.0
301,-1.1950647851768974,-1.8587684390430934,-1.8153503950865493,-2.6008701564458234,-1.207699473269269,3.5497903964066966,301.0
302,-1.1950648017152672,-1.8587684691559754,-1.8153504302634969,-2.600870091418093,-1.2076994903021698,3.4326384099986598,302.0
303,-1.1950648218785196,-1.8587685008828287,-1.815350468191741,-2.600870022082236,-1.2076995110067386,3.3054864313711745,303.0
304,-1.1950648576985805,-1.8587685290256915,-1.8153505074881124,-2.6008699552547783,-1.2076995473744012,3.1683344580755257,304.0
305,-1.1950648978234464,-1.8587685580463669,-1.8153505490187416,-2.6008698853828025,-1.2076995880710926,3.0211824855715284,305.0
306,-1.1950649543922172,-1.8587685795258753,-1.8153505882615855,-2.6008698255667424,-1.2076996451208926,2.864030520106125,306.0
307,-1.1950650179881368,-1.8587685978665367,-1.815350626610195,-2.6008697698804917,-1.2076997091616282,2.6979512921203552,307.0
308,-1.1950650869815977,-1.8587686070353344,-1.815350657555296,-2.600869730825433,-1.2076997784604036,2.5373498516953426,308.0
309,-1.195065154478368,-1.8587686088647533,-1.81535068073533,-2.600869706832416,-1.2076998461379085,2.3867484112703097,309.0
310,-1.1950652197769203,-1.8587686050510561,-1.8153506976134304,-2.600869694736149,-1.2076999115190734,2.246146970845272,310.0
311,-1.195065280246764,-1.858768596097546,-1.8153507078570674,-2.600869694327809,-1.2076999719758534,2.115545530420215,311.0
312,-1.1950653359196304,-1.8587685829349476,-1.8153507124009198,-2.600869703745004,-1.2077000275554262,1.9949440899951525,312.0
313,-1.1950653865108731,-1.858768570016576,-1.8153507155790698,-2.600869714208189,-1.2077000780460783,1.8843426495700792,313.0
314,-1.1950654289075633,-1.858768551675281,-1.8153507107762261,-2.600869737937734,-1.207700120234318,1.783741209144996,314.0
315,-1.1950654670899326,-1.8587685351571532,-1.8153507064507912,-2.6008697593085115,-1.2077001582289575,1.693139768719908,315.0
316,-1.1950655010579798,-1.8587685204621909,-1.815350702602768,-2.6008697783205217,-1.207700192029995,1.61253832829482,316.0
317,-1.1950655257283098,-1.8587685035964712,-1.8153506936554908,-2.6008698044573064,-1.2077002164767223,1.5419368878697264,317.0
318,-1.1950655467627975,-1.8587684890084155,-1.8153506858202413,-2.600869827156115,-1.2077002373171255,1.4813354474446447,318.0
319,-1.1950655643263308,-1.8587684768275745,-1.8153506792779037,-2.6008698461093367,-1.2077002547186013,1.4307340070195638,319.0
320,-1.1950655784189088,-1.8587684670539466,-1.8153506740284802,-2.6008698613169696,-1.2077002686811487,1.3901325665944948,320.0
321,-1.195065589040532,-1.8587684596875302,-1.8153506700719722,-2.600869872779013,-1.2077002792047669,1.3595311261694287,321.0
322,-1.1950655961911996,-1.8587684547283265,-1.81535066740838,-2.600869880495467,-1.2077002862894561,1.338929685744344,322.0
323,-1.1952139757009295,-1.8591780638020343,-1.8147907442686197,-2.6010212217383613,-1.207848348559179,1.3278642718098874,323.0
324,-1.1965964917179446,-1.8629946886236646,-1.8095735801630697,-2.602431331551233,-1.2092279090156974,1.3249159217375315,324.0
325,-1.1974893326643214,-1.865459508053564,-1.8062042800091165,-2.6033419957837327,-1.2101188429172083,1.3314606755942662,325.0
326,-1.197489328099605,-1.865459512120374,-1.8062042800360154,-2.60334199803247,-1.210118842205294,1.3461667351778033,326.0
327,-1.1974893204309194,-1.8654595189525813,-1.8062042800812057,-2.6033420018103293,-1.2101188410092836,1.3708727947613444,327.0
328,-1.197489309658264,-1.8654595285501858,-1.8062042801446867,-2.603342007117311,-1.2101188393291773,1.4055788543448684,328.0
329,-1.1974892957816388,-1.8654595409131878,-1.806204280226459,-2.6033420139534154,-1.210118837164975,1.4502849139284,329.0
330,-1.1974892792049794,-1.8654595557722804,-1.8062042811200045,-2.603342019446435,-1.2101188381050407,1.5049909621772615,330.0
331,-1.1974892598174174,-1.8654595732013797,-1.8062042826075386,-2.6033420243846965,-1.2101188411644876,1.5696970047492154,331.0
332,-1.1974892334233935,-1.8654595902680917,-1.80620428529953,-2.6033420189920786,-1.210118829387687,1.6444030399717853,332.0
333,-1.1974891980850477,-1.8654596054956767,-1.8062042896669201,-2.6033419979075836,-1.2101187953768149,1.7291090659391308,333.0
334,-1.1974891585518839,-1.865459622504241,-1.806204294610018,-2.603341974077746,-1.2101187571524832,1.8238150827034425,334.0
335,-1.1974891134845282,-1.865459638979041,-1.8062042971653178,-2.6033419533328477,-1.2101187130462379,1.9285210926432321,335.0
336,-1.197489060842919,-1.8654596514047963,-1.8062042928686064,-2.60334194439407,-1.2101186604403191,2.043227094043187,336.0
337,-1.1974890036106813,-1.8654596649152009,-1.8062042881930964,-2.6033419346917963,-1.210118603235991,2.1679330861472144,337.0
338,-1.1974889414604775,-1.8654596696388601,-1.806204273174301,-2.603341944065027,-1.2101185410158166,2.302639072635093,338.0
339,-1.1974888746570687,-1.8654596735265518,-1.806204255841987,-2.6033419565214864,-1.2101184741257034,2.447345058414311,339.0
340,-1.1974888079094501,-1.8654596663898628,-1.8062042275314765,-2.6033419909488527,-1.210118407109828,2.6020510383449635,340.0
341,-1.1974887385734043,-1.8654596559299232,-1.8062041950843517,-2.6033420327878134,-1.210118337444746,2.766687922061974,341.0
342,-1.1974886802339164,-1.8654596337749116,-1.8062041544624825,-2.6033420946298413,-1.2101182786064906,2.929731487339108,342.0
343,-1.197488629840937,-1.8654596099510345,-1.8062041146987762,-2.6033421573972397,-1.2101182277048357,3.0827750526161966,343.0
344,-1.1974885927049583,-1.8654595807775738,-1.806204073807678,-2.603342226825975,-1.2101181900010407,3.2258186178932293,344.0
345,-1.1974885623347895,-1.8654595518411774,-1.8062040353010902,-2.6033422937352464,-1.210118159082158,3.3588621831701873,345.0
346,-1.1974885450621287,-1.8654595204048445,-1.8062039984590466,-2.6033423616695814,-1.2101181412486133,3.481905748447073,346.0
347,-1.197488529193252,-1.8654594915234128,-1.8062039646112242,-2.6033424240827547,-1.2101181248644375,3.594949313723899,347.0
348,-1.1974885262870454,-1.865459462467229,-1.806203934704547,-2.6033424829234706,-1.2101181214690846,3.6979928790006618,348.0
349,-1.197488525377908,-1.865459435825836,-1.806203907840698,-2.6033425363430465,-1.2101181201153874,3.791036444277372,349.0
350,-1.1974885245664812,-1.8654594120477708,-1.8062038838640788,-2.603342584021272,-1.210118118907181,3.874080009554041,350.0
351,-1.1974885306896819,-1.8654593907351935,-1.8062038645484702,-2.603342624683668,-1.2101181246900983,3.947123574830689,351.0
352,-1.1974885383575333,-1.8654593722017432,-1.8062038484954908,-2.603342659334987,-1.2101181320672911,4.01016714010731,352.0
353,-1.1974885448091066,-1.8654593566080795,-1.8062038349888403,-2.6033426884898976,-1.2101181382743103,4.0632107053839155,353.0
354,-1.1974885500444024,-1.8654593439542018,-1.80620382402852,-2.6033427121484003,-1.2101181433111559,4.1062542706605,354.0
355,-1.1974885540634193,-1.8654593342401076,-1.8062038156145315,-2.603342730310494,-1.2101181471778275,4.1392978359370876,355.0
356,-1.1974885568661582,-1.8654593274657973,-1.8062038097468749,-2.603342742976179,-1.2101181498743252,4.162341401213691,356.0
357,-1.1974987472943588,-1.8654878005962738,-1.806164668048665,-2.6033534816313706,-1.2101283174082003,4.175421461601111,357.0
358,-1.1986194803139072,-1.868620155364578,-1.801859598860831,-2.604533903922572,-1.2112465387502744,4.18066923828647,358.0
359,-1.199841532128949,-1.8720356936795444,-1.7971653322268828,-2.605821038479859,-1.212465853494882,4.17613210228665,359.0
360,-1.1998800787262618,-1.8721434347997363,-1.7970172616747186,-2.6058616372327172,-1.2125043182028363,4.163767407586825,360.0
361,-1.1998800770843994,-1.8721434418965357,-1.7970172651814496,-2.6058616341970526,-1.212504324649141,4.1415382584760385,361.0
362,-1.1998800747039287,-1.8721434521858995,-1.7970172702657177,-2.605861629795764,-1.2125043339953785,4.109309109365274,362.0
363,-1.1998800715848499,-1.8721434656678277,-1.7970172769275226,-2.6058616240288512,-1.212504346241549,4.067079960254504,363.0
364,-1.1998800675214614,-1.8721434825373164,-1.7970172845723664,-2.6058616191118444,-1.2125043595409113,4.014850813281253,364.0
365,-1.1998800623689103,-1.872143502931679,-1.797017292781613,-2.6058616166048814,-1.2125043725930205,3.9526216692889435,365.0
366,-1.1998800577216309,-1.872143525989292,-1.7970173045411664,-2.6058616061203606,-1.2125043846627601,3.8803925285316465,366.0
367,-1.1998800583861455,-1.8721435494964616,-1.7970173278943333,-2.6058615603509683,-1.2125043846472496,3.7981634011429306,367.0
368,-1.1998800591171819,-1.8721435758509586,-1.7970173541282155,-2.6058615088433386,-1.212504384505824,3.705934279859618,368.0
369,-1.1998800606702733,-1.8721436048674296,-1.7970173833321181,-2.605861451618161,-1.2125043850567365,3.603705165576271,369.0
370,-1.1998800763266069,-1.8721436333562942,-1.7970174168806867,-2.605861389830052,-1.2125044011835295,3.4914760623504133,370.0
371,-1.1998800933793763,-1.872143664382734,-1.797017453421132,-2.6058613225271183,-1.2125044187597962,3.369246966787329,371.0
372,-1.1998801221240625,-1.8721436935059557,-1.797017491761026,-2.6058612555439935,-1.2125044480461855,3.2370178772959033,372.0
373,-1.1998801588302852,-1.8721437223351851,-1.7970175323309614,-2.6058611867719987,-1.2125044853197011,3.0947887900367586,373.0
374,-1.1998802074592925,-1.8721437467204671,-1.797017572246625,-2.6058611232661884,-1.212504534466873,2.9425597069849783,374.0
375,-1.1998802651575313,-1.8721437686325606,-1.7970176125733959,-2.605861061952403,-1.2125045926611393,2.7803458013021887,375.0
376,-1.199880331787354,-1.872143779932825,-1.7970176451152653,-2.6058610191407956,-1.2125046596298432,2.6188957229926135,376.0
377,-1.199880396076842,-1.8721437884931378,-1.7970176741671124,-2.6058609825166466,-1.2125047242071703,2.467445644683093,377.0
378,-1.1998804609756153,-1.8721437847601259,-1.7970176910989135,-2.6058609702819946,-1.2125047891898346,2.3259955663736234,378.0
379,-1.1998805212985224,-1.8721437812614703,-1.7970177068079742,-2.6058609589676696,-1.2125048495902362,2.1945454880642417,379.0
380,-1.1998805767325167,-1.8721437692531482,-1.7970177124357993,-2.6058609661480046,-1.212504904948579,2.0730954097549117,380.0
381,-1.1998806275689473,-1.872143757261365,-1.7970177166157972,-2.605860974690661,-1.2125049556992744,1.9616453314456488,381.0
382,-1.1998806724272613,-1.8721437437680297,-1.7970177173875923,-2.6058609880493036,-1.2125050004333024,1.8601952531364372,382.0
383,-1.1998807105084912,-1.8721437273195636,-1.797017713040673,-2.605861009372126,-1.2125050383256175,1.7687451748272704,383.0
384,-1.1998807444255677,-1.8721437126697287,-1.7970177091690813,-2.6058610283633152,-1.212505072074437,1.6872950965182087,384.0
385,-1.199880774178489,-1.8721436998185221,-1.7970177057728218,-2.605861045022869,-1.2125051016797594,1.6158450182091615,385.0
386,-1.19988079566338,-1.8721436855427156,-1.7970176983160817,-2.6058610670395703,-1.212505122974627,1.5543949399001085,386.0
387,-1.1998808133086472,-1.872143673320427,-1.7970176916933642,-2.605861086116612,-1.2125051404555176,1.5029448615910388,387.0
388,-1.1998808275243247,-1.8721436634737014,-1.7970176863578584,-2.6058611014857798,-1.2125051545387668,1.4614947832819511,388.0
389,-1.1998808383104125,-1.8721436560025397,-1.7970176823095638,-2.605861113147074,-1.2125051652243752,1.4300447049728875,389.0
390,-1.1998808456669101,-1.8721436509069402,-1.7970176795484818,-2.6058611211004936,-1.2125051725123424,1.4085946266638125,390.0
391,-1.1998808495938176,-1.8721436481869032,-1.797017678074613,-2.605861125346039,-1.2125051764026684,1.3971445483547402,391.0
392,-1.1994144045003012,-1.8708560828925378,-1.7988485187377217,-2.6053146929680397,-1.2120401798450597,1.3948109553372448,392.0
393,-1.1992423817714917,-1.8703812437667537,-1.799523714984763,-2.6051131715405016,-1.2118686913452599,1.401399856566108,393.0
394,-1.1991064196398245,-1.870005956894906,-1.8000573583596273,-2.604953894776793,-1.211733151477524,1.4177403764974976,394.0
395,-1.198887251996804,-1.869401003602758,-1.8009175784756875,-2.604697144515071,-1.2115146645136707,1.444080896428885,395.0
396,-1.1985848788424294,-1.8685663838903106,-1.8021043753329442,-2.604342920755334,-1.2112132304536998,1.4804214163602776,396.0
397,-1.198195962949101,-1.8675016038893815,-1.8036135135445808,-2.6038959200766296,-1.210825492860456,1.5267620272085924,397.0
398,-1.197721662126249,-1.866206835435582,-1.8054464615424743,-2.6033545135474108,-1.2103526162062084,1.5831026746986532,398.0
399,-1.1971631768213258,-1.8646822562658105,-1.8076047426842972,-2.602717011827005,-1.209795807848064,1.6494433221887128,399.0
400,-1.196516171217244,-1.862927145593003,-1.8100830328291242,-2.6019894156343417,-1.2091507097224916,1.7257840993689229,400.0
401,-1.1957835653705249,-1.8609419892439605,-1.8128849168563512,-2.6011676840363163,-1.2084202568671392,1.8121249005500104,401.0
402,-1.1949607418316255,-1.858725965647774,-1.8160048408176994,-2.6002581461223606,-1.2075998067767735,1.9084658505810341,402.0
403,-1.1940500477545557,-1.856279476100143,-1.819445663876446,-2.5992575650642813,-1.2066917193433577,2.0148068676287583,403.0
404,-1.193047139603488,-1.8536016979790089,-1.8232022721857974,-2.598171833497543,-1.2056916280825132,2.1311480605469453,404.0
405,-1.1919516385871005,-1.850692495645293,-1.8272743616221963,-2.5970013870829587,-1.204599152642686,2.257489421993287,405.0
406,-1.1907626735637553,-1.8475516554657223,-1.8316610148123609,-2.595747347814529,-1.20341341760582,2.393830955539992,406.0
407,-1.189478093608417,-1.844178682653879,-1.836359893998438,-2.594412526126006,-1.2021322612682885,2.5401726954109822,407.0
408,-1.1880956973827894,-1.8405730308500945,-1.841368696036595,-2.5929997487053296,-1.2007534715308794,2.6965146719606454,408.0
409,-1.1866517182494567,-1.8368331495988066,-1.846548348034486,-2.5915498852462537,-1.1993131748767207,2.8585677934302636,409.0
410,-1.1852761407692343,-1.833294186334278,-1.8514356003723935,-2.590191948029927,-1.197941029525097,3.011811998083962,410.0
411,-1.1839803339426087,-1.829983716173206,-1.8559933978283372,-2.5889354987117574,-1.1966483817698148,3.1550564230324234,411.0
412,-1.1827664479106645,-1.8269021889950054,-1.8602241781255116,-2.5877776715598864,-1.1954373928323716,3.2883010241494297,412.0
413,-1.1816371547510323,-1.8240502357270083,-1.8641308090282789,-2.5867149954274007,-1.1943107480705177,3.411545752856245,413.0
414,-1.1805946699667702,-1.8214284149358635,-1.8677155881648575,-2.585744637147184,-1.1932706737548895,3.5247905752031983,414.0
415,-1.1796375164388408,-1.8190362939201905,-1.8709771203433792,-2.584868408925979,-1.1923156860021515,3.6280355215631293,415.0
416,-1.1787696653875122,-1.8168749181836907,-1.8739194239034376,-2.5840812884332123,-1.1914497750298647,3.7212805247016516,416.0
417,-1.1779915406060086,-1.8149444055950015,-1.8765429132765088,-2.583382747836681,-1.1906733666142388,3.804525587075985,417.0
418,-1.177304338354003,-1.8132450688603559,-1.8788488041507219,-2.5827712712298228,-1.1899876627535837,3.877770689101434,418.0
419,-1.1767082507696762,-1.8117769628694906,-1.880837281076808,-2.582246621207245,-1.1893928564746616,3.941015836632922,419.0
420,-1.1762064135124641,-1.8105409863064417,-1.8825113501781525,-2.58180492616905,-1.188892097929382,3.9942609841644257,420.0
421,-1.1757968944943054,-1.8095365702258763,-1.8838691940217238,-2.5814485519378843,-1.1884834462060498,4.037506160421443,421.0
422,-1.1754809446638288,-1.8087640828061975,-1.8849119896975983,-2.5811759665545644,-1.1881681579668286,4.0707513561307955,422.0
423,-1.175260031070539,-1.808223956003804,-1.8856411172919278,-2.5809853735847357,-1.187947706961227,4.093996551840148,423.0
424,-1.1751341537144366,-1.8079161898186957,-1.886056576804712,-2.580876773028398,-1.1878220931892447,4.107241747549502,424.0
425,-1.174699312922431,-1.8068551389818166,-1.8874876371965166,-2.580503624833331,-1.1873881577618852,4.111007326067709,425.0
426,-1.1744319893720179,-1.8062032235658774,-1.8883666611448986,-2.5802745859577625,-1.187121389871341,4.105835685826145,426.0
427,-1.1744316449842311,-1.8062031264336547,-1.888366345384218,-2.5802749947402814,-1.1871210443852311,4.091127101263149,427.0
428,-1.174431066455773,-1.8062029632636554,-1.8883658149457223,-2.580275681443845,-1.1871204640117274,4.066418516700153,428.0
429,-1.174430253768145,-1.8062027340779785,-1.8883650697661476,-2.580276646305265,-1.1871196485870144,4.031709937199317,429.0
430,-1.1744292068296103,-1.8062024389860358,-1.888364109532069,-2.580277890497494,-1.1871185972996774,3.987001382656178,430.0
431,-1.174427925721453,-1.8062020778906305,-1.8883629345216266,-2.580279412979245,-1.1871173108700177,3.9322928281130496,431.0
432,-1.1744270606792477,-1.8062018424527326,-1.8883621489938223,-2.5802804249052187,-1.1871164422506446,3.8675842814003074,432.0
433,-1.1744270614048893,-1.8062018652247671,-1.888362170853226,-2.580280380711251,-1.1871164430225505,3.7928757458247526,433.0
434,-1.1744270622220028,-1.8062018910416302,-1.8883621956507337,-2.5802803305481277,-1.1871164438511352,3.7081672133450203,434.0
435,-1.1744270631298286,-1.8062019199028798,-1.8883622233879769,-2.5802802744086404,-1.1871164447301317,3.6134586838436706,435.0
436,-1.1744270781361856,-1.80620194842556,-1.8883622553047719,-2.5802802142704437,-1.1871164601843998,3.5087501655907207,436.0
437,-1.1744270951408435,-1.8062019795354287,-1.8883622903209178,-2.580280148463864,-1.1871164777018404,3.3940416529657127,437.0
438,-1.174427120534395,-1.806202010343592,-1.888362327636083,-2.580280080792214,-1.18711650362806,3.2693331476663103,438.0
439,-1.1744271574786962,-1.8062020394703975,-1.8883623669045644,-2.5802800130306984,-1.187116541111237,3.1346246492232597,439.0
440,-1.1744272022114979,-1.8062020672332255,-1.8883624072735725,-2.5802799456451,-1.1871165863778694,2.989916153393347,440.0
441,-1.1744272606956379,-1.8062020894651123,-1.888362446598942,-2.5802798850235407,-1.1871166453373796,2.835207660847868,441.0
442,-1.1744273286202944,-1.8062021061467504,-1.8883624835310644,-2.5802798324702567,-1.187116713670132,2.6713199202078313,442.0
443,-1.1744274003479318,-1.806202115612363,-1.888362514735678,-2.580279792896458,-1.1871167857002933,2.51234116748243,443.0
444,-1.174427471369146,-1.8062021152300534,-1.8883625363028407,-2.580279772769232,-1.1871168568673585,2.363362414757079,444.0
445,-1.1744275391595305,-1.8062021111378006,-1.8883625533237747,-2.5802797608393657,-1.1871169247382314,2.224383662031749,445.0
446,-1.1744276018201345,-1.8062020998633534,-1.888362561890935,-2.580279764448382,-1.1871169873551912,2.0954049093064424,446.0
447,-1.174427659507697,-1.8062020860564667,-1.8883625665000952,-2.580279774466433,-1.1871170449485742,1.9764261565811676,447.0
448,-1.174427711135866,-1.806202071194968,-1.8883625682292753,-2.5802797883257202,-1.1871170964529896,1.8674474038559012,448.0
449,-1.1744277549494524,-1.8062020520679665,-1.8883625634653112,-2.5802798128149167,-1.1871171400589036,1.7684686511306524,449.0
450,-1.1744277943364758,-1.8062020348734047,-1.8883625591826534,-2.580279834829927,-1.1871171792592357,1.6794898984054214,450.0
451,-1.1744278285140333,-1.8062020189940422,-1.8883625545491602,-2.5802798558066895,-1.1871172132596841,1.6005111456801988,451.0
452,-1.1744278536633703,-1.8062020014191889,-1.8883625455058772,-2.5802798827492825,-1.1871172381858928,1.5315323929549727,452.0
453,-1.174427875166753,-1.8062019863922003,-1.8883625377736186,-2.58027990578595,-1.1871172594984944,1.472553640229742,453.0
454,-1.1744278930241823,-1.8062019739130795,-1.8883625313523809,-2.5802799249166903,-1.1871172771974905,1.42357488750447,454.0
455,-1.1744279072356574,-1.806201963981823,-1.888362526242168,-2.5802799401415046,-1.1871172912828793,1.3845961347791946,455.0
456,-1.1744279178011783,-1.8062019565984304,-1.8883625224429803,-2.5802799514603922,-1.1871173017546615,1.3556173820539363,456.0
457,-1.174427924720745,-1.806201951762902,-1.888362519954818,-2.580279958873354,-1.1871173086128366,1.3366386293286805,457.0
458,-1.1747911357304885,-1.807109823819297,-1.8871754141352999,-2.5805618403373445,-1.1874800117929667,1.326837998404069,458.0
459,-1.1764301360356435,-1.811206673169607,-1.8818185187652818,-2.5818338344165825,-1.1891167208339541,1.3256566952927238,459.0
460,-1.1771336891223885,-1.8129652855670084,-1.8795190226934555,-2.5823798501980506,-1.1898192926345699,1.333611645991409,460.0
461,-1.17713368377969,-1.8129652903680293,-1.8795190228193708,-2.582379852438103,-1.1898192921983566,1.3502313056627064,461.0
462,-1.1771336752223056,-1.81296529805781,-1.879519023021049,-2.582379856025989,-1.1898192914996755,1.3768509653340082,462.0
463,-1.1771336634502352,-1.8129653086363504,-1.8795190232984897,-2.5823798609617072,-1.189819290538526,1.413470625005321,463.0
464,-1.177133648463479,-1.8129653221036512,-1.8795190236516937,-2.5823798672452587,-1.1898192893149087,1.4600902846766308,464.0
465,-1.1771336308088163,-1.8129653380752053,-1.8795190252126162,-2.5823798706645587,-1.189819292489261,1.5167099401624728,465.0
466,-1.1771336101361691,-1.812965356797195,-1.8795190272565174,-2.5823798739164134,-1.1898192970777168,1.5833295949616213,466.0
467,-1.1771335800419669,-1.8129653738525224,-1.8795190306726992,-2.5823798622983425,-1.1898192780554195,1.6599492394376885,467.0
468,-1.1771335420916353,-1.8129653903503677,-1.8795190351971849,-2.5823798396153625,-1.1898192414426685,1.746568877906727,468.0
469,-1.177133499726393,-1.812965408733226,-1.8795190403164725,-2.582379813994474,-1.1898192003240415,1.8431885052384311,469.0
470,-1.1771334506432491,-1.8129654249829976,-1.8795190410564753,-2.5823797954400756,-1.189819151929301,1.9498081259292044,470.0
471,-1.1771333944436009,-1.81296543840765,-1.8795190365653445,-2.5823797856561184,-1.1898190957611512,2.066427738508536,471.0
472,-1.1771333333917735,-1.8129654520096197,-1.8795190307383454,-2.5823797769701207,-1.1898190347260238,2.193047343209044,472.0
473,-1.1771332671668524,-1.812965455982553,-1.8795190140538525,-2.582379788708355,-1.189818968420033,2.3296669423616323,473.0
474,-1.1771331964208815,-1.8129654594530802,-1.8795189954878455,-2.5823798027620666,-1.1898188975758972,2.4762865409424943,474.0
475,-1.1771331261973546,-1.8129654501585897,-1.8795189648350967,-2.5823798416356762,-1.1898188270545391,2.632906132365983,475.0
476,-1.1771330551599648,-1.8129654364805594,-1.8795189297238872,-2.582379889326621,-1.189818755648131,2.798775985131136,476.0
477,-1.1771329946219629,-1.812965413443652,-1.8795188888810856,-2.5823799522378983,-1.1898186946153384,2.9599193181478363,477.0
478,-1.177132945322319,-1.8129653866105675,-1.8795188478735083,-2.5823800192669046,-1.1898186447849155,3.111062651164498,478.0
479,-1.177132906853629,-1.8129653562658707,-1.8795188068481463,-2.5823800899768177,-1.1898186057530902,3.252205984181141,479.0
480,-1.1771328785269597,-1.8129653248360231,-1.87951876792029,-2.5823801598225242,-1.189818576867873,3.3833493171977382,480.0
481,-1.1771328606773888,-1.8129652921748618,-1.879518731053385,-2.5823802289913234,-1.1898185584627463,3.5044926502143245,481.0
482,-1.177132845113175,-1.8129652620157548,-1.8795186972948126,-2.582380292590947,-1.1898185423875063,3.6156359832308875,482.0
483,-1.1771328440817406,-1.8129652314319318,-1.8795186676264273,-2.5823803527406084,-1.1898185408695205,3.7167793162474405,483.0
484,-1.1771328431522836,-1.812965203871923,-1.8795186408913396,-2.5823804069432965,-1.1898185395016174,3.8079226492639666,484.0
485,-1.1771328423248042,-1.812965179335726,-1.8795186170895513,-2.582380455199012,-1.1898185382837967,3.8890659822804934,485.0
486,-1.1771328505527332,-1.8129651572862628,-1.8795185984766736,-2.5823804959212087,-1.189818546180207,3.9602093152970212,486.0
487,-1.1771328583652148,-1.8129651382916467,-1.8795185826667444,-2.5823805307881207,-1.1898185537086554,4.021352648313551,487.0
488,-1.177132864899964,-1.812965122403605,-1.8795185694425292,-2.582380559952545,-1.1898185600058253,4.0724959813301105,488.0
489,-1.1771328701569808,-1.8129651096221355,-1.8795185588040293,-2.582380583414481,-1.1898185650717163,4.113639314346685,489.0
490,-1.1771328741362654,-1.8129650999472375,-1.8795185507512462,-2.582380601173929,-1.1898185689063288,4.144782647363235,490.0
491,-1.1771328768378175,-1.8129650933789103,-1.8795185452841794,-2.582380613230889,-1.1898185715096623,4.1659259803797974,491.0
492,-1.177252975466543,-1.813268974204785,-1.8791188006194806,-2.5824773464504065,-1.189938491822228,4.177410114774596,492.0
493,-1.1787449954733933,-1.8170442619150637,-1.874152633797369,-2.5836790261603686,-1.19142829722779,4.180769114283347,493.0
494,-1.1798007708643712,-1.819715716019023,-1.8706384999276076,-2.5845293506262883,-1.192482507970926,4.174515919281269,494.0
495,-1.1798007698049569,-1.819715720825769,-1.8706385023459284,-2.584529348169175,-1.1924825125982428,4.160101381265749,495.0
496,-1.17980076801058,-1.8197157289671662,-1.8706385064419444,-2.584529344007455,-1.1924825204357328,4.135686843250232,496.0
497,-1.179800765481241,-1.8197157404432154,-1.870638512215657,-2.5845293381411265,-1.1924825314833964,4.101272305234712,497.0
498,-1.1798007622169395,-1.8197157552539158,-1.8706385196670647,-2.584529330570191,-1.1924825457412334,4.056857767219188,498.0
499,-1.1798007578944636,-1.8197157737209044,-1.8706385278155335,-2.584529325043111,-1.1924825604225489,4.0024432364413105,499.0
500,-1.179800752576193,-1.819715795782106,-1.8706385368503264,-2.58452932083643,-1.192482576065177,3.938028709768661,500.0
501,-1.179800749315665,-1.819715819984765,-1.8706385519711444,-2.584529299819124,-1.1924825864600321,3.8636141898130227,501.0
502,-1.179800750030065,-1.8197158454755207,-1.8706385762920457,-2.584529251247862,-1.1924825865031257,3.779199679459526,502.0
503,-1.1798007508049073,-1.819715873970472,-1.8706386035508338,-2.5845291966747546,-1.1924825863499104,3.6847851775906486,503.0
504,-1.179800755705469,-1.819715904485911,-1.8706386341517158,-2.5845291365026752,-1.1924825905791436,3.580370682426236,504.0
505,-1.1798007724535882,-1.8197159351431351,-1.8706386688906775,-2.584529071379783,-1.192482607805129,3.4659561958472245,505.0
506,-1.1798007906673667,-1.8197159684786248,-1.8706387066694643,-2.5845290005517803,-1.1924826265525248,3.341541718718797,506.0
507,-1.1798008249040404,-1.819715998156208,-1.8706387458706113,-2.5845289322550427,-1.1924826613326898,3.2071272468507184,507.0
508,-1.1798008640216915,-1.8197160290258743,-1.8706387877292723,-2.584528860196288,-1.1924827010292687,3.0627127759196804,508.0
509,-1.1798009191906775,-1.8197160527179517,-1.8706388276553205,-2.5845287974681574,-1.1924827566949112,2.9082983107170923,509.0
510,-1.1798009812135926,-1.8197160753491541,-1.8706388686858222,-2.5845287347959385,-1.1924828192118047,2.743912245499826,510.0
511,-1.17980105400092,-1.8197160850090333,-1.8706389005655635,-2.584528694369544,-1.1924828923098012,2.5805635018129496,511.0
512,-1.1798011237806538,-1.8197160905564005,-1.8706389275524655,-2.5845286628919935,-1.192482962328259,2.4272147581261105,512.0
513,-1.1798011928367589,-1.8197160864385808,-1.8706389450084322,-2.5845286505724165,-1.1924830314676822,2.2838660144392797,513.0
514,-1.1798012569855139,-1.8197160799416152,-1.8706389586512986,-2.584528644365142,-1.1924830956513055,2.150517270752493,514.0
515,-1.1798013160507919,-1.8197160658476514,-1.8706389634022518,-2.584528654549442,-1.1924831546195651,2.027168527065741,515.0
516,-1.179801370327594,-1.8197160528963043,-1.8706389677680326,-2.5845286639080935,-1.1924832088072144,1.91381978337899,516.0
517,-1.1798014162472321,-1.8197160345566448,-1.870638964353132,-2.584528686295813,-1.1924832545339128,1.8104710396922714,517.0
518,-1.17980145705623,-1.8197160167700202,-1.870638959885436,-2.5845287091086138,-1.192483295147757,1.7171222960055477,518.0
519,-1.1798014934935586,-1.8197160008887934,-1.8706389558963388,-2.5845287294775896,-1.1924833314108376,1.6337735523188401,519.0
520,-1.17980152169927,-1.8197159838668633,-1.870638948255463,-2.5845287545130167,-1.1924833594063997,1.560424808632149,520.0
521,-1.1798015445092194,-1.8197159679421602,-1.8706389399973484,-2.5845287789910625,-1.192483382012033,1.4970760649454333,521.0
522,-1.179801563718474,-1.8197159545312738,-1.870638933042828,-2.5845287996050947,-1.1924834010492247,1.443727321258699,522.0
523,-1.1798015793270342,-1.8197159436342036,-1.870638927391901,-2.584528816355113,-1.1924834165179745,1.4003785775719528,523.0
524,-1.1798015913348996,-1.8197159352509478,-1.870638923044571,-2.5845288292411164,-1.192483428418282,1.3670298338852167,524.0
525,-1.17980159974207,-1.8197159293815066,-1.8706389200008373,-2.584528838263105,-1.1924834367501467,1.343681090198483,525.0
526,-1.1798075147997145,-1.819731064860363,-1.8706188856699888,-2.584533779665498,-1.192489342470845,1.3303139072246792,526.0
527,-1.1810193822044042,-1.8228352051359271,-1.8665113050500226,-2.585545932004047,-1.1936993042048436,1.3248950764069507,527.0
528,-1.1823851791918343,-1.8263336406429724,-1.86188197433861,-2.5866866476852017,-1.1950629547384966,1.3292650906815504,528.0
529,-1.1824325066493393,-1.8264548814827382,-1.8617215461703913,-2.5867261805949586,-1.1951102112905656,1.3415824420817195,529.0
530,-1.1824324995826827,-1.8264548878213032,-1.8617215462962746,-2.5867261837083393,-1.1951102105650975,1.3637540087255302,530.0
531,-1.1824324893287654,-1.8264548970187393,-1.8617215464789347,-2.586726188225942,-1.1951102095124229,1.395925575369338,531.0
532,-1.182432475887587,-1.8264549090750466,-1.8617215467183716,-2.5867261941477664,-1.1951102081325415,1.4380971420131496,532.0
533,-1.1824324595096496,-1.8264549238173255,-1.8617215475244413,-2.586726199589205,-1.195110208582984,1.4902687058673292,533.0
534,-1.1824324403829483,-1.8264549411158209,-1.861721549279776,-2.586726203135911,-1.1951102124829158,1.5524402657149294,534.0
535,-1.1824324164105307,-1.826454959917605,-1.8617215516520031,-2.5867262027898623,-1.195110210220863,1.6246118224725543,535.0
536,-1.1824323808543065,-1.826454975351402,-1.8617215559152402,-2.5867261815533764,-1.1951101759406655,1.7067833658677831,536.0
537,-1.1824323409545312,-1.8264549926532532,-1.861721560734717,-2.5867261575689953,-1.1951101373505972,1.7989549033953636,537.0
538,-1.1824322964902056,-1.8264550114449656,-1.8617215656587407,-2.586726131707642,-1.1951100941373112,1.9011264340814853,538.0
539,-1.1824322431009906,-1.8264550241606698,-1.8617215613644758,-2.58672612247276,-1.19511004078143,2.013297953645815,539.0
540,-1.1824321849510606,-1.826455038011131,-1.8617215566838285,-2.586726112428152,-1.1951099826592393,2.1354694656835687,540.0
541,-1.1824321218007403,-1.8264550456892361,-1.8617215444722657,-2.5867261160262167,-1.195109919467322,2.2676409717317285,541.0
542,-1.1824320537336372,-1.826455049725523,-1.8617215272061944,-2.5867261282546004,-1.1951098513158704,2.409812475537126,542.0
543,-1.182431984280906,-1.8264550457760413,-1.8617215017937627,-2.5867261565701845,-1.1951097816491205,2.561983975133459,543.0
544,-1.1824319124631772,-1.8264550362213865,-1.8617214702304983,-2.5867261965893675,-1.195109709523165,2.724155468232315,544.0
545,-1.182431849067627,-1.8264550152098555,-1.861721430215911,-2.5867262566102127,-1.1951096456541959,2.8894516195433253,545.0
546,-1.1824317920051677,-1.8264549927348244,-1.8617213907564303,-2.5867263176298585,-1.1951095881085858,3.0450395768604044,546.0
547,-1.182431752812304,-1.826454961794265,-1.8617213486735782,-2.5867263899813384,-1.1951095483358074,3.1906275341774464,547.0
548,-1.1824317165774478,-1.8264549328631001,-1.8617213094520446,-2.5867264575119018,-1.1951095115595916,3.326215491494458,548.0
549,-1.1824316982992744,-1.8264548994094056,-1.8617212714441291,-2.5867265286066865,-1.1951094927065666,3.451803448811448,549.0
550,-1.1824316814765092,-1.8264548686194844,-1.8617212364626048,-2.5867265940405155,-1.1951094753547227,3.567391406128406,550.0
551,-1.1824316746853756,-1.8264548384498567,-1.8617212051996916,-2.5867266552869124,-1.195109468066153,3.6729793634453536,551.0
552,-1.182431673721208,-1.826454809902376,-1.861721177316019,-2.586726711623453,-1.1951094666431195,3.768567320762291,552.0
553,-1.1824316728579072,-1.826454784341415,-1.8617211523494113,-2.5867267620663084,-1.195109465368958,3.8541552780792148,553.0
554,-1.1824316767938998,-1.826454761488387,-1.8617211314916364,-2.58672680577164,-1.1951094689478081,3.9297432353961406,554.0
555,-1.1824316850700878,-1.826454741370514,-1.8617211146262433,-2.586726842821902,-1.1951094769200141,3.99533119271306,555.0
556,-1.18243169208443,-1.8264547243199534,-1.8617211003322653,-2.586726874223221,-1.1951094836767218,4.050919150029995,556.0
557,-1.1824316978369267,-1.8264547103367068,-1.8617210886097013,-2.5867268999755977,-1.195109489217931,4.096507107346966,557.0
558,-1.182431702327578,-1.8264546994207724,-1.8617210794585541,-2.5867269200790313,-1.195109493543642,4.13209506466392,558.0
559,-1.1824317055563833,-1.826454691572149,-1.8617210728788236,-2.586726934533522,-1.1951094966538545,4.157683021980878,559.0
560,-1.182431707523343,-1.826454686790837,-1.86172106887051,-2.58672694333907,-1.1951094985485682,4.173270979297827,560.0
561,-1.183258389162714,-1.8285982694732155,-1.8588679191007977,-2.587442412704921,-1.1959348056792902,4.180447166962427,561.0
562,-1.184790253903078,-1.8325703990484146,-1.853580948380044,-2.588768191792316,-1.1974641244561308,4.178293996669779,562.0
563,-1.1850262750269471,-1.8331824078019505,-1.8527663606774345,-2.5889724593858956,-1.1976997572205503,4.167776260217422,563.0
564,-1.1850262735612265,-1.8331824143703075,-1.8527663639516951,-2.5889724561904943,-1.197699763437314,4.147882777249679,564.0
565,-1.1850262713587216,-1.8331824242404278,-1.852766368871852,-2.5889724513888375,-1.1976997727791032,4.11798929428194,565.0
566,-1.1850262684194326,-1.8331824374123111,-1.8527663754379051,-2.5889724449809255,-1.1976997852459177,4.078095811314189,566.0
567,-1.18502626465425,-1.833182453973049,-1.8527663833839028,-2.58897243797724,-1.1976998000616212,4.02820232889648,567.0
568,-1.1850262596987993,-1.8331824742787661,-1.8527663916223442,-2.588972434509734,-1.1976998140525188,3.9683088488693583,568.0
569,-1.1850262539159713,-1.8331824979747884,-1.8527664012363012,-2.5889724304632824,-1.19769983037938,3.8984153688422465,569.0
570,-1.185026254294442,-1.8331825219304152,-1.8527664236620236,-2.5889723865093144,-1.1976998311441687,3.8185219045974983,570.0
571,-1.1850262550377224,-1.833182548733059,-1.852766449447786,-2.5889723351336373,-1.1976998311018787,3.7286284441123323,571.0
572,-1.18502625583844,-1.8331825785001543,-1.8527664781644444,-2.5889722777722994,-1.1976998308424398,3.6287349926395835,572.0
573,-1.185026269120933,-1.8331826082263563,-1.8527665110740061,-2.5889722155639445,-1.197699844301717,3.5188415507858797,573.0
574,-1.1850262864587655,-1.8331826399637623,-1.8527665472826382,-2.588972147893148,-1.1976998621483204,3.3989481163579693,574.0
575,-1.1850263120035285,-1.833182671409956,-1.8527665857580482,-2.5889720783921497,-1.197699888234619,3.2690546887040304,575.0
576,-1.1850263494336826,-1.833182700966522,-1.8527666260878308,-2.5889720091457034,-1.1976999262245327,3.129161264665467,576.0
577,-1.1850263955290308,-1.8331827284586202,-1.8527666671164935,-2.5889719413893584,-1.1976999728643916,2.9792678433248865,577.0
578,-1.1850264544956353,-1.8331827509527474,-1.8527667073105456,-2.5889718796446934,-1.1977000323210696,2.8193744287461424,578.0
579,-1.1850265229331054,-1.8331827661665736,-1.8527667433971569,-2.5889718294088127,-1.1977001011520714,2.6530972281556346,579.0
580,-1.185026592416058,-1.8331827754311338,-1.8527667740406295,-2.588971790564285,-1.197700170935123,2.4952308045403746,580.0
581,-1.185026661776328,-1.833182773709707,-1.8527667939926582,-2.588971773364699,-1.1977002404185242,2.347364380925123,581.0
582,-1.1850267273774264,-1.8331827698405911,-1.8527668106902138,-2.588971761505142,-1.1977003061000355,2.209497957309902,582.0
583,-1.1850267879346008,-1.8331827578038509,-1.8527668178952426,-2.5889717672076182,-1.1977003665952828,2.0816315336946896,583.0
584,-1.1850268436824627,-1.8331827445390523,-1.8527668224102234,-2.5889717767529525,-1.1977004222510073,1.9637651100795075,584.0
585,-1.1850268930478673,-1.833182729374752,-1.8527668230936722,-2.588971791928704,-1.1977004714798427,1.8558986864643499,585.0
586,-1.1850269353067029,-1.8331827109856271,-1.8527668184346957,-2.5889718155565773,-1.1977005135347862,1.7580322628492067,586.0
587,-1.185026973247529,-1.833182694475509,-1.852766814251767,-2.5889718367701553,-1.1977005512925538,1.670165839234064,587.0
588,-1.1850270054889411,-1.8331826787535654,-1.8527668090564933,-2.5889718581249888,-1.1977005833511922,1.5922994156189372,588.0
589,-1.1850270296253158,-1.8331826619201899,-1.8527668002569202,-2.5889718840714124,-1.1977006072692928,1.5244329920038169,589.0
590,-1.1850270502052376,-1.8331826475671829,-1.8527667927539493,-2.588971906194675,-1.1977006276631026,1.4665665683886855,590.0
591,-1.185027067228707,-1.8331826356945475,-1.8527667865475763,-2.5889719244947793,-1.197700644532623,1.4187001447735281,591.0
592,-1.1850270806957235,-1.8331826263022803,-1.8527667816378064,-2.5889719389717225,-1.1977006578778524,1.3808337211583663,592.0
593,-1.1850270906062865,-1.833182619390381,-1.8527667780246384,-2.588971949625505,-1.1977006676987907,1.3529672975432145,593.0
594,-1.1850270969603964,-1.8331826149588504,-1.8527667757080735,-2.5889719564561258,-1.1977006739954383,1.3351008739280583,594.0
595,-1.1855071712724967,-1.834442791131289,-1.851079749459857,-2.5894022108956016,-1.1981799058347804,1.3261489761899656,595.0
596,-1.1870693882522823,-1.8385435833763701,-1.8455899397324063,-2.590802307025413,-1.1997393817112385,1.326002529849217,596.0
597,-1.187586165436332,-1.839900124234041,-1.8437739156955855,-2.5912654586133566,-1.200255254452427,1.3347267404691336,597.0
598,-1.1875861598813127,-1.8399001292078223,-1.8437739157648005,-2.591265461169478,-1.2002552537683924,1.3523056829192182,598.0
599,-1.1875861511662513,-1.8399001370110009,-1.8437739158733897,-2.5912654651796796,-1.2002552526952357,1.3798846253692998,599.0
600,-1.1875861392911482,-1.839900147643577,-1.8437739160213522,-2.591265470643963,-1.2002552512329574,1.4174635678193925,600.0
601,-1.187586124256003,-1.8399001611055503,-1.8437739162086888,-2.591265477562327,-1.2002552493815575,1.4650425102694822,601.0
602,-1.1875861066655216,-1.8399001769865384,-1.843773917647051,-2.5912654814862806,-1.2002552524035295,1.5226214399523093,602.0
603,-1.1875860860531686,-1.8399001956031544,-1.8437739194016411,-2.5912654858478636,-1.2002552562388253,1.5902003689944595,603.0
604,-1.1875860553688917,-1.8399002117981396,-1.8437739228836465,-2.5912654725174202,-1.2002552337611863,1.6677792859805565,604.0
605,-1.1875860179358466,-1.8399002280213628,-1.8437739274000498,-2.5912654501675836,-1.2002551976886573,1.7553581981797521,605.0
606,-1.187585976195522,-1.8399002460753549,-1.843773932511212,-2.591265424923139,-1.2002551572172253,1.852937098436181,606.0
607,-1.1875859274431604,-1.8399002612481534,-1.8437739323113636,-2.5912654085688134,-1.2002551090445768,1.9605159917744286,607.0
608,-1.1875858721628207,-1.8399002743785684,-1.8437739278329417,-2.591265399076376,-1.2002550537964045,2.0780948771803462,608.0
609,-1.1875858121133658,-1.8399002866073282,-1.843773920980802,-2.591265392799901,-1.2002549937547007,2.205673754976556,609.0
610,-1.18758574704816,-1.8399002904260047,-1.8437739043604155,-2.591265404642794,-1.2002549286072925,2.3432526277314207,610.0
611,-1.1875856780916259,-1.8399002924862526,-1.8437738848123328,-2.591265421108838,-1.200254859532268,2.4908314993843543,611.0
612,-1.1875856091579635,-1.8399002832767128,-1.8437738543038664,-2.5912654597713165,-1.2002547902992329,2.648410364031713,612.0
613,-1.1875855408319047,-1.8399002685277144,-1.8437738185938681,-2.591265509168476,-1.2002547215855222,2.81461960481139,613.0
614,-1.187585482120317,-1.8399002461177454,-1.84377377843259,-2.5912655708002887,-1.2002546623833212,2.9747967908058217,614.0
615,-1.1875854357830478,-1.8399002190363491,-1.84377373759226,-2.5912656379545465,-1.2002546155069358,3.1249739768002294,615.0
616,-1.1875853985053384,-1.839900189594065,-1.8437736972856582,-2.5912657070647986,-1.2002545776717255,3.265151162794597,616.0
617,-1.1875853725984862,-1.8399001584643182,-1.8437736588906115,-2.5912657761161944,-1.2002545512049232,3.395328348788946,617.0
618,-1.1875853553194475,-1.8399001268398012,-1.8437736227106107,-2.591265843574868,-1.200254533376779,3.515505534783266,618.0
619,-1.187585341628508,-1.8399000973358217,-1.8437735897159275,-2.5912659057871803,-1.20025451917886,3.6256827207775766,619.0
620,-1.1875853406289032,-1.8399000677892499,-1.8437735606464387,-2.5912659643064164,-1.20025451769931,3.7258599067718556,620.0
621,-1.1875853397290819,-1.8399000411921143,-1.8437735344787525,-2.59126601698408,-1.2002545163674536,3.816037092766138,621.0
622,-1.1875853390639795,-1.8399000175364926,-1.8437735112473388,-2.5912660637956164,-1.200254515318392,3.8962142787604095,622.0
623,-1.1875853478102563,-1.8398999962838607,-1.8437734932962129,-2.591266103071169,-1.2002545237401239,3.9663914647546954,623.0
624,-1.1875853553102196,-1.839899978059653,-1.8437734779030588,-2.5912661367500944,-1.200254530961789,4.026568650748979,624.0
625,-1.1875853615638696,-1.8398999628638726,-1.8437734650678737,-2.5912661648323936,-1.2002545369833872,4.076745836743279,625.0
626,-1.1875853665712066,-1.8398999506965168,-1.8437734547906601,-2.591266187318066,-1.2002545418049184,4.116923022737593,626.0
627,-1.1875853703322299,-1.8398999415575852,-1.843773447071419,-2.5912662042071113,-1.2002545454263829,4.147100208731897,627.0
628,-1.1875853728469397,-1.8398999354470775,-1.8437734419101506,-2.59126621549953,-1.2002545478477804,4.167277394726199,628.0
629,-1.1877810904838506,-1.8404200266064445,-1.8430732029769163,-2.5914477418369786,-1.2004499035381782,4.178009910263789,629.0
630,-1.1892510056701007,-1.8443261619693399,-1.8378141228035108,-2.5928110402885376,-1.201917100827159,4.18047863685672,630.0
631,-1.190109554068261,-1.8466076629646708,-1.8347423970516572,-2.5936073146745944,-1.2027740643069091,4.173551660494709,631.0
632,-1.1901095529437034,-1.8466076679435972,-1.8347423995132437,-2.593607312366924,-1.2027740689398112,4.1583208207414035,632.0
633,-1.1901095510808037,-1.8466076761915007,-1.834742403591016,-2.593607308544123,-1.2027740766145036,4.133089980988101,633.0
634,-1.1901095484795612,-1.846607687708381,-1.8347424092849738,-2.5936073032061917,-1.2027740873309862,4.097859141234802,634.0
635,-1.1901095451399764,-1.8466077024942384,-1.8347424165951176,-2.5936072963531305,-1.202774101089259,4.0526283014814855,635.0
636,-1.1901095406952167,-1.846607720901942,-1.834742424442677,-2.5936072920586386,-1.2027741146617146,3.9973974641524563,636.0
637,-1.1901095352893825,-1.8466077427928766,-1.8347424332514184,-2.593607288722471,-1.2027741293162335,3.9321666277819096,637.0
638,-1.1901095325405715,-1.8466077664678286,-1.8347424491550766,-2.593607265189879,-1.2027741376284,3.856935799578342,638.0
639,-1.1901095332446479,-1.8466077915679024,-1.834742473465238,-2.5936072169663977,-1.2027741376371976,3.7717049797353717,639.0
640,-1.1901095340062122,-1.846607819594886,-1.8347425006930056,-2.5936071628040374,-1.2027741374334535,3.676474169556978,640.0
641,-1.1901095400141943,-1.8466078493036027,-1.8347425313492476,-2.593607103252833,-1.2027741428900907,3.5712433661143383,641.0
642,-1.190109556476552,-1.846607879435519,-1.8347425659715715,-2.5936070387628596,-1.2027741598356532,3.4560125710951435,642.0
643,-1.1901095743692232,-1.8466079121812862,-1.8347426036016412,-2.5936069686648384,-1.2027741782664045,3.3307817848059957,643.0
644,-1.190109609288917,-1.846607940773907,-1.8347426424818674,-2.59360690178691,-1.2027742137283326,3.195551004365913,644.0
645,-1.1901096476774273,-1.8466079710962795,-1.8347426841372763,-2.5936068304654247,-1.20277425269727,3.050320224280347,645.0
646,-1.1901097030378451,-1.8466079935242898,-1.8347427233989007,-2.5936067696653424,-1.2027743085440994,2.8950894504591793,646.0
647,-1.190109764771269,-1.8466080146459638,-1.8347427633815827,-2.593606709542338,-1.2027743707563903,2.730041609851234,647.0
648,-1.1901098354379074,-1.846608024103522,-1.8347427947687183,-2.5936066697803364,-1.2027744417318578,2.567515853267289,648.0
649,-1.1901099035966973,-1.8466080285087738,-1.834742820433974,-2.5936066407411147,-1.202774510111844,2.414990096683225,649.0
650,-1.1901099705921796,-1.8466080245953735,-1.8347428376076713,-2.59360662847181,-1.2027745771907432,2.2724643400990243,650.0
651,-1.1901100327694056,-1.8466080174822546,-1.834742850145291,-2.5936066239574482,-1.2027746393887961,2.1399385835146694,651.0
652,-1.190110090017519,-1.8466080038963908,-1.834742854814495,-2.5936066336927275,-1.202774696541697,2.017412826930208,652.0
653,-1.1901101425933014,-1.8466079914193485,-1.8347428591026131,-2.5936066426334583,-1.2027747490300378,1.9048870703456025,653.0
654,-1.1901101866883246,-1.8466079730816802,-1.8347428550072205,-2.5936066656753836,-1.2027747929237347,1.8023613137609114,654.0
655,-1.190110226155666,-1.846607955934542,-1.8347428506245684,-2.593606687748119,-1.202774832198947,1.7098355571761166,655.0
656,-1.1901102613574563,-1.8466079406406348,-1.8347428467155815,-2.593606707435278,-1.2027748672293734,1.6273098005912423,656.0
657,-1.1901102881105623,-1.8466079238957516,-1.8347428387411737,-2.59360673250851,-1.2027748937689864,1.5547840440063245,657.0
658,-1.1901103100771067,-1.8466079085925582,-1.8347428306750904,-2.5936067561641236,-1.2027749155349694,1.4922582874213497,658.0
659,-1.1901103285304522,-1.8466078957368683,-1.8347428238990473,-2.5936067760363986,-1.2027749338198306,1.4397325308363436,659.0
660,-1.1901103434705989,-1.8466078853286816,-1.8347428184130448,-2.5936067921253354,-1.2027749486235688,1.3972067742513175,660.0
661,-1.1901103548975458,-1.846607877367997,-1.8347428142170843,-2.5936068044309324,-1.2027749599461846,1.3646810176662802,661.0
662,-1.1901103628112935,-1.8466078718548138,-1.8347428113111666,-2.59360681295319,-1.2027749677876771,1.3421552610812952,662.0
663,-1.1901384907334702,-1.8466835279892413,-1.8346403707287555,-2.5936337942293557,-1.2028030409555008,1.3295352767786626,663.0
664,-1.191383568392471,-1.850033092855242,-1.8301052185815576,-2.59482809290203,-1.2040456963208668,1.3247721439298774,664.0
665,-1.192584158524294,-1.8532629864643706,-1.8257320996831237,-2.5959797205031814,-1.2052439520740366,1.32981194922027,665.0
666,-1.192600451934814,-1.8533068343063535,-1.8256727367336454,-2.5959953552154724,-1.2052602172423104,1.3427156224423045,666.0
667,-1.1926004447765708,-1.853306840704539,-1.8256727367869485,-2.5959953586388114,-1.205260216217834,1.365563171797351,667.0
668,-1.1926004344852816,-1.8533068499031056,-1.8256727368635814,-2.5959953635604904,-1.2052602147449614,1.3984107211524233,668.0
669,-1.1926004210609458,-1.853306861902054,-1.8256727369635444,-2.595995369980509,-1.2052602128236922,1.4412582705075065,669.0
670,-1.1926004047927845,-1.8533068765080878,-1.8256727376579969,-2.595995375816293,-1.2052602129970467,1.494105811905311,670.0
671,-1.1926003857870142,-1.8533068936502188,-1.8256727391566998,-2.595995380303005,-1.2052602161989623,1.5569533446790502,671.0
672,-1.1926003614272664,-1.8533069117694256,-1.8256727414263991,-2.595995379218277,-1.2052602110142367,1.6298008732008127,672.0
673,-1.192600326445967,-1.8533069269080291,-1.8256727456710844,-2.595995358351656,-1.2052601773297582,1.712648389386787,673.0
674,-1.1926002872247756,-1.8533069438617953,-1.8256727504721566,-2.5959953347770397,-1.2052601394295386,1.8054958987469503,674.0
675,-1.1926002432453215,-1.8533069617336613,-1.8256727547138205,-2.5959953106835956,-1.2052600966411182,1.908343401189037,675.0
676,-1.19260019083083,-1.853306974151244,-1.8256727504388477,-2.5959953017373083,-1.205260044261591,2.0211908932976037,676.0
677,-1.1926001337704122,-1.8533069876704353,-1.8256727457813018,-2.595995292012368,-1.2052599872297096,2.144038377168342,677.0
678,-1.192600071803817,-1.8533069943900262,-1.8256727328994393,-2.595995297254091,-1.2052599252141256,2.2768858552072375,678.0
679,-1.1926000050622694,-1.8533069982720567,-1.825672715728036,-2.5959953095585337,-1.2052598583872283,2.419733331434278,679.0
680,-1.1925999373428295,-1.8533069934538966,-1.8256726897173736,-2.5959953393620063,-1.2052597904393025,2.5725808030496884,680.0
681,-1.1925998669634434,-1.8533069840205127,-1.8256726583447147,-2.595995379089195,-1.205259719750656,2.7354282682853905,681.0
682,-1.192599806071351,-1.8533069626161494,-1.8256726182135254,-2.595995439655074,-1.2052596583744588,2.9002276438690604,682.0
683,-1.1925997516435023,-1.8533069400262179,-1.8256725789513473,-2.5959955006309907,-1.2052596034573697,3.055132880163421,683.0
684,-1.1925997135718747,-1.8533069099529058,-1.8256725374907847,-2.595995571512963,-1.2052595648102695,3.200038116457942,684.0
685,-1.1925996794533738,-1.8533068813794347,-1.8256724987436752,-2.595995638244893,-1.2052595301495268,3.334943352752595,685.0
686,-1.192599661709582,-1.8533068489133662,-1.8256724613256414,-2.5959957077747253,-1.2052595118359821,3.459848589047414,686.0
687,-1.1925996453863705,-1.8533068190465605,-1.8256724269033135,-2.5959957717379516,-1.2052594949886326,3.5747538253422912,687.0
688,-1.1925996397501875,-1.8533067895827058,-1.8256723962352182,-2.595995831705011,-1.205259488858467,3.6796590616373157,688.0
689,-1.1925996388132196,-1.853306761941016,-1.825672368831213,-2.5959958866611124,-1.2052594874676605,3.774564297932433,689.0
690,-1.1925996379749786,-1.8533067372118874,-1.825672344314716,-2.595995935826585,-1.2052594862234014,3.8594695342276255,690.0
691,-1.1925996424508285,-1.8533067150919968,-1.8256723240274932,-2.5959959782401967,-1.2052594903475984,3.9343747705228953,691.0
692,-1.1925996504414762,-1.8533066956859878,-1.8256723075066383,-2.595996014233571,-1.2052594980386993,3.999280006818203,692.0
693,-1.1925996572009987,-1.853306679269879,-1.8256722935311633,-2.5959960446814185,-1.2052595045448264,4.054185243113531,693.0
694,-1.192599662729396,-1.8533066658436705,-1.8256722821010674,-2.595996069583739,-1.20525950986598,4.099090479408911,694.0
695,-1.1925996670266679,-1.8533066554073603,-1.8256722732163526,-2.5959960889405327,-1.2052595140021596,4.133995715704283,695.0
696,-1.1925996700928145,-1.8533066479609481,-1.8256722668770198,-2.5959961027517986,-1.2052595169533653,4.158900951999644,696.0
697,-1.192599671927836,-1.8533066435044343,-1.8256722630830686,-2.595996111017538,-1.205259518719597,4.173806188294988,697.0
698,-1.1934760786980645,-1.8556935820689433,-1.8224224816512506,-2.596865045279478,-1.2061341340367115,4.180493699800707,698.0
699,-1.1948898889331543,-1.8595441746634171,-1.8171799657586596,-2.5982667961700154,-1.2075450554742684,4.177730241062796,699.0
700,-1.1950562456836828,-1.8599972623107761,-1.8165631010464776,-2.598431733200819,-1.2077110762264651,4.166794375037528,700.0
701,-1.1950562441724397,-1.859997268923324,-1.8165631042918138,-2.5984317302783415,-1.207711082275388,4.1463622495505605,701.0
702,-1.1950562419215565,-1.8599972787722208,-1.8165631091255,-2.598431725925529,-1.207711091284807,4.115930124063561,702.0
703,-1.1950562389310324,-1.8599972918574663,-1.8165631155475361,-2.5984317201423828,-1.2077111032547225,4.075497998576564,703.0
704,-1.195056235085024,-1.8599973082889418,-1.8165631232217716,-2.5984317141903692,-1.2077111171555563,4.02506587455458,704.0
705,-1.195056230070978,-1.8599973283631146,-1.8165631312412536,-2.5984317114730033,-1.2077111302094474,3.9646337552366493,705.0
706,-1.19505622431176,-1.8599973517206743,-1.8165631407280156,-2.598431707827221,-1.207711145223021,3.894201636162751,706.0
707,-1.1950562249686028,-1.8599973751095868,-1.8165631635647856,-2.598431662691911,-1.207711145217374,3.813769533426503,707.0
708,-1.1950562256978743,-1.8599974013994007,-1.816563189266056,-2.598431611837331,-1.2077111451316946,3.7233374345237995,708.0
709,-1.1950562264860525,-1.8599974305798572,-1.8165632178687818,-2.5984315551058423,-1.2077111448498288,3.62290534413194,709.0
710,-1.1950562402916787,-1.8599974595329953,-1.8165632507004696,-2.5984314936804456,-1.2077111589192566,3.512473264005844,710.0
711,-1.195056257293266,-1.859997490636393,-1.8165632867147572,-2.59843142682898,-1.2077111764335513,3.392041191231698,711.0
712,-1.1950562831849305,-1.8599975210826452,-1.8165633248732624,-2.5984313586506156,-1.2077112028667312,3.261609125112943,712.0
713,-1.1950563198608808,-1.8599975500513395,-1.816563364959894,-2.5984312902217854,-1.2077112401029928,3.1211770622951303,713.0
714,-1.1950563658251376,-1.8599975764369998,-1.816563405430942,-2.5984312241245027,-1.2077112866046047,2.9707450024691218,714.0
715,-1.1950564235734862,-1.8599975985028967,-1.8165634453632045,-2.5984311630511856,-1.2077113448435914,2.810312949303842,715.0
716,-1.195056490933057,-1.8599976126814048,-1.816563480559131,-2.5984311147240144,-1.2077114125854584,2.6441782542353245,716.0
717,-1.1950565585161066,-1.8599976217516208,-1.8165635107956466,-2.5984310764539664,-1.207711480467346,2.486857047212458,717.0
718,-1.1950566262471811,-1.8599976194563725,-1.8165635298878489,-2.598431060665047,-1.207711548310824,2.3395358401894644,718.0
719,-1.195056690021204,-1.8599976157620237,-1.8165635463549545,-2.5984310488372673,-1.2077116121654894,2.202214633166312,719.0
720,-1.1950567488529484,-1.8599976035523107,-1.8165635528793747,-2.5984310553704026,-1.2077116709269915,2.07489342614302,720.0
721,-1.195056803010671,-1.8599975907313846,-1.8165635573284715,-2.5984310645184214,-1.207711724994068,1.9575722191195992,721.0
722,-1.1950568507162347,-1.8599975756448135,-1.8165635575126635,-2.5984310800942154,-1.2077117725574535,1.8502510120960676,722.0
723,-1.1950568917298852,-1.8599975578540244,-1.8165635529245334,-2.598431103038996,-1.2077118133696556,1.7529298050724476,723.0
724,-1.1950569285292811,-1.8599975418912886,-1.8165635488078378,-2.5984311236261437,-1.2077118499883024,1.6656085980487254,724.0
725,-1.195056959475945,-1.8599975264624315,-1.816563543371757,-2.5984311449126043,-1.2077118807500182,1.5882873910249469,725.0
726,-1.1950569828424957,-1.8599975102030615,-1.8165635347282905,-2.598431170121197,-1.2077119039011732,1.520966184001117,726.0
727,-1.1950570027381417,-1.8599974963588846,-1.816563527368738,-2.5984311915852656,-1.2077119236134186,1.46364497697724,727.0
728,-1.1950570191628833,-1.8599974849299026,-1.8165635212930964,-2.5984312093048105,-1.2077119398867553,1.4163237699533517,728.0
729,-1.19505703211672,-1.8599974759161135,-1.81656351650137,-2.5984312232798303,-1.2077119527211821,1.3790025629294314,729.0
730,-1.1950570415996515,-1.8599974693175163,-1.8165635129935591,-2.598431233510325,-1.207711962116699,1.3516813559055347,730.0
731,-1.195057047611678,-1.8599974651341118,-1.8165635107696632,-2.5984312399962946,-1.2077119680733062,1.3343601488816628,731.0
732,-1.1955764985155726,-1.8614297552127503,-1.814602759660175,-2.5989632877653497,-1.208230304801608,1.3258059866118064,732.0
733,-1.1970507012444622,-1.8654946267858212,-1.809038114934591,-2.60047324065812,-1.2097013459252153,1.3261334742244015,733.0
734,-1.1974808641032626,-1.8666807403001338,-1.8074143769535993,-2.600913839257361,-1.210130588491055,1.33518785064354,734.0
735,-1.1974808585173273,-1.8666807452846748,-1.8074143769687843,-2.600913842022781,-1.2101305875825747,1.3531705150962834,735.0
736,-1.1974808498251035,-1.866680753041075,-1.807414376992413,-2.6009138463260264,-1.2101305861688967,1.3811531795490524,736.0
737,-1.1974808380265904,-1.8666807635693332,-1.807414377024486,-2.6009138521670967,-1.2101305842500205,1.4191358440018251,737.0
738,-1.1974808231217886,-1.866680776869451,-1.8074143770650026,-2.6009138595459924,-1.2101305818259467,1.4671185084545881,738.0
739,-1.1974808057320918,-1.8666807925318682,-1.8074143783246055,-2.6009138640793656,-1.2101305844165637,1.525101155432957,739.0
740,-1.1974807853481078,-1.866680810892324,-1.8074143798108628,-2.600913869360492,-1.2101305874969093,1.5930838023063758,740.0
741,-1.1974807548356332,-1.8666808264962336,-1.8074143832826297,-2.600913855584541,-1.2101305638806132,1.671066436389253,741.0
742,-1.1974807181292788,-1.8666808423551813,-1.80741438776947,-2.6009138336802495,-1.2101305285405142,1.7590490658349105,742.0
743,-1.1974806772214546,-1.8666808599951048,-1.807414392844069,-2.600913808954595,-1.2101304889289703,1.857031683633837,743.0
744,-1.197480629276129,-1.866680874489132,-1.8074143922514385,-2.6009137937674387,-1.2101304415197145,1.9650142940303021,744.0
745,-1.1974805751312716,-1.8666808872866034,-1.8074143878017663,-2.6009137845914214,-1.2101303874081069,2.082996896553658,745.0
746,-1.1974805163163256,-1.8666808987574366,-1.8074143805574778,-2.6009137794787547,-1.2101303285975527,2.210979491545423,746.0
747,-1.1974804526178198,-1.8666809024342086,-1.8074143640480291,-2.6009137913694547,-1.2101302648160321,2.3489620816666203,747.0
748,-1.1974803853361538,-1.8666809038700685,-1.8074143441899835,-2.6009138087898274,-1.2101301974070193,2.4969446703860645,748.0
749,-1.1974803178741937,-1.8666808948065443,-1.8074143138955883,-2.6009138471122935,-1.2101301296451217,2.654927252186546,749.0
750,-1.1974802516052088,-1.8666808798277557,-1.8074142781302376,-2.6009138968228602,-1.2101300629810798,2.821222362339372,750.0
751,-1.1974801944393056,-1.8666808579816292,-1.8074142384540766,-2.600913957429446,-1.2101300053268522,2.9809891805896855,751.0
752,-1.1974801499306786,-1.8666808311891545,-1.8074141978902603,-2.6009140240463937,-1.2101299602763733,3.130755998840095,752.0
753,-1.1974801136461648,-1.8666808025331822,-1.8074141580847853,-2.6009140918867275,-1.210129923437541,3.2705228170906318,753.0
754,-1.1974800890657957,-1.8666807719797514,-1.8074141201045784,-2.6009141599695464,-1.2101298982975752,3.4002896353413647,754.0
755,-1.197480072253565,-1.8666807412348547,-1.807414084391602,-2.600914226092507,-1.210129880939889,3.5200564535921917,755.0
756,-1.197480059499318,-1.866680712429414,-1.8074140518793547,-2.600914287141333,-1.2101298676812733,3.6298232718431365,756.0
757,-1.1974800585246435,-1.8666806837376042,-1.8074140232045321,-2.6009143444159526,-1.2101298662303515,3.729590090094174,757.0
758,-1.1974800576476645,-1.8666806579216866,-1.8074139974038892,-2.6009143959497236,-1.2101298649248613,3.8193569083453047,758.0
759,-1.1974800573969966,-1.8666806349511469,-1.8074139746144313,-2.6009144416439933,-1.2101298642940919,3.899123726596524,759.0
760,-1.1974800658825333,-1.8666806143579184,-1.8074139569380105,-2.6009144799852613,-1.2101298724582712,3.9688905448477882,760.0
761,-1.1974800731517992,-1.8666805967164124,-1.8074139417952328,-2.6009145128308986,-1.2101298794522408,4.0286573630991,761.0
762,-1.1974800792047937,-1.8666805820266317,-1.8074139291860951,-2.600914540180905,-1.2101298852760016,4.078424181350439,762.0
763,-1.1974800840415172,-1.8666805702885731,-1.8074139191106005,-2.60091456203528,-1.2101298899295525,4.1181909996017945,763.0
764,-1.1974800876619693,-1.8666805615022364,-1.8074139115687495,-2.6009145783940246,-1.210129893412894,4.147957817853141,764.0
765,-1.1974800900661504,-1.8666805556676218,-1.8074139065605423,-2.600914589257138,-1.2101298957260258,4.167724636104477,765.0
766,-1.1977010879702976,-1.8672974821924766,-1.8065647745432187,-2.6011483107823623,-1.210350396789868,4.178146559484395,766.0
767,-1.1991068648992025,-1.8712218183514855,-1.801163396505015,-2.602634996336213,-1.2117530137201893,4.180274500317975,767.0
768,-1.1998716940523972,-1.8733569032448338,-1.7982247132926463,-2.6034438437816108,-1.2125161261587998,4.173102227922445,768.0
769,-1.1998716929041608,-1.8733569082116808,-1.7982247157144227,-2.6034438416871346,-1.2125161306252858,4.157599847225693,769.0
770,-1.1998716910152405,-1.8733569163824526,-1.7982247196983951,-2.60344383824159,-1.212516137972933,4.13209746652894,770.0
771,-1.1998716883856364,-1.87335692775715,-1.7982247252445644,-2.6034438334449774,-1.212516148201742,4.096595085832153,771.0
772,-1.1998716850153486,-1.8733569423357723,-1.79822473235293,-2.6034438272972977,-1.212516161311712,4.051092705135391,772.0
773,-1.1998716805253478,-1.8733569604734266,-1.7982247399368891,-2.603443823850256,-1.2125161739002728,3.995590328932896,773.0
774,-1.1998716750865006,-1.8733569820100309,-1.7982247484862837,-2.6034438212773394,-1.2125161875013066,3.9300879542686746,774.0
775,-1.199871672505975,-1.87335700514694,-1.7982247645028313,-2.6034437973661957,-1.2125161947629313,3.854585588274794,775.0
776,-1.1998716731964865,-1.8733570296953321,-1.7982247886759797,-2.6034437497732834,-1.2125161947435177,3.7690832302145325,776.0
777,-1.1998716739436228,-1.8733570570954783,-1.798224815745558,-2.603443696321058,-1.2125161945124052,3.673580882337207,777.0
778,-1.1998716802160594,-1.8733570860434292,-1.798224846249325,-2.6034436376094376,-1.2125162002750374,3.5680785412222473,778.0
779,-1.1998716963288294,-1.873357115502522,-1.7982248806339634,-2.6034435740211483,-1.2125162168734076,3.4525762084844254,779.0
780,-1.1998717138382045,-1.8733571475111481,-1.7982249179984688,-2.6034435049170543,-1.2125162349230172,3.3270738842680436,780.0
781,-1.1998717484279906,-1.8733571752860898,-1.7982249565485755,-2.603443439181755,-1.2125162700536438,3.1915715661599844,781.0
782,-1.1998717859781722,-1.8733572049345564,-1.7982249978969014,-2.6034433688266505,-1.212516308183765,3.046069248260755,782.0
783,-1.1998718405269484,-1.8733572266006713,-1.7982250367127988,-2.603443309221027,-1.212516363214911,2.8905669369298033,783.0
784,-1.1998719007235872,-1.8733572468436763,-1.7982250759076022,-2.603443250740565,-1.2125164238827235,2.7264062215696083,784.0
785,-1.1998719678672827,-1.873357255871916,-1.798225106172433,-2.6034432124788696,-1.2125164913268,2.568229460963443,785.0
786,-1.199872032384075,-1.8733572604044548,-1.7982251311405313,-2.603443183958153,-1.2125165560633973,2.4200527003571946,786.0
