Miguel-LA/TFM_MiguelLerinAlonso/workspace/ros_ur_driver/src/trayectories/data/saved_trajectories/20240523_1644_trajectory.csv
,shoulder_pan_joint,shoulder_lift_joint,elbow_joint,wrist_1_joint,wrist_2_joint,wrist_3_joint,time_from_start
0,-1.529050011478067,-2.0787821346014987,-1.751460405090016,-2.319196445869579,-1.8725059583834094,1.1193320527678707e-05,0.0
1,-1.5284218541925427,-2.078236608459862,-1.751613151045296,-2.320578742464914,-1.87165970570162,-0.004988806679472316,1.0
2,-1.5265373823359705,-2.076600030034951,-1.7520713889111357,-2.3247256322509178,-1.8691209476562523,-0.019988806679472296,2.0
3,-1.5233965959083495,-2.073872399326766,-1.752835118687535,-2.331637115227591,-1.8648896842473057,-0.04498880667947233,3.0
4,-1.5189994949096803,-2.0700537163353068,-1.7539043403744943,-2.341313191394934,-1.8589659154747806,-0.07998880667947257,4.0
5,-1.5133103451262793,-2.0651459507369925,-1.7552775054125183,-2.3537025314807316,-1.8511680915909503,-0.1249887135677577,5.0
6,-1.5062293438839647,-2.0591545899773855,-1.756950293052942,-2.3686618310494336,-1.840989214677907,-0.17998838536948197,6.0
7,-1.497677703482276,-2.05208396368136,-1.7589192930772342,-2.386077969873358,-1.8280290524756486,-0.24498773031144333,7.0
8,-1.487561675900018,-2.0439365571881742,-1.76119137283937,-2.405752570668211,-1.8118459520234125,-0.3199866536670245,8.0
9,-1.475763622102086,-2.0347125536611856,-1.7637871671857075,-2.427366562961602,-1.7919237495926827,-0.40498507637134185,9.0
10,-1.4621586509112499,-2.0244157465043835,-1.7667244572551124,-2.4505728359719163,-1.7677150210091088,-0.4999828575792552,10.0
11,-1.4466023894988975,-2.0130511425904896,-1.770037046239999,-2.4748449106090527,-1.7386487447545431,-0.6049798820356571,11.0
12,-1.4289553408624545,-2.0006356655903916,-1.7737575000567714,-2.499545663020617,-1.704213131526917,-0.7199760228989018,12.0
13,-1.4090774014555894,-1.9871976739419583,-1.777918757440418,-2.5239188905437326,-1.6639225905663464,-0.8449711525180561,13.0
14,-1.3868609321391423,-1.9727925409833538,-1.7825486108262771,-2.547026140640355,-1.6174905495695096,-0.9799652029455805,14.0
15,-1.3622586483999493,-1.9575113889706468,-1.7876615998634102,-2.5677939830066197,-1.5649002558210114,-1.1249321939811094,15.0
16,-1.3372284223311035,-1.942601861165864,-1.79286056976263,-2.583988221981535,-1.5106744644101497,-1.268905264147522,16.0
17,-1.3135810574966014,-1.929031745012138,-1.7977854455485391,-2.594902789795069,-1.4592274874121565,-1.402877720240032,17.0
18,-1.2915564221125813,-1.9167821533994844,-1.8024041137747593,-2.6013349872641274,-1.4114726534677946,-1.5268496883136156,18.0
19,-1.2713108001782434,-1.905807836692814,-1.806696715471238,-2.604111148838065,-1.3679613687804695,-1.6408198226040895,19.0
20,-1.2529388112478208,-1.896051505494876,-1.810650098843025,-2.6040265460409193,-1.328992436688151,-1.744789103083543,20.0
21,-1.2364916609716723,-1.887449801228093,-1.8142558596863076,-2.6018330309004654,-1.2946942116497562,-1.8387576838525432,21.0
22,-1.2219529230057944,-1.8799368192486676,-1.8175054080198925,-2.598211475493661,-1.264921262153802,-1.922726917619639,22.0
23,-1.2093071635739991,-1.873454664639421,-1.8203916813115126,-2.5937558102005647,-1.2395446502078178,-1.9966967618547828,23.0
24,-1.198743691057002,-1.8680708540481545,-1.8228385284310977,-2.5892566806662654,-1.2186580078499498,-2.061751989636052,24.0
25,-1.1926505027846914,-1.8649668065663285,-1.8242513569970729,-2.5866287413300832,-1.2066236121149705,-2.127103074134113,25.0
26,-1.1913976118204224,-1.8643287683169498,-1.8245417297001065,-2.5860886003163124,-1.2041494592563682,-2.194005860224908,26.0
27,-1.1913976706801284,-1.864329112288619,-1.8245415135026488,-2.586088983554922,-1.2041500760578214,-2.2685246961963417,27.0
28,-1.1913977277089987,-1.8643295127435326,-1.8245412358063786,-2.586089541767701,-1.2041506889265938,-2.35304352480839,28.0
29,-1.191397750048225,-1.86432969785327,-1.8245411323002085,-2.586089758602125,-1.2041509270313537,-2.447562349995487,29.0
30,-1.1913977476702322,-1.8643297316977678,-1.8245411527576374,-2.5860897320730243,-1.2041508983406952,-2.55208117186549,30.0
31,-1.1913977444261796,-1.8643297683871551,-1.8245411766543471,-2.5860896965660545,-1.2041508614087442,-2.6665999888331267,31.0
32,-1.1913977606925736,-1.8643298015786787,-1.82454121298146,-2.586089627666489,-1.2041508751651469,-2.7911187960924764,32.0
33,-1.191397779575926,-1.864329836980815,-1.82454125296033,-2.5860895510339414,-1.2041508937834822,-2.9256375951066724,33.0
34,-1.1913978132747725,-1.864329869220573,-1.8245412941979888,-2.5860894777000816,-1.2041509279122287,-3.0701563855957374,34.0
35,-1.191397853646836,-1.86432990181753,-1.8245413377257778,-2.5860894022379592,-1.2041509689623102,-3.2246751685976935,35.0
36,-1.1913979108887764,-1.8643299263859152,-1.8245413790200362,-2.586089337298868,-1.204151026733765,-3.3891939434467,36.0
37,-1.1913979743892253,-1.8643299480015567,-1.8245414195127183,-2.5860892762037575,-1.2041510907207713,-3.5598718992461293,37.0
38,-1.1913980440508756,-1.8643299575787404,-1.824541450611838,-2.5860892365978185,-1.2041511606892192,-3.7219958108150473,38.0
39,-1.1913981114392467,-1.8643299615440818,-1.8245414757012934,-2.586089208564041,-1.2041512282895983,-3.8741197223839565,39.0
40,-1.191398177458341,-1.8643299576544248,-1.8245414929532622,-2.586089196180878,-1.2041512943920254,-4.016243633952857,40.0
41,-1.191398238701569,-1.8643299501022572,-1.8245415052399367,-2.586089192343976,-1.204151355649438,-4.148367545521758,41.0
42,-1.1913982950887991,-1.8643299364741868,-1.8245415102612215,-2.5860892017590698,-1.2041514119429042,-4.270491457090658,42.0
43,-1.191398346858817,-1.8643299239620423,-1.8245415148713366,-2.586089210403219,-1.2041514636268356,-4.38261536865956,43.0
44,-1.1913983900916125,-1.8643299052349338,-1.8245415109186038,-2.5860892336803163,-1.204151506655251,-4.484739280228464,44.0
45,-1.1913984289235882,-1.8643298880284314,-1.824541507004698,-2.586089255336136,-1.2041515452974783,-4.576863191797367,45.0
46,-1.1913984635403752,-1.8643298726896875,-1.8245415035156414,-2.586089274641229,-1.2041515797451137,-4.658987103366272,46.0
47,-1.1913984896088887,-1.8643298557189727,-1.8245414957798822,-2.5860892996924143,-1.2041516055995076,-4.731111014935176,47.0
48,-1.1913985111762808,-1.8643298403850734,-1.8245414881607085,-2.586089322927166,-1.2041516269690504,-4.7932349265040815,48.0
49,-1.1913985292720002,-1.8643298275194524,-1.8245414817679801,-2.586089342421853,-1.2041516448987684,-4.845358838072984,49.0
50,-1.1913985438960466,-1.8643298171221085,-1.8245414766016987,-2.586089358176474,-1.2041516593886605,-4.887482749641885,50.0
51,-1.1913985550484194,-1.8643298091930407,-1.8245414726618656,-2.5860893701910292,-1.204151670438727,-4.919606661210787,51.0
52,-1.191398562729119,-1.8643298037322489,-1.8245414699484817,-2.5860893784655183,-1.2041516780489672,-4.94173057277969,52.0
53,-1.1914431706725641,-1.8644507047722239,-1.8243749916940704,-2.5861352621428115,-1.2041961906723313,-4.954005087877234,53.0
54,-1.1927095577052342,-1.8678834059312457,-1.8196483916829076,-2.587437860519349,-1.2054598724814918,-4.958433279645755,54.0
55,-1.1938423181879312,-1.8709539062707272,-1.8154205218643988,-2.588603013900738,-1.2065902145421108,-4.953084075047738,55.0
56,-1.1938498504869826,-1.8709743384252315,-1.815392393217148,-2.588610767919496,-1.206597734064205,-4.9398788010183186,56.0
57,-1.193849843260835,-1.8709743449560468,-1.8153923930909341,-2.588610771614781,-1.2065977326690422,-4.916700604275289,57.0
58,-1.1938498329170388,-1.8709743543045168,-1.8153923929102662,-2.588610776904359,-1.2065977306719504,-4.883522407532261,58.0
59,-1.193849819455594,-1.870974366470641,-1.8153923926751447,-2.5886107837882304,-1.2065977280729294,-4.840344210789233,59.0
60,-1.193849803186769,-1.8709743812597657,-1.8153923929677969,-2.5886107901590347,-1.2065977276267643,-4.787166023453688,60.0
61,-1.1938497841779394,-1.8709743986296214,-1.815392393914656,-2.5886107955591493,-1.206597729931668,-4.723987845024828,61.0
62,-1.1938497595940034,-1.8709744167492044,-1.8153923956994638,-2.588610794468039,-1.2065977229449654,-4.650809671408854,62.0
63,-1.1938497248874091,-1.870974432075198,-1.8153923995414922,-2.5886107738686626,-1.2065976895554784,-4.567631509584751,63.0
64,-1.1938496859907435,-1.870974449230837,-1.815392403893195,-2.588610750587932,-1.206597652000579,-4.474453355062898,64.0
65,-1.1938496422438731,-1.8709744670467723,-1.8153924073419765,-2.5886107274432724,-1.2065976094298898,-4.371275207482168,65.0
66,-1.193849590292395,-1.8709744795821357,-1.8153924027148616,-2.5886107187347784,-1.2065975575147627,-4.258097069846664,66.0
67,-1.1938495337494037,-1.8709744932262842,-1.8153923976751543,-2.5886107092709434,-1.206597501001177,-4.134918940799571,67.0
68,-1.1938494723447297,-1.8709744996187099,-1.815392384213379,-2.588610715425654,-1.206597439543976,-4.001740817508264,68.0
69,-1.193849406232359,-1.8709745034998078,-1.8153923668735743,-2.5886107279059973,-1.206597373345848,-3.8585626958737054,69.0
70,-1.1938493393350125,-1.8709744981463197,-1.815392340546062,-2.5886107585698848,-1.2065973062136957,-3.7053845790770534,70.0
71,-1.1938492696381968,-1.8709744885547135,-1.8153923093185012,-2.588610798317559,-1.2065972362081596,-3.542206468602096,71.0
72,-1.19384920994374,-1.87097446649035,-1.8153922694664288,-2.588610859278863,-1.2065971760263148,-3.377683733426869,72.0
73,-1.1938491567601957,-1.870974443347614,-1.815392230663096,-2.58861092036457,-1.2065971223524503,-3.223112476727655,73.0
74,-1.1938491192196694,-1.870974413032296,-1.8153921900436618,-2.588610990654312,-1.2065970842408553,-3.0785412200284394,74.0
75,-1.1938490860994624,-1.8709743840065127,-1.8153921520493896,-2.5886110570991527,-1.2065970505801293,-2.9439699633292205,75.0
76,-1.1938490686087446,-1.8709743513075936,-1.815392115546378,-2.5886111259504525,-1.2065970325244235,-2.819398706630002,76.0
77,-1.1938490525221006,-1.8709743212335979,-1.8153920819736507,-2.5886111892746912,-1.2065970159181456,-2.7048274499307823,77.0
78,-1.193849047428837,-1.8709742914696972,-1.8153920521882394,-2.5886112486672914,-1.206597010334607,-2.6002561932315604,78.0
79,-1.193849046504718,-1.870974263663237,-1.815392025580241,-2.588611302992869,-1.2065970089609557,-2.5056849365323393,79.0
80,-1.1938490456783157,-1.8709742387970463,-1.8153920017857779,-2.58861135157404,-1.206597007732555,-2.4211136798331174,80.0
81,-1.193849050406327,-1.870974216550822,-1.8153919822359659,-2.5886113933809956,-1.2065970121130425,-2.3465424231338856,81.0
82,-1.1938490582617844,-1.870974197067023,-1.8153919662942914,-2.588611428871762,-1.2065970196723637,-2.2819711664346594,82.0
83,-1.1938490649006854,-1.8709741806006357,-1.815391952821466,-2.5886114588661564,-1.2065970260609902,-2.227399909735438,83.0
84,-1.1938490703230302,-1.8709741671516609,-1.815391941817488,-2.5886114833641782,-1.2065970312789225,-2.1828286530362204,84.0
85,-1.1938490745288188,-1.870974156720096,-1.8153919332823611,-2.5886115023658283,-1.2065970353261601,-2.1482573963370033,85.0
86,-1.1938490775180508,-1.8709741493059406,-1.8153919272160848,-2.588611515871106,-1.2065970382027036,-2.1236861396377824,86.0
87,-1.1938490792907266,-1.8709741449091952,-1.815391923618659,-2.588611523880011,-1.2065970399085526,-2.109114882938562,87.0
88,-1.1947576734924723,-1.8734675915937018,-1.8119401956553196,-2.5895760056736203,-1.2075036014311173,-2.1026626592848405,88.0
89,-1.19612885715689,-1.8772305260738347,-1.8067310987228689,-2.5910315266131465,-1.208871718714576,-2.1057250020571203,89.0
90,-1.1962677670771307,-1.8776117418436686,-1.8062033814766667,-2.59117897993038,-1.209010321824142,-2.1168636108686476,90.0
91,-1.1962677655251621,-1.877611748603461,-1.8062033845485972,-2.5911789772962184,-1.2090103276163113,-2.137560003490789,91.0
92,-1.1962677632233194,-1.8776117586294223,-1.806203389104811,-2.5911789733892925,-1.209010336207118,-2.168256396112931,92.0
93,-1.1962677601716032,-1.8776117719215535,-1.806203395145308,-2.591178968209603,-1.209010347596562,-2.208952788735073,93.0
94,-1.1962677562392203,-1.8776117885961585,-1.8062034023089282,-2.5911789631063398,-1.209010360611224,-2.25964917936479,94.0
95,-1.1962677511348954,-1.8776118089122509,-1.8062034097913655,-2.5911789610841645,-1.209010372637887,-2.3203455644544126,95.0
96,-1.1962677454616408,-1.877611832453685,-1.8062034189595944,-2.5911789571821493,-1.2090103860598025,-2.391041948853554,96.0
97,-1.1962677461117424,-1.8776118561338493,-1.806203441291688,-2.5911789122130173,-1.209010386024925,-2.471738317339144,97.0
98,-1.1962677468329757,-1.877611882740867,-1.806203466419182,-2.5911788615522022,-1.2090103859039958,-2.562434681624949,98.0
99,-1.1962677476141004,-1.8776119122656498,-1.8062034943754304,-2.591178805057777,-1.2090103855995777,-2.663131037659611,99.0
100,-1.1962677616686939,-1.8776119414770467,-1.8062035265995462,-2.5911787439493503,-1.2090103999591697,-2.7738273831129656,100.0
101,-1.1962677785112075,-1.8776119729535212,-1.8062035619081787,-2.591178677427945,-1.209010417315488,-2.894523721249213,101.0
102,-1.1962678045682031,-1.8776120035833117,-1.8062035993377306,-2.591178609800033,-1.2090104439124425,-3.0252200527876214,102.0
103,-1.1962678408869216,-1.8776120329038701,-1.8062036387790417,-2.5911785416608373,-1.2090104807895754,-3.1659163811427753,103.0
104,-1.1962678867897831,-1.8776120593361996,-1.806203678531114,-2.5911784762360974,-1.209010527224263,-3.3166127063056976,104.0
105,-1.1962679439610804,-1.8776120816843438,-1.8062037179945718,-2.591178415342996,-1.2090105848846435,-3.477309024858034,105.0
106,-1.1962680108014976,-1.8776120956801294,-1.8062037526039818,-2.5911783677790163,-1.2090106521005004,-3.643352309756737,106.0
107,-1.1962680774847736,-1.877612104864198,-1.8062037825909885,-2.5911783296338524,-1.2090107190809924,-3.8004059997663724,107.0
108,-1.1962681444437655,-1.8776121022535972,-1.806203801458084,-2.591178314375801,-1.2090107861469526,-3.947459689776002,108.0
109,-1.1962682073525057,-1.8776120985732117,-1.80620381801731,-2.591178302431719,-1.2090108491363243,-4.084513379785625,109.0
110,-1.1962682653670993,-1.8776120860244898,-1.8062038245891086,-2.591178309246145,-1.2090109070771322,-4.211567069795243,110.0
111,-1.1962683187717547,-1.8776120731475368,-1.8062038293792613,-2.5911783181003476,-1.2090109603924173,-4.328620759804858,111.0
112,-1.1962683656917164,-1.877612057778462,-1.806203829733846,-2.591178333778188,-1.2090110071682287,-4.435674449814473,112.0
113,-1.1962684061156723,-1.8776120398961258,-1.8062038256291724,-2.591178356324271,-1.2090110473928872,-4.5327281398240835,113.0
114,-1.196268442374517,-1.8776120238563136,-1.8062038219474204,-2.591178376547303,-1.2090110834729697,-4.619781829833692,114.0
115,-1.1962684727089006,-1.8776120082386663,-1.806203816778002,-2.591178397748008,-1.209011113622221,-4.696835519843297,115.0
116,-1.1962684957108938,-1.8776119919065355,-1.806203808591951,-2.5911784225678143,-1.2090111364111804,-4.763889209852902,116.0
117,-1.1962685152825028,-1.8776119780100844,-1.80620380162672,-2.5911784436861383,-1.209011155801526,-4.8209428998625095,117.0
118,-1.1962685314237278,-1.8776119665493156,-1.8062037958823058,-2.59117846110298,-1.2090111717932586,-4.8679965898721225,118.0
119,-1.1962685441345684,-1.8776119575242256,-1.8062037913587132,-2.5911784748183395,-1.2090111843863773,-4.905050279881737,119.0
120,-1.1962685534150244,-1.877611950934815,-1.8062037880559414,-2.5911784848322164,-1.2090111935808818,-4.93210396989135,120.0
121,-1.196268559265096,-1.8776119467810832,-1.8062037859739908,-2.5911784911446105,-1.2090111993767727,-4.949157659900963,121.0
122,-1.196812277633265,-1.8791226294663343,-1.8041014429414262,-2.5917738377369735,-1.2095536451964999,-4.95751968089124,122.0
123,-1.1982593450747332,-1.8831432302983895,-1.798506180266458,-2.5933583108904843,-1.2109973262694882,-4.956959122432644,123.0
124,-1.198655376935858,-1.8842435943362013,-1.7969748639013907,-2.5937919522110886,-1.2113924334879624,-4.947743770970272,124.0
125,-1.1986553713155748,-1.8842435994070759,-1.7969748637772056,-2.5937919551754023,-1.211392432293466,-4.929561972589806,125.0
126,-1.198655362604132,-1.8842436072669349,-1.7969748635847187,-2.593791959770091,-1.2113924304419958,-4.901380174209339,126.0
127,-1.1986553508015303,-1.8842436179157778,-1.7969748633239302,-2.5937919659951536,-1.211392427933552,-4.863198375828872,127.0
128,-1.1986553359153416,-1.8842436313489168,-1.7969748630088542,-2.5937919738002386,-1.211392424836051,-4.815016577708034,128.0
129,-1.198655318557441,-1.8842436471875408,-1.7969748637719452,-2.5937919791166006,-1.211392426637497,-4.756834797228967,129.0
130,-1.1986552982161494,-1.88424366574843,-1.7969748646661923,-2.5937919853467135,-1.2113924287485665,-4.6886530167499,130.0
131,-1.198655267773718,-1.8842436813837677,-1.796974867740511,-2.5937919715136104,-1.211392404478218,-4.610471249387578,131.0
132,-1.1986552314124057,-1.8842436974121446,-1.7969748717971141,-2.5937919499210453,-1.2113923694978166,-4.52228948658245,132.0
133,-1.198655190900514,-1.8842437152370446,-1.7969748763914561,-2.5937919255493,-1.2113923303139271,-4.424107735264114,133.0
134,-1.198655143336726,-1.8842437297122705,-1.796974875207611,-2.593791911025772,-1.2113922832711137,-4.3159259915856385,134.0
135,-1.198655089728795,-1.8842437426184335,-1.7969748703966397,-2.5937919021068097,-1.2113922296975068,-4.197744255751491,135.0
136,-1.1986550314974986,-1.8842437539614836,-1.796974862608787,-2.593791897670616,-1.2113921714692637,-4.069562527410284,136.0
137,-1.1986549684451808,-1.8842437576394115,-1.7969748459492474,-2.593791909717078,-1.2113921083336132,-3.931380803860022,137.0
138,-1.1986549019562895,-1.8842437587925098,-1.796974825781158,-2.5937919277384123,-1.211392041713298,-3.783199081885,138.0
139,-1.1986548351902435,-1.8842437495918618,-1.7969747956451836,-2.593791966047173,-1.2113919746480408,-3.6250173667859906,139.0
140,-1.1986547699005192,-1.8842437341665275,-1.796974760041449,-2.593792016053955,-1.2113919089610774,-3.45869210054503,140.0
141,-1.1986547134664265,-1.8842437121095275,-1.7969747209419737,-2.5937920763035476,-1.211391852041594,-3.2991276857830085,141.0
142,-1.198654669824479,-1.8842436848678175,-1.7969746809866745,-2.5937921427721298,-1.2113918078585493,-3.1495632710209995,142.0
143,-1.198654634010233,-1.884243655963856,-1.7969746419489474,-2.5937922100986097,-1.2113917714936955,-3.009998856258999,143.0
144,-1.198654610058773,-1.8842436250217607,-1.7969746047607953,-2.59379227778651,-1.2113917469850393,-2.8804344414970062,144.0
145,-1.1986545934675938,-1.8842435940316555,-1.7969745698811215,-2.5937923433244325,-1.2113917298523735,-2.760870026735021,145.0
146,-1.1986545811574814,-1.8842435649365827,-1.7969745381791662,-2.5937924038589912,-1.2113917170412054,-2.65130561197304,146.0
147,-1.1986545801946191,-1.8842435360346317,-1.7969745102910974,-2.593792460557594,-1.2113917156058558,-2.551741197211064,147.0
148,-1.1986545793284644,-1.8842435100355246,-1.7969744852040315,-2.593792511561532,-1.211391714314669,-2.462176782449095,148.0
149,-1.198654579274223,-1.8842434868975428,-1.7969744631069355,-2.5937925567341935,-1.211391713883775,-2.382612367687126,149.0
150,-1.1986545876362478,-1.8842434661771588,-1.7969744460089419,-2.593792594623081,-1.211391721927348,-2.3130479529251557,150.0
151,-1.1986545947962177,-1.884243448435364,-1.7969744313688134,-2.5937926270653784,-1.2113917288146439,-2.2534835381631817,151.0
152,-1.198654600754133,-1.8842434336721616,-1.796974419186547,-2.593792654061085,-1.2113917345456628,-2.2039191234012048,152.0
153,-1.1986546055099931,-1.8842434218875486,-1.7969744094621458,-2.593792675610201,-1.2113917391204048,-2.1643547086392236,153.0
154,-1.1986546090637984,-1.8842434130815247,-1.79697440219561,-2.5937926917127276,-1.2113917425388698,-2.1347902938772454,154.0
155,-1.1986546114155485,-1.8842434072540897,-1.7969743973869399,-2.593792702368663,-1.211391744801058,-2.1152258791152665,155.0
156,-1.1988904806121445,-1.8849069187064016,-1.7960461897201083,-2.5940589873290154,-1.2116270370076396,-2.104954783225917,156.0
157,-1.2002801159271819,-1.8888160672188818,-1.7905775939798414,-2.595627794881095,-1.213013273363879,-2.1029956637942706,157.0
158,-1.2010100799992083,-1.890869515556529,-1.7877049839949295,-2.5964518758957644,-1.2137414544401965,-2.110288587907364,158.0
159,-1.2010100788253637,-1.8908695206124106,-1.7877049862771948,-2.5964518740237246,-1.2137414586949837,-2.1259263596502893,159.0
160,-1.2010100769008725,-1.8908695289014132,-1.7877049900189164,-2.5964518709545574,-1.2137414656706105,-2.151564131393215,160.0
161,-1.2010100742257341,-1.8908695404235378,-1.7877049952200952,-2.5964518666882626,-1.213741475367077,-2.1872019031361525,161.0
162,-1.2010100707999494,-1.8908695551787833,-1.7877050018807306,-2.5964518612248413,-1.2137414877843833,-2.232839674879086,162.0
163,-1.201010066232802,-1.890869573510758,-1.7877050089344826,-2.5964518585215894,-1.2137414993821793,-2.2884774427434884,163.0
164,-1.20101006071109,-1.890869595255186,-1.7877050168911597,-2.596451856686557,-1.2137415118530774,-2.35411520937639,164.0
165,-1.2010100581795897,-1.8908696185822427,-1.7877050324833945,-2.596451832739298,-1.2137415182953577,-2.429752967111369,165.0
166,-1.2010100588620358,-1.8908696433908971,-1.7877050560862733,-2.5964517854049123,-1.2137415182460378,-2.5153907171484517,166.0
167,-1.2010100596011424,-1.8908696710768145,-1.7877050825170167,-2.5964517322404,-1.213741517989333,-2.6110284567467885,167.0
168,-1.201010066001713,-1.8908697002822774,-1.7877051123602583,-2.596451673878386,-1.2137415238937646,-2.7166661895760535,168.0
169,-1.2010100819496845,-1.890869730058841,-1.7877051460423548,-2.596451610672437,-1.2137415403276908,-2.8323039140516264,169.0
170,-1.2010100992783488,-1.8908697624094828,-1.7877051826398807,-2.596451541990986,-1.213741558196837,-2.9579416301121872,170.0
171,-1.2010101337166967,-1.8908697903967362,-1.7877052205167296,-2.596451476716652,-1.2137415931732312,-3.093579339934273,171.0
172,-1.201010170871141,-1.8908698203693366,-1.7877052611674908,-2.5964514067305866,-1.213741630905147,-3.239217049581331,172.0
173,-1.20101022504072,-1.8908698421443497,-1.787705299422382,-2.5964513475732542,-1.2137416855533127,-3.394854752508004,173.0
174,-1.2010102851850655,-1.890869862501253,-1.7877053382357482,-2.5964512893617164,-1.2137417461663447,-3.5601811804433536,174.0
175,-1.2010103532072707,-1.8908698718782488,-1.7877053690544868,-2.5964512502140593,-1.2137418144952765,-3.7222903117566553,175.0
176,-1.2010104190145454,-1.890869875770286,-1.7877053939055707,-2.5964512224711873,-1.2137418805145261,-3.8743994430700104,176.0
177,-1.2010104834778301,-1.890869872020379,-1.7877054110012924,-2.59645121008519,-1.2137419450616957,-4.0165085743833835,177.0
178,-1.2010105432765632,-1.890869864686718,-1.7877054231652572,-2.596451206135055,-1.213742004875154,-4.148617705696788,178.0
179,-1.2010105983330357,-1.8908698514401967,-1.7877054281403302,-2.596451215199695,-1.2137420598388997,-4.270726837010232,179.0
180,-1.2010106488807175,-1.8908698392784897,-1.7877054327079678,-2.5964512235219983,-1.2137421103014487,-4.382835968323708,180.0
181,-1.2010106910873242,-1.890869821047296,-1.7877054287815617,-2.5964512462663003,-1.2137421523047973,-4.484945099637261,181.0
182,-1.2010107290006018,-1.8908698043031509,-1.7877054249023794,-2.5964512674156786,-1.2137421900294791,-4.577054230950823,182.0
183,-1.2010107627977544,-1.8908697893768673,-1.7877054214443446,-2.5964512862689357,-1.213742223658511,-4.659163362264392,183.0
184,-1.2010107882437084,-1.8908697728519734,-1.787705413773884,-2.596451310803372,-1.2137422488913658,-4.731272493577967,184.0
185,-1.2010108092986638,-1.8908697579231966,-1.7877054062238367,-2.5964513335594455,-1.2137422697494489,-4.793381624891537,185.0
186,-1.2010108269636257,-1.8908697453980574,-1.787705399889397,-2.596451352651634,-1.2137422872492365,-4.845490756205095,186.0
187,-1.2010108412385945,-1.8908697352765556,-1.7877053947705663,-2.596451368079938,-1.2137423013907285,-4.887599887518645,187.0
188,-1.2010108521235694,-1.8908697275586899,-1.7877053908673461,-2.5964513798443565,-1.2137423121739248,-4.919709018832203,188.0
189,-1.201010859618551,-1.8908697222444597,-1.7877053881797367,-2.596451387944889,-1.213742319598825,-4.941818150145761,189.0
190,-1.201052917209363,-1.8909894964303766,-1.7875369631006421,-2.5965003203279373,-1.2137842697424208,-4.954079843457997,190.0
191,-1.202246452581364,-1.894388933869714,-1.782756871244281,-2.597888962283495,-1.21497475670751,-4.9585526705284435,191.0
192,-1.2033264167740274,-1.8974649078986174,-1.7784316187591256,-2.5991454705279016,-1.2160519638199674,-4.953249971677178,192.0
193,-1.2033356715834895,-1.8974912826157504,-1.7783945371550047,-2.5991562450655046,-1.2160611980661786,-4.940152550599548,193.0
194,-1.203335664515198,-1.897491288982891,-1.7783945369674727,-2.599156248900485,-1.2160611964292607,-4.917090651253532,194.0
195,-1.2033356543819844,-1.8974912981109235,-1.7783945366986234,-2.5991562543983715,-1.2160611940825492,-4.884028751907522,195.0
196,-1.2033356411838492,-1.8974913099998476,-1.778394536348457,-2.5991562615591652,-1.2160611910260446,-4.840966852561513,196.0
197,-1.2033356252179597,-1.8974913244679132,-1.7783945364598126,-2.5991562684472127,-1.216061189952041,-4.787904961150053,197.0
198,-1.2033356065622922,-1.89749134146743,-1.7783945371751302,-2.5991562745545993,-1.2160611915669963,-4.724843077584286,198.0
199,-1.2033355825814458,-1.8974913592506857,-1.7783945387316975,-2.599156274458223,-1.2160611845942726,-4.651781198636007,199.0
200,-1.203335548734696,-1.8974913741496968,-1.7783945425257992,-2.5991562543984843,-1.2160611520675129,-4.568719331614557,200.0
201,-1.203335510797139,-1.8974913908293363,-1.7783945468245366,-2.599156231721784,-1.2160611154844947,-4.475657471870487,201.0
202,-1.2033354681715691,-1.8974914082350407,-1.7783945503354008,-2.599156208979292,-1.2160610740653777,-4.372595619157607,202.0
203,-1.2033354174863617,-1.8974914204117777,-1.7783945457541237,-2.5991562005976347,-1.2160610234178775,-4.259533776520781,203.0
204,-1.2033353623169458,-1.8974914336666675,-1.7783945407640565,-2.5991561914879435,-1.2160609682793466,-4.136471942418515,204.0
205,-1.2033353024025095,-1.897491439978165,-1.7783945275470137,-2.599156197496306,-1.216060908313617,-4.003410114183046,205.0
206,-1.2033352378861115,-1.8974914437226662,-1.778394510370953,-2.5991562099691503,-1.2160608437109084,-3.86034828777183,206.0
207,-1.2033351725418382,-1.8974914386159936,-1.7783944844084854,-2.599156240041915,-1.2160607781340884,-3.7072864661330502,207.0
208,-1.2033351045194238,-1.8974914292377614,-1.7783944534718052,-2.5991562793079517,-1.2160607098032825,-3.544224650790627,208.0
209,-1.2033350460552443,-1.89749140783964,-1.7783944140428132,-2.599156339198472,-1.2160606508544278,-3.3796091124722003,209.0
210,-1.2033349939095628,-1.8974913853568562,-1.778394375604733,-2.599156399275033,-1.2160605982205273,-3.2249280227888075,210.0
211,-1.2033349572144745,-1.8974913557690547,-1.7783943353034048,-2.5991564685338493,-1.2160605609552986,-3.080246933105406,211.0
212,-1.2033349246644836,-1.8974913275163567,-1.7783942976223512,-2.599156533903213,-1.2160605278665348,-2.945565843421988,212.0
213,-1.2033349075637725,-1.8974912956104528,-1.7783942614004995,-2.599156601689618,-1.2160605102019335,-2.8208847537385657,213.0
214,-1.203334891834618,-1.897491266263557,-1.7783942280838003,-2.5991566640392403,-1.2160604939541155,-2.706203664055138,214.0
215,-1.2033348866957156,-1.897491237259926,-1.7783941985084741,-2.5991567224645955,-1.2160604883262,-2.6015225743717028,215.0
216,-1.2033348857894057,-1.8974912101276395,-1.7783941720978271,-2.5991567759225798,-1.2160604869712697,-2.5068414846882634,216.0
217,-1.2033348849788181,-1.8974911858610073,-1.7783941484766075,-2.5991568237344542,-1.2160604857594441,-2.4221603950048163,217.0
218,-1.2033348894880969,-1.8974911641568508,-1.7783941290355767,-2.5991568648905057,-1.2160604899217167,-2.3474793053213685,218.0
219,-1.2033348971713447,-1.8974911451397032,-1.77839411320346,-2.59915689980549,-1.2160604973093767,-2.282798215637915,219.0
220,-1.2033349036667262,-1.8974911290626968,-1.7783940998190615,-2.5991569293224535,-1.21606050355487,-2.2281171259544763,220.0
221,-1.2033349089742418,-1.8974911159258325,-1.7783940888823806,-2.599156953441397,-1.2160605086581966,-2.18343603627105,221.0
222,-1.2033349130938913,-1.8974911057291077,-1.7783940803934204,-2.5991569721623207,-1.216060512619356,-2.148754946587613,222.0
223,-1.2033349160256746,-1.8974910984725228,-1.7783940743521798,-2.5991569854852234,-1.2160605154383486,-2.124073856904178,223.0
224,-1.2033349177695913,-1.8974910941560774,-1.7783940707586599,-2.599156993410106,-1.2160605171151742,-2.1093927672207426,224.0
225,-1.2041731370426791,-1.899908387572064,-1.7749776928914136,-2.6001616516669257,-1.2168965028370753,-2.1028163033508553,225.0
226,-1.2054806412535628,-1.9036790334847546,-1.769648620858271,-2.601728773227045,-1.218200524116255,-2.10570485025146,226.0
227,-1.2056295650191697,-1.9041085129819157,-1.76904164175264,-2.6019072669679164,-1.2183490547781597,-2.116664634711401,227.0
228,-1.2056295634824368,-1.9041085195291818,-1.769041644690358,-2.601907264664708,-1.2183490601892473,-2.1371223047018906,228.0
229,-1.2056295611945265,-1.9041085292768447,-1.7690416490640746,-2.6019072612356586,-1.218349068245352,-2.167579974692388,229.0
230,-1.2056295581554395,-1.9041085422249047,-1.7690416548737895,-2.601907256680769,-1.218349078946473,-2.2080376446828787,230.0
231,-1.2056295542473496,-1.904108558475977,-1.769041661801372,-2.60190725217269,-1.2183490912143766,-2.258495314562429,231.0
232,-1.205629549161552,-1.904108578298917,-1.7690416690133162,-2.6019072507837806,-1.2183491022240784,-2.318952984102289,232.0
233,-1.2056295433450779,-1.9041086013503075,-1.769041677604719,-2.601907248533996,-1.2183491148352033,-2.389410653334591,233.0
234,-1.2056295439794935,-1.9041086243581904,-1.7690416996965563,-2.6019072044190628,-1.2183491147783219,-2.469868306316397,234.0
235,-1.2056295446846477,-1.9041086502183857,-1.769041724560676,-2.6019071547100903,-1.2183491146426377,-2.560325955326927,235.0
236,-1.2056295454489676,-1.904108678920459,-1.7690417522348987,-2.601907099248667,-1.218349114325815,-2.6607835956646335,236.0
237,-1.2056295588302663,-1.9041087074103977,-1.7690417840895556,-2.6019070392330375,-1.218349127975268,-2.7712412256928314,237.0
238,-1.2056295752524444,-1.9041087380315096,-1.7690418190377617,-2.6019069739185237,-1.2183491449109347,-2.891698848319286,238.0
239,-1.2056296003062594,-1.904108767993997,-1.769041856127667,-2.6019069072787286,-1.2183491705047356,-3.0221564642032526,239.0
240,-1.2056296357241687,-1.9041087965350973,-1.7690418951766598,-2.601906840295884,-1.2183492064788184,-3.162614076667412,240.0
241,-1.2056296801542965,-1.904108822512888,-1.7690419346598316,-2.60190677557208,-1.2183492514421115,-3.313071686049053,241.0
242,-1.205629735917039,-1.9041088442844725,-1.7690419737386485,-2.601906715619215,-1.2183493076924055,-3.4735292888309957,242.0
243,-1.2056298009763904,-1.9041088582636276,-1.7690420082872957,-2.60190666810865,-1.218349373131483,-3.6396496529272095,243.0
244,-1.205629866208235,-1.9041088672563413,-1.7690420380697653,-2.601906630340232,-1.218349438660896,-3.7969357139979376,244.0
245,-1.2056299315953927,-1.9041088650340905,-1.7690420570574557,-2.601906614554615,-1.2183495041603327,-3.9442217750686783,245.0
246,-1.2056299931469083,-1.9041088614690853,-1.7690420735067884,-2.6019066025887856,-1.2183495657931562,-4.081507836139437,246.0
247,-1.2056300499249135,-1.9041088494939058,-1.7690420802803424,-2.6019066086149962,-1.2183496225023687,-4.208793897210207,247.0
248,-1.2056301021915408,-1.904108836943601,-1.769042085039417,-2.6019066171613066,-1.2183496746803983,-4.32607995828099,248.0
249,-1.2056301482180634,-1.9041088221374984,-1.7690420855999758,-2.601906632061979,-1.218349720566755,-4.433366019351784,249.0
250,-1.2056301877959534,-1.9041088046867949,-1.7690420815186414,-2.601906654145035,-1.2183497599460007,-4.530652080422573,250.0
251,-1.205630223305648,-1.9041087890298471,-1.7690420778568199,-2.601906673958183,-1.218349795277469,-4.617938141493379,251.0
252,-1.2056302531527243,-1.9041087738817972,-1.7690420728566498,-2.601906694516755,-1.2183498249418343,-4.695224202564185,252.0
253,-1.2056302756967487,-1.9041087579207105,-1.769042064709534,-2.601906718923103,-1.2183498472730412,-4.762510263634984,253.0
254,-1.2056302948902988,-1.904108744331748,-1.7690420577732353,-2.6019067397021987,-1.2183498662854022,-4.81979632470578,254.0
255,-1.205630310733375,-1.9041087331149118,-1.7690420520477512,-2.6019067568540453,-1.218349881978918,-4.8670823857765635,255.0
256,-1.2056303232259762,-1.9041087242701988,-1.7690420475330855,-2.6019067703786387,-1.2183498943535878,-4.90436844684735,256.0
257,-1.2056303323681024,-1.9041087177976088,-1.7690420442292383,-2.6019067802759808,-1.2183499034094114,-4.931654507918144,257.0
258,-1.2056303381597537,-1.9041087136971422,-1.7690420421362099,-2.601906786546071,-1.218349909146389,-4.948940568988932,258.0
259,-1.2061118345767656,-1.9055146802910703,-1.767044981138117,-2.6025010624021636,-1.218830068107018,-4.957503979346175,259.0
260,-1.2074821214673306,-1.9095159395029324,-1.7613615295961762,-2.6041923093571073,-1.2201965491094864,-4.957239290708979,260.0
261,-1.207895482915394,-1.9107229717423178,-1.7596470454032875,-2.604702496452448,-1.2206087644122126,-4.948277401080678,261.0
262,-1.2078954774992439,-1.9107229766139038,-1.7596470452363728,-2.6047024994689134,-1.2206087630567686,-4.93045494091407,262.0
263,-1.2078954690441472,-1.9107229842188869,-1.7596470449758037,-2.6047025041778866,-1.2206087609407987,-4.902632480747465,263.0
264,-1.2078954575501042,-1.9107229945572675,-1.7596470446215808,-2.6047025105793677,-1.2206087580643037,-4.8648100205808635,264.0
265,-1.207895443017115,-1.910723007629045,-1.7596470441737035,-2.6047025186733563,-1.2206087544272828,-4.816987560414262,265.0
266,-1.2078954260426766,-1.9107230230728554,-1.7596470447100665,-2.6047025246459805,-1.2206087554973173,-4.7591651112478415,266.0
267,-1.2078954061468148,-1.9107230411789857,-1.7596470453647892,-2.604702531560952,-1.2206087568822588,-4.6913426623172345,267.0
268,-1.207895376805285,-1.9107230566008235,-1.759647048246501,-2.6047025192284288,-1.2206087342304497,-4.6135202258300705,268.0
269,-1.2078953414323175,-1.9107230721453032,-1.759647052241842,-2.604702498261283,-1.2206087002444819,-4.525697794017989,269.0
270,-1.2078953020054726,-1.9107230894371177,-1.7596470567743543,-2.6047024745624783,-1.2206086621564562,-4.427875374311069,270.0
271,-1.2078952558486158,-1.9107231037446244,-1.7596470559282071,-2.6047024598614383,-1.2206086165758863,-4.320052961828244,271.0
272,-1.2078952036403532,-1.9107231162636618,-1.7596470511716094,-2.6047024512903874,-1.220608564403621,-4.202230557280583,272.0
273,-1.2078951469277546,-1.9107231276382792,-1.7596470438358511,-2.6047024463866633,-1.220608507698946,-4.074408160403785,273.0
274,-1.2078950854930444,-1.9107231311908632,-1.7596470273525098,-2.6047024584021363,-1.2206084461805222,-3.9365857686241803,274.0
275,-1.207895020519028,-1.9107231327315923,-1.7596470077662365,-2.6047024754737826,-1.2206083810818196,-3.788763378271662,275.0
276,-1.2078949554431304,-1.9107231237631161,-1.7596469779382071,-2.6047025132650967,-1.220608315707452,-3.63094099479692,276.0
277,-1.2078948912954193,-1.91072310917052,-1.7596469429475192,-2.6047025618425637,-1.2206082511697272,-3.464680868741154,277.0
278,-1.2078948360413415,-1.9107230876098755,-1.7596469040730973,-2.6047026213879,-1.220608195429941,-3.3047635594623994,278.0
279,-1.2078947927938464,-1.9107230613477564,-1.759646864526958,-2.604702686475413,-1.2206081516460001,-3.154846250183616,279.0
280,-1.2078947577158898,-1.910723033098687,-1.7596468257012554,-2.6047027529475644,-1.2206081160172544,-3.0149289409048405,280.0
281,-1.20789473371335,-1.9107230030937465,-1.7596467887633578,-2.6047028194503525,-1.2206080914600912,-2.8850116316260475,281.0
282,-1.2078947174546535,-1.9107229728006845,-1.759646754058188,-2.604702884124643,-1.2206080746597339,-2.7650943223472386,282.0
283,-1.207894704905306,-1.910722944469188,-1.7596467224622439,-2.604702943789204,-1.2206080616098929,-2.6551770130684327,283.0
284,-1.207894703958481,-1.9107229162057129,-1.7596466946970555,-2.6047029997302475,-1.2206080601903189,-2.5552597037896194,284.0
285,-1.2078947031064171,-1.9107228907709282,-1.759646669710679,-2.6047030500725574,-1.2206080589128199,-2.465342394510804,285.0
286,-1.2078947027062537,-1.9107228681441808,-1.7596466475989379,-2.6047030947463,-1.2206080581350105,-2.385425085231979,286.0
287,-1.2078947109144127,-1.9107228478538563,-1.759646630550178,-2.604703132156599,-1.2206080660241687,-2.3155077759531517,287.0
288,-1.2078947179485906,-1.910722830465578,-1.7596466159398356,-2.6047031642162493,-1.2206080727849713,-2.255590466674332,288.0
289,-1.2078947238087878,-1.9107228159793477,-1.7596466037679082,-2.6047031909252514,-1.2206080784174187,-2.2056731573955166,289.0
290,-1.2078947284950041,-1.9107228043951632,-1.7596465940343982,-2.604703212283604,-1.2206080829215105,-2.1657558481167123,290.0
291,-1.2078947320072393,-1.9107227957130242,-1.7596465867393065,-2.6047032282913065,-1.2206080862972466,-2.1358385388379,291.0
292,-1.2078947343454938,-1.9107227899329307,-1.7596465818826332,-2.6047032389483604,-1.2206080885446273,-2.1159212295590875,292.0
293,-1.208083175932244,-1.9112799493009394,-1.7588512456262178,-2.6049426531077606,-1.220795984864896,-2.1053736665567886,293.0
294,-1.2093794601104753,-1.9151126770356532,-1.753380133083368,-2.6065895491692768,-1.2220885185784112,-2.1029997280523283,294.0
295,-1.210130841457921,-1.91733429341385,-1.7502088423737217,-2.607544159369648,-1.2228377282488445,-2.109967492237375,295.0
296,-1.2101308403186994,-1.9173342982165378,-1.7502088445169635,-2.6075441577652785,-1.2228377321467006,-2.1251273755110485,296.0
297,-1.2101308384280058,-1.9173343061872496,-1.7502088480739637,-2.6075441551026097,-1.2228377386157216,-2.150287258784723,297.0
298,-1.2101308357858411,-1.9173343173259858,-1.7502088530447226,-2.6075441513816413,-1.2228377476559076,-2.1854471420583943,298.0
299,-1.210130832392205,-1.917334331632746,-1.7502088594292402,-2.607544146602374,-1.2228377592672586,-2.2306070253320627,299.0
300,-1.2101308278866973,-1.91733434941874,-1.7502088662640425,-2.607544144291671,-1.2228377701192232,-2.2857669026038687,300.0
301,-1.2101308224073368,-1.917334370564788,-1.7502088739181,-2.6075441430988913,-1.2228377814872629,-2.3509267775002476,301.0
302,-1.2101308195621285,-1.917334393357623,-1.750208888652445,-2.6075441218444455,-1.222837787971217,-2.426086644328976,302.0
303,-1.2101308202267285,-1.9173344173944584,-1.7502089119551931,-2.6075440755192663,-1.2228377879007617,-2.5112465027347133,303.0
304,-1.2101308209493105,-1.9173344442347604,-1.7502089380630392,-2.607544023468651,-1.2228377876428969,-2.6064063511492606,304.0
305,-1.210130826537956,-1.9173344727188262,-1.7502089674814136,-2.6075439662385644,-1.2228377926649132,-2.711566192717625,305.0
306,-1.2101308420580104,-1.9173345016159011,-1.7502090007695277,-2.6075439042972954,-1.2228378086692775,-2.8267260258334876,306.0
307,-1.2101308589273665,-1.9173345330213656,-1.7502090369509489,-2.607543836967801,-1.2228378260781478,-2.9518858500206195,307.0
308,-1.210130891750208,-1.9173345605150682,-1.7502090744817091,-2.6075437725040698,-1.2228378594382352,-3.087045668185457,308.0
309,-1.2101309279341979,-1.9173345896329705,-1.7502091146906122,-2.60754370379815,-1.2228378961965567,-3.232205485782578,309.0
310,-1.210130980023761,-1.9173346112751266,-1.750209152782916,-2.607543644906457,-1.2228379487691008,-3.38736529725027,310.0
311,-1.210131038145027,-1.9173346316967699,-1.7502091916485165,-2.607543586550026,-1.2228380073665197,-3.552358805838349,311.0
312,-1.2101311047973888,-1.9173346408777094,-1.750209222320801,-2.6075435477273867,-1.2228380743264562,-3.714939488706772,312.0
313,-1.2101311690526066,-1.9173346452883249,-1.7502092475558775,-2.6075435190637664,-1.2228381388038292,-3.867520171575208,313.0
314,-1.2101312322422308,-1.9173346416393287,-1.7502092645767653,-2.6075435066370667,-1.2228382020781774,-4.010100854443661,314.0
315,-1.2101312908904633,-1.9173346349818683,-1.7502092771817783,-2.607543501558343,-1.2228382607502697,-4.14268153731213,315.0
316,-1.210131344887358,-1.9173346220395897,-1.7502092821370245,-2.6075435103277345,-1.2228383146550375,-4.265262220180617,316.0
317,-1.2101313944792462,-1.9173346101531328,-1.750209286688019,-2.60754351838173,-1.2228383641623142,-4.377842903049104,317.0
318,-1.2101314360994349,-1.9173345926823768,-1.7502092831914982,-2.607543539932714,-1.222838405585972,-4.4804235859176025,318.0
319,-1.210131473328881,-1.9173345762939977,-1.7502092793213007,-2.6075435607114574,-1.2228384426268808,-4.57300426878611,319.0
320,-1.2101315065370306,-1.9173345616757937,-1.750209275869135,-2.607543579245809,-1.2228384756668578,-4.655584951654618,320.0
321,-1.210131531814958,-1.9173345456821598,-1.7502092684912947,-2.607543602957918,-1.222838500735277,-4.728165634523152,321.0
322,-1.2101315525404475,-1.9173345310312775,-1.7502092609412716,-2.607543625434147,-1.222838521263239,-4.79074631739166,322.0
323,-1.2101315699541344,-1.9173345187215156,-1.7502092545976928,-2.607543644318817,-1.2228385385109626,-4.8433270002601585,323.0
324,-1.2101315840560185,-1.9173345087528733,-1.750209249460559,-2.607543659611927,-1.2228385524784469,-4.885907683128639,324.0
325,-1.2101315948460993,-1.9173345011253495,-1.7502092455298721,-2.6075436713134765,-1.2228385631656913,-4.918488365997121,325.0
326,-1.210131602324377,-1.9173344958389442,-1.7502092428056324,-2.6075436794234657,-1.2228385705726965,-4.941069048865617,326.0
327,-1.210153536347524,-1.917400149660065,-1.7501150582137717,-2.607572353335927,-1.2228604385107624,-4.953736849546401,327.0
328,-1.2112298152398675,-1.9206224677424415,-1.7454927190484697,-2.6089793968484867,-1.223933476010664,-4.958686761087605,328.0
329,-1.2123143637983818,-1.9238695565278225,-1.7408348509990947,-2.6103972545964607,-1.2250147593480345,-4.953845412686434,329.0
330,-1.2123393011758492,-1.9239442325032001,-1.7407277348753059,-2.6104298629089557,-1.225039624381002,-4.941278714405939,330.0
331,-1.2123392944059772,-1.9239442385839542,-1.7407277346383752,-2.6104298667726935,-1.2250396225627447,-4.918811640898687,331.0
332,-1.2123392846228636,-1.9239442473712263,-1.7407277342959877,-2.610429872356165,-1.2250396199351887,-4.886344567391445,332.0
333,-1.2123392718265085,-1.9239442588650166,-1.7407277338481437,-2.6104298796593692,-1.225039616498334,-4.843877493884202,333.0
334,-1.2123392562721782,-1.92394427291253,-1.7407277337498495,-2.6104298870851457,-1.2250396146113425,-4.791410421712374,334.0
335,-1.2123392381003921,-1.9239442894296548,-1.7407277342515788,-2.610429893754284,-1.225039615572893,-4.728943351216477,335.0
336,-1.2123392152365968,-1.92394430709933,-1.7407277354521664,-2.610429895797456,-1.225039610077488,-4.656476284328236,336.0
337,-1.2123391824030993,-1.9239443215064373,-1.7407277391825025,-2.6104298763615104,-1.225039578556766,-4.574009230194558,337.0
338,-1.2123391455749808,-1.9239443376484529,-1.7407277434088266,-2.6104298543875473,-1.2250395430950776,-4.481542182683073,338.0
339,-1.2123391044170517,-1.9239443549375634,-1.740727747407924,-2.610429831272294,-1.225039503233524,-4.379075142341227,339.0
340,-1.21233905515356,-1.9239443667296547,-1.7407277428853842,-2.6104298232329226,-1.2250394540088818,-4.26660811276168,340.0
341,-1.2123390015086624,-1.923944379571282,-1.7407277379574895,-2.6104298144905513,-1.2250394003967435,-4.144141091189838,341.0
342,-1.2123389432475735,-1.923944386294265,-1.7407277255043552,-2.610429819341755,-1.2250393420911894,-4.011674075754278,342.0
343,-1.212338880469769,-1.923944389916215,-1.7407277085253048,-2.610429831761441,-1.225039279226798,-3.869207062602644,343.0
344,-1.2123388165739875,-1.9239443856752243,-1.7407276834688927,-2.6104298600827303,-1.2250392151106388,-3.716740053858026,344.0
345,-1.2123387503494178,-1.923944376559968,-1.7407276528703624,-2.6104298987716055,-1.2250391485788195,-3.5542730514390493,345.0
346,-1.2123386924088988,-1.9239443564054586,-1.7407276141531318,-2.6104299567153806,-1.2250390901642245,-3.38919992779489,346.0
347,-1.2123386404209238,-1.9239443350016252,-1.7407275761571723,-2.6104300152740287,-1.2250390376949345,-3.233930458383643,347.0
348,-1.2123386044165894,-1.9239443060515273,-1.7407275359866408,-2.610430083775928,-1.2250390011192884,-3.088660988972448,348.0
349,-1.212338571586164,-1.9239442787884047,-1.7407274985087517,-2.610430147950536,-1.2250389677533409,-2.9533915195613383,349.0
350,-1.2123385547946164,-1.9239442475537636,-1.7407274623806681,-2.610430214979261,-1.225038950396616,-2.8281220501502946,350.0
351,-1.2123385393435033,-1.9239442188125253,-1.7407274291366068,-2.610430276657224,-1.2250389344254424,-2.7128525807393147,351.0
352,-1.2123385335002959,-1.9239441905847752,-1.7407273995383323,-2.610430334322543,-1.2250389280931404,-2.6075831113283936,352.0
353,-1.2123385326064564,-1.9239441639861479,-1.7407273731566104,-2.6104303872212182,-1.2250389267491455,-2.512313641917528,353.0
354,-1.2123385318064388,-1.9239441401794606,-1.740727349544052,-2.6104304345673617,-1.2250389255462237,-2.4270441725067045,354.0
355,-1.2123385356816245,-1.9239441189004163,-1.7407273299397066,-2.6104304754548373,-1.2250389290719443,-2.3517747030959004,355.0
356,-1.212338543255432,-1.9239441002053523,-1.7407273140794557,-2.6104305100768,-1.225038936348407,-2.286505233685132,356.0
357,-1.212338549668849,-1.9239440843745785,-1.7407273006491684,-2.610430539394298,-1.2250389425100354,-2.23123576427439,357.0
358,-1.2123385549218753,-1.9239440714080955,-1.7407272896488437,-2.61043056340733,-1.22503894755683,-2.1859662948636513,358.0
359,-1.212338559014511,-1.9239440613059013,-1.7407272810784846,-2.6104305821158977,-1.2250389514887907,-2.1506968254529206,359.0
360,-1.2123385619467564,-1.9239440540679957,-1.7407272749380909,-2.61043059552,-1.2250389543059172,-2.125427356042171,360.0
361,-1.2123385637186113,-1.9239440496943787,-1.7407272712276627,-2.6104306036196374,-1.2250389560082096,-2.110157886631428,361.0
362,-1.2130496095166998,-1.926099751667135,-1.7376199811700908,-2.611386802278481,-1.2257477742724587,-2.103098709551228,362.0
363,-1.2143183166676186,-1.9299461439370904,-1.7320756916550348,-2.6130929270134975,-1.227012507770195,-2.1053390655296105,363.0
364,-1.2145182930430265,-1.9305524261002007,-1.7312017867942069,-2.6133618500920823,-1.2272118610644545,-2.115771383224724,364.0
365,-1.2145182915589061,-1.9305524322931622,-1.7312017895442855,-2.613361848129244,-1.227211865999974,-2.135519169233366,365.0
366,-1.214518289323248,-1.9305524416221518,-1.7312017936869646,-2.6133618451724523,-1.2272118734347708,-2.165266955241994,366.0
367,-1.2145182863360524,-1.9305524540871701,-1.7312017992222448,-2.6133618412217072,-1.2272118833688452,-2.205014741250616,367.0
368,-1.214518282515371,-1.9305524697584548,-1.7312018059330567,-2.613361837065963,-1.2272118950374808,-2.2547625244006255,368.0
369,-1.2145182774945158,-1.9305524889502983,-1.7312018128480962,-2.6133618362355007,-1.2272119050188592,-2.3145102940855073,369.0
370,-1.214518271633319,-1.9305525113542856,-1.7312018209205073,-2.6133618352660433,-1.2272119166708237,-2.3842580637704116,370.0
371,-1.2145182718753882,-1.9305525337434597,-1.7312018420345514,-2.6133617943646623,-1.2272119172807927,-2.4640058179071995,371.0
372,-1.2145182725629746,-1.9305525587386776,-1.7312018665375093,-2.613361745836148,-1.227211917144275,-2.5537535680744576,372.0
373,-1.214518273308056,-1.9305525864997508,-1.7312018938393539,-2.613361691617317,-1.227211916820137,-2.65350130854731,373.0
374,-1.2145182853616272,-1.9305526143059253,-1.7312019251639463,-2.6133616328461744,-1.227211929029815,-2.7632490395394975,374.0
375,-1.2145183013186367,-1.9305526439617509,-1.7312019596652364,-2.613361568935075,-1.2272119454974026,-2.882996762959913,375.0
376,-1.2145183246312696,-1.9305526734504888,-1.7312019964080827,-2.6133615030833983,-1.2272119693505559,-3.0127444793373384,376.0
377,-1.214518359070805,-1.9305527011170533,-1.7312020349897213,-2.613361437426076,-1.2272120043423647,-3.1524921917704405,377.0
378,-1.214518401296098,-1.9305527270078384,-1.7312020743773784,-2.613361372852582,-1.2272120471071717,-3.3022399015232695,378.0
379,-1.2145184555504502,-1.9305527481280413,-1.7312021130125101,-2.6133613139727316,-1.2272121018462916,-3.461987604633737,379.0
380,-1.2145185184559133,-1.9305527626565548,-1.7312021479909703,-2.6133612654553846,-1.227212165145018,-3.6283350746667926,380.0
381,-1.214518582527555,-1.9305527714670196,-1.7312021777159652,-2.613361227912588,-1.2272122295157428,-3.78642047650585,381.0
382,-1.2145186464266695,-1.930552770149162,-1.7312021974005434,-2.613361210510126,-1.2272122935419048,-3.9345058783448845,382.0
383,-1.2145187069267358,-1.9305527666610998,-1.7312022138296759,-2.613361198476316,-1.227212354124296,-4.072591280183887,383.0
384,-1.2145187627830138,-1.9305527556303286,-1.7312022212988012,-2.613361202855694,-1.2272124099242236,-4.20067668202285,384.0
385,-1.2145188142065317,-1.9305527433250915,-1.731202226055984,-2.6133612111511106,-1.2272124612594308,-4.318762083861806,385.0
386,-1.2145188597838301,-1.9305527292901994,-1.7312022271883765,-2.613361224708039,-1.22721250670544,-4.426847485700752,386.0
387,-1.2145188987766617,-1.930552712153686,-1.7312022231011706,-2.613361246478581,-1.2272125454990286,-4.524932887539683,387.0
388,-1.214518933794099,-1.9305526967642783,-1.7312022194306567,-2.613361266029575,-1.2272125803375356,-4.613018289378589,388.0
389,-1.2145189635757045,-1.9305526821094092,-1.7312022147648234,-2.6133612857639354,-1.2272126099404193,-4.691103691217505,389.0
390,-1.2145189858665528,-1.9305526663775998,-1.7312022065775625,-2.6133613099804913,-1.2272126320167849,-4.7591890930564045,390.0
391,-1.214519004883447,-1.9305526529563894,-1.7312021995928004,-2.6133613306402554,-1.2272126508506984,-4.817274494895327,391.0
392,-1.2145190206263878,-1.9305526418457815,-1.7312021938105335,-2.61336134774323,-1.2272126664421603,-4.865359896734271,392.0
393,-1.2145190330953741,-1.9305526330457725,-1.7312021892307659,-2.613361361289413,-1.22721267879117,-4.903445298573212,393.0
394,-1.2145190422904062,-1.9305526265563624,-1.7312021858534976,-2.6133613712788044,-1.2272126878977274,-4.931530700412149,394.0
395,-1.2145190482114838,-1.930552622377551,-1.7312021836787292,-2.6133613777114046,-1.2272126937618326,-4.949616102251092,395.0
396,-1.2145188510828908,-1.9305829816365914,-1.7312320448749468,-2.6133012315837862,-1.227213010645781,-4.957754799984096,396.0
397,-1.2145112836112284,-1.9317329436966726,-1.7323630820379952,-2.6110230462284685,-1.2272249126843897,-4.957303084131395,397.0
398,-1.2145112804156613,-1.931733038481051,-1.7323630066472715,-2.6110230268577577,-1.2272249094144774,-4.9481299705057245,398.0
399,-1.2145112739178563,-1.9317332090311377,-1.7323628219606146,-2.611023040974839,-1.2272249022946253,-4.9289568829319546,399.0
400,-1.214511264031028,-1.931733468534079,-1.732362540947972,-2.6110230624548874,-1.2272248914613122,-4.899783795358193,400.0
401,-1.2145112507551759,-1.9317338169898748,-1.7323621636093431,-2.611023091297903,-1.227224876914538,-4.860610707784414,401.0
402,-1.214511234092835,-1.9317342544025553,-1.7323616899304322,-2.6110231275616673,-1.22722485867686,-4.811437622168122,402.0
403,-1.2145112140723544,-1.931734780817211,-1.732361119751333,-2.6110231718923824,-1.2272248370005499,-4.752264557460653,403.0
404,-1.2145111906684964,-1.9317353961937378,-1.7323604532143546,-2.6110232237148026,-1.227224811661034,-4.6830914927531975,404.0
405,-1.2145111597921427,-1.9317354969804266,-1.7323603599966386,-2.6110232159753766,-1.2272247807075807,-4.603918440874623,405.0
406,-1.2145111243533986,-1.931735512612424,-1.7323603636146467,-2.611023196379515,-1.227224745534108,-4.514745390988639,406.0
407,-1.2145110849438634,-1.9317355299953607,-1.7323603676445574,-2.6110231745644237,-1.2272247064474635,-4.415572341481083,407.0
408,-1.2145110384709978,-1.9317355433750387,-1.7323603654978175,-2.6110231627012697,-1.2272246601309722,-4.306399298855954,408.0
409,-1.2145109865753574,-1.9317355558080205,-1.7323603606703775,-2.611023154336363,-1.2272246083303986,-4.1872262620245975,409.0
410,-1.2145109302081656,-1.931735565806243,-1.7323603520013253,-2.6110231521749494,-1.227224552004653,-4.058053229991472,410.0
411,-1.2145108692325326,-1.9317355692929228,-1.7323603354618924,-2.6110231643135577,-1.2272244909458547,-3.918880200954379,411.0
412,-1.2145108054064688,-1.931735569239611,-1.7323603145317739,-2.61102318433081,-1.2272244269703514,-3.7697071761722087,412.0
413,-1.2145107408951348,-1.9317355602851838,-1.7323602846818864,-2.6110232221361276,-1.2272243621581143,-3.6105341591016606,413.0
414,-1.2145106791379812,-1.9317355442768012,-1.7323602488418706,-2.6110232730092786,-1.2272242999875336,-3.4441240440153367,414.0
415,-1.2145106252539295,-1.931735523173813,-1.7323602106002698,-2.611023331484813,-1.2272242456224607,-3.2854636861896522,415.0
416,-1.2145105848602056,-1.9317354962542082,-1.7323601710892018,-2.611023397235802,-1.2272242046810038,-3.1368033283639942,416.0
417,-1.2145105506897051,-1.9317354686631307,-1.7323601329578338,-2.611023462371035,-1.2272241699659134,-2.9981429705383698,417.0
418,-1.2145105291719887,-1.9317354385727334,-1.7323600965237167,-2.6110235284934618,-1.2272241478908716,-2.869482612712777,418.0
419,-1.214510513356617,-1.931735409045465,-1.7323600625050082,-2.6110235917250764,-1.2272241315409198,-2.7508222548872046,419.0
420,-1.2145105028111849,-1.9317353810633193,-1.7323600317195826,-2.611023650261963,-1.2272241204992058,-2.642161897061649,420.0
421,-1.2145105018902425,-1.9317353535830164,-1.732360004572679,-2.611023704805408,-1.2272241191128102,-2.5435015392361,421.0
422,-1.214510501062645,-1.931735328888062,-1.7323599801773208,-2.611023753820448,-1.2272241178669367,-2.454841181410565,422.0
423,-1.2145105018429587,-1.9317353068918492,-1.732359958944342,-2.611023797005559,-1.227224118278212,-2.376180823585033,423.0
424,-1.214510509764302,-1.9317352872779927,-1.7323599423746057,-2.611023833259189,-1.2272241258872787,-2.307520465759498,424.0
425,-1.2145105165319459,-1.9317352705207855,-1.7323599282181597,-2.611023864232679,-1.2272241323881274,-2.2488601079339587,425.0
426,-1.2145105221458903,-1.9317352566202304,-1.7323599164750008,-2.6110238899260305,-1.2272241377807576,-2.2001997501083923,426.0
427,-1.2145105266061347,-1.931735245576324,-1.732359907145132,-2.6110239103392408,-1.2272241420651693,-2.1615393922828234,427.0
428,-1.2145105299126793,-1.9317352373890664,-1.7323599002285544,-2.6110239254723115,-1.2272241452413626,-2.1328790344572717,428.0
429,-1.2145105320655243,-1.9317352320584578,-1.7323598957252675,-2.611023935325242,-1.227224147309338,-2.1142186766317086,429.0
430,-1.2142045253710265,-1.930808626383988,-1.7336973710025594,-2.6106110549150117,-1.2269190795912086,-2.10460411222038,430.0
431,-1.2129016026762633,-1.9268633275592433,-1.7393920951334167,-2.608853068200057,-1.2256201552952815,-2.103448682405195,431.0
432,-1.2123307079844756,-1.9251346416624844,-1.7418873203607994,-2.608082780253909,-1.2250510149833855,-2.111324476922735,432.0
433,-1.212330706738931,-1.9251346468389106,-1.7418873226195517,-2.6080827786355125,-1.225051018977464,-2.1276794588411803,433.0
434,-1.212330704731817,-1.9251346551803823,-1.7418873262593833,-2.6080827760275724,-1.2250510254136595,-2.1540344407596157,434.0
435,-1.212330701963134,-1.9251346666868994,-1.741887331280294,-2.6080827724300883,-1.2250510342919723,-2.1903894226780616,435.0
436,-1.212330698432882,-1.925134681358462,-1.741887337682284,-2.6080827678430616,-1.2250510456124024,-2.2367444045965192,436.0
437,-1.2123306937138143,-1.9251346995503344,-1.7418873443648408,-2.60808276627513,-1.225051055408981,-2.2930993848836154,437.0
438,-1.2123306880649016,-1.9251347210471765,-1.7418873519950284,-2.608082765296499,-1.225051066085639,-2.359454364853597,438.0
439,-1.2123306859782195,-1.9251347437684134,-1.7418873682349176,-2.6080827391122856,-1.2250510706806095,-2.435809334892081,439.0
440,-1.2123306866479355,-1.9251347680819977,-1.7418873917224875,-2.6080826922976357,-1.2250510705980737,-2.522164298567872,440.0
441,-1.2123306873730804,-1.925134795188758,-1.7418874180104205,-2.608082639728972,-1.2250510703075832,-2.618519250587748,441.0
442,-1.2123306946199335,-1.9251348235328498,-1.7418874477704145,-2.6080825821908626,-1.2250510771747818,-2.724874195873058,442.0
443,-1.2123307102120378,-1.9251348526721106,-1.7418874812022689,-2.608082519863276,-1.2250510932589946,-2.8412291329330515,443.0
444,-1.21233072806643,-1.9251348839094082,-1.7418875174134136,-2.6080824526907858,-1.2250511116562697,-2.9675840617886435,444.0
445,-1.2123307618609651,-1.9251349112210838,-1.7418875549723454,-2.6080823883995534,-1.2250511459893443,-3.1039389845819567,445.0
446,-1.2123307986212715,-1.9251349401904994,-1.7418875951086283,-2.608082319922906,-1.2250511833231537,-3.2502939068043837,446.0
447,-1.2123308520260905,-1.925134961124816,-1.7418876328560315,-2.6080822621020383,-1.2250512372021733,-3.4066488220116056,447.0
448,-1.2123309113890128,-1.9251349800943043,-1.7418876706343944,-2.6080822063000495,-1.2250512970200962,-3.5723853499982168,448.0
449,-1.2123309771699615,-1.9251349892337783,-1.7418877009479585,-2.6080821678646418,-1.2250513631061009,-3.7337668013084713,449.0
450,-1.2123310411488875,-1.9251349921715613,-1.7418877246459026,-2.608082142203452,-1.2250514272819835,-3.8851482526186816,450.0
451,-1.2123311034471094,-1.925134988607014,-1.7418877414755052,-2.6080821298709056,-1.2250514896643048,-4.0265297039289,451.0
452,-1.2123311611893488,-1.9251349808242955,-1.7418877527204941,-2.608082127261497,-1.2250515474094277,-4.157911155239074,452.0
453,-1.2123312143506433,-1.9251349680774548,-1.7418877576476148,-2.608082135852148,-1.2250516004798302,-4.279292606549238,453.0
454,-1.2123312630109306,-1.9251349561540552,-1.7418877619089046,-2.608082144219263,-1.225051649052634,-4.390674057859364,454.0
455,-1.2123313035449184,-1.9251349382795422,-1.7418877577379406,-2.608082166831702,-1.225051689380634,-4.492055509169483,455.0
456,-1.2123313400807412,-1.925134922168127,-1.7418877539783857,-2.60808218721371,-1.225051725730787,-4.5834369604795855,456.0
457,-1.2123313726183984,-1.925134907819808,-1.741887750630242,-2.6080822053652875,-1.2250517581030924,-4.664818411789706,457.0
458,-1.2123313967062121,-1.9251348916368523,-1.7418877427460078,-2.608082229755186,-1.2250517819752968,-4.736199863099808,458.0
459,-1.2123314169174944,-1.9251348773152925,-1.7418877354083697,-2.608082251683257,-1.2250518019932164,-4.797581314409907,459.0
460,-1.212331433836043,-1.9251348653269416,-1.7418877292661454,-2.6080822700389032,-1.2250518187499038,-4.8489627657200405,460.0
461,-1.2123314474618567,-1.9251348556717967,-1.7418877243193367,-2.6080822848221237,-1.2250518322453585,-4.890344217030183,461.0
462,-1.2123314577949358,-1.925134848349858,-1.741887720567945,-2.608082296032917,-1.2250518424795809,-4.921725668340309,462.0
463,-1.2123314648352803,-1.9251348433611253,-1.74188771801197,-2.6080823036712837,-1.2250518494525702,-4.943107119650438,463.0
464,-1.2122559283059937,-1.9249089536207842,-1.7422121991878496,-2.6079832129437843,-1.2249765355542857,-4.954772673356053,464.0
465,-1.211069804991237,-1.9213621056094334,-1.7473071797296043,-2.6064272398412305,-1.2237939085394294,-4.9586130894666285,465.0
466,-1.2101246517785322,-1.9185358377690032,-1.7513670640140795,-2.605187378206152,-1.2228515425733977,-4.952765168921865,466.0
467,-1.2101236695187085,-1.9185329166718885,-1.7513712653192874,-2.6051860974481427,-1.222850566139433,-4.939098291894326,467.0
468,-1.2101236623328901,-1.9185329231235209,-1.7513712650594353,-2.6051861014987088,-1.2228505640486231,-4.915435556846556,468.0
469,-1.2101236521103065,-1.918532932301648,-1.7513712646897686,-2.6051861072610665,-1.222850561074226,-4.881772821798783,469.0
470,-1.2101236388509566,-1.91853294420627,-1.7513712642102868,-2.6051861147352158,-1.2228505572162414,-4.838110086751013,470.0
471,-1.210123622884704,-1.9185329586458286,-1.7513712641917998,-2.605186121915755,-1.222850555507261,-4.784447358445799,471.0
472,-1.2101236042202859,-1.9185329756152505,-1.7513712646494286,-2.6051861287495623,-1.22285055602762,-4.720784635294892,472.0
473,-1.2101235798419319,-1.9185329929100532,-1.7513712661504461,-2.6051861277357444,-1.222850546444224,-4.647121917729913,473.0
474,-1.2101235463410467,-1.9185330076632008,-1.751371269885099,-2.6051861079445997,-1.22285051427825,-4.563459211020795,474.0
475,-1.2101235088196858,-1.9185330241648226,-1.7513712741202974,-2.605186085562313,-1.2228504781228147,-4.46979651242763,475.0
476,-1.210123466432563,-1.9185330409171448,-1.75137127700508,-2.6051860642423055,-1.2228504368818944,-4.366133820848611,476.0
477,-1.2101234163591505,-1.918533052927955,-1.7513712723992036,-2.6051860560564832,-1.2228503868485816,-4.2524711386355305,477.0
478,-1.2101233618789635,-1.9185330659966513,-1.7513712673844395,-2.6051860471638975,-1.2228503324009683,-4.128808465581031,478.0
479,-1.2101233027131086,-1.9185330715531974,-1.7513712535658592,-2.6051860545381595,-1.2228502731770752,-3.995145798235338,479.0
480,-1.2101232390448038,-1.9185330751999394,-1.7513712364341936,-2.6051860670741025,-1.2228502094216913,-3.851483132404458,480.0
481,-1.2101231748795505,-1.9185330693426192,-1.7513712099479157,-2.60518609843471,-1.2228501450113096,-3.6978204717359513,481.0
482,-1.210123107784807,-1.9185330600136288,-1.7513711791529025,-2.605186137521841,-1.2228500776073166,-3.5341578172700925,482.0
483,-1.2101230511892664,-1.9185330381737706,-1.751371139661626,-2.605186197942359,-1.2228500205180468,-3.370084393630376,483.0
484,-1.2101230009985948,-1.918533015466885,-1.751371101409756,-2.605186258084962,-1.2228499698338915,-3.216006662738322,484.0
485,-1.2101229650854772,-1.9185329864187517,-1.751371061656015,-2.6051863262699233,-1.2228499333543934,-3.0719289318463048,485.0
486,-1.210122934138552,-1.9185329582950943,-1.7513710244079719,-2.605186391102063,-1.2228499018678844,-2.937851200954298,486.0
487,-1.210122917412221,-1.9185329270116147,-1.7513709887172781,-2.6051864577432364,-1.222849884581945,-2.813773470062328,487.0
488,-1.2101229020339426,-1.9185328982494223,-1.7513709559030557,-2.605186519013489,-1.22284986868916,-2.699695739170356,488.0
489,-1.210122897813866,-1.9185328696543031,-1.7513709268709574,-2.6051865765034306,-1.2228498639829604,-2.595618008278399,489.0
490,-1.2101228969269706,-1.9185328431040811,-1.7513709008985978,-2.6051866289443177,-1.2228498626516608,-2.501540277386474,490.0
491,-1.210122896134348,-1.9185328193760207,-1.7513708776869685,-2.605186675810997,-1.222849861461872,-2.4174625464945456,491.0
492,-1.210122901096959,-1.918532798145909,-1.7513708587592465,-2.6051867159891335,-1.22284986608214,-2.3433848156026196,492.0
493,-1.210122908575758,-1.91853277959925,-1.7513708432439143,-2.6051867501163186,-1.2228498732690805,-2.2793070847107026,493.0
494,-1.2101229148874126,-1.9185327639469916,-1.7513708301499107,-2.6051867789175995,-1.2228498793344234,-2.225229353818763,494.0
495,-1.2101229200319223,-1.9185327511891355,-1.751370819477235,-2.6051868023929767,-1.2228498842781697,-2.1811516229268024,495.0
496,-1.2101229240092872,-1.9185327413256787,-1.75137081122589,-2.60518682054245,-1.2228498881003185,-2.1470738920348587,496.0
497,-1.2101229268195073,-1.9185327343566212,-1.7513708053958754,-2.605186833366019,-1.22284989080087,-2.122996161142911,497.0
498,-1.2101229284625823,-1.9185327302819635,-1.7513708019871914,-2.605186840863684,-1.2228498923798243,-2.108918430250966,498.0
499,-1.2092214281828069,-1.9158705293195817,-1.7551763863028929,-2.6040374625419074,-1.2219509428202844,-2.1027661232725667,499.0
500,-1.2079883249544436,-1.9122290860719795,-1.7603817932828103,-2.6024652999556643,-1.2207213297633412,-2.106217792138308,500.0
501,-1.2078867247761653,-1.9119290594151268,-1.7608106850305727,-2.602335763260983,-1.2206200207772053,-2.117583592357731,501.0
502,-1.2078867231767678,-1.91192906612906,-1.7608106879751297,-2.6023357610482756,-1.220620026053771,-2.1385809718085618,502.0
503,-1.2078867208156576,-1.9119290760405039,-1.760810692322032,-2.602335757781767,-1.2206200338433004,-2.1695783512593967,503.0
504,-1.2078867176928343,-1.9119290891494578,-1.7608106980712794,-2.602335753461457,-1.2206200441457937,-2.2105757307102287,504.0
505,-1.2078867136623626,-1.9119291055781897,-1.7608107048434938,-2.602335749479,-1.2206200556197828,-2.2615731076533856,505.0
506,-1.2078867084646414,-1.911929125544198,-1.7608107119638103,-2.602335748309974,-1.220620065878966,-2.322570478649024,506.0
507,-1.2078867029113378,-1.911929148559016,-1.760810721084758,-2.6023357441356545,-1.2206200769180038,-2.3935678484410694,507.0
508,-1.2078867035459018,-1.9119291716648497,-1.7608107431878566,-2.602335699877578,-1.2206200768495719,-2.474565203020425,508.0
509,-1.207886704249727,-1.911929197614647,-1.760810768051338,-2.602335650023984,-1.2206200766920416,-2.5655625528808383,509.0
510,-1.2078867050144138,-1.911929226400361,-1.7608107957043497,-2.60233559445337,-1.2206200763708261,-2.666559894658891,510.0
511,-1.207886719128389,-1.9119292547911626,-1.7608108276024703,-2.60233553444897,-1.2206200908423483,-2.777557225492349,511.0
512,-1.2078867355294327,-1.9119292854911336,-1.7608108624914327,-2.602335469113619,-1.220620107761115,-2.8985545489976294,512.0
513,-1.2078867613608497,-1.9119293151661878,-1.760810899428025,-2.602335402929522,-1.2206201341324858,-3.029551865887067,513.0
514,-1.2078867967091962,-1.911929343778242,-1.760810938402217,-2.602335335949372,-1.220620170038359,-3.1705491796099303,514.0
515,-1.2078868418188018,-1.9119293692710762,-1.7608109775278313,-2.602335272076874,-1.2206202156747574,-3.3215464898644025,515.0
516,-1.2078868974449892,-1.9119293911085757,-1.7608110165329252,-2.6023352121297965,-1.220620271789529,-3.482543793615717,516.0
517,-1.207886962644295,-1.9119294043900286,-1.76081105039421,-2.6023351660046927,-1.2206203373574938,-3.648460947043648,517.0
518,-1.207887027273699,-1.9119294133810376,-1.7608110799403192,-2.602335128465463,-1.220620402283183,-3.805203217110623,518.0
519,-1.2078870923146274,-1.9119294105444347,-1.760811098231442,-2.602335113984418,-1.2206204674254197,-3.9519454871775617,519.0
520,-1.207887153266623,-1.9119294070489605,-1.7608111145665581,-2.602335102054883,-1.2206205284584872,-4.088687757244494,520.0
521,-1.207887209454785,-1.9119293946242784,-1.7608111207646064,-2.6023351090966687,-1.2206205845689513,-4.215430027311404,521.0
522,-1.2078872611770337,-1.9119293822010526,-1.7608111255205914,-2.6023351175117195,-1.2206206362033436,-4.332172297378282,522.0
523,-1.207887306482064,-1.9119293671232447,-1.7608111256465122,-2.6023351331077715,-1.2206206813619134,-4.438914567445155,523.0
524,-1.2078873456100663,-1.911929349840435,-1.7608111216528746,-2.602335154929526,-1.2206207202928456,-4.535656837512005,524.0
525,-1.2078873806935086,-1.9119293343441086,-1.7608111180720427,-2.6023351744956233,-1.2206207551995893,-4.622399107578844,525.0
526,-1.2078874098692554,-1.9119293191261721,-1.7608111128497934,-2.6023351953363822,-1.2206207841897792,-4.69914137764568,526.0
527,-1.207887432101038,-1.911929303347832,-1.7608111048435724,-2.602335219415351,-1.2206208062108905,-4.765883647712527,527.0
528,-1.2078874510018311,-1.9119292899335625,-1.7608110980369236,-2.602335239886566,-1.2206208249325772,-4.8226259177793755,528.0
529,-1.2078874665716348,-1.911929278883365,-1.7608110924298446,-2.602335256750028,-1.2206208403548389,-4.869368187846245,529.0
530,-1.2078874788104483,-1.9119292701972368,-1.7608110880223393,-2.602335270005736,-1.2206208524776758,-4.906110457913126,530.0
531,-1.2078874877182721,-1.9119292638751784,-1.7608110848144074,-2.6023352796536896,-1.2206208613010876,-4.932852727979989,531.0
532,-1.2078874932951054,-1.9119292599171893,-1.7608110828060488,-2.602335285693889,-1.220620866825074,-4.949594998046856,532.0
533,-1.2073406682296928,-1.9103344779666125,-1.7630795683692928,-2.6016579237135224,-1.2200755257742155,-4.957739864027959,533.0
534,-1.205975697831022,-1.906353650525532,-1.7687420758746861,-2.599967112416844,-1.2187142601498453,-4.95692754968764,534.0
535,-1.2056222501114842,-1.905322859127808,-1.7702083233112418,-2.5995292958187988,-1.2183617737341117,-4.947550074342514,535.0
536,-1.2056222444870897,-1.9053228641846092,-1.770208323131055,-2.5995292989122665,-1.218361772198465,-4.929187619190109,536.0
537,-1.205622235799709,-1.9053228719952915,-1.7702083228527408,-2.5995293036904052,-1.2183617698265214,-4.900825164037715,537.0
538,-1.2056222240493424,-1.9053228825598545,-1.7702083224762988,-2.599529310153214,-1.218361766618281,-4.862462708885303,538.0
539,-1.2056222092540514,-1.905322895867697,-1.770208322033368,-2.599529318188651,-1.2183617627381522,-4.814100253862432,539.0
540,-1.2056221919976808,-1.905322911576147,-1.770208322546672,-2.5995293241750206,-1.2183617635005355,-4.755737802233379,540.0
541,-1.2056221717845512,-1.90532292997613,-1.7702083231479269,-2.5995293311871133,-1.218361764393548,-4.687375350604336,541.0
542,-1.2056221416128459,-1.9053229452786637,-1.7702083261447379,-2.5995293173387424,-1.21836173968031,-4.609012912348788,542.0
543,-1.2056221058145222,-1.9053229610652131,-1.77020833011701,-2.5995292961434107,-1.2183617052702491,-4.5206504785741615,543.0
544,-1.205622065940493,-1.9053229786170063,-1.770208334616667,-2.5995292722225654,-1.2183616667500932,-4.42228805616267,544.0
545,-1.2056220190516582,-1.9053229927112905,-1.7702083332238006,-2.5995292583493113,-1.2183616203669545,-4.313925641606618,545.0
546,-1.2056219662995131,-1.905323005388078,-1.7702083284074654,-2.5995292496739744,-1.2183615676512298,-4.195563234873286,546.0
547,-1.2056219089980023,-1.9053230163219068,-1.7702083204490666,-2.599529245827593,-1.21836151035236,-4.067200835608546,547.0
548,-1.2056218469647177,-1.9053230198855353,-1.7702083038882113,-2.599529257902207,-1.2183614482352303,-3.9288384410785415,548.0
549,-1.205621781648886,-1.905323020724844,-1.7702082836594422,-2.599529276312338,-1.2183613827839586,-3.7804760482931865,549.0
550,-1.2056217159718285,-1.905323011585176,-1.770208253751505,-2.5995293143468645,-1.2183613168076508,-3.622113662337586,550.0
551,-1.2056216520133176,-1.9053229960885423,-1.7702082183045018,-2.5995293642867052,-1.2183612524490508,-3.455767836332993,551.0
552,-1.2056215966257147,-1.9053229743321296,-1.7702081796180922,-2.599529423838497,-1.2183611965776213,-3.296386670484609,552.0
553,-1.2056215540584456,-1.9053229473032758,-1.7702081400068719,-2.5995294897669288,-1.2183611534687506,-3.1470055046362724,553.0
554,-1.2056215189130766,-1.905322918836276,-1.7702081014072477,-2.599529556229966,-1.218361117774916,-3.0076243387879646,554.0
555,-1.2056214956865865,-1.9053228882574813,-1.770208064621675,-2.599529623164787,-1.2183610939921907,-2.8782431729396887,555.0
556,-1.2056214794076234,-1.905322857764523,-1.7702080301555234,-2.5995296877992278,-1.2183610771741489,-2.7588620070914245,556.0
557,-1.2056214675769583,-1.9053228290842246,-1.7702079988589925,-2.5995297475231194,-1.2183610648443386,-2.649480841243171,557.0
558,-1.2056214666306195,-1.9053228006692815,-1.7702079713216263,-2.599529803387141,-1.218361063427892,-2.5500996753949448,558.0
559,-1.2056214657795041,-1.905322775113531,-1.7702079465551384,-2.5995298536299747,-1.2183610621539724,-2.4607185095467266,559.0
560,-1.2056214658994275,-1.9053227523666612,-1.770207924793339,-2.599529898081184,-1.2183610618995515,-2.3813373436985183,560.0
561,-1.2056214740925142,-1.905322732020717,-1.7702079079321984,-2.5995299353586776,-1.21836106977613,-2.3119561778502993,561.0
562,-1.2056214811047203,-1.9053227146072604,-1.770207893501276,-2.5995299672633165,-1.218361076517447,-2.2525750120020693,562.0
563,-1.2056214869360458,-1.9053227001262945,-1.7702078815005695,-2.5995299937951004,-1.218361082123502,-2.2031938461538205,563.0
564,-1.2056214915864907,-1.9053226885778165,-1.770207871930082,-2.5995300149540297,-1.218361086594295,-2.1638126803055675,564.0
565,-1.2056214950560553,-1.9053226799618261,-1.7702078647898138,-2.599530030740104,-1.2183610899298267,-2.134431514457332,565.0
566,-1.2056214973447394,-1.9053226742783234,-1.7702078600797655,-2.5995300411533226,-1.2183610921300965,-2.1150503486090844,566.0
567,-1.2053728665026566,-1.9046065389500415,-1.771221432299207,-2.5992309307154473,-1.218113107924965,-2.1049070054108836,567.0
568,-1.2040143752206967,-1.900693689032737,-1.7767594654893386,-2.5975966035392095,-1.2167581501928726,-2.103092050300492,568.0
569,-1.2033267515893595,-1.8987131376394193,-1.7795626343684359,-2.5967693602370407,-1.2160723175221897,-2.1104832884895877,569.0
570,-1.203326750389381,-1.8987131427290063,-1.7795626366130017,-2.596769358470796,-1.2160723215961498,-2.1262386433778775,570.0
571,-1.2033267484277705,-1.898713151048979,-1.7795626402822053,-2.596769355583508,-1.2160723282558719,-2.1519939982661644,571.0
572,-1.2033267457045276,-1.8987131625993372,-1.7795626453760454,-2.596769351575176,-1.2160723375013562,-2.187749353154455,572.0
573,-1.2033267422196527,-1.898713177380081,-1.7795626518945225,-2.5967693464458006,-1.216072349332603,-2.23350470804275,573.0
574,-1.2033267375735668,-1.8987131957288748,-1.7795626587885833,-2.596769344070047,-1.216072360112642,-2.2892600517362887,574.0
575,-1.2033267319667829,-1.8987132174762746,-1.7795626665846562,-2.5967693425035594,-1.216072371666551,-2.3550153921296353,575.0
576,-1.203326729476997,-1.8987132407532843,-1.779562682182945,-2.596769318248577,-1.2160723774612683,-2.4307707234654834,576.0
577,-1.2033267301558372,-1.8987132655367835,-1.7795627056695047,-2.5967692710131174,-1.2160723773990392,-2.5165260473509923,577.0
578,-1.2033267308916078,-1.8987132931901232,-1.7795627319684182,-2.5967692179604045,-1.2160723771341022,-2.6122813605041304,578.0
579,-1.2033267374309586,-1.8987133223231607,-1.7795627616768948,-2.5967691597636775,-1.216072383196865,-2.718036666874194,579.0
580,-1.2033267533024783,-1.8987133520757817,-1.779562795181173,-2.5967690967574724,-1.2160723995561515,-2.8337919649084635,580.0
581,-1.2033267705672976,-1.8987133843887305,-1.7795628315802772,-2.596769028310852,-1.2160724173631594,-2.959547254585194,581.0
582,-1.2033268049981778,-1.898713412292795,-1.7795628692501668,-2.596768963326829,-1.2160724523312885,-3.095302537899877,582.0
583,-1.203326841965338,-1.898713442252391,-1.7795629096946906,-2.596768893556751,-1.2160724898755262,-3.2410578210089964,583.0
584,-1.2033268960335683,-1.8987134639147556,-1.779562947709483,-2.596768834750122,-1.2160725444204017,-3.39681309728021,584.0
585,-1.2033269559877025,-1.898713484125672,-1.7795629862279188,-2.5967687769760746,-1.2160726048405603,-3.562213466863931,585.0
586,-1.2033270235607743,-1.898713493530182,-1.7795630168808172,-2.5967687379601667,-1.216072672719855,-3.724200972779817,586.0
587,-1.2033270889915504,-1.8987134973117779,-1.7795630414817127,-2.596768710572194,-1.2160727383599568,-3.8761884786956733,587.0
588,-1.2033271530221756,-1.8987134936263026,-1.7795630585092717,-2.5967686981839786,-1.2160728024744858,-4.0181759846115,588.0
589,-1.2033272124113548,-1.8987134862364634,-1.7795630705134278,-2.5967686944439725,-1.2160728618764556,-4.150163490527303,589.0
590,-1.2033272670904258,-1.8987134730780546,-1.7795630755027636,-2.5967687034013527,-1.2160729164632487,-4.272150996443069,590.0
591,-1.203327317287149,-1.898713460998319,-1.7795630800830886,-2.5967687116244473,-1.2160729665752579,-4.384138502358823,591.0
592,-1.203327359146279,-1.8987134427711032,-1.7795630761232408,-2.5967687343936112,-1.2160730082302276,-4.486126008274563,592.0
593,-1.203327396787286,-1.898713426117816,-1.7795630723116715,-2.5967687553812207,-1.216073045683344,-4.578113514190294,593.0
594,-1.2033274303363242,-1.8987134112749167,-1.7795630689144568,-2.5967687740872587,-1.2160730790649177,-4.660101020106025,594.0
595,-1.203327455525694,-1.8987133947836747,-1.7795630612624762,-2.596768798566288,-1.2160731040409996,-4.7320885260217445,595.0
596,-1.2033274764159803,-1.8987133799349636,-1.7795630537982574,-2.5967688211546394,-1.2160731247352083,-4.794076031937463,596.0
597,-1.2033274939361869,-1.8987133674816905,-1.7795630475381852,-2.596768840098975,-1.2160731420909694,-4.846063537853213,597.0
598,-1.2033275080863133,-1.898713357423854,-1.7795630424822608,-2.5967688553992936,-1.216073156108282,-4.888051043768966,598.0
599,-1.2033275188663595,-1.8987133497614532,-1.7795630386304864,-2.5967688670555953,-1.216073166787146,-4.920038549684711,599.0
600,-1.2033275262763257,-1.8987133444944877,-1.7795630359828614,-2.59676887506788,-1.2160731741275619,-4.94202605560046,600.0
601,-1.2032808567828417,-1.898580569719724,-1.7797500028649773,-2.5967143669202137,-1.2160266208395585,-4.954182094286645,601.0
602,-1.2020788218129093,-1.8951611484750914,-1.7845652043343305,-2.5953104459964678,-1.2148275796178292,-4.95853719624943,602.0
603,-1.2010099119171818,-1.8921204381852188,-1.788847111933741,-2.5940620119128437,-1.2137613331574042,-4.953126896112083,603.0
604,-1.2010026140207324,-1.8920996932191851,-1.7888763299005297,-2.594053495262158,-1.2137540564675893,-4.939919289666475,604.0
605,-1.2010026068594437,-1.892099699667522,-1.788876329701281,-2.5940534990992488,-1.2137540546430787,-4.916739811863671,605.0
606,-1.2010025966086597,-1.8920997088977751,-1.7888763294160737,-2.5940535045917215,-1.213754052031445,-4.883560334060856,606.0
607,-1.2010025832683804,-1.8920997209099448,-1.7888763290449075,-2.594053511739577,-1.2137540486326879,-4.8403808562580375,607.0
608,-1.2010025671452347,-1.8920997355219915,-1.788876329131736,-2.594053518601631,-1.2137540472099995,-4.787201380290767,608.0
609,-1.201002548304786,-1.8920997526949916,-1.7888763297928687,-2.594053524762818,-1.213754048354208,-4.724021906063546,609.0
610,-1.201002524014629,-1.8920997705810862,-1.7888763313238831,-2.5940535243866525,-1.2137540405741332,-4.6508424366534165,610.0
611,-1.2010024899213452,-1.8920997856430102,-1.7888763350748051,-2.5940535042195765,-1.2137540078061266,-4.567662979005014,611.0
612,-1.201002451713226,-1.8920998025023965,-1.7888763393255815,-2.5940534814209797,-1.2137539709578746,-4.474483528742282,612.0
613,-1.2010024087389886,-1.8920998200023762,-1.7888763426768102,-2.59405345877069,-1.2137539291822381,-4.371304085473591,613.0
614,-1.2010023577034856,-1.8920998322907883,-1.7888763380536736,-2.594053450315278,-1.2137538781853527,-4.25812465214558,614.0
615,-1.201002302157449,-1.8920998456660951,-1.788876333018479,-2.594053441126077,-1.21375382267099,-4.134945227446582,615.0
616,-1.2010022418344501,-1.8920998518882048,-1.788876319646524,-2.5940534473743737,-1.2137537622957273,-4.001765808550145,616.0
617,-1.2010021768865546,-1.8920998556355149,-1.7888763024396843,-2.5940534598703446,-1.2137536972616254,-3.8585863913727345,617.0
618,-1.2010021111688054,-1.8920998502805448,-1.7888762763415278,-2.5940534903223593,-1.2137536313090946,-3.705406979040519,618.0
619,-1.2010020426987456,-1.892099840752233,-1.7888762453996256,-2.5940535297381713,-1.2137535625306566,-3.542227573004377,619.0
620,-1.2010019840596935,-1.8920998189449565,-1.7888762059375514,-2.594053590068441,-1.213753503405214,-3.3777084273032725,620.0
621,-1.2010019318178122,-1.892099796084101,-1.7888761675200069,-2.5940536505011447,-1.2137534506741074,-3.223141125104024,621.0
622,-1.2010018949376235,-1.892099766179487,-1.7888761273232838,-2.5940537199691343,-1.2137534132244223,-3.0785738229048283,622.0
623,-1.201001862404917,-1.8920997375480182,-1.7888760897258411,-2.594053785633413,-1.2137533801526854,-2.9440065207056554,623.0
624,-1.2010018452206612,-1.892099705318619,-1.7888760536180657,-2.594053853627194,-1.2137533624051957,-2.8194392185065174,624.0
625,-1.2010018294159215,-1.8920996756765356,-1.788876020408938,-2.594053916162578,-1.2137533460824375,-2.704871916307393,625.0
626,-1.2010018244147997,-1.892099646351582,-1.788875990955185,-2.5940539747887064,-1.21375334059266,-2.600304614108292,626.0
627,-1.2010018235050914,-1.8920996189606671,-1.7888759646466177,-2.5940540284022218,-1.2137533392349489,-2.5057373119092006,627.0
628,-1.20100182269158,-1.8920995944662033,-1.7888759411200392,-2.594054076346387,-1.2137533380208088,-2.4211700097101163,628.0
629,-1.2010018273371974,-1.8920995725587928,-1.7888759217962167,-2.5940541175896388,-1.213753342320146,-2.346602707511037,629.0
630,-1.2010018350524427,-1.8920995533762888,-1.7888759060421169,-2.5940541525915988,-1.2137533497403532,-2.282035405311965,630.0
631,-1.201001841572773,-1.8920995371647173,-1.7888758927279662,-2.594054182172555,-1.2137533560113396,-2.2274681031128685,631.0
632,-1.2010018468981878,-1.8920995239240792,-1.7888758818537638,-2.5940542063325074,-1.2137533611331055,-2.182900800913745,632.0
633,-1.2010018510286875,-1.8920995136543717,-1.7888758734195123,-2.5940542250714556,-1.213753365105651,-2.148333498714631,633.0
634,-1.201001853964272,-1.8920995063555957,-1.7888758674252114,-2.5940542383893996,-1.2137533679289758,-2.12376619651552,634.0
635,-1.2010018557049411,-1.8920995020277507,-1.7888758638708613,-2.59405424628634,-1.21375336960308,-2.1091988943164117,635.0
636,-1.200116761197871,-1.8896127475426359,-1.7923597625875196,-2.5930510706196936,-1.2128703839364166,-2.1027193206556087,636.0
637,-1.1987835907374365,-1.8858670902162515,-1.7976073700035093,-2.5915400368405526,-1.2115403910563771,-2.105746263890142,637.0
638,-1.1986462866091399,-1.8854813282545435,-1.7981478229742403,-2.5913844140869737,-1.2114034178670852,-2.11683123636638,638.0
639,-1.1986462850383506,-1.8854813349882544,-1.798147825962003,-2.5913844116279985,-1.2114034233563973,-2.1374637025518672,639.0
640,-1.198646282706242,-1.8854813449856138,-1.7981478303978542,-2.591384407977224,-1.211403431506231,-2.1680961687373514,640.0
641,-1.1986462796128143,-1.885481358246621,-1.7981478362817933,-2.591384403134651,-1.2114034423165863,-2.208728634922868,641.0
642,-1.1986462756293172,-1.8854813748811432,-1.7981478432721891,-2.591384398370552,-1.2114034546271593,-2.259361096534334,642.0
643,-1.198646270457663,-1.8854813951435514,-1.7981478505780797,-2.5913843966259296,-1.2114034657515567,-2.319993545114949,643.0
644,-1.198646264667758,-1.8854814186435997,-1.798147859477511,-2.5913843932689358,-1.211403478247624,-2.3906259930997975,644.0
645,-1.1986462653128616,-1.8854814422498036,-1.7981478816485392,-2.591384348491526,-1.211403478199528,-2.4712584251109995,645.0
646,-1.198646266029166,-1.8854814687760642,-1.798147906596986,-2.5913842980432262,-1.211403478068824,-2.5618908529378284,646.0
647,-1.1986462668056808,-1.885481498212926,-1.7981479343575246,-2.5913842417772206,-1.2114034777598428,-2.6625232723259242,647.0
648,-1.198646280686733,-1.8854815273751613,-1.7981479663468374,-2.5913841809492744,-1.2114034919371617,-2.773155681200248,648.0
649,-1.1986462974215788,-1.885481558780223,-1.7981480014098632,-2.5913841147426604,-1.2114035091866922,-2.8937880827114757,649.0
650,-1.1986463232195783,-1.885481589391272,-1.798148038597719,-2.591384047370375,-1.2114035355249309,-3.0244204775465864,650.0
651,-1.1986463593075007,-1.8854816186654613,-1.7981480777840577,-2.5913839795284517,-1.2114035721701617,-3.1650528690797675,651.0
652,-1.198646404830786,-1.8854816451315988,-1.7981481173207783,-2.5913839142792177,-1.211403618225121,-3.3156852574221656,652.0
653,-1.1986464616415096,-1.8854816674712822,-1.7981481565512025,-2.5913838536218288,-1.2114036755240827,-3.4763176391804516,653.0
654,-1.198646528025864,-1.8854816815768032,-1.798148191044515,-2.591383806057534,-1.2114037422846629,-3.642381090195208,654.0
655,-1.1986465943398998,-1.8854816908021137,-1.7981482208998378,-2.591383767997369,-1.2114038088957515,-3.7994946999718966,655.0
656,-1.1986466608979558,-1.8854816883331944,-1.7981482397727908,-2.5913837525864025,-1.2114038755620817,-3.9466083097487124,656.0
657,-1.1986467234615883,-1.8854816847140328,-1.7981482562850768,-2.591383740623298,-1.21140393820647,-4.083721919525702,657.0
658,-1.1986467811619341,-1.8854816723042196,-1.7981482629337455,-2.591383747218068,-1.2114039958344223,-4.21083552930279,658.0
659,-1.198646834277388,-1.885481659495531,-1.7981482677442329,-2.591383755979976,-1.2114040488608127,-4.327949139080062,659.0
660,-1.1986468809714457,-1.8854816442414215,-1.7981482681957919,-2.5913837714432937,-1.2114040954119134,-4.435062748857387,660.0
661,-1.1986469211805686,-1.8854816264226597,-1.7981482641554132,-2.5913837938589923,-1.211404135422114,-4.532176358634862,661.0
662,-1.198646957249272,-1.8854816104387386,-1.7981482605310743,-2.5913838139665,-1.2114041713123787,-4.6192899684123745,662.0
663,-1.1986469874616268,-1.8854815948976995,-1.7981482554595463,-2.5913838349915372,-1.2114042013404211,-4.6964035781899724,663.0
664,-1.1986470103475673,-1.885481578607029,-1.7981482473445598,-2.591383859697638,-1.2114042240135956,-4.763517187967636,664.0
665,-1.198647029823478,-1.8854815647436862,-1.7981482404387146,-2.5913838807225034,-1.2114042433084427,-4.820630797745323,665.0
666,-1.1986470458893597,-1.8854815533076734,-1.7981482347420077,-2.591383898066134,-1.211404259224963,-4.867744407523044,666.0
667,-1.1986470585452116,-1.8854815442989878,-1.7981482302544434,-2.591383911728529,-1.2114042717631561,-4.904858017300777,667.0
668,-1.1986470677910337,-1.8854815377176286,-1.7981482269760218,-2.5913839217096886,-1.2114042809230214,-4.931971627078486,668.0
669,-1.1986470736268255,-1.8854815335635962,-1.7981482249067424,-2.5913839280096114,-1.2114042867045594,-4.949085236856184,669.0
670,-1.1981148314341252,-1.88400455519015,-1.8002067161958943,-2.5907987654989655,-1.2108732564865903,-4.957485833216946,670.0
671,-1.196666731645113,-1.879986088876223,-1.8058073354936546,-2.5892066834796075,-1.209428454591389,-4.956981610097598,671.0
672,-1.1962601534963708,-1.878857847851065,-1.8073797917498138,-2.5887596843384864,-1.2090228044576385,-4.947808155069983,672.0
673,-1.1962601478504131,-1.8788578529431699,-1.8073797916172465,-2.588759687279683,-1.209022803124289,-4.929690567881123,673.0
674,-1.1962601390881697,-1.8788578608458613,-1.8073797914115084,-2.588759691844273,-1.209022801054997,-4.9015729806922455,674.0
675,-1.196260127209641,-1.878857871559139,-1.8073797911326,-2.5887596980322556,-1.2090227982497634,-4.863455393503357,675.0
676,-1.1962601122185554,-1.878857885080762,-1.8073797907872238,-2.588759705819531,-1.2090227947418537,-4.815337806365646,676.0
677,-1.1962600947388278,-1.8788579010357136,-1.8073797914968641,-2.5887597111737115,-1.2090227960970976,-4.757220226595958,677.0
678,-1.1962600742514513,-1.8788579197359536,-1.8073797923286088,-2.58875971744916,-1.2090227976855314,-4.689102646826281,678.0
679,-1.1962600437006947,-1.8788579355487844,-1.8073797953334862,-2.5887597037467343,-1.2090227733768202,-4.610985080072544,679.0
680,-1.1962600071510345,-1.8788579517189703,-1.8073797993356417,-2.5887596820850893,-1.2090227382126768,-4.5228675179016085,680.0
681,-1.196259966426527,-1.8788579697030285,-1.8073798038703592,-2.588759657630853,-1.2090226988236192,-4.424749967240422,681.0
682,-1.1962599186385705,-1.878857984349514,-1.8073798027032497,-2.5887596429150044,-1.2090226515693279,-4.316632424141382,682.0
683,-1.1962598647423315,-1.8788579973553416,-1.8073797978551838,-2.588759633930368,-1.2090225977083722,-4.1985148888921,683.0
684,-1.196259806197732,-1.8788580088514895,-1.8073797901027424,-2.58875962930213,-1.2090225391682883,-4.070397361138516,684.0
685,-1.1962597428015385,-1.8788580125301624,-1.8073797734317196,-2.588759641355676,-1.2090224756889612,-3.9322798381871573,685.0
686,-1.1962596759140358,-1.8788580137407758,-1.8073797533274718,-2.5887596592514126,-1.2090224086715438,-3.7841623167414116,686.0
687,-1.196259608780302,-1.8788580044064471,-1.807379723214765,-2.5887596976661866,-1.2090223412389371,-3.6260448021923186,687.0
688,-1.1962595430339635,-1.8788579888651868,-1.8073796876970174,-2.5887597476971127,-1.2090222750968342,-3.4597272347501837,688.0
689,-1.1962594862422886,-1.8788579665297303,-1.8073796486245053,-2.5887598081931635,-1.2090222178197751,-3.3000948715487715,689.0
690,-1.1962594422271091,-1.8788579390267794,-1.8073796087430551,-2.5887598748435496,-1.209022173264323,-3.1504625083472835,690.0
691,-1.1962594061841745,-1.8788579097784557,-1.8073795697497852,-2.588759942466089,-1.2090221366706773,-3.0108301451456017,691.0
692,-1.1962593819792895,-1.8788578785192769,-1.8073795326224515,-2.5887600104058044,-1.2090221119089288,-2.8811977819438104,692.0
693,-1.1962593652813274,-1.8788578471701665,-1.8073794977946105,-2.588760076248363,-1.2090220946692836,-2.7615654187418732,693.0
694,-1.1962593528032854,-1.8788578177597286,-1.8073794661328488,-2.588760137054676,-1.2090220816901167,-2.6519330555398124,694.0
695,-1.1962593518349134,-1.8788577885281206,-1.8073794382949813,-2.5887601940314497,-1.2090220802489946,-2.5523006923376683,695.0
696,-1.1962593509637358,-1.8788577622304639,-1.8073794132511678,-2.5887602452895226,-1.2090220789525166,-2.462668329135435,696.0
697,-1.1962593508488684,-1.8788577388285126,-1.8073793911747307,-2.5887602907036062,-1.2090220784606425,-2.3830359659331415,697.0
698,-1.196259359269218,-1.878857717870927,-1.8073793741111825,-2.588760328795047,-1.209022086562245,-2.3134036027307845,698.0
699,-1.1962593664803096,-1.878857699923089,-1.8073793594981542,-2.5887603614161234,-1.209022093500365,-2.253771239528367,699.0
700,-1.1962593724821433,-1.8788576849850018,-1.8073793473356425,-2.5887603885668353,-1.209022099275003,-2.204138876325934,700.0
701,-1.196259377274719,-1.8788576730566626,-1.807379337623651,-2.5887604102471826,-1.2090221038861588,-2.1645065131234857,701.0
702,-1.1962593808580364,-1.8788576641380703,-1.8073793303621797,-2.5887604264571653,-1.209022107333832,-2.134874149921041,702.0
703,-1.196259383232096,-1.8788576582292253,-1.8073793255512292,-2.588760437196784,-1.209022109618023,-2.115241786718612,703.0
704,-1.1960201936504822,-1.878202062794392,-1.8082882365458193,-2.5885054711566986,-1.2087834399902082,-2.1049171541624156,704.0
705,-1.1945907161610234,-1.8742840414105852,-1.813720181964641,-2.5869816834445047,-1.2073570703342895,-2.1029156519166823,705.0
706,-1.1938405928439912,-1.8722280505686464,-1.816570613067778,-2.5861820696522124,-1.2066085803288806,-2.11017986901013,706.0
707,-1.1938405916547077,-1.8722280557231712,-1.816570615370229,-2.5861820676720986,-1.2066085846079375,-2.125812567114967,707.0
708,-1.1938405897046576,-1.8722280641749673,-1.816570619145523,-2.586182064425335,-1.2066085916242422,-2.1514452652197997,708.0
709,-1.1938405869938409,-1.8722280759240348,-1.81657062439366,-2.5861820599119225,-1.2066086013777948,-2.1870779633246724,709.0
710,-1.1938405835222572,-1.8722280909703737,-1.8165706311146401,-2.5861820541318603,-1.2066086138685952,-2.2327106614295276,710.0
711,-1.1938405788927424,-1.872228109656667,-1.8165706382424078,-2.5861820510749665,-1.2066086255529653,-2.288343345268746,711.0
712,-1.193840573294699,-1.8722281318194942,-1.816570646285351,-2.586182048838548,-1.206608638120839,-2.353976024589575,712.0
713,-1.1938405707243434,-1.8722281556498963,-1.8165706619367272,-2.586182024407966,-1.206608644627086,-2.4296086950200837,713.0
714,-1.1938405714169624,-1.8722281810442425,-1.8165706855835437,-2.586181976458222,-1.2066086445880828,-2.5152413577402286,714.0
715,-1.1938405721668208,-1.8722282093848204,-1.816570712062855,-2.5861819226057507,-1.2066086443407769,-2.6108740100488745,715.0
716,-1.1938405786710347,-1.872228239285656,-1.816570741965744,-2.586181863501374,-1.206608650346846,-2.7165066555918815,716.0
717,-1.1938405949013007,-1.8722282697734547,-1.8165707757252125,-2.5861817995133025,-1.2066086670632878,-2.832139292780995,717.0
718,-1.1938406125367635,-1.8722283028969502,-1.8165708124069406,-2.586181729981732,-1.2066086852395008,-2.9577719215560645,718.0
719,-1.1938406475792411,-1.8722283315622563,-1.8165708503884108,-2.5861816639351143,-1.2066087208205223,-3.09340454410681,719.0
720,-1.1938406853949883,-1.8722283622570208,-1.8165708911508083,-2.586181593126622,-1.206608759214257,-3.23903716649144,720.0
721,-1.1938407405224067,-1.8722283845705485,-1.8165709295326737,-2.5861815333179003,-1.20660881482055,-3.394669782158693,721.0
722,-1.1938408017343025,-1.8722284054359242,-1.8165709684825888,-2.586181474476636,-1.2066088765013845,-3.559993335627513,722.0
723,-1.1938408709764823,-1.8722284150561772,-1.8165709994277903,-2.5861814349752104,-1.2066089460501435,-3.7221099443201973,723.0
724,-1.193840937961887,-1.8722284190670395,-1.8165710243972673,-2.5861814070099625,-1.2066090132473515,-3.874226553013023,724.0
725,-1.193841003582758,-1.8722284152467243,-1.8165710415896281,-2.5861813946114687,-1.206609078951646,-4.01634316170594,725.0
726,-1.1938410644560447,-1.872228407761266,-1.8165710538412463,-2.5861813907378144,-1.2066091398392176,-4.148459770399047,726.0
727,-1.1938411205024722,-1.8722283942152513,-1.8165710588802988,-2.5861814000485994,-1.2066091957922662,-4.270576379092256,727.0
728,-1.1938411719593192,-1.8722283817785097,-1.816571063506703,-2.5861814085969366,-1.2066092471633807,-4.382692987785602,728.0
729,-1.1938412149278337,-1.8722283631285017,-1.8165710596180986,-2.5861814317295573,-1.2066092899279859,-4.484809596479055,729.0
730,-1.1938412535242016,-1.8722283459961457,-1.816571055768721,-2.5861814532438343,-1.2066093283351083,-4.576926205172585,730.0
731,-1.1938412879306235,-1.8722283307236471,-1.8165710523372216,-2.586181472422564,-1.206609362572829,-4.65904281386622,731.0
732,-1.1938413138377113,-1.872228313813082,-1.8165710446784478,-2.586181497334798,-1.2066093882662638,-4.731159422559887,732.0
733,-1.1938413352733097,-1.8722282985338436,-1.8165710371340764,-2.5861815204386542,-1.206609409504475,-4.793276031253607,733.0
734,-1.1938413532580445,-1.8722282857143744,-1.8165710308042526,-2.5861815398230776,-1.2066094273235992,-4.845392639947371,734.0
735,-1.193841367791915,-1.8722282753546726,-1.8165710256889775,-2.5861815554880687,-1.2066094417236362,-4.887509248641143,735.0
736,-1.1938413788749216,-1.8722282674547372,-1.816571021788253,-2.5861815674336266,-1.2066094527045859,-4.919625857334934,736.0
737,-1.1938413865070632,-1.8722282620145683,-1.8165710191020792,-2.5861815756597513,-1.2066094602664479,-4.9417424660286855,737.0
738,-1.1937975289779872,-1.872109514494827,-1.816734769212199,-2.5861362685403395,-1.206565693630946,-4.954007291631801,738.0
739,-1.192534319239945,-1.868689691945697,-1.821450786863336,-2.584831301486214,-1.2053051027239923,-4.958423716334635,739.0
740,-1.1913978776137202,-1.8656130729395874,-1.825693522463218,-2.5836572955744415,-1.2041710184380308,-4.953063157814644,740.0
741,-1.1913899942965067,-1.8655917458662294,-1.8257229381180062,-2.5836491580488423,-1.2041631547060156,-4.939853925339516,741.0
742,-1.1913899870099316,-1.8655917524493237,-1.8257229379798174,-2.583649161730232,-1.2041631531236394,-4.916672988089814,742.0
743,-1.191389976580009,-1.8655917618722921,-1.8257229377820154,-2.5836491669997335,-1.2041631508586437,-4.883492050840085,743.0
744,-1.1913899630067382,-1.8655917741351344,-1.8257229375246005,-2.5836491738573457,-1.2041631479110282,-4.840311113590367,744.0
745,-1.1913899466029647,-1.8655917890472686,-1.8257229377777304,-2.5836491802379213,-1.204163147043334,-4.787130180691338,745.0
746,-1.1913899274366935,-1.8655918065672663,-1.8257229386653449,-2.583649185692548,-1.2041631488560705,-4.72394925192586,746.0
747,-1.1913899026697354,-1.8655918248473198,-1.825722940389693,-2.5836491846216783,-1.20416314141547,-4.650768327971253,747.0
748,-1.1913898677545258,-1.8655918403216076,-1.8257229441841445,-2.5836491639363217,-1.2041631078214,-4.567587415803928,748.0
749,-1.1913898286244895,-1.8655918576433441,-1.8257229484826445,-2.5836491405583306,-1.204163070039921,-4.474406510900517,749.0
750,-1.1913897846148631,-1.8655918756287808,-1.8257229518751188,-2.583649117314261,-1.204163027214272,-4.371225612910708,750.0
751,-1.1913897323511815,-1.8655918882700495,-1.8257229472087837,-2.5836491085356483,-1.2041629749878549,-4.2580447248636855,751.0
752,-1.1913896754684978,-1.8655919020294125,-1.8257229421264594,-2.583649098995324,-1.204162918135503,-4.134863845388247,752.0
753,-1.1913896136951379,-1.8655919084552672,-1.8257229286352787,-2.5836491051418573,-1.2041628563099667,-4.001682971644438,753.0
754,-1.1913895471860212,-1.8655919123419165,-1.825722911271947,-2.5836491176357397,-1.2041627897152565,-3.8585020995248023,754.0
755,-1.1913894798884037,-1.8655919068927522,-1.8257228849392804,-2.5836491483956197,-1.2041627221829907,-3.7053212322417677,755.0
756,-1.1913894097738926,-1.8655918971607268,-1.825722853716913,-2.583649188273317,-1.2041626517599662,-3.5421403712926214,756.0
757,-1.1913893496959578,-1.8655918748146232,-1.8257228138788275,-2.5836492494969234,-1.2041625911945626,-3.377536718765014,757.0
758,-1.1913892961831507,-1.8655918513698169,-1.8257227750865703,-2.583649310868773,-1.2041625371911744,-3.2228785015508943,758.0
759,-1.191389258396286,-1.8655918206921016,-1.8257227345012947,-2.5836493814825414,-1.2041624988330422,-3.0782202843366204,759.0
760,-1.191389225100582,-1.865591791300343,-1.8257226965349,-2.583649448262238,-1.204162464996389,-2.9435620671222935,760.0
761,-1.191389207493926,-1.865591758219852,-1.8257226600747085,-2.5836495174495018,-1.2041624468244394,-2.8189038499079215,761.0
762,-1.1913891912996648,-1.865591727793063,-1.8257226265393223,-2.5836495810866094,-1.204162430110232,-2.7042456326935174,762.0
763,-1.1913891862474844,-1.865591697665578,-1.8257225968004365,-2.5836496407956426,-1.204162424567294,-2.5995874154790877,763.0
764,-1.1913891853177836,-1.8655916695360022,-1.8257225702291602,-2.5836496954063293,-1.2041624231876824,-2.504929198264628,764.0
765,-1.1913891844862996,-1.8655916443781304,-1.8257225464649551,-2.583649744247767,-1.2041624219538176,-2.4202709810501677,765.0
766,-1.1913891893603321,-1.8655916218643134,-1.8257225269716462,-2.583649786266893,-1.2041624264800737,-2.3456127638356703,766.0
767,-1.1913891972739685,-1.8655916021503252,-1.8257225110532804,-2.583649821964371,-1.2041624340971748,-2.2809545466212002,767.0
768,-1.1913892039636866,-1.8655915854852916,-1.8257224975968382,-2.5836498521408986,-1.2041624405362197,-2.226296329406745,768.0
769,-1.191389209429487,-1.8655915718692127,-1.8257224866023187,-2.583649876796477,-1.2041624457972087,-2.1816381121923367,769.0
770,-1.191389213671369,-1.8655915613020864,-1.8257224780697245,-2.583649895931105,-1.2041624498801413,-2.146979894977917,770.0
771,-1.191389216689333,-1.865591553783913,-1.8257224719990557,-2.583649909544784,-1.2041624527850179,-2.122321677763486,771.0
772,-1.1913892184833788,-1.8655915493146922,-1.8257224683903122,-2.5836499176375116,-1.2041624545118386,-2.1076634605490576,772.0
773,-1.1913860890529266,-1.8660539961140192,-1.8261534852688601,-2.5827576604095612,-1.2041666812001643,-2.10247523848195,773.0
774,-1.1913806591641685,-1.8668561976230869,-1.8269011020198644,-2.5812099349277284,-1.2041740112801573,-2.1058430830167483,774.0
775,-1.1913806575270036,-1.866856318608744,-1.8269009832559286,-2.5812099329432963,-1.2041740093377902,-2.118388578271978,775.0
776,-1.191380654584857,-1.8668565360319302,-1.8269007698253943,-2.5812099293770756,-1.204174005847164,-2.140934073527209,776.0
777,-1.1913806503377282,-1.8668568498926463,-1.826900461728262,-2.5812099242290665,-1.2041740008082793,-2.1734795687824553,777.0
778,-1.1913806447856174,-1.8668572601908922,-1.8269000589645312,-2.581209917499269,-1.2041739942211358,-2.216025064037688,778.0
779,-1.1913806379062586,-1.8668577669076112,-1.8268995616036088,-2.5812099088903944,-1.2041739858949776,-2.268570549617856,779.0
780,-1.1913806296845564,-1.866858370029914,-1.8268989696925182,-2.581209898200901,-1.2041739757004846,-2.3311160220656384,780.0
781,-1.191380622356532,-1.8668589233671211,-1.8268984356016105,-2.5812098794145615,-1.2041739666350009,-2.4036614915259262,781.0
