Miguel-LA/TFM_MiguelLerinAlonso/workspace/ros_ur_driver/src/trayectories/data/saved_trajectories/20240527_1247_trajectory.csv
,shoulder_pan_joint,shoulder_lift_joint,elbow_joint,wrist_1_joint,wrist_2_joint,wrist_3_joint,time_from_start
0,1.2913020849227905,-0.904388729725973,1.9425325393676758,-4.128989521657125,-1.2364323774920862,-0.03677684465517217,0.0
1,1.292002287217633,-0.9050800690707019,1.94298639609381,-4.129097508556873,-1.2371948046933807,-0.03177684465517218,1.0
2,1.2941028941021613,-0.907154087104889,1.944347966272213,-4.129421469256117,-1.2394820862972649,-0.016776844655172214,2.0
3,1.2976039055763748,-0.9106107838285342,1.9466172499028844,-4.129961403754857,-1.2432942223037382,0.008223155344827635,3.0
4,1.3025053814258576,-0.9154501559976359,1.9497941764368594,-4.130717209401311,-1.2486313694000417,0.0432231537833605,4.0
5,1.3088490163780717,-0.9216700876589574,1.953829801726134,-4.1316175594488005,-1.255602586592274,0.08822306920458567,5.0
6,1.3167078050047185,-0.9292668896188828,1.9586384663602765,-4.13253761010655,-1.264398780133317,0.1432228634944499,6.0
7,1.3261453722042256,-0.9382373792865568,1.96414552334966,-4.1333680212944675,-1.275186113866683,0.20822249375996338,7.0
8,1.337238622798171,-0.9485797161533815,1.970261880914493,-4.1339463914173615,-1.28815147863481,0.2832218963458748,8.0
9,1.350077179376485,-0.9602915471608758,1.9768835017732609,-4.134085537916899,-1.303513558010529,0.36822103877029455,9.0
10,1.3647611437146865,-0.9733690206555154,1.9838888072566034,-4.133541223483665,-1.321497729298466,0.4632198551598198,10.0
11,1.3801008022779087,-0.9866913470020044,1.9905973747244405,-4.132186354917653,-1.3407050696280338,0.5601018312410776,11.0
12,1.3941828306649078,-0.9986355867794973,1.9962373727193996,-4.130236301497748,-1.3586573307886374,0.6470810994078667,12.0
13,1.4068880546437925,-1.0091904655385793,2.0009219116373025,-4.127912722232628,-1.3750845909670577,0.72405904145453,13.0
14,1.4181237267385873,-1.0183577958497996,2.0047581137489816,-4.125414380451848,-1.3897629636646096,0.7910365671115915,14.0
15,1.4278135748306275,-1.0261432331205769,2.0078443032273268,-4.122935940058425,-1.4025264558607096,0.8480138974014727,15.0
16,1.4358898881846875,-1.0325497521839502,2.0102633557387204,-4.120640649409349,-1.4132221687713007,0.8949910680465171,16.0
17,1.4423022187334766,-1.0375842810312625,2.0120872563882255,-4.118672845889144,-1.4217494580104142,0.9319681085610504,17.0
18,1.44701116771273,-1.0412526872743766,2.0133732168449883,-4.117147455575629,-1.428031008844088,0.9589450445553612,18.0
19,1.4499996583535542,-1.0435697567001365,2.0141687953429854,-4.116148501849668,-1.4320250198870406,0.9759227848884705,19.0
20,1.4545163102220557,-1.0470700986359298,2.0153683075350735,-4.114634420922498,-1.4380624212874997,0.9829268237872936,20.0
21,1.4598643252027999,-1.0512147285770985,2.0167886044605625,-4.112841654723849,-1.4452111103540668,0.9799365915928016,21.0
22,1.4617481357234208,-1.0526746464694987,2.017288891916461,-4.112210167807265,-1.4477292046516106,0.9680478905987754,22.0
23,1.4617481254161482,-1.0526746263162465,2.017288880252799,-4.112210181889212,-1.4477292015069063,0.9477486722420654,23.0
24,1.4617481100312057,-1.0526745962349011,2.0172888628432695,-4.112210202908345,-1.4477291968130266,0.9174494538853565,24.0
25,1.4617480893597656,-1.05267455580395,2.0172888393586965,-4.112210232673641,-1.4477291889203063,0.8771502482636527,25.0
26,1.461748063363979,-1.052674504946998,2.017288809739421,-4.112210271512945,-1.4477291775297756,0.8268510533745723,26.0
27,1.4617480321999614,-1.0526744439791582,2.0172887742315266,-4.112210318073903,-1.4477291638746896,0.7665518584854908,27.0
28,1.4617480267410032,-1.0526744041799294,2.0172887727463893,-4.112210360310976,-1.4477291600810187,0.6962526639950044,28.0
29,1.4617480257766577,-1.0526743640597926,2.0172887778642528,-4.112210406499644,-1.4477291578180262,0.6159534695659545,29.0
30,1.4617480246609238,-1.0526743190047347,2.0172887836741493,-4.112210458203106,-1.447729155028009,0.5256542867795807,30.0
31,1.4617480166283188,-1.0526742707758605,2.0172887913042903,-4.112210514476225,-1.4477291457708532,0.42535510920520925,31.0
32,1.4617479991369473,-1.0526742200517427,2.0172888011941934,-4.112210574890197,-1.4477291277484092,0.315055938191401,32.0
33,1.4617479800613327,-1.0526741647307625,2.0172888119821613,-4.1122106407729575,-1.447729108104376,0.19475677014273354,33.0
34,1.4617479429258349,-1.0526741138068278,2.017288825642535,-4.1122107050200425,-1.4477290704529575,0.06445760320001462,34.0
35,1.4617479016952228,-1.0526740596544333,2.0172888405004947,-4.112210773660809,-1.447729028674644,-0.07584155676127508,35.0
36,1.4617478433873394,-1.0526740149882192,2.0172888574020007,-4.112210834696855,-1.447728969885004,-0.22614070896499744,36.0
37,1.4617477782844297,-1.0526739701802663,2.01728887562101,-4.112210897128731,-1.447728904290645,-0.38643985559801103,37.0
38,1.4617476991338334,-1.0526739452227298,2.017288893969839,-4.1122109397017175,-1.4477288248165718,-0.5499338339382486,38.0
39,1.461747623367608,-1.0526739263984748,2.0172889108816707,-4.112210974734113,-1.4477287487877362,-0.7037342928447923,39.0
40,1.4617475480742401,-1.052673924636917,2.0172889255057513,-4.11221099041486,-1.4477286733907215,-0.8475347517513312,40.0
41,1.4617474780908135,-1.0526739265532914,2.017288938640838,-4.11221100097722,-1.44772860334395,-0.9813352106578406,41.0
42,1.4617474136335922,-1.0526739425413192,2.0172889489070855,-4.112210994646223,-1.4477285389604335,-1.1051356695643544,42.0
43,1.4617473543829118,-1.0526739572379078,2.0172889583440665,-4.112210988826609,-1.4477284797775043,-1.218936128470872,43.0
44,1.461747303991308,-1.052673981241546,2.017288964888499,-4.112210970887333,-1.4477284295503305,-1.3227365873773969,44.0
45,1.461747259386224,-1.0526740056366592,2.017288970276047,-4.112210951453786,-1.4477283851200196,-1.416537046283924,45.0
46,1.461747219536456,-1.0526740274310247,2.0172889750892278,-4.112210934092033,-1.4477283454263923,-1.5003375051904555,46.0
47,1.4617471883523903,-1.052674051760488,2.0172889779189296,-4.112210912292061,-1.4477283144320494,-1.5741379640969897,47.0
48,1.4617471633499997,-1.052674075362565,2.017288979660279,-4.112210890189282,-1.447728289619795,-1.637938423003526,48.0
49,1.4617471422664507,-1.0526740952652824,2.017288981128689,-4.112210871550864,-1.4477282686965807,-1.691738881910063,49.0
50,1.4617471251017438,-1.0526741114686406,2.0172889823241613,-4.112210856376803,-1.4477282516624064,-1.7355393408166004,50.0
51,1.4617471118558782,-1.0526741239726407,2.017288983246697,-4.112210844667105,-1.4477282385172723,-1.7693397997231386,51.0
52,1.461747102528855,-1.0526741327772828,2.017288983896297,-4.112210836421767,-1.4477282292611782,-1.7931402586296743,52.0
53,1.4617470971206734,-1.0526741378825666,2.0172889842729607,-4.112210831640789,-1.4477282238941243,-1.806940717536211,53.0
54,1.4620932770526198,-1.050747761692192,2.013547040295763,-4.110395984724743,-1.4480815852854136,-1.812905800487666,54.0
55,1.4625750638939317,-1.0480663190815154,2.0083383540760735,-4.1078697444878545,-1.44857336881835,-1.8094428143633756,55.0
56,1.462605326980311,-1.0478964570661182,2.0080082541777093,-4.107709569916994,-1.4486042663983305,-1.798348722738914,56.0
57,1.4626048928066302,-1.047896137788355,2.00800735842535,-4.1077089930856525,-1.448603835770758,-1.7775450664371752,57.0
58,1.4626042499322893,-1.047895665038645,2.008006032098505,-4.107708138980289,-1.4486031981470857,-1.7467414101354328,58.0
59,1.4626033983572881,-1.0478950388169888,2.008004275197176,-4.107707007600907,-1.4486023535273131,-1.7059377538336924,59.0
60,1.4626023381851068,-1.0478942591415719,2.0080020877240896,-4.107705598814185,-1.448601302696341,-1.655134104095388,60.0
61,1.4626010696250042,-1.047893326049137,2.007999469684636,-4.1077039123503605,-1.4486000472418155,-1.5943304711934547,61.0
62,1.462599676112753,-1.0478922986713186,2.007996589716381,-4.107702058101766,-1.4485986681674305,-1.5235268391688221,62.0
63,1.4625997143514713,-1.047892277834207,2.0079965851078825,-4.107702074541983,-1.448598706864066,-1.4427232222562694,63.0
64,1.4625997573202147,-1.0478922544319236,2.0079965799406962,-4.10770209296233,-1.4485987503318825,-1.3519196098808166,64.0
65,1.4625998050165234,-1.0478922284791155,2.0079965742273993,-4.107702113303994,-1.448598798551665,-1.2511160059339639,65.0
66,1.4625998618825768,-1.0478922130743211,2.007996565324245,-4.107702120287185,-1.4485988553951874,-1.14031241270259,66.0
67,1.462599924321766,-1.047892197584607,2.007996555356268,-4.107702126372579,-1.448598917745905,-1.019508826872384,67.0
68,1.4625999921280068,-1.0478921902868321,2.0079965432968256,-4.107702122237724,-1.4485989855526415,-0.8887052477872237,68.0
69,1.4626000653184636,-1.0478921919830495,2.0079965290388793,-4.107702106973972,-1.448599058843279,-0.7479016720795415,69.0
70,1.4626001408245748,-1.0478922040497896,2.007996512997131,-4.107702079574109,-1.448599134549787,-0.5970980997612323,70.0
71,1.4626002181093443,-1.0478922283966463,2.007996495027952,-4.107702037978994,-1.448599212152422,-0.4362945339276353,71.0
72,1.462600288922275,-1.04789226811211,2.007996476314774,-4.107701980205231,-1.448599283419241,-0.2703041422667528,72.0
73,1.4626003520840571,-1.0478923118167256,2.0079964585538237,-4.107701919321086,-1.4485993470632328,-0.11337598405033114,73.0
74,1.4626003964931142,-1.0478923666390187,2.007996442953612,-4.107701849299567,-1.4485993920364664,0.03355217416609357,74.0
75,1.4626004364424072,-1.047892419086812,2.007996428515562,-4.107701782773426,-1.4485994325225353,0.17048033238252072,75.0
76,1.4626004585244028,-1.0478924758816621,2.0079964169430706,-4.107701714595893,-1.4485994551610497,0.2974084905989495,76.0
77,1.4626004769268577,-1.0478925292630021,2.007996406517313,-4.107701650945014,-1.4485994740838268,0.41433664881537635,77.0
78,1.462600486470981,-1.0478925798869718,2.0079963981468762,-4.10770159202419,-1.4485994841121537,0.5212648070318082,78.0
79,1.462600487465582,-1.0478926276769294,2.0079963917824313,-4.10770153786367,-1.4485994855544848,0.6181929652482393,79.0
80,1.4626004883575705,-1.047892670536432,2.0079963860745944,-4.107701489290843,-1.4485994868480117,0.7051211234646704,80.0
81,1.4626004854928034,-1.0478927083807763,2.0079963817352176,-4.107701447067837,-1.4485994843335288,0.7820492816811121,81.0
82,1.4626004762773683,-1.0478927411498324,2.0079963792696063,-4.107701411735644,-1.4485994754135305,0.8489774398975483,82.0
83,1.4626004684388478,-1.0478927690227342,2.0079963771723914,-4.107701381682574,-1.4485994678263043,0.905905598113977,83.0
84,1.462600461977242,-1.0478927919994812,2.0079963754435703,-4.107701356908626,-1.4485994615718505,0.9528337563304008,84.0
85,1.4626004568925504,-1.0478928100800742,2.0079963740831466,-4.107701337413799,-1.4485994566501685,0.9897619145468247,85.0
86,1.4626004531847734,-1.047892823264514,2.00799637309112,-4.107701323198094,-1.448599453061259,1.016690072763249,86.0
87,1.4626004508539108,-1.0478928315528002,2.0079963724674914,-4.107701314261512,-1.4485994508051212,1.0336182309796762,87.0
88,1.4627760315270881,-1.0469000309197907,2.0060662275910457,-4.106764337585126,-1.448778750082154,1.0418527377919466,88.0
89,1.4633031718229221,-1.0439191947430702,2.0002710656739415,-4.103951115418431,-1.4493170554001984,1.0414774328029979,89.0
90,1.4634466572193454,-1.0431067095967255,1.998691374642265,-4.103184209986995,-1.449463585458213,1.032687177887628,90.0
91,1.4634462924762186,-1.0431064268135704,1.998690600230616,-4.103183717732553,-1.449463224760533,1.0150198915940882,91.0
92,1.4634457212819592,-1.0431059839700918,1.998689387488124,-4.103182946853293,-1.4494626599015148,0.9873526053005521,92.0
93,1.4634449436365666,-1.0431053810662902,1.9986877364147895,-4.103181897349215,-1.4494618908811585,0.949685319007017,93.0
94,1.4634439595400417,-1.0431046181021657,1.9986856470106118,-4.10318056922032,-1.4494609176994648,0.9020180327134798,94.0
95,1.463442768674926,-1.0431036948500139,1.998683119112125,-4.103178963478049,-1.4494597376977945,0.8443507525837355,95.0
96,1.4634413712907341,-1.043102611488804,1.9986801528477738,-4.10317707932733,-1.4494583529659435,0.7766834726846746,96.0
97,1.4634409701911544,-1.043102272479509,1.998679306595449,-4.1031765718654505,-1.4494579547959288,0.6990162047552597,97.0
98,1.463440969210248,-1.043102229530089,1.998679312295812,-4.103176620718812,-1.449457952766318,0.6113489414778979,98.0
99,1.4634409681114982,-1.0431021817202462,1.9986793186797946,-4.103176674988859,-1.4494579504584268,0.5136816906165741,99.0
100,1.4634409573762484,-1.043102131411263,1.9986793272596057,-4.10317673380437,-1.4494579389079223,0.4060144467992009,100.0
101,1.4634409389897651,-1.0431020781038374,1.998679337713848,-4.103176797375676,-1.4494579199945736,0.2883472109582629,101.0
102,1.4634409156513093,-1.043102022119002,1.9986793494669775,-4.1031768648808296,-1.449457896102959,0.16067998288000676,102.0
103,1.4634408757749477,-1.0431019697884083,1.9986793639214637,-4.10317693130412,-1.4494578556888644,0.023012760055684395,103.0
104,1.4634408302373871,-1.0431019162661825,1.998679379619604,-4.103177000109598,-1.4494578095955484,-0.1246544613756255,104.0
105,1.4634407672338672,-1.0431018726955594,1.9986793973888224,-4.103177060865505,-1.4494577461080316,-0.2823216759407805,105.0
106,1.4634406958906852,-1.0431018347640937,1.9986794160319143,-4.10317711677517,-1.4494576743240593,-0.4485452246241387,106.0
107,1.4634406195119665,-1.0431018107252266,1.9986794338435394,-4.103177157908519,-1.4494575976292836,-0.6086133252511768,107.0
108,1.4634405444819567,-1.0431018003577992,1.9986794496239297,-4.103177183347637,-1.4494575224133828,-0.7586814258782091,108.0
109,1.463440472196657,-1.0431017986985638,1.9986794637476741,-4.103177198445187,-1.4494574500273245,-0.8987495265052305,109.0
110,1.4634404052824104,-1.0431018072578702,1.9986794755137005,-4.103177201014191,-1.4494573831147486,-1.0288176271322442,110.0
111,1.4634403436668406,-1.0431018225601738,1.99867948538634,-4.1031771949949425,-1.449457321570507,-1.1488857277592541,111.0
112,1.4634402879411075,-1.043101838786382,1.9986794940059553,-4.103177186854363,-1.4494572659317297,-1.258953828386258,112.0
113,1.4634402410395047,-1.0431018644453072,1.9986794997052741,-4.103177166441503,-1.4494572192161905,-1.359021929013256,113.0
114,1.4634401988248702,-1.0431018875400835,1.998679504835043,-4.103177148068535,-1.449457177169026,-1.4490900296402514,114.0
115,1.4634401614332595,-1.0431019082492592,1.9986795093459497,-4.1031771315088355,-1.449457139928131,-1.529158130267247,115.0
116,1.4634401343694114,-1.0431019337967276,1.9986795112426456,-4.103177107593095,-1.4494571130726666,-1.599226230894243,116.0
117,1.4634401111680697,-1.0431019556981045,1.998679512868648,-4.103177087090569,-1.4494570900499681,-1.6592943315212385,117.0
118,1.4634400918292343,-1.043101973953389,1.9986795142239544,-4.103177070001254,-1.4494570708600363,-1.7093624321482424,118.0
119,1.463440076352905,-1.0431019885625825,1.9986795153085672,-4.103177056325153,-1.44945705550287,-1.7494305327752473,119.0
120,1.4634400647390824,-1.0431019995256852,1.998679516122488,-4.103177046062267,-1.4494570439784704,-1.7794986334022516,120.0
121,1.4634400569877655,-1.0431020068426968,1.998679516665716,-4.103177039212595,-1.4494570362868366,-1.7995667340292552,121.0
122,1.4634906579719598,-1.042811276952565,1.9981138183060594,-4.102902177209051,-1.4495087313304351,-1.810112600683784,122.0
123,1.4639799196167231,-1.0400003555943085,1.9926444291085832,-4.100244739091334,-1.4500085704850716,-1.8128917789105443,123.0
124,1.464274530886689,-1.0383069171874513,1.9893493179609059,-4.098643686574619,-1.4503095548791527,-1.8064128277387623,124.0
125,1.4642742412054575,-1.0383066786158677,1.989348668179224,-4.098643275136748,-1.4503092677324565,-1.791894830627141,125.0
126,1.4642737519917228,-1.0383062757161183,1.989347570827759,-4.0986425803003685,-1.4503087827990448,-1.767376833515518,126.0
127,1.4642730632454843,-1.038305708488203,1.9893460259065108,-4.098641602065483,-1.4503081000789178,-1.7328588364038988,127.0
128,1.4642721749667422,-1.0383049769321224,1.9893440334154797,-4.098640340432088,-1.4503072195720754,-1.6883408392922743,128.0
129,1.4642710873967706,-1.0383040810950126,1.9893415933652956,-4.098638795067234,-1.4503061431316262,-1.6338228557055583,129.0
130,1.4642698004789243,-1.0383030209657689,1.989338705753326,-4.098636966048913,-1.4503048703229238,-1.5693048793672728,130.0
131,1.4642689832366726,-1.038302326812521,1.9893368358464252,-4.098635789385993,-1.4503040623884937,-1.4947869098122173,131.0
132,1.4642690226603814,-1.0383023053229177,1.9893368310672028,-4.098635806313315,-1.4503041022771734,-1.4102689493783696,132.0
133,1.4642690667438194,-1.038302281318501,1.9893368257466955,-4.098635825131598,-1.4503041468473903,-1.3157509983233464,133.0
134,1.4642691168143598,-1.038302258698311,1.9893368190853322,-4.098635841306894,-1.4503041972669797,-1.2112330542462255,134.0
135,1.4642691751609276,-1.0383022442055536,1.9893368097142852,-4.098635846960721,-1.4503042555337893,-1.0967151187357502,135.0
136,1.4642692386015246,-1.0383022284465828,1.9893367995244609,-4.0986358531113725,-1.4503043188810745,-0.9721971928652615,136.0
137,1.464269307481398,-1.0383022278249332,1.9893367863102291,-4.098635841173597,-1.450304387833334,-0.8376792727373029,137.0
138,1.464269381531135,-1.0383022295074253,1.9893367717974824,-4.0986358256858795,-1.4503044619857868,-0.6931613537314905,138.0
139,1.4642694556009102,-1.038302249449927,1.9893367549070806,-4.0986357895542405,-1.4503045363321325,-0.5386434404184577,139.0
140,1.4642695326759851,-1.0383022753286302,1.9893367366648311,-4.098635746161245,-1.45030461374372,-0.374168144787896,140.0
141,1.4642695974304094,-1.0383023200844468,1.9893367183466424,-4.0986356836915885,-1.4503046789986618,-0.21095578894606173,141.0
142,1.4642696536521074,-1.0383023664074658,1.9893367014717613,-4.098635621016065,-1.450304735725576,-0.057743433104242084,142.0
143,1.4642696948392389,-1.038302420435162,1.9893366864973157,-4.098635552390315,-1.450304777472991,0.08546892273757128,143.0
144,1.4642697288260351,-1.0383024730564547,1.989336673095587,-4.098635486675368,-1.4503048119982096,0.21868127857938074,144.0
145,1.4642697479412974,-1.0383025284687724,1.989336662201649,-4.098635420534299,-1.4503048316606535,0.34189363442118215,145.0
146,1.4642697655051513,-1.0383025793837828,1.9893366521918625,-4.098635359761281,-1.4503048497272797,0.4551059902629772,146.0
147,1.464269768946267,-1.0383026289256099,1.989336645086714,-4.098635303131651,-1.450304853641399,0.5583183461047668,147.0
148,1.4642697698894005,-1.0383026742053683,1.9893366390178573,-4.098635251777862,-1.450304855014229,0.651530701946554,148.0
149,1.4642697707313526,-1.0383027146274253,1.9893366336000755,-4.098635205933404,-1.450304856239779,0.7347430577883386,149.0
150,1.4642697640746556,-1.0383027500236592,1.9893366302831632,-4.098635167145606,-1.4503048499102054,0.8079554136301246,150.0
151,1.4642697554952047,-1.038302780520795,1.9893366279743305,-4.098635134248158,-1.4503048416092241,0.8711677694719117,151.0
152,1.4642697482729963,-1.0383028061933768,1.9893366260307461,-4.098635106554984,-1.4503048346214322,0.9243801253137035,152.0
153,1.4642697424080309,-1.038302827041405,1.9893366244524104,-4.098635084066084,-1.45030482894683,0.9675924811555017,153.0
154,1.464269737900308,-1.0383028430648809,1.9893366232393261,-4.09863506678146,-1.4503048245854178,1.0008048369972955,154.0
155,1.464269734749828,-1.038302854263804,1.9893366223914928,-4.098635054701111,-1.450304821537195,1.0240171928390889,155.0
156,1.4642698861617105,-1.0383019663506883,1.9893348804111477,-4.098634200938931,-1.4503049763880091,1.0372303069874276,156.0
157,1.4646295895355161,-1.0362023080366523,1.9852460906353377,-4.096645830577876,-1.4506726172457287,1.0427615254585019,157.0
158,1.4650736601393934,-1.0336096509726684,1.9801972122635036,-4.094190548922584,-1.4511264896817608,1.0387495003054428,158.0
159,1.46509244248698,-1.0334984845888258,1.9799805897924745,-4.0940851326645,-1.4511456942107468,1.0271891179978156,159.0
160,1.465092020497529,-1.033498119369951,1.9799796164254828,-4.094084523784229,-1.4511452771752316,1.0058241848050358,160.0
161,1.4650914009930907,-1.0334975832079374,1.9799781874675546,-4.094083629913473,-1.4511446649434516,0.9744592516122483,161.0
162,1.465090583973665,-1.0334968761027845,1.9799763029186903,-4.09408245105223,-1.4511438575154068,0.933094318419464,162.0
163,1.465089569339339,-1.0334959979796847,1.9799739627239155,-4.094080987532193,-1.451142854043006,0.8817293892242053,163.0
164,1.4650883569538582,-1.0334949487366152,1.979971166808204,-4.094079239805557,-1.4511416533699009,0.8203644678645419,164.0
165,1.4650871084139216,-1.0334938643356328,1.9799682882501222,-4.09407744458275,-1.451140416794523,0.7489995482858698,165.0
166,1.4650871075182035,-1.033493825055619,1.9799682934944431,-4.094077489302545,-1.45114041494107,0.6676346430131614,166.0
167,1.4650871065099802,-1.0334937809632065,1.9799682993966243,-4.094077539457057,-1.451140412840588,0.5762697429821391,167.0
168,1.4650871053876549,-1.0334937320684547,1.9799683059654571,-4.094077595005696,-1.451140410480379,0.47490485062491483,168.0
169,1.4650870887079004,-1.0334936822427916,1.9799683157009182,-4.094077654395327,-1.4511403932747777,0.3635399696417796,169.0
170,1.4650870700121117,-1.0334936280739706,1.9799683263952346,-4.094077719061868,-1.4511403740389572,0.24217509594316838,170.0
171,1.4650870398909799,-1.0334935748464462,1.979968339174908,-4.094077784780229,-1.4511403433756542,0.11081022878146246,171.0
172,1.4650869995229863,-1.033493521915649,1.979968353896291,-4.094077852060837,-1.4511403024565555,-0.030554635376341746,172.0
173,1.4650869473801644,-1.0334934736598513,1.9799683702881357,-4.094077916222403,-1.4511402497923442,-0.18191949580762998,173.0
174,1.4650868838117694,-1.0334934297494094,1.9799683883258365,-4.094077977573279,-1.4511401857295727,-0.3432843498054181,174.0
175,1.4650868090519797,-1.0334934000427385,1.9799684066781844,-4.0940780249230775,-1.4511401105973125,-0.5090272793476321,175.0
176,1.4650867354946604,-1.0334933769367818,1.9799684239367112,-4.094078064587852,-1.4511400367318412,-0.6653962353497684,176.0
177,1.465086661235443,-1.033493374521964,1.9799684386323677,-4.094078080985503,-1.4511399623607268,-0.8117651913519257,177.0
178,1.4650865918556186,-1.0334933729617417,1.979968452271625,-4.094078095518785,-1.451139892882987,-0.9481341473541175,178.0
179,1.4650865279012124,-1.0334933877221983,1.979968462731478,-4.094078090599095,-1.4511398289926216,-1.074503103356351,179.0
180,1.465086469029575,-1.033493402362598,1.9799684722226791,-4.094078084879688,-1.4511397701899664,-1.1908720593586155,180.0
181,1.4650864176379592,-1.0334934227604755,1.9799684795143728,-4.094078071273401,-1.4511397189311304,-1.297241015360899,181.0
182,1.4650863731098283,-1.0334934471292085,1.9799684849589894,-4.094078051913911,-1.45113967458182,-1.3936099713631984,182.0
183,1.465086333202286,-1.0334934689692477,1.9799684898386236,-4.09407803456331,-1.451139634834542,-1.4799789273655266,183.0
184,1.465086300249847,-1.033493491341587,1.9799684933019404,-4.09407801533076,-1.4511396020557634,-1.55634788336787,184.0
185,1.465086274977922,-1.0334935151973776,1.9799684950843988,-4.094077993007247,-1.451139576980823,-1.622716839370231,185.0
186,1.4650862535137903,-1.033493535458748,1.9799684965982889,-4.094077974047281,-1.4511395556839954,-1.6790857953725995,186.0
187,1.4650862358574515,-1.0334935521256976,1.979968497843608,-4.094077958450859,-1.4511395381652807,-1.7254547513749712,187.0
188,1.4650862220089058,-1.033493565198227,1.9799684988203599,-4.094077946217986,-1.4511395244246785,-1.761823707377344,188.0
189,1.4650862119681531,-1.033493574676337,1.979968499528544,-4.09407793734866,-1.4511395144621895,-1.7881926633797127,189.0
190,1.4650862057351934,-1.0334935805600267,1.979968499968161,-4.094077931842884,-1.451139508277813,-1.8045616193820808,190.0
191,1.4652830644911543,-1.0323261333499454,1.9776932271890402,-4.092970525027391,-1.4513408005912167,-1.8124179782826122,191.0
192,1.4657838485014973,-1.029356099515096,1.97190483052556,-4.090153227558371,-1.4518528638697494,-1.8115115598056828,192.0
193,1.4658977156296245,-1.0286796323594873,1.9705863331293907,-4.089511439788518,-1.4519693009955468,-1.802337082019971,193.0
194,1.4658973682457692,-1.028679313358878,1.9705854867015982,-4.089510912101309,-1.4519689568663652,-1.7841382432308843,194.0
195,1.465896829979485,-1.0286788190720249,1.970584175173916,-4.089510094457571,-1.451968423643151,-1.7559394044417944,195.0
196,1.4658961008307718,-1.0286781494989277,1.9705823985463429,-4.0895089868573065,-1.4519677013259042,-1.7177405656526963,196.0
197,1.4658951808056364,-1.0286773046408755,1.9705801568192451,-4.089507589291663,-1.4519667899613493,-1.6695417270177386,197.0
198,1.4658940702627614,-1.0286762845748072,1.9705774500143858,-4.0895059012320205,-1.4519656923397875,-1.6113428966729568,198.0
199,1.4658927689011247,-1.0286750892361323,1.9705742781134348,-4.0895039231219386,-1.4519644061196653,-1.5431440663281624,199.0
200,1.4658925027590977,-1.0286748025428092,1.970573555584524,-4.0895034870934435,-1.4519641437452497,-1.4649452485487224,200.0
201,1.4658925433186871,-1.028674780429177,1.9705735506405992,-4.089503504472722,-1.4519641847722549,-1.3767464351832384,201.0
202,1.4658925884707248,-1.028674755843216,1.970573545166914,-4.089503523681677,-1.4519642304012232,-1.2785476336801622,202.0
203,1.4658926412718865,-1.0286747377507195,1.9705735373105626,-4.089503534286701,-1.4519642833296427,-1.1703488398421789,203.0
204,1.4658927006469036,-1.0286747229816855,1.9705735277144045,-4.089503540009363,-1.4519643426200584,-1.0521500538961277,204.0
205,1.4658927651377645,-1.0286747113934935,1.9705735167062628,-4.08950354119473,-1.4519644070624675,-0.9239512755888365,205.0
206,1.4658928349542788,-1.0286747129464735,1.9705735029380878,-4.089503526548853,-1.4519644769769622,-0.7857525022936297,206.0
207,1.4658929085532677,-1.0286747191228804,1.9705734878299512,-4.089503505974816,-1.4519645507231183,-0.6375537308071306,207.0
208,1.4658929824484628,-1.0286747423116507,1.9705734704381541,-4.089503466101755,-1.45196462492981,-0.479354966085109,208.0
209,1.4658930546512978,-1.0286747756112704,1.9705734520520293,-4.089503415104074,-1.4519646975390121,-0.3130348931240956,209.0
210,1.4658931170553666,-1.0286748186917825,1.9705734342897676,-4.089503354851644,-1.4519647604313584,-0.1535048989942572,210.0
211,1.4658931652474294,-1.0286748687948712,1.9705734183697845,-4.0895032892793814,-1.4519648091618622,-0.0039749048644032135,211.0
212,1.4658932048118274,-1.0286749206491352,1.9705734038969167,-4.089503223319112,-1.4519648492710737,0.13555508926546866,212.0
213,1.4658932312017594,-1.0286749744461798,1.9705733917295036,-4.08950315759355,-1.4519648762085464,0.26508508339533826,213.0
214,1.4658932494854306,-1.0286750274118592,1.9705733812458637,-4.089503094305001,-1.4519648950220083,0.38461507752522295,214.0
215,1.4658932630037795,-1.0286750767515898,1.9705733721625878,-4.089503035997785,-1.451964909029639,0.4941450716551162,215.0
216,1.465893263996997,-1.0286751243964392,1.970573365734647,-4.089502981920197,-1.4519649104807755,0.593675065785017,216.0
217,1.4658932648904237,-1.0286751672543013,1.9705733599525301,-4.089502933275902,-1.4519649117861135,0.6832050599149193,217.0
218,1.4658932648759835,-1.0286752053071997,1.9705733549755977,-4.089502890234429,-1.4519649121364289,0.7627350540448228,218.0
219,1.465893255571943,-1.028675238368649,1.9705733524567628,-4.089502854554194,-1.4519649031380852,0.8322650481747307,219.0
220,1.4658932476060356,-1.0286752666751073,1.9705733503001936,-4.0895028240055895,-1.4519648954339088,0.8917950423046325,220.0
221,1.4658932409782617,-1.0286752902265726,1.9705733485058872,-4.089502798588617,-1.4519648890238996,0.9413250364345253,221.0
222,1.4658932356886212,-1.028675309023047,1.9705733470738465,-4.0895027783032765,-1.4519648839080572,0.980855030564415,222.0
223,1.4658932317371138,-1.028675323064531,1.9705733460040729,-4.089502763149569,-1.4519648800863822,1.0103850246943094,223.0
224,1.4658932291237403,-1.0286753323510245,1.9705733452965661,-4.089502753127493,-1.4519648775588745,1.0299150188242048,224.0
225,1.4659575101351217,-1.0282880542984931,1.9698179644443772,-4.089134787800058,-1.452030636015884,1.0400634024690913,225.0
226,1.4664344210890543,-1.0254147526604007,1.9642136922807225,-4.086404837288945,-1.4525185080758538,1.0423064402758433,226.0
227,1.4666937123608221,-1.0238516897492538,1.9611649163018476,-4.084919678842199,-1.452783763233812,1.0354202470754694,227.0
228,1.4666934281974775,-1.0238514163064214,1.9611642048240818,-4.084919240309107,-1.4527834826018784,1.0203914228838311,228.0
229,1.4666929549552394,-1.0238509609179962,1.9611630199375139,-4.084918509981336,-1.4527830152408097,0.9953625986921957,229.0
230,1.4666922926341077,-1.0238503235839782,1.961161361642144,-4.0849174878588865,-1.4527823611506059,0.9603337745005593,230.0
231,1.4666914412340828,-1.0238495043043676,1.9611592299379719,-4.084916173941759,-1.4527815203312677,0.9153049503089258,231.0
232,1.4666904005466048,-1.0238485029163595,1.9611566247027188,-4.0849145689506905,-1.452780490988364,0.8602761417264375,232.0
233,1.4666891706460738,-1.02384731947802,1.96115354597988,-4.084912672628242,-1.4527792737625247,0.7952473397288877,233.0
234,1.4666884479387807,-1.0238466069292733,1.961151740232193,-4.084911578908995,-1.4527785580714845,0.7202185453704779,234.0
235,1.4666884470173414,-1.0238465664728227,1.961151745667858,-4.084911625007162,-1.4527785561633801,0.6351897593775218,235.0
236,1.4666884459828184,-1.023846521287247,1.9611517517683357,-4.084911676410199,-1.4527785539929097,0.5401609833888621,236.0
237,1.466688439716045,-1.0238464726488299,1.9611517593598122,-4.08491173264298,-1.4527785467351926,0.4351322143033681,237.0
238,1.466688422242631,-1.0238464220580954,1.9611517694163552,-4.084911793104769,-1.4527785287464687,0.32010345369230864,238.0
239,1.466688403251085,-1.0238463670694722,1.9611517803472323,-4.084911858821536,-1.4527785092013696,0.19507470220285708,239.0
240,1.466688366425573,-1.0238463166061456,1.9611517941525376,-4.0849119227442605,-1.4527784718454906,0.06004595676356485,240.0
241,1.4666883255889032,-1.0238462631077503,1.9611518091375755,-4.0849119908464475,-1.452778430444499,-0.08498278789692462,241.0
242,1.4666882669460262,-1.0238462200708993,1.961151826220159,-4.084912050408238,-1.45277837131527,-0.24001152654338334,242.0
243,1.4666882014187965,-1.0238461782774413,1.9611518444815093,-4.084912109838044,-1.4527783053051515,-0.40490509362059457,243.0
244,1.4666881259495606,-1.0238461546190343,1.9611518622998154,-4.084912150587602,-1.4527782295158818,-0.5676086119308054,244.0
245,1.4666880532516184,-1.023846139048505,1.961151878515934,-4.084912181671653,-1.4527781565792974,-0.7203121302410207,245.0
246,1.4666879816621443,-1.0238461374736922,1.9611518926783194,-4.084912196712883,-1.4527780848875393,-0.8630156485512656,246.0
247,1.4666879151998624,-1.023846141308404,1.961151905130931,-4.084912204683087,-1.4527780183813936,-0.9957191668615111,247.0
248,1.4666878539899126,-1.023846156551989,1.961151915061663,-4.084912198770246,-1.452777957244024,-1.1184226851717622,248.0
249,1.4666877977684059,-1.0238461705532604,1.9611519241830602,-4.084912193339282,-1.4527779010891828,-1.2311262034820267,249.0
250,1.466687750499408,-1.0238461947915436,1.9611519302151377,-4.084912174666038,-1.4527778539964933,-1.3338297217922979,250.0
251,1.4666877082628322,-1.023846217914871,1.9611519354125897,-4.084912156322412,-1.4527778119315924,-1.4265332401025672,251.0
252,1.4666876705823484,-1.0238462385438658,1.9611519400493855,-4.0849121399575266,-1.4527777744042645,-1.509236758412842,252.0
253,1.4666876418016193,-1.0238462623688995,1.9611519425316297,-4.084912118327678,-1.4527777458183482,-1.5819402767231203,253.0
254,1.466687618258756,-1.0238462845927538,1.9611519442030456,-4.084912097539613,-1.4527777224612242,-1.6446437950334012,254.0
255,1.466687598470525,-1.0238463032723313,1.961151945607901,-4.08491208006684,-1.4527777028291102,-1.6973473133436718,255.0
256,1.4666875824369257,-1.023846318407633,1.9611519467461964,-4.0849120659093625,-1.4527776869220062,-1.7400508316539334,256.0
257,1.4666875701579585,-1.0238463299986593,1.961151947617934,-4.084912055067179,-1.4527776747399122,-1.7727543499641991,257.0
258,1.466687561633623,-1.0238463380454108,1.9611519482231141,-4.084912047540292,-1.4527776662828287,-1.7954578682744662,258.0
259,1.4666900387486104,-1.0238311527771375,1.9611222985179768,-4.084897588392624,-1.4527802016405844,-1.8081890651658379,259.0
260,1.4670617735390212,-1.0215560385351685,1.9566813330593025,-4.0827325365347304,-1.4531606543642028,-1.8133632804884874,260.0
261,1.4674667372307497,-1.0190769816511331,1.9518422270027007,-4.0803733583091,-1.4535751179463976,-1.8089253486160464,261.0
262,1.4674770604597265,-1.0190122403196917,1.9517157108169838,-4.080311605968983,-1.4535856905927003,-1.7969630150071687,262.0
263,1.467476661309933,-1.0190118331587885,1.95171465520911,-4.080310957239288,-1.453585295446103,-1.7751173610351514,263.0
264,1.4674760794465458,-1.019011239617151,1.9517131163893917,-4.080310011549063,-1.4535847194184037,-1.7432717070631303,264.0
265,1.4674753148695654,-1.0190104596947787,1.9517110943578293,-4.080308768898309,-1.4535839625096016,-1.7014260530911165,265.0
266,1.4674743677083928,-1.0190094934219578,1.9517085891246908,-4.0803072290844415,-1.4535830257383628,-1.6495804035180395,266.0
267,1.4674732380848945,-1.019008340827188,1.9517056006995714,-4.080305391916582,-1.4535819100642369,-1.5877347609132595,267.0
268,1.4674721488035924,-1.019007220936007,1.9517027040453534,-4.080303613886841,-1.4535808343627437,-1.5158891208160072,268.0
269,1.467472185918677,-1.0190072006899156,1.951702699490579,-4.080303629780397,-1.4535808719030965,-1.43404349391446,269.0
270,1.4674722275655507,-1.0190071779864591,1.9517026943938767,-4.080303647549906,-1.4535809140060534,-1.3421978729523434,270.0
271,1.4674722738207142,-1.019007153060444,1.9517026887140434,-4.080303666901788,-1.453580960730112,-1.2403522593495446,271.0
272,1.4674723292261143,-1.0190071392587974,1.95170267970212,-4.08030367221017,-1.453581016057886,-1.1285066572097788,272.0
273,1.4674723895845887,-1.0190071242226495,1.9517026698840723,-4.080303677995545,-1.4535810763270096,-1.0066610625388588,273.0
274,1.4674724551273912,-1.01900711893099,1.9517026577638776,-4.080303671799288,-1.45358114189037,-0.8748154743098071,274.0
275,1.46747252579341,-1.0190071204673208,1.9517026437391096,-4.080303656930211,-1.4535812126568661,-0.7329698888825751,275.0
276,1.4674725980657786,-1.0190071341032902,1.9517026278061604,-4.08030362806512,-1.4535812851498022,-0.581124307510614,276.0
277,1.467472672617132,-1.0190071574494097,1.9517026101482635,-4.080303587784014,-1.4535813600192495,-0.41927873247650366,277.0
278,1.4674727389864997,-1.0190071973384829,1.9517025919112925,-4.080303530295943,-1.4535814268572296,-0.25380435797432704,278.0
279,1.467472798919395,-1.0190072389881777,1.9517025747013212,-4.080303472010731,-1.4535814872679251,-0.09792274253280354,279.0
280,1.4674728397120518,-1.0190072924045934,1.951702559684939,-4.080303403961619,-1.4535815286291203,0.04795887290872037,280.0
281,1.4674728777084243,-1.0190073421593742,1.9517025456979002,-4.080303340577185,-1.4535815671550585,0.18384048835026837,281.0
282,1.4674728969493227,-1.0190073969914257,1.9517025347104993,-4.080303274930068,-1.4535815869518083,0.3097221037918233,282.0
283,1.4674729144296692,-1.0190074475947013,1.951702524624577,-4.0803032143972064,-1.453581604944799,0.4256037192333918,283.0
284,1.4674729219290688,-1.0190074959426787,1.9517025167880417,-4.080303158271999,-1.4535816129227088,0.531485334674958,284.0
285,1.4674729228729206,-1.0190075411816808,1.9517025106433585,-4.0803031068843625,-1.4535816143068518,0.6273669501165312,285.0
286,1.467472923718333,-1.0190075817024653,1.9517025051395314,-4.0803030608562105,-1.4535816155466355,0.7132485655581131,286.0
287,1.4674729199089507,-1.0190076174059506,1.9517025011808382,-4.080303021146338,-1.453581612079154,0.7891301809996955,287.0
288,1.4674729112154608,-1.0190076482871502,1.9517024988127893,-4.080302987802998,-1.453581603674765,0.8550117964412794,288.0
289,1.4674729038415335,-1.0190076744809717,1.9517024968041798,-4.080302959520757,-1.4535815965460563,0.9108934118828604,289.0
290,1.4674728977871683,-1.0190076959874146,1.9517024951550077,-4.0803029362996135,-1.453581590693028,0.9567750273244215,290.0
291,1.4674728930523655,-1.0190077128064805,1.9517024938652763,-4.080302918139571,-1.4535815861156807,0.9926566427659907,291.0
292,1.4674728896371252,-1.0190077249381695,1.9517024929349855,-4.080302905040627,-1.4535815828140133,1.018538258207561,292.0
293,1.4674728875414471,-1.0190077323824813,1.9517024923641355,-4.080302897002784,-1.4535815807880268,1.0344198736491323,293.0
294,1.467682117906104,-1.0177069256184827,1.9491614185753678,-4.079063082351396,-1.4537958177747146,1.0419187689786455,294.0
295,1.4681577597205582,-1.0147495505754263,1.9433842976235525,-4.076244364852751,-1.4542828423389091,1.0405254507777402,295.0
296,1.4682518507794493,-1.014163321208672,1.9422390161139178,-4.07568551621401,-1.4543791912533752,1.0309908958254772,296.0
297,1.4682515128617883,-1.0141629609107763,1.942238098432883,-4.0756849582326655,-1.4543788577819678,1.0123324999778958,297.0
298,1.4682509938365638,-1.0141624075105913,1.9422366889190874,-4.075684101200238,-1.4543783455859742,0.9836741041303128,298.0
299,1.4682502937037762,-1.0141616610081166,1.9422347875725308,-4.075682945116731,-1.4543776546653948,0.9450157082827355,299.0
300,1.4682494124462535,-1.014160721389391,1.942232394382487,-4.075681490043787,-1.4543767848705638,0.8963573138845535,300.0
301,1.4682483498004604,-1.0141595884401364,1.942229509184234,-4.075679736927199,-1.454375733904973,0.8376989402331685,301.0
302,1.4682471059962534,-1.0141582623472292,1.9422261321212948,-4.07567768494167,-1.4543745037721933,0.7690405665817734,302.0
303,1.4682468860634277,-1.014157997404403,1.9422255411298166,-4.075677358876615,-1.4543742854872048,0.6903822063038352,303.0
304,1.4682468851165815,-1.014157955826524,1.942225546757489,-4.07567740628015,-1.4543742835199704,0.6017238503242056,304.0
305,1.4682468840575296,-1.014157909591158,1.9422255530487855,-4.07567745890013,-1.454374281286789,0.5030655055737161,305.0
306,1.468246872191079,-1.0141578613757938,1.9422255617475899,-4.075677515720414,-1.4543742686983165,0.3944071690269849,306.0
307,1.4682468544142502,-1.0141578099420068,1.9422255720440256,-4.075677577259016,-1.4543742503931458,0.275748840282936,307.0
308,1.468246830196847,-1.01415775687841,1.9422255838182307,-4.075677641849257,-1.4543742256276206,0.14709051900878506,308.0
309,1.4682467916907114,-1.0141577064788994,1.9422255980385628,-4.0756777061042975,-1.4543741865829225,0.008432202440558575,309.0
310,1.468246746153037,-1.0141576564607002,1.9422256135885014,-4.075677771238483,-1.454374140501436,-0.14022611205839414,310.0
311,1.4682466853703637,-1.0141576145772522,1.9422256310551758,-4.075677830002132,-1.4543740792345021,-0.29888441983351,311.0
312,1.4682466157038787,-1.0141575803049099,1.9422256492592889,-4.075677881802432,-1.4543740091471118,-0.4652454554533366,312.0
313,1.4682465429338485,-1.0141575575410624,1.942225666551127,-4.075677921148078,-1.4543739360647563,-0.6243177937384801,313.0
314,1.4682464709216283,-1.0141575497643462,1.9422256817129515,-4.075677943379751,-1.4543738638875363,-0.7733901320236353,314.0
315,1.4682464021135708,-1.014157548286161,1.9422256954132353,-4.0756779578811,-1.454373794979963,-0.9124624703088008,315.0
316,1.4682463384894118,-1.0141575582310536,1.942225706585968,-4.075677958479595,-1.454373731374273,-1.0415348085939888,316.0
317,1.4682462799080902,-1.0141575728420733,1.9422257161520906,-4.075677952853673,-1.4543736728632322,-1.1606071468791783,317.0
318,1.468246227415751,-1.014157589609375,1.9422257242380758,-4.075677943650672,-1.454373620469764,-1.2696794851643687,318.0
319,1.4682461828986049,-1.0141576139912785,1.942225729752144,-4.075677924337503,-1.4543735761357266,-1.368751823449576,319.0
320,1.4682461428748563,-1.0141576359121591,1.9422257347096363,-4.075677906973732,-1.4543735362766046,-1.4578241617347822,320.0
321,1.4682461080587426,-1.0141576563068495,1.9422257388467932,-4.075677890367531,-1.4543735016166488,-1.5368965000200425,321.0
322,1.4682460824815533,-1.0141576804517176,1.9422257406748749,-4.075677867791978,-1.4543734762436704,-1.6059688383052673,322.0
323,1.468246060607321,-1.014157701100994,1.9422257422382947,-4.075677848484817,-1.454373454544084,-1.6650411765904678,323.0
324,1.4682460424360457,-1.0141577182546775,1.942225743537049,-4.075677832446047,-1.4543734365178898,-1.7141135148756526,324.0
325,1.4682460279677274,-1.0141577319127695,1.9422257445711417,-4.0756778196756684,-1.4543734221650877,-1.7531858531608373,325.0
326,1.468246017202366,-1.0141577420752705,1.9422257453405734,-4.075677810173685,-1.4543734114856777,-1.7822581914460232,326.0
327,1.468246010139961,-1.0141577487421802,1.942225745845344,-4.075677803940095,-1.4543734044796597,-1.8013305297312203,327.0
328,1.468324576988508,-1.0136615722009055,1.9412557579923337,-4.075204163400841,-1.4544538894404417,-1.8111690039183608,328.0
329,1.468788608009186,-1.0107311007840865,1.935526937221447,-4.072406822839866,-1.4549292488535222,-1.8129828166510467,329.0
330,1.469014681633734,-1.0093024850511512,1.9327340360485872,-4.071043029065973,-1.4551608458821983,-1.8057868984496899,330.0
331,1.4690144111332053,-1.00930217953211,1.9327332601331357,-4.071042558489523,-1.4551605782849433,-1.7903290401713705,331.0
332,1.4690139656404344,-1.0093016763666447,1.9327319822623439,-4.071041783487686,-1.4551601375736323,-1.764871181893035,332.0
333,1.469013345155421,-1.0093009755547553,1.9327302024362116,-4.0710407040604615,-1.4551595237482648,-1.7294133236147258,333.0
334,1.4690125496781652,-1.0093000770964418,1.9327279206547388,-4.0710393202078485,-1.4551587368088408,-1.6839554653364,334.0
335,1.4690115794601448,-1.0092989810555084,1.9327251369428433,-4.071037631513308,-1.4551577787577405,-1.6284976238478588,335.0
336,1.4690104343882198,-1.0092976874031954,1.9327218512891422,-4.071035638164029,-1.4551566486945253,-1.5630397880396092,336.0
337,1.4690098380522658,-1.0092969834612155,1.9327200861756435,-4.071034576367207,-1.4551560606152605,-1.4875819603527467,337.0
338,1.469009876274137,-1.0092969626025767,1.9327200814549483,-4.071034592712549,-1.4551560992691408,-1.402124140128867,338.0
339,1.4690099189631622,-1.0092969393322946,1.9327200762082306,-4.071034610852603,-1.4551561424015178,-1.306666330593445,339.0
340,1.4690099678255268,-1.009296918638737,1.9327200693865378,-4.071034624976613,-1.45515619152851,-1.201208527926691,340.0
341,1.4690100242388364,-1.0092969045639382,1.9327200601500285,-4.071034630350109,-1.4551562478610738,-1.0857507336497167,341.0
342,1.469010085537436,-1.0092968892694874,1.9327200501130675,-4.071034636191841,-1.4551563090663602,-0.9602929481171696,342.0
343,1.469010152089337,-1.0092968902085482,1.9327200368810729,-4.07103462267964,-1.455156375708816,-0.8248351690030572,343.0
344,1.4690102235650564,-1.0092968917247314,1.932720022602484,-4.071034607593411,-1.4551564472874887,-0.6793773905061922,344.0
345,1.469010294501864,-1.0092969127088047,1.9327200058476601,-4.071034570551413,-1.455156518518931,-0.5239196184339577,345.0
346,1.4690103675811288,-1.009296939380338,1.9327199879163885,-4.071034526665071,-1.4551565919514642,-0.35871624958758763,346.0
347,1.4690104293222028,-1.009296981896873,1.9327199701162143,-4.0710344669480225,-1.4551566541873662,-0.19644845253295626,347.0
348,1.4690104814238283,-1.0092970273011563,1.9327199538314472,-4.071034405762332,-1.455156706800182,-0.04418065547836639,348.0
349,1.4690105206628727,-1.0092970786358697,1.932719939293254,-4.071034340263703,-1.4551567465926645,0.0980871415761509,349.0
350,1.4690105514692149,-1.0092971294708768,1.9327199264821768,-4.0710342769085015,-1.4551567779370231,0.23035493863059492,350.0
351,1.4690105696613003,-1.009297182096891,1.932719915917902,-4.071034213883634,-1.455156796669005,0.352622735684982,351.0
352,1.4690105863654972,-1.009297230418741,1.9327199062176479,-4.071034156013423,-1.455156813868942,0.4648905327393043,352.0
353,1.4690105882475324,-1.0092972777647722,1.9327198995660926,-4.071034102021175,-1.4551568162186492,0.5671583297935762,353.0
354,1.4690105891436847,-1.0092973206813372,1.9327198936963141,-4.0710340532316485,-1.4551568175377108,0.6594261268477786,354.0
355,1.4690105899427117,-1.009297358946595,1.9327198884627,-4.071034009729939,-1.4551568187138124,0.7416939239019512,355.0
356,1.4690105826611168,-1.0092973923911484,1.9327198854600884,-4.071033973201242,-1.4551568117518399,0.8139617209560988,356.0
357,1.4690105745569209,-1.0092974211690036,1.932719883238571,-4.071033942113503,-1.4551568039203755,0.8762295180102201,357.0
358,1.4690105677542313,-1.0092974453252304,1.9327198813738198,-4.071033916018347,-1.4551567973466177,0.9284973150643259,358.0
359,1.469010562253049,-1.0092974648598294,1.9327198798658356,-4.07103389491578,-1.4551567920305675,0.9707651121184134,359.0
360,1.469010558053373,-1.0092974797728014,1.9327198787146203,-4.0710338788058,-1.4551567879722238,1.0030329091725054,360.0
361,1.4690105551552042,-1.0092974900641465,1.9327198779201744,-4.071033867688407,-1.4551567851715874,1.0253007062266128,361.0
362,1.4690162634565858,-1.0092608697206704,1.9326482244586858,-4.070998847034484,-1.4551626357267122,1.0376353648495087,362.0
363,1.4693878954365538,-1.0068770445304,1.927984645646191,-4.068719905777234,-1.4555435228792406,1.0424518379180074,363.0
364,1.4697628040985737,-1.0044715715537864,1.9232786677846363,-4.06642022045866,-1.4559277715093537,1.0376317094443943,364.0
365,1.469768877099679,-1.0044309920182022,1.9231991436286973,-4.066381289199068,-1.4559340040622513,1.0253043697302298,365.0
366,1.469768490856508,-1.0044305370585642,1.9231980066892653,-4.066380606529242,-1.455933623200902,1.0030513198271676,366.0
367,1.4697679310446927,-1.0044298776507095,1.9231963588358525,-4.066379617083565,-1.4559330711893732,0.9707982699241278,367.0
368,1.469767197664233,-1.0044290137946374,1.9231942000684585,-4.066378320862041,-1.4559323480276647,0.9285452200210783,368.0
369,1.4697662906007756,-1.0044279453935743,1.923191530310859,-4.066376718289954,-1.4559314527071612,0.8762921744804187,369.0
370,1.4697652097778722,-1.0044266723828157,1.9231883495120425,-4.066374809651485,-1.4559303845537606,0.814039134871903,370.0
371,1.4697642162397777,-1.004425495410395,1.9231854269990785,-4.066373063366332,-1.4559294024903182,0.7417860984275961,371.0
372,1.4697642153752688,-1.0044254573744966,1.9231854321774422,-4.0663731067829785,-1.45592940069676,0.6595330746261779,372.0
373,1.4697642144026748,-1.004425414731641,1.9231854380010804,-4.066373155407926,-1.4559293986605732,0.5672800572745003,373.0
374,1.4697642124713102,-1.0044253677005184,1.9231854446146008,-4.066373209138105,-1.455929395572164,0.4650270472073244,374.0
375,1.4697641958815009,-1.0044253197369186,1.923185454286036,-4.06637326659252,-1.4559293784804972,0.35277404813257585,375.0
376,1.4697641778145214,-1.0044252675006997,1.9231854648191318,-4.066373329164103,-1.4559293598722847,0.23052105691578162,376.0
377,1.469764147249377,-1.004425217024656,1.9231854775829866,-4.0663733921013625,-1.4559293287701578,0.09826807198724269,377.0
378,1.4697641082805049,-1.0044251660671926,1.9231854920688312,-4.066373457170421,-1.4559292892497449,-0.04398491041448775,378.0
379,1.4697640565641472,-1.0044251209754196,1.923185508293257,-4.066373517983785,-1.455929237023016,-0.19623788851819285,379.0
380,1.4697639952539494,-1.0044250787832019,1.9231855260278508,-4.066373577311326,-1.4559291752185204,-0.35847308273334505,380.0
381,1.4697639244042362,-1.0044250528173302,1.9231855434877299,-4.066373620038222,-1.4559291040229863,-0.5198827843623772,381.0
382,1.4697638560747583,-1.0044250315063161,1.9231855598297996,-4.066373657016271,-1.455929035396889,-0.6712924859913624,382.0
383,1.469763787059279,-1.0044250300609894,1.9231855736627952,-4.066373671607245,-1.4559289662803785,-0.8127021876202896,383.0
384,1.4697637229243328,-1.0044250287178658,1.9231855865175596,-4.066373685166392,-1.4559289020515467,-0.9441118892491509,384.0
385,1.469763663968605,-1.004425041772155,1.9231855964319942,-4.066373681435436,-1.455928843150815,-1.0655215908779243,385.0
386,1.4697636099007318,-1.0044250552790488,1.9231856053201084,-4.066373676274138,-1.4559287891485575,-1.1769312925066353,386.0
387,1.4697635621986818,-1.004425071948023,1.9231856125290892,-4.066373666334189,-1.4559287415513928,-1.2783409941353008,387.0
388,1.4697635216819558,-1.0044250941488337,1.9231856175814892,-4.066373648775901,-1.4559287012032873,-1.3697506957638599,388.0
389,1.4697634855976613,-1.0044251139209273,1.923185622081164,-4.066373633138444,-1.4559286652691665,-1.4511603973923612,389.0
390,1.4697634539457989,-1.0044251312643058,1.9231856260281184,-4.066373619421822,-1.455928633749031,-1.5225700990208546,390.0
391,1.4697634310930225,-1.0044251518889311,1.923185627799157,-4.066373600334815,-1.4559286110714873,-1.5839798006493657,391.0
392,1.469763412314572,-1.0044251696165722,1.923185629150593,-4.066373583766591,-1.4559285924447418,-1.6353895022778966,392.0
393,1.4697633971888269,-1.0044251838959064,1.923185630239153,-4.066373570421147,-1.4559285774411928,-1.676799203906441,393.0
394,1.4697633857157872,-1.0044251947269331,1.9231856310648352,-4.066373560298485,-1.4559285660608403,-1.708208905534966,394.0
395,1.4697633778954535,-1.0044252021096536,1.9231856316276421,-4.066373553398605,-1.4559285583036843,-1.729618607163496,395.0
396,1.4697633737278255,-1.0044252060440682,1.9231856319275746,-4.066373549721506,-1.4559285541697253,-1.7410283087920304,396.0
397,1.4696184070521081,-1.0053331556096226,1.9250425302296863,-4.067322192033538,-1.4557795238942373,-1.743403644431214,397.0
398,1.4695631683313073,-1.005679138652198,1.925750124364081,-4.0676836863854975,-1.4557227366665528,-1.7370695848043112,398.0
399,1.4695211829958579,-1.0059421320633737,1.9262879982210501,-4.067958478134021,-1.4556795742081747,-1.7210229109596933,399.0
400,1.4694530331506441,-1.0063690182623775,1.9271610654409417,-4.068404515183088,-1.4556095136780867,-1.6949762371150638,400.0
401,1.4693587187956658,-1.006959797249209,1.928369326023755,-4.069021797532699,-1.455512555076288,-1.6589295632704366,401.0
402,1.4692372431989558,-1.007713020976828,1.9299098246682505,-4.069808817102088,-1.4553877137632876,-1.612882773642531,402.0
403,1.4690888894389742,-1.0086291000992675,1.9317833994710465,-4.0707660015686935,-1.4552352693863309,-1.556835930866551,403.0
404,1.4689140660773823,-1.0097086280579062,1.9339912615788881,-4.071893968976708,-1.4550556255509557,-1.4907890880906056,404.0
405,1.4687114682828093,-1.01094978551533,1.936529698683031,-4.073190824811196,-1.4548474937466094,-1.414742078026256,405.0
406,1.468481916964211,-1.0123537165871221,1.9394010453184787,-4.074657760462763,-1.4546116846168942,-1.3286950301042961,406.0
407,1.4682240734027565,-1.0139186016450878,1.9426015893801432,-4.076292882116959,-1.454346875099613,-1.232647785138382,407.0
408,1.4679386224571114,-1.0156453853316127,1.9461332581836592,-4.078097173165192,-1.4540537418859516,-1.126600448609936,408.0
409,1.4676241299383581,-1.0175321683237712,1.9499921777234377,-4.0800686575184,-1.453730867381407,-1.0105528571773543,409.0
410,1.467280621237955,-1.0195790441566763,1.9541785396172884,-4.082207433280792,-1.4533782762823542,-0.8845050345963829,410.0
411,1.4669077541324254,-1.0217856049853977,1.9586915126187663,-4.0845130767093245,-1.4529956300152156,-0.748456963226785,411.0
412,1.4665048541512191,-1.0241510407510068,1.9635294456081411,-4.086984746070629,-1.4525822613456787,-0.6024085878336035,412.0
413,1.466071229927664,-1.0266745598633293,1.9686907256816677,-4.089621619361072,-1.452137486058466,-0.4463598557948523,413.0
414,1.4656172029332803,-1.0292923433233534,1.9740448308737253,-4.092357015314438,-1.4516719103993523,-0.2842214118854426,414.0
415,1.4651840745834768,-1.0317675826139798,1.9791074201455512,-4.094943485437356,-1.451227879318935,-0.13067900590771622,415.0
416,1.464775914189903,-1.034077870609507,1.9838326640786752,-4.097357615588533,-1.450809560008469,0.012863771384856764,416.0
417,1.4643935930901328,-1.036224285488101,1.988222760745194,-4.099600526530188,-1.4504178142376414,0.14640683676101654,417.0
418,1.4640378480028908,-1.0382077007469517,1.992279490403738,-4.1016731257584205,-1.4500533708987775,0.2699501260089174,418.0
419,1.4637093751181558,-1.040028904431853,1.996004458626416,-4.103576231493923,-1.4497169190459824,0.38349358278941403,419.0
420,1.463407635087404,-1.0416873529038002,1.9993965587693654,-4.10530928019395,-1.449407924393619,0.48703727521882567,420.0
421,1.4631340289846577,-1.0431845768732,2.002458908704467,-4.106873860417603,-1.449127774038109,0.5805810698285381,421.0
422,1.4628885518165,-1.0445205714490138,2.0051914984749732,-4.108269967094143,-1.4488764630325321,0.6641249850044917,422.0
423,1.462671705181048,-1.0456958814220692,2.007595437701402,-4.109498165553704,-1.448654487993028,0.7376689748185135,423.0
424,1.4624834376126645,-1.0467104545032182,2.0096706199326575,-4.1105584015829875,-1.4484617979404235,0.8012130617932806,424.0
425,1.4623247979101215,-1.0475653631483115,2.0114192285470667,-4.111451787149897,-1.4482994317246667,0.8547571487680474,425.0
426,1.4621952073879836,-1.0482600301001925,2.012840088547824,-4.112177723938241,-1.4481668160477967,0.8983012936029856,426.0
427,1.46209499094418,-1.048794779821956,2.013933860376924,-4.112736548250557,-1.4480642727811062,0.9318454832059286,427.0
428,1.462024650447594,-1.0491701130462296,2.0147015632676935,-4.113128779087542,-1.447992299120629,0.9553896728088764,428.0
429,1.4619841858982257,-1.0493860297730135,2.015143197220132,-4.1133544164491935,-1.4479508950663653,0.9689338624118147,429.0
430,1.4618606607963696,-1.050043435668562,2.0164878902248953,-4.114041459703172,-1.4478245111101753,0.9730451613246887,430.0
431,1.461762317643699,-1.0505664612103627,2.01755772323408,-4.114588073016032,-1.4477238938344816,0.9684938205731463,431.0
432,1.4617622169911895,-1.0505663532026908,2.0175575178808014,-4.114587975450579,-1.4477237942808923,0.9545432494026185,432.0
433,1.461762044189297,-1.050566167773334,2.0175571653268984,-4.114587807948597,-1.447723623365644,0.9305926782320821,433.0
434,1.4617617992310172,-1.0505659049131781,2.0175566655654453,-4.114587570550047,-1.4477233810324173,0.896642109091366,434.0
435,1.4617614820442153,-1.0505655645283705,2.017556018525096,-4.114587263666266,-1.4477230667014283,0.8526915595313279,435.0
436,1.4617610926883948,-1.0505651466963386,2.0175552242646653,-4.114586886957698,-1.4477226808511992,0.7987410099713037,436.0
437,1.4617607942157695,-1.0505648153853726,2.017554617345553,-4.114586611172808,-1.4477223849032717,0.73479046627909,437.0
438,1.4617607934251746,-1.0505647785561665,2.0175546220913945,-4.114586652871583,-1.447722383588304,0.6608399339961964,438.0
439,1.461760792525896,-1.0505647367521198,2.017554627483714,-4.1145867001877745,-1.4477223820816418,0.5768894051617361,439.0
440,1.4617607915170634,-1.0505646899758843,2.0175546335248242,-4.114586753110933,-1.4477223803764825,0.48293888079596814,440.0
441,1.4617607766808427,-1.0505646416573133,2.0175546424239,-4.114586810208454,-1.4477223650404918,0.37898836652327594,441.0
442,1.461760758615653,-1.050564589141981,2.0175546524700527,-4.114586872606509,-1.447722346464342,0.2650378579054583,442.0
443,1.4617607328572215,-1.0505645353606938,2.017554664143157,-4.11458693782906,-1.4477223201764944,0.14108735633225822,443.0
444,1.461760693492062,-1.0505644835493189,2.0175546781646294,-4.11458700331029,-1.447722280286869,0.0071368620850696465,444.0
445,1.4617606470130668,-1.0505644318162162,2.017554693534397,-4.114587069995009,-1.4477222332758377,-0.13681362906803468,445.0
446,1.4617605845985655,-1.0505643884996156,2.017554710889657,-4.114587130096808,-1.4477221703883831,-0.29076411735439134,446.0
447,1.4617605128594884,-1.0505643513792513,2.017554729247076,-4.114587184915173,-1.4477220982229335,-0.4542659710427279,447.0
448,1.4617604355394178,-1.050564326919941,2.017554747080161,-4.114587226491704,-1.447722020587229,-0.6139802827595825,448.0
449,1.461760359384889,-1.050564317086352,2.017554762854176,-4.11458725138953,-1.447721944253776,-0.7636945944763924,449.0
450,1.461760286231858,-1.0505643153379223,2.017554777039897,-4.1145872666393375,-1.4477218710001163,-0.9034089061931674,450.0
451,1.4617602185411716,-1.0505643246127443,2.0175547887985767,-4.114587268486357,-1.4477218033171284,-1.0331232179099252,451.0
452,1.4617601562122742,-1.0505643400713764,2.0175547987570974,-4.114587262397567,-1.447721741059352,-1.1528375296266677,452.0
453,1.4617601000270042,-1.0505643569632306,2.017554807362722,-4.114587253579709,-1.4477216849655596,-1.2625518413433794,453.0
454,1.4617600526104582,-1.0505643829200342,2.017554813155969,-4.114587232963633,-1.4477216377345126,-1.3622661530600824,454.0
455,1.4617600099491521,-1.0505644062737183,2.017554818368226,-4.114587214415067,-1.4477215952401024,-1.4519804647767725,455.0
456,1.4617599724037618,-1.0505644274989927,2.0175548228710296,-4.11458719733406,-1.4477215578478146,-1.5316947764934459,456.0
457,1.461759945084351,-1.0505644533215257,2.0175548248442463,-4.114587173220435,-1.4477215307358595,-1.601409088210135,457.0
458,1.4617599216837065,-1.050564475440008,2.0175548265344196,-4.114587152565729,-1.4477215075129126,-1.6611233999268147,458.0
459,1.4617599022018284,-1.0505644938544392,2.017554827941547,-4.114587135369941,-1.4477214881789733,-1.7108377116435274,459.0
460,1.461759886638717,-1.0505645085648196,2.017554829065631,-4.114587121633074,-1.4477214727340426,-1.7505520233602383,460.0
461,1.4617598749943719,-1.05056451957115,2.0175548299066723,-4.114587111355128,-1.4477214611781208,-1.7802663350769468,461.0
462,1.4617598672687935,-1.05056452687343,2.0175548304646713,-4.114587104536103,-1.4477214535112077,-1.799980646793667,462.0
463,1.4618231104496533,-1.050213712507211,2.0168710143299564,-4.114254233172776,-1.447786010406337,-1.8102613614759935,463.0
464,1.4623351826138473,-1.0473733123132556,2.011334486858351,-4.111559162018915,-1.4483087188636177,-1.812680043955334,464.0
465,1.4626181529312512,-1.045802850103713,2.008273251390559,-4.110068972555524,-1.4485975707277643,-1.8059398572004244,465.0
466,1.4626178422329215,-1.045802615584639,2.008272611069924,-4.11006856651636,-1.448597262558184,-1.7910507189222458,466.0
467,1.4626173228601047,-1.0458022235553925,2.0082715406903935,-4.110067887768893,-1.4485967474125017,-1.7661615806440714,467.0
468,1.462616594812801,-1.0458016740159735,2.0082700402519684,-4.110066936313123,-1.4485960252907177,-1.7312724423658863,468.0
469,1.4626156580910097,-1.045800966966382,2.0082681097546486,-4.110065712149049,-1.4485950961928316,-1.6863833040877052,469.0
470,1.4626145129609194,-1.045800102461511,2.0082657492121836,-4.11006421490178,-1.4485939621383954,-1.6314941819480682,470.0
471,1.4626131593358485,-1.0457990804834436,2.0082629586199436,-4.110062444693193,-1.4485926224702554,-1.5666050670919263,471.0
472,1.4626123592826474,-1.0457984544641297,2.008261272340503,-4.110061383559215,-1.4485918310437436,-1.491715959644885,472.0
473,1.4626123994543125,-1.0457984325564356,2.0082612674456493,-4.110061400782184,-1.4485918716982225,-1.4068268607765566,473.0
474,1.4626124443528568,-1.0457984080981833,2.008261262000196,-4.110061419912954,-1.4485919170998165,-1.3119377717432084,474.0
475,1.4626124955021502,-1.0457983855766537,2.0082612551035957,-4.110061435760348,-1.4485919685881132,-1.2070486896332868,475.0
476,1.4626125548839912,-1.045798370847044,2.0082612455942286,-4.110061441514603,-1.4485920278891828,-1.0921596160231986,476.0
477,1.4626126194335127,-1.0457983548346867,2.0082612352566898,-4.11006144777285,-1.4485920923443991,-0.9672705516767359,477.0
478,1.4626126895162839,-1.0457983549450725,2.008261221821736,-4.110061434885829,-1.4485921625068443,-0.8323814932973261,478.0
479,1.4626127648295417,-1.0457983567281557,2.008261207173648,-4.110061419164715,-1.4485922379231866,-0.6874924357915493,479.0
480,1.462612839931338,-1.0457983779029116,2.0082611901236453,-4.110061381640928,-1.448592313309526,-0.5326033842113441,480.0
481,1.4626129177830338,-1.0457984051249887,2.0082611717852945,-4.110061336805302,-1.4485923915054433,-0.36781903355391443,481.0
482,1.4626129833249122,-1.0457984505867401,2.008261153506904,-4.110061273668012,-1.448592457547091,-0.2049763983624791,482.0
483,1.4626130396033337,-1.0457984982082116,2.0082611367305097,-4.110061209785007,-1.448592514334618,-0.05213376317108883,483.0
484,1.462613081278135,-1.045798553036892,2.008261121843023,-4.110061140443754,-1.4485925565686655,0.09070887202028674,484.0
485,1.462613115010846,-1.0457986067781255,2.008261108613498,-4.110061073773426,-1.4485925908412511,0.22355150721161743,485.0
486,1.462613134344346,-1.045798662967202,2.0082610978332363,-4.11006100696804,-1.4485926107206755,0.346394142402926,486.0
487,1.4626131521040033,-1.0457987145822043,2.0082610879305345,-4.110060945600942,-1.4485926289818163,0.4592367775942218,487.0
488,1.4626131550017543,-1.0457987649208447,2.0082610810348176,-4.110060888377561,-1.4485926323518659,0.5620794127855044,488.0
489,1.4626131559547768,-1.0457988107774572,2.0082610750760996,-4.110060836556334,-1.4485926337331716,0.6549220479767677,489.0
490,1.4626131568051504,-1.045798851694892,2.008261069759186,-4.110060790316727,-1.4485926349656986,0.737764683168007,490.0
491,1.462613149674551,-1.0457988874865776,2.008261066616365,-4.110060751303418,-1.4485926281602168,0.8106073183592586,491.0
492,1.4626131410219974,-1.0457989183054759,2.008261064391399,-4.110060718168024,-1.4485926197846857,0.8734499535505077,492.0
493,1.462613133746304,-1.045798944220235,2.0082610625204844,-4.110060690305386,-1.448592612741933,0.9262925887417802,493.0
494,1.462613127847471,-1.0457989652308544,2.008261061003622,-4.110060667715503,-1.4485926070319588,0.9691352239330742,494.0
495,1.4626131233254984,-1.0457989813373363,2.0082610598408137,-4.1100606503983785,-1.448592602654763,1.0019778591243447,495.0
496,1.4626131201803867,-1.04579899253968,2.0082610590320606,-4.110060638354011,-1.448592599610346,1.0248204943156272,496.0
497,1.4626144279978432,-1.0457916173174455,2.008246659026319,-4.1100536162674395,-1.448593935253626,1.0376762253380083,497.0
498,1.463004044776353,-1.0435955298847,2.0039626252476124,-4.10796647785411,-1.4489918137008022,1.0429136549437201,498.0
499,1.4634466298072526,-1.0411003116056203,1.9990950145903192,-4.10559500328594,-1.449443786414436,1.0385657581556167,499.0
500,1.4634591027652617,-1.0410284302862387,1.998954651691101,-4.105526547659509,-1.4494565317699692,1.0266845899490806,500.0
501,1.4634586537452492,-1.0410280735377144,1.998953699327804,-4.105525951275723,-1.4494560877200224,1.0049324220751932,501.0
502,1.4634579982998286,-1.0410275527832271,1.9989523091399635,-4.105525080719822,-1.4494554395295278,0.9731802542013093,502.0
503,1.4634571364289997,-1.0410268680227766,1.9989504811275796,-4.105523935991806,-1.449454587198485,0.9314280863274079,503.0
504,1.4634560680164754,-1.0410260191688276,1.9989482152270113,-4.105522517479421,-1.4494535297529085,0.879675920737297,504.0
505,1.4634547929431934,-1.0410250061317563,1.9989455113730745,-4.105520825579588,-1.4494522661956974,0.8179237589959891,505.0
506,1.4634535410148837,-1.0410240061207168,1.998942857569845,-4.105519170752225,-1.4494510254403192,0.7461715996660481,506.0
507,1.463453540099941,-1.041023965994383,1.998942862761502,-4.10551921627617,-1.4494510235483706,0.6644194540829325,507.0
508,1.4634535390702605,-1.0410239209769976,1.9989428686031327,-4.105519267299296,-1.449451021402811,0.5726673142237655,508.0
509,1.4634535378110307,-1.041023871104618,1.9989428751196663,-4.105519323779504,-1.4494510188866563,0.47091518163627233,509.0
510,1.463453520348245,-1.0410238203798037,1.9989428848918083,-4.10551938409605,-1.4494510009213082,0.35916306064499115,510.0
511,1.4634535013236034,-1.0410237651161078,1.9989428955384467,-4.105519449808925,-1.449450981354559,0.23741094697218973,511.0
512,1.4634534700058441,-1.0410237111837606,1.9989429083736163,-4.10551951628184,-1.4494509494952865,0.10565883969192345,512.0
513,1.4634534289463337,-1.041023657186787,1.998942923084793,-4.105519584617885,-1.4494509078828048,-0.036093264842765815,513.0
514,1.463453375277863,-1.0410236085604658,1.998942939539658,-4.1055196492057515,-1.4494508536961233,-0.18784536541534774,514.0
515,1.4634533106424414,-1.0410235637528371,1.9989429576188924,-4.105519711494022,-1.4494507885647654,-0.3495974595899278,515.0
516,1.4634532344093698,-1.041023534327045,1.998942975982537,-4.105519758569936,-1.449450711966375,-0.5151330910650422,516.0
517,1.4634531599643699,-1.0410235108839525,1.9989429932466827,-4.105519798578687,-1.4494506372142493,-0.6711162762397098,517.0
518,1.4634530846273177,-1.0410235091172702,1.9989430079431578,-4.105519814327987,-1.4494505617722577,-0.8170994614143668,518.0
519,1.4634530144509317,-1.0410235074716025,1.9989430216328985,-4.10551982899844,-1.4494504914981214,-0.9530826465889882,519.0
520,1.4634529497914386,-1.0410235230774219,1.9989430320828627,-4.105519823224444,-1.4494504269090938,-1.0790658317635622,520.0
521,1.4634528902729351,-1.0410235378580135,1.998943041649445,-4.10551981744131,-1.4494503674593493,-1.1950490169381376,521.0
522,1.4634528385159493,-1.0410235590048196,1.9989430489205002,-4.105519803068006,-1.4494503158399152,-1.3010322021126963,522.0
523,1.4634527935296422,-1.0410235836391437,1.998943054450136,-4.105519783528861,-1.4494502710318007,-1.3970153872872324,523.0
524,1.4634527532302293,-1.0410236057069402,1.9989430594036612,-4.105519766025395,-1.4494502308920154,-1.4829985724617574,524.0
525,1.4634527202131393,-1.0410236286213892,1.9989430628511764,-4.105519746238056,-1.4494501980510333,-1.5589817576362817,525.0
526,1.4634526947275708,-1.0410236527102046,1.998943064703397,-4.105519723752102,-1.4494501727614175,-1.6249649428108015,526.0
527,1.463452673104436,-1.041023673148269,1.998943066274906,-4.105519704673978,-1.449450151304538,-1.6809481279853429,527.0
528,1.463452655343735,-1.0410236899355816,1.9989430675657012,-4.105519689003684,-1.4494501336803949,-1.7269313131599011,528.0
529,1.463452641445468,-1.0410237030721436,1.9989430685757863,-4.1055196767412205,-1.449450119888988,-1.7629144983344494,529.0
530,1.4634526314096348,-1.0410237125579556,1.9989430693051609,-4.105519667886589,-1.4494501099303179,-1.7888976835089954,530.0
531,1.4634526252362352,-1.0410237183930173,1.9989430697538253,-4.105519662439789,-1.449450103804384,-1.8048808686835462,531.0
532,1.4636740796438146,-1.0397553629589047,1.9964668809415183,-4.104312290765896,-1.4496763516618238,-1.8124473639782952,532.0
533,1.4641864394329722,-1.0368206473509145,1.9907374730872462,-4.1015186668289125,-1.450199802664169,-1.8111466657314743,533.0
534,1.4642869099124882,-1.0362439789600715,1.9896115430885912,-4.100969614955591,-1.450302453556444,-1.8016846247581062,534.0
535,1.4642865387826862,-1.036243666100578,1.9896107114383674,-4.100969095894214,-1.4503020856632591,-1.7830823301585517,535.0
536,1.4642859681453446,-1.0362431850578036,1.9896094327195197,-4.100968297802002,-1.4503015200024372,-1.7544800355589896,536.0
537,1.464285198000464,-1.0362425358317486,1.9896077069320492,-4.100967220678957,-1.4503007565739783,-1.7158777409594277,537.0
538,1.4642842283684845,-1.036241718427034,1.989605534077389,-4.1009658644944045,-1.4502997955348953,-1.667275447590494,538.0
539,1.4642830595967367,-1.0362407329221537,1.989602914179788,-4.100964228726984,-1.4502986395535769,-1.6086731736759576,539.0
540,1.4642816913836243,-1.0362395792489045,1.9895998472180332,-4.100962313829198,-1.4502972863134762,-1.5400708997614188,540.0
541,1.46428147270422,-1.0362393520466144,1.989599284147189,-4.100961977827563,-1.4502970707294633,-1.4614686391246634,541.0
542,1.4642815140317507,-1.036239329505388,1.9895992790860098,-4.1009619955039405,-1.4502971125401147,-1.3728663828021752,542.0
543,1.4642815600173693,-1.036239304454511,1.989599273483686,-4.100962015036893,-1.4502971590198117,-1.2742641377901562,543.0
544,1.4642816139563415,-1.036239286592095,1.9895992653852357,-4.100962025182735,-1.450297213067313,-1.1656619009160107,544.0
545,1.4642816743825726,-1.036239271583029,1.9895992556494484,-4.100962031007947,-1.4502972734078163,-1.0470596718561618,545.0
546,1.4642817400131538,-1.0362392605556423,1.989599244403818,-4.10096203139844,-1.4502973389969769,-0.9184574502887545,546.0
547,1.464281811030918,-1.036239262204247,1.9895992305076493,-4.100962016531617,-1.4502974101130968,-0.779855233467596,547.0
548,1.464281885646452,-1.0362392694059035,1.9895992152141462,-4.100961994747005,-1.4502974848839931,-0.6312530186862583,548.0
549,1.4642819607854336,-1.036239293107679,1.9895991977282765,-4.100961954269021,-1.450297560335518,-0.47265081063226777,549.0
550,1.4642820335252167,-1.0362393278616457,1.989599179303749,-4.1009619017738075,-1.4502976334892836,-0.30629261074256503,550.0
551,1.4642820966587813,-1.0362393716028697,1.9895991615913131,-4.100961840908919,-1.450297697110252,-0.14716459130982196,551.0
552,1.4642821447432592,-1.0362394230694882,1.9895991457999136,-4.100961774093641,-1.4502977457372301,0.001963428122904818,552.0
553,1.464282184755687,-1.0362394756668931,1.9895991314208596,-4.100961707482538,-1.4502977862932809,0.14109144755559216,553.0
554,1.4642822107423612,-1.036239530590398,1.9895991194500713,-4.100961640819025,-1.4502978128289428,0.27021946698825605,554.0
555,1.4642822292241626,-1.0362395842685994,1.9895991090835312,-4.100961576933837,-1.4502978318391075,0.3893474864208851,555.0
556,1.4642822422627535,-1.0362396344079836,1.9895991002146434,-4.100961518034282,-1.4502978453662325,0.49847550585349754,556.0
557,1.4642822432660894,-1.0362396826466784,1.9895990939062176,-4.100961463481624,-1.4502978468259353,0.5976035252861043,557.0
558,1.4642822441682095,-1.0362397260190677,1.9895990882341774,-4.100961414432216,-1.4502978481383841,0.6867315447186931,558.0
559,1.4642822437119472,-1.036239764495963,1.9895990834445194,-4.100961371149253,-1.45029784804465,0.7658595641512864,559.0
560,1.4642822343299535,-1.0362397979016542,1.9895990810179502,-4.100961335216997,-1.450297838966778,0.8349875835838576,560.0
561,1.4642822263051514,-1.0362398264749069,1.9895990789424067,-4.10096130448267,-1.450297831202103,0.8941156030164548,561.0
562,1.46428221963754,-1.0362398502157193,1.9895990772178853,-4.10096127894627,-1.4502978247506255,0.9432436224490733,562.0
563,1.46428221432712,-1.0362398691240933,1.9895990758443893,-4.1009612586078,-1.4502978196123448,0.9823716418817012,563.0
564,1.464282210373891,-1.0362398832000288,1.9895990748219197,-4.1009612434672595,-1.4502978157872615,1.0114996613143195,564.0
565,1.4642822077778532,-1.036239892443526,1.989599074150476,-4.100961233524649,-1.4502978132753754,1.0306276807469354,565.0
566,1.464361880406076,-1.0357762442180514,1.9886932019841352,-4.100519176597685,-1.450379246154961,1.040476334307314,566.0
567,1.4648598659611607,-1.03287821213821,1.9830311027054919,-4.097756153374419,-1.4508882338682791,1.042308769756521,567.0
568,1.4651049774323943,-1.0314508671039924,1.9802423156928393,-4.096395225298089,-1.4511387652819274,1.0351269351912271,568.0
569,1.4651046723358467,-1.0314505971985468,1.9802416126262252,-4.096394791608322,-1.451138463760231,1.0196782612493034,569.0
570,1.4651041697488547,-1.0314501525820248,1.9802404544612533,-4.0963940771891085,-1.4511379670621092,0.9942295873073907,570.0
571,1.4651034696714187,-1.0314495332544265,1.9802388411979237,-4.09639308204045,-1.4511372751875615,0.9587809133654612,571.0
572,1.4651025721035382,-1.0314487392157514,1.980236772836236,-4.096391806162345,-1.4511363881365882,0.9133322394235359,572.0
573,1.4651014768147328,-1.0314477702851588,1.980234249241719,-4.096390250354592,-1.4511353039526151,0.8578835744686764,573.0
574,1.4651001839075932,-1.03144662654314,1.9802312704741623,-4.096388414260999,-1.4511340235068326,0.7924349125707395,574.0
575,1.4650994870292,-1.0314459910165592,1.9802296684656824,-4.096387447305828,-1.4511333328675922,0.7169862590228706,575.0
576,1.4650994860881266,-1.0314459496892192,1.9802296738456426,-4.0963874942300675,-1.4511333309204026,0.6315376132109497,576.0
577,1.4650994850316321,-1.0314459035567471,1.9802296798827426,-4.096387546519326,-1.4511333287032402,0.536088977915701,577.0
578,1.4650994780098336,-1.0314458540750828,1.9802296875175673,-4.0963876036325075,-1.451133320707733,0.43064034946607144,578.0
579,1.4650994602246068,-1.0314458024479665,1.9802296975300606,-4.09638766508577,-1.4511333024049191,0.3151917294131033,579.0
580,1.4650994408997582,-1.0314457463491937,1.9802297084098976,-4.096387731860748,-1.4511332825240766,0.18974311805783434,580.0
581,1.4650994027161186,-1.0314456952561035,1.9802297222909837,-4.096387796482796,-1.4511332438110276,0.05429451300526534,581.0
582,1.4650993611820569,-1.0314456406815915,1.9802297372622957,-4.096387865646727,-1.4511332017106637,-0.09115409154914873,582.0
583,1.4650993008622155,-1.0314455974118517,1.9802297544281464,-4.096387925516469,-1.4511331409080919,-0.2466026896591603,583.0
584,1.4650992337514817,-1.0314455556602176,1.9802297727139404,-4.096387984922355,-1.451133073320852,-0.41180110323716057,584.0
585,1.4650991574118153,-1.0314455316035465,1.9802297905337451,-4.096388026073171,-1.4511329966617263,-0.5740862869659988,585.0
586,1.4650990836454785,-1.0314455166147187,1.9802298067027526,-4.096388056527267,-1.4511329226651108,-0.7263714706948207,586.0
587,1.4650990112564972,-1.0314455149514807,1.9802298209107165,-4.096388071703853,-1.451132850174038,-0.8686566544236145,587.0
588,1.4650989440825142,-1.0314455195267052,1.9802298333169543,-4.096388078888408,-1.4511327829634229,-1.000941838152385,588.0
589,1.4650988822186475,-1.031445534910806,1.9802298433218222,-4.096388072910381,-1.4511327211718987,-1.1232270218811435,589.0
590,1.465098825413764,-1.0314455490368526,1.9802298525085236,-4.09638806742121,-1.451132664433442,-1.2355122056098788,590.0
591,1.4650987778673914,-1.0314455740976118,1.9802298585144336,-4.0963880479020744,-1.4511326170683734,-1.3377973893385973,591.0
592,1.4650987352268616,-1.0314455974556977,1.9802298637883373,-4.09638802940124,-1.4511325745988275,-1.4300825730673041,592.0
593,1.4650986972068492,-1.031445618282706,1.980229868490759,-4.09638801290515,-1.451132536731271,-1.5123677567960039,593.0
594,1.465098668442993,-1.0314456426696428,1.9802298709507573,-4.096387990694494,-1.4511325081647108,-1.5846529405246987,594.0
595,1.4650986447265189,-1.0314456650863828,1.9802298726854108,-4.096387969777766,-1.45113248463284,-1.6469381242533798,595.0
596,1.465098624817768,-1.0314456839040733,1.9802298741415605,-4.096387952219255,-1.4511324648790538,-1.6992233079821002,596.0
597,1.4650986087167404,-1.0314456991227148,1.980229875319207,-4.096387938018962,-1.4511324489033526,-1.7415084917108328,597.0
598,1.4650985964234358,-1.031445710742308,1.9802298762183528,-4.096387927176889,-1.451132436705736,-1.773793675439556,598.0
599,1.4650985879378546,-1.0314457187628532,1.9802298768389972,-4.0963879196930355,-1.4511324282862044,-1.7960788591682766,599.0
600,1.465104477930462,-1.031410870765237,1.980161732346995,-4.096354635577547,-1.451138451223577,-1.8084276649799873,600.0
601,1.4655059544599491,-1.0290371275968286,1.975520495091378,-4.094087987747862,-1.4515489799330756,-1.8132491252859533,601.0
602,1.4659045996998135,-1.0266795022930375,1.9709107199736011,-4.091836678368067,-1.451956616398667,-1.8084500106252717,602.0
603,1.4659098815917635,-1.0266466593264445,1.9708463625875345,-4.091805175415985,-1.451962024893811,-1.7961076028862282,603.0
604,1.4659094563199115,-1.0266462605474636,1.970845327337888,-4.091804538651305,-1.4519616035943557,-1.7738255654271078,604.0
605,1.4659088401894573,-1.0266456827996686,1.9708438274764895,-4.091803616111735,-1.4519609932190782,-1.7415435279679894,605.0
606,1.465908033200401,-1.0266449260830601,1.9708418630033384,-4.091802407797276,-1.4519601937679787,-1.6992614905088517,606.0
607,1.4659070355029271,-1.0266439904344866,1.9708394339315238,-4.091800913468288,-1.4519592064096096,-1.6469794565666769,607.0
608,1.465905847194695,-1.0266428758778954,1.9708365402695078,-4.091799132968876,-1.451958031903984,-1.5846974273523946,608.0
609,1.4659047663224165,-1.0266418516754452,1.9708338902684281,-4.091797505930394,-1.4519569637497995,-1.5124154013489077,609.0
610,1.4659048041612073,-1.0266418310255276,1.9708338856027137,-4.091797522110486,-1.4519570020299184,-1.4301333879425735,610.0
611,1.4659048465952056,-1.0266418078844144,1.9708338803862895,-4.091797540182661,-1.451957044934597,-1.3378513810275285,611.0
612,1.465904893900665,-1.0266417830730552,1.970833874458756,-4.0917975591776266,-1.4519570926997432,-1.235569381396374,612.0
613,1.465904950303,-1.0266417690439145,1.9708338653147304,-4.09179756458356,-1.451957149023662,-1.1232873927228095,613.0
614,1.4659050117278791,-1.0266417537647525,1.97083385535591,-4.0917975704735765,-1.4519572103579559,-1.0010054119381573,614.0
615,1.4659050784270462,-1.0266417492086517,1.97083384300104,-4.0917975633109505,-1.4519572770858309,-0.8687234374352659,615.0
616,1.4659051503055527,-1.0266417508422812,1.9708338288490168,-4.091797548220184,-1.4519573490652107,-0.7264414654458167,616.0
617,1.4659052235524221,-1.0266417657024007,1.9708338127439964,-4.091797517958691,-1.4519574225417293,-0.5741594977732161,617.0
618,1.465905299354202,-1.0266417895653706,1.9708337949947015,-4.091797477071676,-1.4519574986627024,-0.4118775363978633,618.0
619,1.4659053659939854,-1.0266418309945253,1.9708337767813016,-4.091797418060496,-1.4519575657785109,-0.24668117663267083,619.0
620,1.465905425891673,-1.026641873932405,1.9708337596832475,-4.09179735859033,-1.4519576261585323,-0.0912344180529776,620.0
621,1.4659054671337162,-1.0266419280992491,1.9708337447713267,-4.09179728989368,-1.4519576679677944,0.05421234052667398,621.0
622,1.4659055050521257,-1.0266419788093373,1.970833730945205,-4.091797225708518,-1.4519577064163933,0.18965909910630216,622.0
623,1.4659055242410233,-1.0266420345034248,1.970833720116392,-4.0917971593541855,-1.4519577261606054,0.3151058576859107,623.0
624,1.4659055419002758,-1.0266420857578487,1.970833710150791,-4.091797098289292,-1.4519577443309057,0.43055261626548846,624.0
625,1.4659055488107033,-1.0266421348668229,1.970833702544061,-4.091797041625509,-1.4519577517189592,0.53599937484505,625.0
626,1.46590554976349,-1.0266421806380523,1.9708336965189157,-4.0917969898245,-1.4519577531103136,0.6314461334246059,626.0
627,1.4659055506164527,-1.0266422216138062,1.9708336911250224,-4.091796943450704,-1.451957754355895,0.7168928920041548,627.0
628,1.4659055463055461,-1.0266422576789642,1.9708336873594292,-4.091796903567394,-1.451957750384472,0.792339650583706,628.0
629,1.465905537548219,-1.026642288849836,1.9708336850808794,-4.09179687002393,-1.4519577419145113,0.8577864091632503,629.0
630,1.465905530128976,-1.026642315257924,1.9708336831504822,-4.091796841605771,-1.4519577347387262,0.9132331677428053,630.0
631,1.465905524047817,-1.0266423369032274,1.9708336815682346,-4.0917968183129165,-1.4519577288571168,0.9586799263223871,631.0
632,1.4659055193047426,-1.0266423537857483,1.9708336803341413,-4.091796800145369,-1.4519577242696835,0.9941266849019739,632.0
633,1.465905515899752,-1.0266423659054864,1.9708336794482022,-4.091796787103126,-1.4519577209764256,1.0195734434815436,633.0
634,1.4659055138328458,-1.026642373262442,1.970833678910417,-4.09179677918619,-1.4519577189773436,1.0350202020611252,634.0
635,1.4661415121429247,-1.025224744245238,1.968059831627113,-4.090441061117942,-1.452199147436494,1.0421923840096325,635.0
636,1.466625992359494,-1.0223141969817937,1.9623648084414702,-4.08765761208292,-1.4526947766319438,1.0403553815460906,636.0
637,1.4667058117057659,-1.0218334257655077,1.9614239868160142,-4.087197730921979,-1.4527764391406957,1.0304982323347178,637.0
638,1.4667054503922843,-1.0218330711591725,1.9614230829782462,-4.0871971810576415,-1.4527760823093776,1.0113867252145787,638.0
639,1.4667049000233403,-1.0218325310068557,1.9614217062119108,-4.0871963434795555,-1.4527755387678671,0.9822752180944451,639.0
640,1.4667041605989335,-1.0218318053085569,1.9614198565170085,-4.087195218187721,-1.4527748085161636,0.9431637109743025,640.0
641,1.46670323208846,-1.0218308940392753,1.9614175338745603,-4.087193805292585,-1.452773891290893,0.8940522063379404,641.0
642,1.4667021142417243,-1.0218297969946135,1.96141473812931,-4.087192105696792,-1.4527727849393675,0.8349407214820772,642.0
643,1.4667008072867742,-1.021828514360863,1.9614114694226283,-4.087190118577213,-1.4527714914242937,0.765829236626233,643.0
644,1.4667006407415815,-1.0218283181318477,1.9614110591915996,-4.087189904622297,-1.4527713257673955,0.6867177659429492,644.0
645,1.4667006397743825,-1.0218282756613473,1.9614110647620147,-4.087189952865534,-1.452771323757921,0.5976062994309742,645.0
646,1.4667006386931996,-1.0218282284562943,1.9614110709854777,-4.087190006395597,-1.4527713214790714,0.49849484353205076,646.0
647,1.4667006259298638,-1.0218281794128716,1.9614110797455457,-4.087190064094514,-1.452771308021096,0.38938339636801167,647.0
648,1.4667006078364235,-1.021828126926184,1.9614110899947368,-4.0871901266378226,-1.4527712893969698,0.2702719569177668,648.0
649,1.4667005824276564,-1.021828073206725,1.9614111018233134,-4.08719019193142,-1.452771263440844,0.14116052477284152,649.0
650,1.466700543257246,-1.0218280217832851,1.961411116030546,-4.087190257196491,-1.4527712237297967,0.0020490970357448478,650.0
651,1.4667004962135484,-1.0218279714436012,1.961411131631365,-4.087190322694714,-1.4527711761459883,-0.14706232836798938,651.0
652,1.4667004344077004,-1.0218279286990826,1.9614111491330082,-4.087190382352756,-1.4527711138541695,-0.30617374708985395,652.0
653,1.4667003632117837,-1.021827894712849,1.9614111673409822,-4.087190433864925,-1.4527710422451334,-0.47253384018301414,653.0
654,1.4667002896369632,-1.0218278715748945,1.9614111846231261,-4.087190473576606,-1.4527709683586472,-0.6311546458914088,654.0
655,1.4667002165843703,-1.0218278645444958,1.9614111997414752,-4.08719049501723,-1.4527708951499312,-0.7797754515999004,655.0
656,1.4667001470438275,-1.0218278629813289,1.961411213476327,-4.087190509639646,-1.4527708255101004,-0.9183962573085468,656.0
657,1.466700082775259,-1.0218278737915378,1.961411224601004,-4.0871905093260885,-1.4527707612676266,-1.0470170630173259,657.0
658,1.4667000236027183,-1.0218278885278096,1.9614112342312038,-4.087190503640369,-1.4527707021651128,-1.1656378687262419,658.0
659,1.4666999708073385,-1.0218279060511553,1.9614112422633965,-4.087190493630739,-1.4527706494742905,-1.2742586744352753,659.0
660,1.4666999258754716,-1.021827930674038,1.9614112478561998,-4.087190474156522,-1.4527706047247864,-1.372879480144403,660.0
661,1.4666998854996278,-1.021827952800196,1.9614112528818959,-4.087190456656958,-1.4527705645128135,-1.461500285853616,661.0
662,1.4666998506723163,-1.0218279737325933,1.9614112569805073,-4.087190439478365,-1.452770529844615,-1.5401210915628898,662.0
663,1.4666998249081908,-1.0218279980852558,1.961411258877272,-4.0871904167647575,-1.452770504283476,-1.6087418972722232,663.0
664,1.4666998028986302,-1.0218280188890436,1.9614112604976242,-4.087190397361167,-1.4527704824473207,-1.6673627029816107,664.0
665,1.4666997846436343,-1.021828036143956,1.9614112618415604,-4.087190381267591,-1.452770464336149,-1.7159835086910165,665.0
666,1.4666997701432027,-1.0218280498499936,1.9614112629090847,-4.087190368484035,-1.452770449949961,-1.7546043144004413,666.0
667,1.4666997593973359,-1.0218280600071576,1.9614112637001975,-4.0871903590104965,-1.452770439288757,-1.7832251201098568,667.0
668,1.466699752406034,-1.0218280666154471,1.9614112642148982,-4.087190352846976,-1.452770432352537,-1.8018459258192414,668.0
669,1.4667964679055667,-1.0212378445249413,1.960255550084108,-4.086625066904308,-1.4528694186448832,-1.811348930801718,669.0
670,1.4672795015953592,-1.0182900522454346,1.9544834995406977,-4.083801838122249,-1.4533637934104957,-1.8127023881702877,670.0
671,1.467489312236504,-1.0170087042819418,1.9519744216435282,-4.082574555553174,-1.4535785345877763,-1.8051746193749816,671.0
672,1.4674890212495573,-1.017008401811527,1.9519736527505938,-4.082574088941228,-1.4535782465110463,-1.78924678467468,672.0
673,1.4674885475717725,-1.0170079094405888,1.9519724011222788,-4.082573329375497,-1.453577777570605,-1.7633189499743702,673.0
674,1.4674878912031502,-1.017007227169127,1.9519706667585832,-4.082572276855982,-1.453577127766452,-1.7273911152740449,674.0
675,1.4674870521436894,-1.017006354997142,1.9519684496595073,-4.082570931382681,-1.4535762970985877,-1.681463280573726,675.0
676,1.4674860306716853,-1.0170052929983955,1.9519657498546215,-4.082569292485704,-1.4535752877582815,-1.6255354550506567,676.0
677,1.467484826637684,-1.0170040411332484,1.951962567327957,-4.082567360417284,-1.4535740985689902,-1.5596076318912548,677.0
678,1.4674842656704934,-1.0170034261589567,1.9519610292073244,-4.082566436695186,-1.4535735449947318,-1.4836798176488597,678.0
679,1.4674843046363493,-1.0170034048853829,1.9519610243727143,-4.082566453334972,-1.4535735844086424,-1.3977520101910323,679.0
680,1.4674843481308177,-1.017003381167842,1.9519610190039516,-4.082566471783017,-1.4535736283598957,-1.3018242140069922,680.0
681,1.4674843981014476,-1.017003360714803,1.9519610119272959,-4.082566485423754,-1.4535736785780204,-1.1958964246234252,681.0
682,1.4674844555280955,-1.0170033464091903,1.9519610025573184,-4.082566490897106,-1.453573735922789,-1.0799686435463016,682.0
683,1.467484517914866,-1.0170033312125661,1.9519609923329362,-4.08256649645664,-1.4535737982189354,-0.9540408708741595,683.0
684,1.467484585631927,-1.0170033327171142,1.9519609789151866,-4.0825664821969445,-1.4535738660321331,-0.8181131046372979,684.0
685,1.4674846583308518,-1.0170033343322795,1.9519609645102434,-4.082566466888436,-1.4535739388344269,-0.6721853388421206,685.0
686,1.46748473020028,-1.017003356737045,1.951960947596952,-4.082566428266878,-1.453574011008492,-0.5162575800193459,686.0
687,1.4674848038413988,-1.017003384909232,1.951960929596797,-4.082566382806663,-1.4535740850122383,-0.3507559088447498,687.0
688,1.46748486625616,-1.0170034280480655,1.9519609118664483,-4.082566322535401,-1.453574147920722,-0.18895650871665917,688.0
689,1.4674849181657574,-1.0170034748042043,1.9519608957229555,-4.082566260129878,-1.453574200346214,-0.03715710858842143,689.0
690,1.467484957816822,-1.01700352683498,1.95196088129584,-4.082566194044653,-1.4535742405492416,0.10464229153991643,690.0
691,1.467484988150484,-1.0170035787707565,1.9519608687005001,-4.082566129795094,-1.4535742714225672,0.2364416916684366,691.0
692,1.467485006523667,-1.017003632060247,1.9519608582670038,-4.082566066236279,-1.4535742903339077,0.35824109179706676,692.0
693,1.4674850233883712,-1.017003680974548,1.9519608486901128,-4.08256600789578,-1.453574307692585,0.47004049192579767,693.0
694,1.4674850245830473,-1.0170037290430802,1.9519608422820438,-4.082565953416844,-1.4535743093539084,0.5718398920546788,694.0
695,1.4674850254870009,-1.01700377243293,1.9519608365317573,-4.082565904272894,-1.4535743106788752,0.6636392921836052,695.0
696,1.4674850262924837,-1.0170038110961845,1.9519608314078651,-4.082565860482347,-1.4535743118595095,0.7454386923126272,696.0
697,1.467485018458383,-1.0170038448430312,1.9519608286027323,-4.082565823843897,-1.4535743043424276,0.8172380924417048,697.0
698,1.467485010303857,-1.0170038738583513,1.9519608264679758,-4.082565792605594,-1.4535742964587393,0.8790374925708282,698.0
699,1.4674850034688465,-1.0170038981785892,1.95196082467865,-4.082565766422081,-1.4535742898507409,0.9308368926999921,699.0
700,1.4674849979533513,-1.0170039178037453,1.9519608232347567,-4.082565745293358,-1.453574284518433,0.9726362928291674,700.0
701,1.4674849937573717,-1.0170039327338205,1.9519608221362974,-4.082565729219427,-1.4535742804618148,1.0044356929583542,701.0
702,1.4674849908809073,-1.0170039429688151,1.9519608213832722,-4.082565718200286,-1.453574277680887,1.026235093087503,702.0
703,1.467496095087796,-1.016935100013823,1.9518259139424419,-4.0824996774984905,-1.4535856479745077,1.0381584690826005,703.0
704,1.4678969312005015,-1.0144501762136833,1.9469567631901818,-4.080116309582879,-1.453996085994076,1.0425633625388968,704.0
705,1.4682616836165068,-1.0121882671161135,1.9425245535122333,-4.077946790747203,-1.4543695793859863,1.0373555729634896,705.0
706,1.468263746764673,-1.012173792817284,1.94249605585006,-4.077932771891721,-1.454371700530849,1.0245886298656577,706.0
707,1.4682633349751781,-1.0121733458731026,1.9424949384844834,-4.07793210074149,-1.4543712941505185,1.0018485308029366,707.0
708,1.4682627421005021,-1.012172702384403,1.9424933297553582,-4.077931134451722,-1.454370709063697,0.9691084317401907,708.0
709,1.468261968140646,-1.0121718623511853,1.9424912296626848,-4.077929873022418,-1.4543699452703849,0.9263683326774343,709.0
710,1.4682610129630362,-1.0121708256607875,1.942488638119003,-4.07792831694993,-1.4543690016150743,0.8736282440906701,710.0
711,1.4682598765142891,-1.0121695922678302,1.9424855550889806,-4.077926466433832,-1.4543678776328939,0.8108881671543858,711.0
712,1.4682588992149692,-1.012168522985699,1.9424829055185833,-4.077924885438162,-1.4543669108369113,0.7381480941744935,712.0
713,1.468258898331726,-1.0121684841074141,1.9424829106449617,-4.077924929655747,-1.4543669090064295,0.6554080331488967,713.0
714,1.4682588973382567,-1.012168440549856,1.9424829164085329,-4.077924979138322,-1.4543669069263672,0.562667979185795,714.0
715,1.4682588946466633,-1.0121683927149596,1.9424829230730083,-4.077925033717348,-1.4543669030940463,0.4599279324271525,715.0
716,1.4682588777558907,-1.0121683437526654,1.9424829327014177,-4.077925092126528,-1.4543668856985865,0.34718789609600625,716.0
717,1.4682588593677117,-1.0121682904476554,1.942482943183964,-4.077925155715311,-1.4543668667667582,0.2244478680909305,717.0
718,1.468258827454934,-1.0121682393869338,1.9424829560217889,-4.077925219303829,-1.4543668343180722,0.09170784619554816,718.0
719,1.4682587878153845,-1.012168187394769,1.9424829704910964,-4.077925285390139,-1.4543667941247886,-0.0510321734941204,719.0
720,1.4682587344461704,-1.0121681421129445,1.9424829867858582,-4.077925346454581,-1.4543667402493674,-0.20377218858974336,720.0
721,1.468258672100186,-1.0121680990488764,1.9424830045538084,-4.077925406685457,-1.4543666774072312,-0.36651219742862273,721.0
722,1.4682585980899094,-1.0121680730884568,1.9424830224028407,-4.077925449774033,-1.4543666030530031,-0.5313761745982966,722.0
723,1.4682585266166552,-1.0121680528704518,1.9424830390145313,-4.077925485906166,-1.4543665312948433,-0.6863667817789876,723.0
724,1.4682584548812374,-1.0121680512954274,1.9424830532745565,-4.077925501035736,-1.4543664594557462,-0.831357388959824,724.0
725,1.468258388120401,-1.0121680511237983,1.9424830663788772,-4.077925513654758,-1.454366392611023,-0.9663479961407925,725.0
726,1.4682583266281926,-1.0121680664614034,1.9424830764516732,-4.077925507780425,-1.4543663311924453,-1.0913386033219075,726.0
727,1.4682582700557303,-1.0121680805719042,1.9424830857185766,-4.077925502376071,-1.4543662746877235,-1.2063292105031533,727.0
728,1.4682582213480555,-1.0121681019939532,1.942483092501885,-4.077925487251875,-1.4543662261286752,-1.3113198176844678,728.0
729,1.468258178665626,-1.0121681253941077,1.9424830978495353,-4.077925468772642,-1.454366183621556,-1.406310424865931,729.0
730,1.468258140476528,-1.012168146330842,1.942483102634214,-4.07792545223878,-1.4543661455893124,-1.4913010320474336,730.0
731,1.4682581098189735,-1.0121681687890962,1.9424831057469225,-4.0779254325851095,-1.4543661151127039,-1.566291639229027,731.0
732,1.4682580857536527,-1.0121681915368657,1.942483107530526,-4.077925411377608,-1.4543660912392666,-1.6312822464106596,732.0
733,1.4682580653912238,-1.012168210784472,1.9424831090396886,-4.077925393433269,-1.4543660710391961,-1.6862728535923295,733.0
734,1.4682580487316872,-1.012168226531915,1.942483110274409,-4.077925378752093,-1.4543660545124921,-1.7312634607740351,734.0
735,1.4682580357750425,-1.0121682387791957,1.9424831112346896,-4.077925367334082,-1.454366041659156,-1.766254067955738,735.0
736,1.4682580265212901,-1.0121682475263138,1.942483111920531,-4.077925359179235,-1.4543660324791872,-1.791244675137424,736.0
737,1.4682580209704301,-1.0121682527732698,1.9424831123319326,-4.0779253542875535,-1.4543660269725862,-1.8062352823191004,737.0
738,1.4685086892466181,-1.0105896901270213,1.9393878012100316,-4.076409146004598,-1.454622821263042,-1.8131104245738363,738.0
739,1.4689646859069172,-1.007717766116293,1.9337563928690356,-4.073650644459546,-1.455089963394517,-1.8108457483767633,739.0
740,1.4690265160599003,-1.0073270741183304,1.9329901997421393,-4.073275276855513,-1.4551533108315895,-1.800679832856114,740.0
741,1.469026174183351,-1.0073266813581316,1.9329892198774286,-4.073274689543126,-1.4551529726148251,-1.781140736014414,741.0
742,1.4690256573363036,-1.007326087585469,1.932987738523463,-4.073273801647557,-1.45515246130062,-1.7516016391726879,742.0
743,1.4690249655187588,-1.0073252928003433,1.9329857556802437,-4.0732726131688075,-1.4551517768889752,-1.712062542330972,743.0
744,1.4690240987796606,-1.0073242970167027,1.9329832713539747,-4.073271124019764,-1.4551509197696575,-1.6625234489872405,744.0
745,1.4690230573768888,-1.0073231003079965,1.9329802855772114,-4.073269333741257,-1.4551498919966748,-1.6029843746662409,745.0
746,1.469021841063307,-1.0073217026037724,1.9329767983185562,-4.073267242773072,-1.4551486916020995,-1.5334453003453083,746.0
747,1.4690217774003678,-1.0073215733314025,1.932976516759064,-4.073267090543393,-1.4551486295810168,-1.4539062405045247,747.0
748,1.4690218174456868,-1.0073215514657894,1.9329765117654785,-4.07326710759049,-1.4551486700696237,-1.3643671847018917,748.0
749,1.4690218619577962,-1.0073215271866394,1.9329765062400432,-4.073267126426381,-1.4551487150342126,-1.264828139063444,749.0
750,1.4690219145460046,-1.007321511085915,1.9329764980068318,-4.073267134715371,-1.4551487676641233,-1.1552891026549648,750.0
751,1.4690219729522687,-1.0073214965127324,1.9329764884139284,-4.073267140250683,-1.4551488259838699,-1.0357500739053613,751.0
752,1.4690220363847994,-1.007321487415096,1.9329764771217943,-4.073267138669868,-1.4551488893930085,-0.9062110523772077,752.0
753,1.469022104951369,-1.0073214889018183,1.9329764634466144,-4.073267124187131,-1.4551489580581896,-0.7666720350833454,753.0
754,1.4690221764322082,-1.007321497607683,1.9329764482646397,-4.073267101005158,-1.4551490297124223,-0.6171330204514796,754.0
755,1.469022248916719,-1.0073215203289518,1.9329764310726216,-4.073267061803122,-1.4551491025096064,-0.4575940124109736,755.0
756,1.4690223175213073,-1.0073215553450476,1.9329764130532499,-4.0732670094370125,-1.455149171542506,-0.2912769770366185,756.0
757,1.4690223777091087,-1.0073215968916123,1.9329763958442316,-4.073266951265609,-1.4551492322121402,-0.13309045124580615,757.0
758,1.469022422053361,-1.007321647191537,1.9329763806184221,-4.073266886164742,-1.4551492771043197,0.015096074545131746,758.0
759,1.4690224601666502,-1.0073216971583436,1.9329763666609283,-4.073266822603715,-1.4551493157545345,0.15328260033625377,759.0
760,1.4690224833555259,-1.0073217501807563,1.9329763552428914,-4.073266758377929,-1.4551493394917487,0.28146912612748015,760.0
761,1.4690225009405027,-1.0073218011477856,1.932976345192637,-4.073266697520408,-1.4551493575979673,0.3996556519188584,761.0
762,1.4690225119536593,-1.0073218490714426,1.9329763368282906,-4.073266641327963,-1.455149369094385,0.5078421777103197,762.0
763,1.4690225129075865,-1.0073218948222598,1.9329763307230097,-4.073266589468445,-1.4551493704977925,0.6060287035018922,763.0
764,1.4690225137643589,-1.0073219359134913,1.9329763252395273,-4.073266542890661,-1.4551493717582673,0.6942152292935453,764.0
765,1.4690225123540328,-1.007321972298078,1.932976320810628,-4.073266502052983,-1.4551493707027097,0.7724017550852667,765.0
766,1.4690225034798152,-1.0073220038633088,1.9329763184727735,-4.073266468053168,-1.45514936212677,0.8405882808770446,766.0
767,1.4690224959070597,-1.007322030799292,1.9329763164777807,-4.073266439039648,-1.455149354808548,0.8987748066688696,767.0
768,1.469022489635766,-1.007322053106026,1.9329763148256456,-4.07326641501242,-1.4551493487480434,0.9469613324607147,768.0
769,1.4690224846659348,-1.0073220707835129,1.932976313516373,-4.07326639597149,-1.4551493439452565,0.9851478582525771,769.0
770,1.4690224809975652,-1.0073220838317523,1.9329763125499626,-4.073266381916854,-1.4551493404001874,1.0133343840444298,770.0
771,1.469022478630658,-1.0073220922507446,1.932976311926415,-4.073266372848514,-1.455149338112836,1.0315209098362583,771.0
772,1.4691301062544722,-1.0066336209867532,1.9316254020798003,-4.072604167506875,-1.455259648985829,1.040705804288469,772.0
773,1.4695952120586426,-1.003658343385203,1.9257873763414275,-4.069742427354381,-1.455736350539009,1.0416257389626424,773.0
774,1.4697808605125708,-1.0024697618093232,1.923455090523976,-4.068599125503305,-1.4559266325331663,1.033770505266665,774.0
775,1.4697805770431414,-1.0024694224883914,1.9234542567553652,-4.068598630549002,-1.4559263530073248,1.0174366579712735,775.0
776,1.4697801200264609,-1.0024688754264877,1.9234529125322388,-4.068597832570988,-1.4559259023485982,0.9911028106758586,776.0
777,1.4697794894625293,-1.0024681206236117,1.9234510578545971,-4.068596731569262,-1.4559252805569867,0.9547689633804416,777.0
778,1.469778685351347,-1.0024671580797635,1.92344869272244,-4.068595327543825,-1.4559244876324897,0.9084351160850224,778.0
779,1.4697777074600409,-1.00246598758921,1.9234458169722028,-4.068593621397153,-1.4559235215209518,0.852101277180671,779.0
780,1.469776555929307,-1.0024646092762408,1.9234424307026439,-4.0685916125838375,-1.4559223834636599,0.7857674399728214,780.0
781,1.4697760530598445,-1.0024639860112248,1.9234409563105046,-4.068590761205635,-1.4559218859367227,0.7094336123791458,781.0
782,1.4697760521521102,-1.002463946014588,1.923440961619698,-4.068590806734939,-1.4559218840536194,0.6230997909773162,782.0
783,1.4697760511333477,-1.0024639014175276,1.923440967573348,-4.068590857406802,-1.4559218819038404,0.5267659813415582,783.0
784,1.4697760430384341,-1.0024638539627744,1.9234409753148256,-4.068590912583478,-1.4559218729272652,0.4204321784494663,784.0
785,1.4697760258455053,-1.0024638041601084,1.9234409851795937,-4.0685909720634825,-1.4559218552156539,0.30409838378993514,785.0
786,1.4697760061833565,-1.0024637506202771,1.9234409960171117,-4.068591036228208,-1.4559218349999672,0.17776459738739747,786.0
787,1.4697759688360912,-1.0024637016806333,1.9234410097393209,-4.068591098531453,-1.4559217971247267,0.04143081713548909,787.0
788,1.4697759282367324,-1.0024636496358617,1.9234410245062308,-4.068591164953276,-1.4559217559627822,-0.10490296245721846,788.0
789,1.4697758691571277,-1.0024636088810028,1.9234410414543894,-4.068591222079209,-1.455921696407405,-0.261236735070594,789.0
790,1.469775804132631,-1.0024635708202447,1.9234410592259383,-4.068591277274471,-1.4559216309262482,-0.42554330937526275,790.0
791,1.4697757331369283,-1.0024635485907383,1.9234410761208598,-4.068591315697973,-1.4559215596225028,-0.5828722041094784,791.0
792,1.4697756644820115,-1.0024635354978662,1.9234410913679179,-4.0685913433577685,-1.4559214907525546,-0.73020109884372,792.0
793,1.469775597458912,-1.0024635340629995,1.923441104779737,-4.068591357537354,-1.4559214236314064,-0.8675299935780595,793.0
794,1.4697755354209372,-1.0024635377483793,1.9234411165432255,-4.068591364996598,-1.4559213615521054,-0.9948588883123965,794.0
795,1.4697754784811583,-1.002463551973676,1.9234411259325932,-4.068591359589668,-1.4559213046812975,-1.1121877830467728,795.0
796,1.469775426394385,-1.0024635649865403,1.9234411345216933,-4.068591354643571,-1.4559212526576164,-1.2195166777811972,796.0
