Miguel-LA/TFM_MiguelLerinAlonso/workspace/ros_ur_driver/src/trayectories/data/saved_trajectories/20240523_1918_trajectory.csv
,shoulder_pan_joint,shoulder_lift_joint,elbow_joint,wrist_1_joint,wrist_2_joint,wrist_3_joint,time_from_start
0,4.867448329925537,-2.139871422444479,-1.9513643423663538,0.9574984312057495,-4.851573769246237,-0.7085178534137171,0.0
1,4.868128286333822,-2.1396762928058988,-1.9516348441593356,0.9575783488989125,-4.852253425777771,-0.7035178534137171,0.5
2,4.870168155558679,-2.1390909038901595,-1.9524463495382816,0.9578181019784013,-4.854292395372375,-0.6885178534137171,1.0
3,4.873567937600107,-2.138115255697261,-1.9537988585031916,0.958217690444216,-4.85769067803005,-0.663517853413717,1.5
4,4.878327632771603,-2.1367493488128417,-1.9556923697876698,0.9587771136301555,-4.862448274065944,-0.6285178535883287,2.0
5,4.884453857331471,-2.135004544123122,-1.958102213144187,0.9594833509961909,-4.8685718320102005,-0.5835178725610909,2.5
6,4.891959189476002,-2.132902424987453,-1.9609815184781532,0.9603116646121368,-4.876073991371773,-0.5285178911594982,3.0
7,4.900854249946673,-2.1304612461580845,-1.9642906486736642,0.9612411363857429,-4.88496542503973,-0.4635179110979302,3.5
8,4.9111493356867015,-2.1277032525688764,-1.9679820318059456,0.9622470296908947,-4.895256545633562,-0.38851794214888447,4.0
9,4.922856129530793,-2.1246541795991014,-1.972000695125491,0.9633007923128236,-4.906959174378406,-0.3035179743268669,4.5
10,4.935985493780738,-2.121343852492556,-1.976283675979868,0.9643700930543453,-4.920084378678745,-0.20851801479035428,5.0
11,4.950548545761361,-2.1178058988436117,-1.9807603003857857,0.9654187992441621,-4.934643525261135,-0.10351806185975398,5.5
12,4.966553439419407,-2.114078598136796,-1.9853513811192975,0.9664070528600082,-4.95064511668515,0.011481882738981486,6.0
13,4.984006769754802,-2.1102044312688015,-1.9899697256276845,0.9672912983127464,-4.968096154305107,0.13648096790785474,6.5
14,5.0014842350083875,-2.1065225767765874,-1.9941924674273217,0.9679770813309627,-4.985572821142222,0.26129674131583236,7.0
15,5.01759644291531,-2.1033026256170206,-1.9977318051822586,0.9684342520083149,-5.001685727757765,0.3761125243580764,7.5
16,5.032327035228437,-2.1005046288287037,-2.000672591984319,0.9687066239246906,-5.016418238494401,0.4809283183197771,8.0
17,5.045665213160918,-2.098091058107281,-2.003093246946012,0.9688340669409214,-5.029759245541289,0.5757441150126482,8.5
18,5.057603160626509,-2.0960275146197382,-2.0050650591167027,0.9688525396537049,-5.041700633358126,0.6605599216947253,9.0
19,5.068135388699904,-2.0942828274339718,-2.0066521762107214,0.9687941767730859,-5.052236623746173,0.7353757325044321,9.5
20,5.077259782550855,-2.092828917947706,-2.0079115753009873,0.9686871292300356,-5.061364834807096,0.800191552786972,10.0
21,5.084975251772452,-2.0916412658624015,-2.008892797373143,0.9685557672951806,-5.069083937775808,0.8550073738039111,10.5
22,5.091281170660579,-2.090699096187331,-2.00963773143593,0.9684206552326291,-5.07539310522039,0.8998232014479206,11.0
23,5.096178753978165,-2.089985052307366,-2.0101808777990726,0.9682984849985328,-5.08029338465281,0.9346390344439415,11.5
24,5.0996689526308705,-2.089485650515467,-2.0105490364017697,0.9682022219168562,-5.0837855970529215,0.9594548712023037,12.0
25,5.101773152533649,-2.0891876826450986,-2.010764762802325,0.9681411536760329,-5.085891041474658,0.9742737649127384,12.5
26,5.1064903692216195,-2.088520012603586,-2.011247774798935,0.9680039701197403,-5.090611050990381,0.9793526634075702,13.0
27,5.111270491000815,-2.0878434444125094,-2.0117372275375587,0.9678649622259905,-5.095394002803632,0.9744457942664813,13.5
28,5.111511464003048,-2.087809344461364,-2.011761901157614,0.967857961052281,-5.095635118425326,0.9613790706722033,14.0
29,5.111511467265307,-2.087809356212875,-2.011761900750524,0.9678579724014742,-5.095635121606202,0.9385263797886156,14.5
30,5.111511471955083,-2.087809373106673,-2.0117619001652978,0.9678579887169071,-5.095635126178983,0.9056736889050294,15.0
31,5.111511478072715,-2.087809395142992,-2.011761899401677,0.9678580099994356,-5.095635132146543,0.8628210259783242,15.5
32,5.1115114856179975,-2.087809422321693,-2.0117618984598193,0.9678580362485405,-5.095635139507126,0.8099683669465236,16.0
33,5.1115114929034995,-2.0878094544367007,-2.0117618982573533,0.9678580681604049,-5.0956351465691085,0.7471157096653702,16.5
34,5.111511492077775,-2.0878094905292772,-2.0117619030638685,0.9678581089748872,-5.0956351454630155,0.6742630612951784,17.0
35,5.111511491138707,-2.0878095315760565,-2.011761908530128,0.9678581553917622,-5.095635144205069,0.5914104160262919,17.5
36,5.1115114900862855,-2.0878095775770653,-2.011761914656104,0.9678582074111424,-5.095635142795212,0.49855777874757873,18.0
37,5.11151147833084,-2.087809625715739,-2.0117619232538155,0.9678582639259321,-5.095635130656381,0.3957051448544159,18.5
38,5.1115114614829515,-2.08780967748432,-2.0117619333632417,0.967858325522605,-5.0956351133925075,0.28285251568859826,19.0
39,5.111511439760766,-2.0878097318560016,-2.0117619448076383,0.967858391002179,-5.095635091230164,0.15999989320369756,19.5
40,5.111511403206146,-2.0878097829874265,-2.0117619588803493,0.9678584557255984,-5.095635054248602,0.027147276754276875,20.0
41,5.111511362142295,-2.0878098361850155,-2.011761974144101,0.9678585236559201,-5.095635012738107,-0.11570533522680403,20.5
42,5.11151130425379,-2.0878098789591557,-2.0117619915222162,0.9678585831279275,-5.095634954470357,-0.26855794129894195,21.0
43,5.11151123918283,-2.0878099185076224,-2.0117620099602123,0.9678586403678402,-5.095634889039413,-0.4313307127459405,21.5
44,5.111511166444187,-2.0878099430111785,-2.011762028039188,0.9678586821576476,-5.0956348160515095,-0.592396376722607,22.0
45,5.111511095552503,-2.0878099556972423,-2.0117620442207533,0.9678587102764271,-5.095634745003904,-0.7434620406992808,22.5
46,5.111511026725241,-2.0878099574046605,-2.0117620585680474,0.9678587256265996,-5.0956346761077125,-0.884527704675963,23.0
47,5.111510962970881,-2.087809950522016,-2.011762070770409,0.9678587303116579,-5.095634612355286,-1.0155933686526508,23.5
48,5.11151090429248,-2.0878099349157893,-2.01176208081006,0.9678587241806176,-5.09563455375072,-1.1366590326293453,24.0
49,5.111510850740963,-2.0878099197381013,-2.0117620898523842,0.967858717532092,-5.095634500273855,-1.2477246966060438,24.5
50,5.111510806050817,-2.087809893514125,-2.011762095656568,0.9678586967128098,-5.095634455751375,-1.3487903605827523,25.0
51,5.111510765782562,-2.087809869884898,-2.0117621008864495,0.967858677953501,-5.095634415634197,-1.4398560245594663,25.5
52,5.111510729936198,-2.0878098488504175,-2.01176210554203,0.9678586612541669,-5.09563437992232,-1.5209216885361805,26.0
53,5.111510703622175,-2.0878098232624125,-2.0117621076559202,0.9678586375663496,-5.095634353785879,-1.591987352512895,26.5
54,5.111510681402073,-2.0878098007279036,-2.011762109321773,0.9678586165192056,-5.095634331722941,-1.65305301648961,27.0
55,5.111510662820693,-2.0878097818836046,-2.0117621107148262,0.967858598918701,-5.0956343132729875,-1.704118680466322,27.5
56,5.1115106478780366,-2.087809766729516,-2.011762111835082,0.9678585847648373,-5.09563429843602,-1.7451843444430337,28.0
57,5.111510636574103,-2.087809755265636,-2.011762112682541,0.9678585740576158,-5.0956342872120395,-1.7762500084197461,28.5
58,5.111510628908891,-2.0878097474919652,-2.0117621132572046,0.9678585667970359,-5.095634279601044,-1.797315672396458,29.0
59,5.111399689068256,-2.08800521748442,-2.011382131186855,0.9676739679789398,-5.0955235484434205,-1.8087101768629925,29.5
60,5.1098968623951135,-2.0906532690584227,-2.0062345800701116,0.965173293765588,-5.094023548394514,-1.812244708611884,30.0
61,5.108797538219677,-2.0925903383780255,-2.0024691134419728,0.9633440340279595,-5.0929262931040435,-1.8061949091403608,30.5
62,5.108797543647494,-2.09259034172698,-2.002469114577948,0.9633440311320696,-5.092926301331685,-1.7922089067149913,31.0
63,5.108797552956205,-2.0925903474704386,-2.0024691165261466,0.9633440261656164,-5.092926315442096,-1.7682229042896216,31.5
64,5.108797566145809,-2.092590355608402,-2.0024691192865687,0.9633440191286005,-5.0929263354352745,-1.7342369018642523,32.0
65,5.108797583216306,-2.0925903661408696,-2.0024691228592135,0.9633440100210212,-5.092926361311223,-1.6902508994388836,32.5
66,5.108797603686959,-2.0925903786825724,-2.002469127638314,0.9633439974504614,-5.092926389027951,-1.6362649107020029,33.0
67,5.108797627595576,-2.0925903932638112,-2.0024691335928657,0.9633439815264285,-5.09292641890335,-1.572278931219295,33.5
68,5.108797657042399,-2.092590410925803,-2.0024691362480542,0.9633439758632377,-5.0929264520168624,-1.498292957868086,34.0
69,5.108797693738142,-2.092590432430001,-2.0024691315874428,0.9633439925668092,-5.0929264870097875,-1.4143069948751499,34.5
70,5.108797734794958,-2.092590456561502,-2.0024691263137977,0.9633440115438914,-5.092926526100024,-1.3203210403785433,35.0
71,5.108797781329647,-2.0925904800959243,-2.00246911979476,0.9633440289043728,-5.09292657093614,-1.216335092847332,35.5
72,5.108797836231097,-2.0925904947129377,-2.002469110364964,0.9633440347062963,-5.0929266257556405,-1.1023491543059585,36.0
73,5.108797895951465,-2.092590510613068,-2.002469100106939,0.963344041019281,-5.092926685404767,-0.9783632252231877,36.5
74,5.108797960844665,-2.092590512212682,-2.00246908696102,0.9633440301493574,-5.092926750342277,-0.8443773017212283,37.0
75,5.108798030659587,-2.0925905104983213,-2.0024690723801277,0.9633440145695802,-5.0929268202313995,-0.7003913795099546,37.5
76,5.10879810086503,-2.0925904914904465,-2.002469055490042,0.9633439794276968,-5.092926890643975,-0.546405462667866,38.0
77,5.10879817431907,-2.0925904664982533,-2.002469037160453,0.963343936907842,-5.092926964353896,-0.382420886717285,38.5
78,5.108798235949272,-2.0925904210283655,-2.0024690186236556,0.9633438736256665,-5.092927026390813,-0.21866603299494686,39.0
79,5.108798290331212,-2.0925903748048484,-2.002469001480599,0.9633438109112286,-5.092927081179444,-0.06491117927261235,39.5
80,5.10879832963813,-2.092590319898422,-2.0024689863192275,0.9633437413600033,-5.092927120948767,0.07884367444972742,40.0
81,5.108798362987992,-2.0925902669219956,-2.0024689726318843,0.9633436751479629,-5.092927154741037,0.21259852817214347,40.5
82,5.10879838134729,-2.092590210579354,-2.0024689615940816,0.9633436080733647,-5.092927173556867,0.3363533818945431,41.0
83,5.108798398223065,-2.0925901587894793,-2.002468951448179,0.9633435464187209,-5.092927190852284,0.45010823561692004,41.5
84,5.108798402451465,-2.0925901085844316,-2.002468944107948,0.963343489022189,-5.09292719547756,0.5538630893392834,42.0
85,5.108798403506716,-2.0925900624829556,-2.0024689379492684,0.9633434368697706,-5.092927196894936,0.647617943061635,42.5
86,5.108798404449413,-2.0925900212987187,-2.002468932447476,0.9633433902799872,-5.092927198161132,0.7313727967839737,43.0
87,5.108798398780031,-2.0925899851913345,-2.002468928960024,0.9633433507032493,-5.092927192770061,0.8051276505063063,43.5
88,5.108798390698903,-2.0925899540576505,-2.0024689266096587,0.963343317202227,-5.092927184926295,0.868882504228631,44.0
89,5.108798383885306,-2.09258992780731,-2.002468924627948,0.9633432889558663,-5.09292717831283,0.9226373579509504,44.5
90,5.108798378339241,-2.0925899064403146,-2.002468923014893,0.9633432659641672,-5.092927172929666,0.9663922116732667,45.0
91,5.108798374060708,-2.092589889956662,-2.0024689217704945,0.9633432482271305,-5.092927168776802,1.0001470653955833,45.5
92,5.108798371049706,-2.0925898783563524,-2.0024689208947537,0.9633432357447563,-5.09292716585424,1.0239019191179044,46.0
93,5.108798345248547,-2.092589914711346,-2.002468836589896,0.9633431877731893,-5.0929271401512155,1.0376567726418546,46.5
94,5.107677038697159,-2.094597454757549,-1.998563102156684,0.9614441525041025,-5.091808020687806,1.0435391086507813,47.0
95,5.106216409100141,-2.0972125121649587,-1.993475433617896,0.9589704438705736,-5.0903502402016825,1.0397936265229173,47.5
96,5.1061233214495285,-2.0973791794894,-1.9931511870308907,0.9588127882459495,-5.090257334740397,1.028235548123805,48.0
97,5.106123324274931,-2.097379186880504,-1.993151190375078,0.9588127869181311,-5.090257338711242,1.006962220788175,48.5
98,5.106123328428478,-2.0973791977459615,-1.9931511952912753,0.9588127849661422,-5.090257344548672,0.975688893452547,49.0
99,5.106123333910169,-2.0973792120857713,-1.993151201779482,0.9588127823899828,-5.090257352252686,0.9344155661169193,49.5
100,5.106123340985595,-2.097379230000585,-1.9931512097204873,0.958812779487776,-5.090257364069125,0.8831422441596797,50.0
101,5.1061233500452605,-2.0973792516383916,-1.993151218939015,0.9588127766978544,-5.09025738330007,0.8218689334150713,50.5
102,5.106123359424785,-2.097379277816576,-1.993151229021504,0.9588127779121094,-5.09025740339225,0.750595624329124,51.0
103,5.106123358721011,-2.0973793175943554,-1.9931512342170938,0.9588128231690587,-5.090257403899341,0.6693223301116664,51.5
104,5.106123357925286,-2.09737936230482,-1.9931512400184932,0.9588128741583142,-5.090257404423321,0.5780490409173598,52.0
105,5.10612335703372,-2.0973794119758242,-1.9931512464014056,0.9588129309988216,-5.090257404931151,0.4767757593906733,52.5
106,5.106123341232745,-2.0973794624444255,-1.9931512561550413,0.9588129910689385,-5.090257388770851,0.3655024891305412,53.0
107,5.106123323348744,-2.097379517263911,-1.9931512669089262,0.9588130564260431,-5.09025737039874,0.24422922612069436,53.5
108,5.106123294813826,-2.0973795712144456,-1.9931512797569346,0.9588131228567087,-5.09025734139089,0.1129559695930494,54.0
109,5.106123256425457,-2.097379624764465,-1.993151294593757,0.9588131907372563,-5.0902573025446545,-0.028317283994867885,54.5
110,5.106123207056055,-2.0973796737414614,-1.993151311102576,0.9588132556148363,-5.090257252746078,-0.17959053396204477,55.0
111,5.106123146736827,-2.097379718177128,-1.9931513292809644,0.9588133175193294,-5.090257192025975,-0.34086377743303986,55.5
112,5.106123075925485,-2.0973797484726933,-1.9931513477938076,0.9588133655404876,-5.090257120916735,-0.5066579369603618,56.0
113,5.106123006138957,-2.0973797718933618,-1.9931513652065298,0.9588134056114801,-5.090257050887446,-0.6631270143283423,56.5
114,5.1061229358071465,-2.097379774556665,-1.9931513800479057,0.9588134223914818,-5.090256980476418,-0.8095960916963146,57.0
115,5.106122870047496,-2.0973797761544257,-1.993151393809076,0.9588134370747068,-5.090256914649752,-0.9460651690642754,57.5
116,5.106122809478529,-2.097379761390415,-1.993151404384896,0.9588134322980126,-5.0902568541473325,-1.0725342464322338,58.0
117,5.10612275372673,-2.097379746573777,-1.9931514139609727,0.9588134265183132,-5.0902567984664815,-1.1890033238001845,58.5
118,5.106122705039082,-2.097379726049109,-1.9931514213429657,0.9588134129206355,-5.090256749900724,-1.2954724011681278,59.0
119,5.106122662908971,-2.097379701369231,-1.9931514268360668,0.9588133933545722,-5.090256707930757,-1.3919414785360702,59.5
120,5.106122625146072,-2.0973796792476755,-1.9931514317597459,0.958813375816727,-5.090256670311401,-1.4784105559040093,60.0
121,5.106122593922042,-2.097379656655041,-1.9931514352747082,0.9588133564669264,-5.090256639240045,-1.5548796332719452,60.5
122,5.106122570034464,-2.097379632478726,-1.9931514370727048,0.9588133338947947,-5.090256615523719,-1.6213487106398818,61.0
123,5.1061225497406735,-2.0973796119396386,-1.9931514386001994,0.9588133147185475,-5.0902565953754175,-1.6778177880078229,61.5
124,5.10612253304067,-2.0973795950377796,-1.9931514398571901,0.958813298938183,-5.090256578795138,-1.7242868653757704,62.0
125,5.1061225199344555,-2.097379581773148,-1.9931514408436803,0.9588132865537036,-5.090256565782884,-1.760755942743717,62.5
126,5.10612251042203,-2.0973795721457433,-1.99315144155967,0.9588132775651094,-5.090256556338654,-1.7872250201116628,63.0
127,5.106122504503392,-2.097379566155566,-1.993151442005159,0.9588132719724,-5.090256550462447,-1.803694097479608,63.5
128,5.105453140142374,-2.0985971803168315,-1.990780582066511,0.9576595451532484,-5.089588539496735,-1.8116307166116221,64.0
129,5.103856947395686,-2.101500771386991,-1.985126909724326,0.9549083158651632,-5.087995574447772,-1.810601142395987,64.5
130,5.10348460600621,-2.1021780961904684,-1.983808074592502,0.954266533022617,-5.087623987816223,-1.8011199661146793,65.0
131,5.103484613116765,-2.102178100574517,-1.9838080760891792,0.9542665292527904,-5.087623998673884,-1.7825827296755052,65.5
132,5.103484624063146,-2.102178107323562,-1.9838080783932464,0.9542665234493133,-5.087624015388762,-1.7540454932363325,66.0
133,5.103484638845347,-2.102178116437602,-1.9838080815047028,0.954266515612185,-5.087624037960857,-1.7155082567971576,66.5
134,5.103484657425799,-2.102178127885736,-1.9838080854553575,0.9542665056290923,-5.0876240660708065,-1.6669710215735767,67.0
135,5.103484679054169,-2.1021781410508673,-1.9838080908804017,0.9542664912572015,-5.087624093341177,-1.608433808412053,67.5
136,5.103484704377345,-2.1021781564650177,-1.9838080972322136,0.9542664744301392,-5.087624125270186,-1.5398965952505335,68.0
137,5.103484737461189,-2.1021781759318383,-1.9838080948416026,0.9542664840353217,-5.087624158297982,-1.4613593956799762,68.5
138,5.103484775670407,-2.1021781982945185,-1.9838080899620263,0.9542665014091021,-5.087624194718162,-1.3728222005153512,69.0
139,5.103484818184054,-2.1021782232718724,-1.9838080844532038,0.9542665211244941,-5.087624235156335,-1.274285016572941,69.5
140,5.103484868354139,-2.102178241203837,-1.9838080764126795,0.9542665315027165,-5.087624284575767,-1.165747840692696,70.0
141,5.1034849247455805,-2.1021782562074955,-1.9838080666877094,0.9542665374167854,-5.087624340889141,-1.0472106726130246,70.5
142,5.103484986012463,-2.1021782673734335,-1.9838080554625765,0.9542665380317676,-5.087624402122526,-0.9186735119741969,71.0
143,5.103485052357516,-2.1021782657789716,-1.9838080415506356,0.9542665232084271,-5.0876244685392775,-0.7801363560095693,71.5
144,5.103485122121616,-2.102178258804707,-1.983808026234726,0.9542665016469556,-5.087624538420072,-0.6315992019443871,72.0
145,5.103485192394133,-2.10217823526532,-1.9838080086650631,0.9542664613064771,-5.087624608938853,-0.4730620546670485,72.5
146,5.103485260571867,-2.1021782008528755,-1.9838079901177796,0.9542664091164226,-5.087624677447705,-0.30670374942797796,73.0
147,5.103485319748319,-2.1021781573242393,-1.9838079722474546,0.9542663484138535,-5.087624737020381,-0.14750221153697043,73.5
148,5.1034853649871526,-2.1021781061958977,-1.9838079562705322,0.9542662818778929,-5.087624782704314,0.0016993263540293832,74.0
149,5.10348540257798,-2.102178053827221,-1.983807941712599,0.9542662154447897,-5.087624820743722,0.1409008642450184,74.5
150,5.103485427172839,-2.102177999194379,-1.9838079295456137,0.9542661490099935,-5.0876248457943305,0.27010240213599684,75.0
151,5.103485444636664,-2.10217794573028,-1.9838079190033056,0.9542660852931337,-5.08762486369863,0.38930394002697455,75.5
152,5.103485457095716,-2.1021778958109616,-1.9838079099546375,0.9542660265560806,-5.087624876565734,0.49850547791794403,76.0
153,5.103485458196677,-2.10217784774851,-1.98380790349311,0.9542659721428149,-5.087624878050454,0.5977070158089102,76.5
154,5.103485459186656,-2.1021778045309913,-1.9838078976829303,0.9542659232146702,-5.0876248793855074,0.6869085536998696,77.0
155,5.103485458955349,-2.1021777661850916,-1.9838078927569252,0.9542658800197267,-5.087624879459449,0.7661100915908328,77.5
156,5.103485450290667,-2.102177732884167,-1.9838078902274145,0.9542658441694056,-5.087624871052776,0.8353116294817938,78.0
157,5.103485442878078,-2.102177704395408,-1.9838078880634322,0.9542658134996516,-5.0876248638609125,0.8945131673727594,78.5
158,5.103485436717584,-2.1021776807188157,-1.9838078862649744,0.9542657880104627,-5.087624857883859,0.94371470526373,79.0
159,5.103485431809183,-2.1021776618543884,-1.9838078848320446,0.9542657677018411,-5.087624853121616,0.9829162431546996,79.5
160,5.103485428152877,-2.1021776478021263,-1.983807883764644,0.9542657525737872,-5.0876248495741825,1.0121177810456703,80.0
161,5.103485425748664,-2.102177638562029,-1.9838078830627723,0.9542657426263007,-5.08762484724156,1.0313193189366403,80.5
162,5.103199902684412,-2.1027053293950355,-1.9827795622638793,0.9537649162791754,-5.087339922429147,1.0412999266496992,81.0
163,5.101648441489202,-2.1055727072756825,-1.9771919015258708,0.951043566045534,-5.085791711835971,1.0430050369919137,81.5
164,5.100884020749517,-2.106985498559716,-1.9744388014090097,0.9497027272942049,-5.085028893108927,1.0355779632677176,82.0
165,5.100884022827385,-2.1069855039657814,-1.9744388038766152,0.9497027263187298,-5.0850288960908845,1.0197958868468284,82.5
166,5.1008840262218555,-2.1069855127972925,-1.9744388079077706,0.9497027247251644,-5.0850289009623015,0.9940138104259352,83.0
167,5.100884030932924,-2.1069855250542493,-1.9744388135024749,0.9497027225135084,-5.085028907723174,0.9582317340050431,83.5
168,5.100884036960594,-2.1069855407366522,-1.9744388206607284,0.9497027196837621,-5.085028916373508,0.9124496575841505,84.0
169,5.1008840449534,-2.1069855601013514,-1.974438829079213,0.9497027170110606,-5.085028932457088,0.856667594332566,84.5
170,5.100884054582492,-2.106985583018108,-1.9744388389117316,0.9497027141023587,-5.085028953162848,0.7908855348953051,85.0
171,5.100884059039903,-2.106985615155009,-1.9744388465514453,0.9497027361701703,-5.085028963799222,0.7151034845456514,85.5
172,5.100884058305622,-2.1069856565293557,-1.9744388519872333,0.949702783291155,-5.0850289643263515,0.6293214415860617,86.0
173,5.10088405747391,-2.1069857028097347,-1.9744388579836318,0.9497028362597353,-5.085028964813241,0.5335394094220279,86.5
174,5.100884050449934,-2.1069857522459996,-1.9744388657269498,0.9497028938435587,-5.085028958446478,0.4277573840427635,87.0
175,5.100884033588135,-2.1069858038123788,-1.9744388759084175,0.949702955392481,-5.085028941126512,0.3119753669949766,87.5
176,5.100884015202201,-2.106985859792151,-1.9744388869797178,0.9497030222200529,-5.085028922228646,0.18619335830479056,88.0
177,5.1008839787602405,-2.106985910492303,-1.9744389011227423,0.9497030865833471,-5.085028885345674,0.050411355975216676,88.5
178,5.1008839396344685,-2.1069859649262335,-1.9744389163074982,0.9497031556861046,-5.085028845746775,-0.09537064612915604,89.0
179,5.100883882438613,-2.106986007552267,-1.9744389336963102,0.9497032150259912,-5.085028788160245,-0.25115264136900095,89.5
180,5.100883819047376,-2.106986048453595,-1.9744389521433323,0.9497032736393967,-5.085028724387022,-0.4165691148909308,90.0
181,5.100883747699171,-2.106986072308208,-1.9744389700194118,0.9497033145885144,-5.085028652786904,-0.5785274081987318,90.5
182,5.100883678616273,-2.1069860864747585,-1.9744389861657532,0.9497033441629711,-5.085028583531804,-0.7304857015065631,91.0
183,5.100883611050325,-2.106986088080439,-1.9744390003634582,0.9497033592692689,-5.085028515895802,-0.8724439948144413,91.5
184,5.100883548396833,-2.1069860829018605,-1.974439012661243,0.9497033657557508,-5.0850284532308905,-1.004402288122356,92.0
185,5.10088349073265,-2.1069860675859577,-1.974439022606863,0.9497033598247763,-5.085028395640911,-1.1263605814302817,92.5
186,5.100883437796652,-2.106986053525889,-1.9744390317369827,0.9497033543801103,-5.085028342773034,-1.238318874738248,93.0
187,5.100883393691957,-2.106986028175468,-1.9744390375694536,0.9497033344612933,-5.085028298834595,-1.3402771680462404,93.5
188,5.100883354023329,-2.1069860049741056,-1.9744390427631449,0.9497033160938966,-5.085028259318719,-1.4322354613542534,94.0
189,5.100883318668462,-2.106985984295775,-1.9744390473920452,0.9497032997238599,-5.085028224099993,-1.5141937546622821,94.5
190,5.100883292155929,-2.106985959839994,-1.974439049698681,0.9497032773526549,-5.085028197761414,-1.586152047970316,95.0
191,5.100883270161605,-2.106985937622807,-1.9744390513611876,0.9497032566177152,-5.085028175926889,-1.648110341278369,95.5
192,5.100883251717138,-2.1069859189914495,-1.9744390527553648,0.9497032392293699,-5.0850281576164305,-1.700068634586429,96.0
193,5.100883236822533,-2.1069859039459224,-1.9744390538812149,0.9497032251876207,-5.085028142830041,-1.7420269278944929,96.5
194,5.100883225477785,-2.106985892486225,-1.9744390547387387,0.9497032144924683,-5.08502813156772,-1.773985221202561,97.0
195,5.1008832176829,-2.1069858846123557,-1.9744390553279367,0.9497032071439129,-5.085028123829467,-1.7959435145106213,97.5
196,5.100836166309593,-2.1070742205531916,-1.9742667706635182,0.9496192274602283,-5.084981174595118,-1.808058086328262,98.0
197,5.099511076601937,-2.1095623368651273,-1.9694143371946986,0.9472540392795262,-5.083658960781534,-1.8124741542541896,98.5
198,5.0983258858428435,-2.1117877744832914,-1.9650741967289524,0.9451385546470916,-5.082476343370555,-1.807161156578087,99.0
199,5.098317465624454,-2.111803597451561,-1.9650433450865235,0.945123513740748,-5.082467944097677,-1.7941273443160402,99.5
200,5.098317474347029,-2.111803602826046,-1.9650433469328825,0.9451235091467571,-5.0824679575152185,-1.7711232270098927,100.0
201,5.098317486861351,-2.111803610536845,-1.9650433495818627,0.9451235025557364,-5.08246797676543,-1.7381191097037392,100.5
202,5.098317503167417,-2.1118036205839585,-1.9650433530334643,0.9451234939676859,-5.0824680018483095,-1.6951149923975908,101.0
203,5.0983175228850595,-2.111803632646463,-1.9650433576200064,0.9451234822100514,-5.082468029497742,-1.6421108867047136,101.5
204,5.0983175459066,-2.111803646633461,-1.9650433634356141,0.9451234669507209,-5.082468058788642,-1.5791067926607456,102.0
205,5.098317573850016,-2.111803663401338,-1.9650433671197969,0.9451234583131352,-5.082468091512721,-1.5061027031017562,102.5
206,5.098317609238603,-2.1118036840662895,-1.965043362593732,0.9451234742954827,-5.082468125250243,-1.423098625413577,103.0
207,5.098317648883587,-2.111803707275738,-1.9650433574736337,0.9451234924379306,-5.08246816299112,-1.3300945550397987,103.5
208,5.098317693406857,-2.1118037312475666,-1.965043351395109,0.9451235106149299,-5.082468205648945,-1.2270904917770165,104.0
209,5.098317746509799,-2.1118037453690777,-1.9650433421983156,0.9451235161399721,-5.082468258669851,-1.1140864386471725,104.5
210,5.098317804314011,-2.1118037607409605,-1.9650433321867846,0.9451235221559943,-5.082468316400498,-0.9910823940529656,105.0
211,5.098317867122047,-2.111803764077349,-1.9650433195818855,0.9451235135537752,-5.082468379238771,-0.8580783554163188,105.5
212,5.09831793477084,-2.111803762488239,-1.9650433053361414,0.9451234984179794,-5.082468446961894,-0.715074318736005,106.0
213,5.098318003346115,-2.111803746203248,-1.965043288979388,0.9451234665147985,-5.08246851572879,-0.5620702868026162,106.5
214,5.098318074716382,-2.1118037223862824,-1.9650432710591823,0.945123425560429,-5.082468587352883,-0.3990662611323952,107.0
215,5.098318136201972,-2.111803679841308,-1.9650432527450186,0.9451233654206278,-5.082468649235474,-0.23440838858355834,107.5
216,5.098318191083063,-2.1118036362267345,-1.9650432356617449,0.9451233053763417,-5.0824687045165735,-0.07967581932052145,108.0
217,5.098318229688792,-2.1118035825853965,-1.9650432206467916,0.9451232372265213,-5.082468743589556,0.06505674994253502,108.5
218,5.0983182640291655,-2.111803531716383,-1.9650432068789314,0.9451231730465824,-5.0824687783710925,0.19978931920559895,109.0
219,5.098318282078384,-2.1118034765913247,-1.9650431959361117,0.9451231072766441,-5.0824687968819875,0.32452188846866853,109.5
220,5.098318298680568,-2.1118034258857312,-1.9650431858705857,0.9451230467795795,-5.082468813908838,0.43925445773174554,110.0
221,5.098318304246325,-2.1118033770532243,-1.9650431783398812,0.9451229905730322,-5.082468819874656,0.5439870269948304,110.5
222,5.098318305283195,-2.11180333182182,-1.965043172219174,0.9451229393236481,-5.08246882127856,0.6387195962579272,111.0
223,5.098318306210612,-2.11180329136506,-1.9650431667445654,0.945122893484163,-5.082468822534267,0.723452165521026,111.5
224,5.098318301603769,-2.111803255810389,-1.9650431630584517,0.94512285426833,-5.0824688182112965,0.798184734784125,112.0
225,5.098318293596377,-2.111803225107678,-1.9650431607115024,0.9451228211987506,-5.082468810445592,0.8629173040472224,112.5
226,5.098318286825982,-2.111803199147976,-1.9650431587271124,0.945122793237817,-5.0824688038795465,0.9176498733103221,113.0
227,5.098318281292583,-2.1118031779312836,-1.9650431571052809,0.9451227703855285,-5.08246879851316,0.9623824425734038,113.5
228,5.098318276996178,-2.1118031614575985,-1.9650431558460109,0.9451227526418864,-5.082468794346434,0.9971150118364867,114.0
229,5.098318273936769,-2.1118031497269216,-1.9650431549493028,0.945122740006891,-5.082468791379367,1.021847581099574,114.5
230,5.098318272114357,-2.1118031427392525,-1.9650431544151565,0.945122732480542,-5.08246878961196,1.0365801503626624,115.0
231,5.097419834775516,-2.1135170246965336,-1.9616980716938803,0.9434909681522772,-5.081572371469194,1.0432222432277487,115.5
232,5.095961940227686,-2.1162981507119705,-1.9562699994709671,0.9408431057995,-5.080117753616761,1.0404834694912384,116.0
233,5.095787554833192,-2.116630819953831,-1.955620719631305,0.9405263798578076,-5.07994376079623,1.0297391796496485,116.5
234,5.095787557470873,-2.1166308267795317,-1.9556207227746891,0.940526378621763,-5.079943764660886,1.009531348664987,117.0
235,5.09578756141383,-2.1166308369829827,-1.9556207274736006,0.9405263767740522,-5.079943770437996,0.9793235176803251,117.5
236,5.095787566662063,-2.1166308505641838,-1.95562073372804,0.9405263743146751,-5.0799437781275625,0.9391156866956696,118.0
237,5.095787573384845,-2.116630867593153,-1.955620741455506,0.9405263714585921,-5.079943789192183,0.8889078592088416,118.5
238,5.095787582110871,-2.1166308882885803,-1.9556207503983227,0.9405263688771917,-5.079943808200021,0.8287000442530934,119.0
239,5.095787592286216,-2.1166309124213387,-1.955620760826464,0.9405263658670427,-5.079943830364897,0.7584922292973411,119.5
240,5.095787591704459,-2.1166309504691507,-1.9556207659205396,0.9405264089693457,-5.079943831046046,0.6782844306647089,120.0
241,5.095787590937103,-2.1166309933812397,-1.955620771564728,0.9405264579771095,-5.079943831557606,0.5880766358330394,120.5
242,5.0957875900744405,-2.1166310411204883,-1.9556207777720653,0.9405265127183247,-5.079943832036839,0.48786885009488457,121.0
243,5.0957875763322145,-2.116631090075226,-1.9556207869920694,0.9405265708580636,-5.079943818130407,0.3776610743763231,121.5
244,5.095787559039243,-2.1166311428321745,-1.955620797480604,0.9405266338973952,-5.079943800353401,0.2574533061381227,122.0
245,5.09578753310284,-2.11663119575923,-1.955620809798131,0.940526698811518,-5.079943773934785,0.12724554478200212,122.5
246,5.0957874959316225,-2.1166312473393627,-1.955620824287757,0.9405267643917467,-5.079943736307553,-0.012962212921503631,123.0
247,5.095787449698209,-2.1166312961342104,-1.9556208402974424,0.940526828619364,-5.079943689634323,-0.1631699676582953,123.5
248,5.095787391233597,-2.1166313389487232,-1.9556208580675922,0.9405268885144331,-5.079943630769854,-0.3233777158015388,124.0
249,5.095787323207422,-2.116631370517745,-1.9556208763534824,0.9405269376039103,-5.079943562427261,-0.48956764207593306,124.5
250,5.095787254652821,-2.116631393351771,-1.9556208936049833,0.9405269769362307,-5.079943493627022,-0.6470981336739399,125.0
251,5.095787186093352,-2.116631398050253,-1.955620908481736,0.9405269957948156,-5.079943424969892,-0.7946286252719705,125.5
252,5.095787121429273,-2.1166313995510997,-1.9556209221292957,0.9405270102732075,-5.079943360237615,-0.932159116870012,126.0
253,5.0957870617886645,-2.116631386917861,-1.955620932880341,0.9405270078013461,-5.079943300648486,-1.0596896084680514,126.5
254,5.095787006891879,-2.1166313723430994,-1.9556209423902637,0.9405270021996912,-5.079943245823127,-1.1772201000661118,127.0
255,5.095786958442954,-2.1166313535875805,-1.9556209500112685,0.9405269906033076,-5.079943197485322,-1.2847505916641733,127.5
256,5.095786916880304,-2.1166313293138925,-1.955620955476961,0.9405269714156124,-5.07994315608478,-1.3822810832622432,128.0
257,5.095786879579155,-2.116631307529038,-1.9556209603822383,0.9405269541952674,-5.079943118929117,-1.4698115748603122,128.5
258,5.095786848079012,-2.116631286096717,-1.9556209641270161,0.9405269362260802,-5.079943087576604,-1.5473420664583855,129.0
259,5.095786824396687,-2.116631262218297,-1.9556209659251527,0.9405269139497264,-5.079943064068631,-1.6148725580564645,129.5
260,5.09578680422127,-2.1166312418758233,-1.9556209674570184,0.9405268949720829,-5.079943044041748,-1.6724030496545346,130.0
261,5.095786787552761,-2.1166312250692974,-1.9556209687226107,0.9405268792931473,-5.079943027495955,-1.7199335412525976,130.5
262,5.095786774391161,-2.1166312117987176,-1.9556209697219331,0.9405268669129229,-5.079943014431251,-1.7574640328506579,131.0
263,5.095786764736469,-2.116631202064084,-1.9556209704549865,0.9405268578314093,-5.079943004847639,-1.7849945244487189,131.5
264,5.095786758588686,-2.1166311958653963,-1.95562097092177,0.9405268520486069,-5.079942998745116,-1.8025250160467843,132.0
265,5.095305756479279,-2.1175633637959503,-1.953800216177851,0.9396379777843955,-5.079463115704639,-1.811271182102538,132.5
266,5.093786451602091,-2.1205077603037363,-1.948049098989796,0.9368303486057304,-5.0779473457522295,-1.8113457545473073,133.0
267,5.09329027394568,-2.1214693555830926,-1.9461708759195062,0.9359134199393552,-5.077452324243057,-1.8027133092306966,133.5
268,5.093290280464313,-2.12146935959717,-1.9461708773071302,0.9359134165293915,-5.0774523343448585,-1.785324001953549,134.0
269,5.09329029073159,-2.121469365919607,-1.9461708794927297,0.9359134111584736,-5.077452350255861,-1.7579346946764025,134.5
270,5.0932903047475095,-2.1214693745504034,-1.9461708824763042,0.9359134038266015,-5.077452371976066,-1.7205453873992576,135.0
271,5.0932903225120745,-2.1214693854895597,-1.9461708862578544,0.9359133945337751,-5.077452399505473,-1.6731560801221173,135.5
272,5.093290343298213,-2.121469398106988,-1.9461708914938212,0.9359133809665001,-5.077452426530907,-1.6157667943143332,136.0
273,5.093290367652876,-2.1214694128766824,-1.946170897690387,0.9359133648651358,-5.077452457801549,-1.5483775099268926,136.5
274,5.09329039897135,-2.1214694313169233,-1.9461708966303761,0.9359133703618028,-5.077452490213287,-1.4709882371395475,137.0
275,5.093290435782546,-2.1214694527788707,-1.9461708919036957,0.9359133869252447,-5.077452525302085,-1.3835989691269448,137.5
276,5.093290476793277,-2.1214694767934175,-1.9461708865492786,0.9359134057982768,-5.077452564294267,-1.286209713905352,138.0
277,5.093290524714275,-2.1214694955689417,-1.9461708790319387,0.935913417484451,-5.0774526112403855,-1.1788204654022518,138.5
278,5.093290579213042,-2.12146951005679,-1.9461708695504853,0.935913423110877,-5.077452665658912,-1.0614312249296463,139.0
279,5.093290638422815,-2.121469522864129,-1.9461708588675446,0.9359134259004077,-5.077452724818287,-0.9340419923188945,139.5
280,5.093290702630748,-2.1214695213923154,-1.9461708452852702,0.9359134115132159,-5.077452789097926,-0.7966527651421155,140.0
281,5.093290770784543,-2.121469517030028,-1.9461708305004124,0.9359133930788863,-5.0774528573503925,-0.6492635391939299,140.5
282,5.093290838863592,-2.121469494397379,-1.946170813329482,0.9359133540243233,-5.07745292567515,-0.4918743201392165,141.0
283,5.093290906622029,-2.121469463358479,-1.9461707951204184,0.9359133055389475,-5.077452993748143,-0.32572553114604125,141.5
284,5.093290964782684,-2.121469420828914,-1.9461707774022803,0.9359132459777164,-5.07745305230949,-0.16538025211753482,142.0
285,5.093291010987789,-2.1214693725618914,-1.9461707614229753,0.9359131823057449,-5.077453098952015,-0.015034973089021526,142.5
286,5.093291047969453,-2.121469321309694,-1.9461707469745724,0.9359131170901198,-5.077453136387579,0.12531030593950845,143.0
287,5.0932910739933295,-2.1214692688520405,-1.9461707346526615,0.9359130526846556,-5.077453162865684,0.2556555849680421,143.5
288,5.093291091195569,-2.1214692164356324,-1.9461707241756805,0.9359129900740801,-5.0774531805140946,0.37600086399658383,144.0
289,5.093291105102235,-2.1214691678793525,-1.9461707148932945,0.9359129324764263,-5.077453194832298,0.486346143025137,144.5
290,5.0932911061855926,-2.121469120654049,-1.946170708459814,0.9359128789234128,-5.077453196305025,0.586691422053692,145.0
291,5.0932911071609865,-2.1214690781350285,-1.9461707026674633,0.9359128307072717,-5.077453197630986,0.6770367010822523,145.5
292,5.093291108028419,-2.12146904032229,-1.9461706975162454,0.9359127878280044,-5.07745319881018,0.7573819801108199,146.0
293,5.0932910994894165,-2.121469007429019,-1.9461706949731292,0.9359127523692055,-5.077453190534248,0.8277272591393894,146.5
294,5.093291092113849,-2.1214689792128785,-1.9461706928022013,0.9359127219623872,-5.0774531833843,0.8880725381679557,147.0
295,5.09329108596051,-2.1214689556725226,-1.9461706909910217,0.935912696594374,-5.0774531774191916,0.9384178171965156,147.5
296,5.093291081029397,-2.121468936807949,-1.9461706895395925,0.9359126762651673,-5.077453172638923,0.978763096225066,148.0
297,5.093291077320513,-2.1214689226191576,-1.9461706884479155,0.9359126609747672,-5.077453169043494,1.009108375253621,148.5
298,5.093291074833857,-2.121468913106148,-1.94617068771599,0.9359126507231742,-5.077453166632904,1.0294536542821766,149.0
299,5.0931370689273825,-2.1217721081828658,-1.945578022315974,0.9356230928843141,-5.077299531547664,1.040293869136261,149.5
300,5.0917325937303906,-2.1245371997168903,-1.9401730979822907,0.932982461881652,-5.075898437783231,1.0431839514162935,150.0
301,5.09082824140874,-2.1263176684819918,-1.9366928227988365,0.9312821379953499,-5.0749962631961445,1.0366508856518557,150.5
302,5.090828243292164,-2.1263176733298526,-1.9366928250516589,0.9312821371146307,-5.074996266013039,1.0220977476344808,151.0
303,5.090828246469757,-2.126317681508858,-1.9366928288524785,0.9312821356287365,-5.074996270765525,0.9975446096171051,151.5
304,5.090828250941518,-2.126317693019008,-1.9366928342012963,0.9312821335376678,-5.074996277453604,0.9629914715997323,152.0
305,5.090828256707451,-2.126317707860303,-1.9366928410981117,0.931282130841424,-5.074996286077274,0.9184383335823626,152.5
306,5.090828264285027,-2.1263177262561674,-1.936692849280082,0.9312821282368212,-5.074996301155582,0.8638852043870641,153.0
307,5.0908282735494375,-2.1263177481527142,-1.9366928588106016,0.9312821255557955,-5.0749963215985865,0.799332079882662,153.5
308,5.090828279235458,-2.126317777715127,-1.9366928670015477,0.931282141486732,-5.074996334951584,0.7247789623912952,154.0
309,5.090828278527889,-2.126317817343247,-1.9366928722717098,0.9312821867137929,-5.074996335455166,0.6402258542276774,154.5
310,5.090828277726473,-2.1263178617262404,-1.9366928781037787,0.9312822375822671,-5.074996335928948,0.5456727553765461,155.0
311,5.0908282726857745,-2.1263179096785567,-1.9366928853091911,0.9312822932774257,-5.074996331734041,0.4411196634640611,155.5
312,5.0908282564070815,-2.1263179592316526,-1.936692895228432,0.9312823525606282,-5.074996315001978,0.3265665801191972,156.0
313,5.090828238705221,-2.1263180131085377,-1.9366929060156304,0.9312824170116056,-5.074996296790882,0.20201350633293355,156.5
314,5.090828205311242,-2.1263180629668437,-1.9366929195707412,0.9312824799880277,-5.074996262945601,0.06746043823849124,157.0
315,5.090828167450216,-2.1263181153697186,-1.9366929343979506,0.9312825467192817,-5.074996224613798,-0.07709262884521431,157.5
316,5.090828113889759,-2.1263181582324187,-1.9366929512482711,0.9312826057916104,-5.074996170650256,-0.23164569020381168,158.0
317,5.090828053778152,-2.1263182001479883,-1.9366929693430586,0.9312826650956432,-5.074996110138072,-0.396151827322058,158.5
318,5.090827983617461,-2.126318223428253,-1.9366929870805825,0.9312827053400937,-5.074996039722302,-0.5593349462236399,159.0
319,5.090827916293286,-2.1263182396911393,-1.9366930032995493,0.9312827370919439,-5.0749959722037286,-0.7125180651252521,159.5
320,5.0908278497801716,-2.12631824119646,-1.936693017402465,0.9312827520078957,-5.074995905619272,-0.8557011840268592,160.0
321,5.090827788013332,-2.1263182381979764,-1.9366930299191347,0.9312827608919312,-5.074995843822627,-0.9888843029287837,160.5
322,5.090827731166889,-2.1263182231094393,-1.9366930398125528,0.9312827551376689,-5.074995787050958,-1.112067421830635,161.0
323,5.090827678935233,-2.126318209245792,-1.9366930489028156,0.9312827498505327,-5.074995734888007,-1.2252505407324217,161.5
324,5.090827634837449,-2.1263181858965323,-1.936693055041583,0.9312827322294257,-5.07499569094476,-1.3284336596341346,162.0
325,5.090827595603622,-2.126318163013811,-1.9366930602250887,0.9312827141690752,-5.074995651865907,-1.4216167785358071,162.5
326,5.090827560580195,-2.1263181425867637,-1.9366930648523193,0.9312826980468797,-5.074995616980823,-1.5047998974374397,163.0
327,5.090827533567027,-2.126318119355993,-1.9366930674352274,0.9312826771652194,-5.07499559013633,-1.5779830163390325,163.5
328,5.090827511674668,-2.126318097320795,-1.9366930691053426,0.9312826566170318,-5.074995568407267,-1.641166135240602,164.0
329,5.090827493247216,-2.126318078773111,-1.9366930705111265,0.931282639321007,-5.074995550117265,-1.694349254142156,164.5
330,5.09082747828467,-2.126318063712941,-1.9366930716525794,0.9312826252771456,-5.074995535266325,-1.7375323730437022,165.0
331,5.0908274667870295,-2.1263180521402845,-1.936693072529704,0.9312826144854489,-5.0749955238544455,-1.7707154919452384,165.5
332,5.090827458754296,-2.1263180440551412,-1.9366930731425,0.9312826069459168,-5.074995515881628,-1.7938986108467965,166.0
333,5.090822321142051,-2.1263283055346416,-1.9366729916609942,0.9312727841377312,-5.07499039108864,-1.8071002683612634,166.5
334,5.089725516676924,-2.1285219103582986,-1.9323820040800366,0.9291748099285404,-5.073896318504041,-1.8126023223650376,167.0
335,5.0884536359833685,-2.131065677701062,-1.9274060576615049,0.9267419428830671,-5.072627606641335,-1.808399278815735,167.5
336,5.088397515939185,-2.1311779294018454,-1.9271864845948778,0.9266345853056314,-5.072571628863819,-1.7965060848025833,168.0
337,5.088397523980521,-2.1311779343506183,-1.9271864863163994,0.9266345811279181,-5.072571641418586,-1.7748108723754672,168.5
338,5.08839753572836,-2.131177941580435,-1.927186488831424,0.9266345750245664,-5.0725716597602375,-1.7431156599483664,169.0
339,5.088397551182702,-2.1311779510912947,-1.9271864921399515,0.9266345669955763,-5.072571683888773,-1.7014204475212704,169.5
340,5.088397570078796,-2.1311779626476213,-1.9271864964889303,0.9266345561720161,-5.072571711481025,-1.6497252431222735,170.0
341,5.088397592134457,-2.131177975998321,-1.9271865021415768,0.9266345416277149,-5.072571740060797,-1.58803005247442,170.5
342,5.088397618394342,-2.131177991790562,-1.9271865071539789,0.9266345292501978,-5.07257177256024,-1.5163348641530878,171.0
343,5.088397652398444,-2.1311780115857655,-1.9271865027703656,0.9266345444901399,-5.072571804969874,-1.4346396896736913,171.5
344,5.088397690559356,-2.13117803384466,-1.927186497813274,0.9266345617698881,-5.072571841297957,-1.3429445208784387,172.0
345,5.088397732883014,-2.131178058561868,-1.9271864922605504,0.926634581141389,-5.0725718815344125,-1.2412493593987755,172.5
346,5.088397784118309,-2.1311780721796754,-1.9271864833044636,0.9266345863883139,-5.072571932687844,-1.1295542095747173,173.0
347,5.08839783994234,-2.131178087017323,-1.9271864735457558,0.9266345921069071,-5.072571988435735,-1.007859067033501,173.5
348,5.0883979005958615,-2.1311780925370827,-1.9271864615543874,0.9266345862929811,-5.072572049100373,-0.8761639309319933,174.0
349,5.088397966024699,-2.131178091075794,-1.927186447647994,0.9266345716076947,-5.072572114603481,-0.7344687976505881,174.5
350,5.088398033063749,-2.131178078032344,-1.9271864318711494,0.926634543509208,-5.072572181813096,-0.5827736683084362,175.0
351,5.088398102168684,-2.1311780551461332,-1.9271864143584905,0.9266345038731841,-5.07257225117107,-0.4210785453536298,175.5
352,5.088398164017484,-2.1311780162468534,-1.9271863962471172,0.9266344475816728,-5.072572313400222,-0.255512643846234,176.0
353,5.088398219937736,-2.1311779754745546,-1.9271863791303598,0.9266343903538963,-5.072572369711176,-0.09947538919887898,176.5
354,5.08839825799943,-2.1311779229594436,-1.9271863642022626,0.9266343234095823,-5.072572408245702,0.04656186544841185,177.0
355,5.088398293415829,-2.1311778740011342,-1.927186350299348,0.9266342610127632,-5.072572444102848,0.1825991200956206,177.5
356,5.088398311685356,-2.1311778201648366,-1.927186339344558,0.9266341965175627,-5.072572462838535,0.30863637474277256,178.0
357,5.088398328071866,-2.1311777703473394,-1.9271863293163416,0.9266341369402555,-5.07257247965594,0.42467362938986664,178.5
358,5.088398335400323,-2.1311777227938222,-1.9271863214862375,0.9266340817264797,-5.07257248738827,0.5307108840369041,179.0
359,5.088398336423242,-2.131177678234816,-1.9271863153740463,0.9266340311537209,-5.0725724887844,0.626748138683879,179.5
360,5.0883983373396475,-2.1311776383155756,-1.9271863098982887,0.9266339858469118,-5.072572490035153,0.7127853933308181,180.0
361,5.088398334065893,-2.1311776031273157,-1.9271863059269272,0.9266339467226259,-5.07257248705247,0.7888226479777201,180.5
362,5.088398326090044,-2.1311775726814717,-1.9271863035687704,0.9266339138957664,-5.072572479323859,0.8548599026245939,181.0
363,5.088398319321974,-2.131177546846032,-1.9271863015677078,0.9266338860398672,-5.072572472765589,0.9108971572714498,181.5
364,5.088398313761685,-2.1311775256209984,-1.927186299923737,0.9266338631549275,-5.072572467377661,0.9569344119182899,182.0
365,5.088398309409176,-2.1311775090063683,-1.9271862986368622,0.9266338452409486,-5.072572463160073,0.9929716665651271,182.5
366,5.088398306264448,-2.131177497002142,-1.9271862977070828,0.9266338322979308,-5.072572460112826,1.0190089212119724,183.0
367,5.0883983043275,-2.13117748960832,-1.9271862971343994,0.926633824325874,-5.072572458235921,1.0350461758588259,183.5
368,5.087741353460537,-2.132512192153462,-1.9245735561287864,0.9253554504259528,-5.071917199713436,1.0426837222788,184.0
369,5.086305024690531,-2.1354303402245383,-1.9188611650951524,0.9225604729763489,-5.070484571094376,1.0412896125009286,184.5
370,5.086000704538072,-2.1360486243399373,-1.9176508568530186,0.9219682881951019,-5.070181035535889,1.0315734483820653,185.0
371,5.086000706953232,-2.136048630523365,-1.917650859753232,0.9219682870680433,-5.0701810392225735,1.012753211467613,185.5
372,5.086000710651672,-2.136048639992313,-1.9176508641944536,0.9219682853421306,-5.070181044868153,0.9839329745531709,186.0
373,5.086000715633391,-2.136048652746782,-1.9176508701766828,0.9219682830173631,-5.070181052472626,0.9451127376387349,186.5
374,5.0860007219566725,-2.136048668813024,-1.9176508776690655,0.9219682801768095,-5.070181062550377,0.896292501430402,187.0
375,5.086000730316888,-2.136048688504251,-1.9176508863034836,0.921968277811531,-5.070181081238356,0.837472273391136,187.5
376,5.08600074009842,-2.1360487115431748,-1.9176508964058352,0.9219682750441324,-5.07018110310347,0.7686520453518483,188.0
377,5.086000741091137,-2.136048746575484,-1.9176509022099233,0.921968310446637,-5.070181106976344,0.689831831227379,188.5
378,5.0860007403540175,-2.1360487876355196,-1.9176509076912285,0.9219683574015927,-5.070181107478874,0.6010116213938547,189.0
379,5.086000739521624,-2.1360488333989847,-1.9176509137162119,0.9219684099897233,-5.070181107928738,0.5021914225138348,189.5
380,5.086000728212514,-2.1360488809060425,-1.9176509223198757,0.9219684662161062,-5.070181096697797,0.39337123202801383,190.0
381,5.086000711528998,-2.1360489315736513,-1.9176509325362785,0.921968526903993,-5.07018107953609,0.2745510493038472,190.5
382,5.0860006886124856,-2.136048983685101,-1.9176509442602239,0.921968590452227,-5.070181056125849,0.14573087396540585,191.0
383,5.0860006526869785,-2.136049033283781,-1.917650958398261,0.9219686537159468,-5.070181019747273,0.006910703187775879,191.5
384,5.086000610000343,-2.1360490822617773,-1.9176509738746383,0.9219687176281612,-5.070180976607592,-0.14190946545919964,192.0
385,5.086000553421975,-2.136049123454134,-1.9176509912356685,0.9219687755116736,-5.070180919631245,-0.300729627379178,192.5
386,5.0860004895332285,-2.136049156461257,-1.9176510090456733,0.9219688255988612,-5.070180855406794,-0.4646700257774428,193.0
387,5.086000423748088,-2.136049178206224,-1.9176510257582478,0.9219688633287895,-5.07018078937901,-0.619519128388261,193.5
388,5.086000358996051,-2.1360491862864985,-1.917651040438676,0.9219688853993511,-5.070180724500323,-0.7643682309988649,194.0
389,5.086000297099199,-2.1360491876501,-1.9176510536269444,0.9219688993039449,-5.070180662535963,-0.8992173336093506,194.5
390,5.086000239997785,-2.1360491799716885,-1.9176510646064597,0.9219689020253912,-5.070180605447517,-1.024066436219805,195.0
391,5.086000187627012,-2.1360491660724277,-1.9176510737655672,0.9219688967670074,-5.070180553146376,-1.1389155388302559,195.5
392,5.086000139907278,-2.136049153106811,-1.9176510820713017,0.9219688916355079,-5.0701805054926234,-1.2437646414406893,196.0
393,5.086000100446051,-2.136049130119997,-1.9176510873104897,0.9219688735218622,-5.0701804661892345,-1.3386137440511146,196.5
394,5.086000065145244,-2.1360491095566982,-1.9176510919973033,0.9219688573179485,-5.070180431029626,-1.4234628466615364,197.0
395,5.08600003400486,-2.1360490914169152,-1.917651096131744,0.9219688430237668,-5.070180400013798,-1.498311949271942,197.5
396,5.086000009682239,-2.1360490720318803,-1.9176510986680837,0.9219688259596683,-5.070180375832389,-1.5631610518823513,198.0
397,5.085999990902863,-2.136049053161214,-1.9176511001078786,0.9219688083701166,-5.070180357194911,-1.6180101544927719,198.5
398,5.0859999755473115,-2.1360490377310173,-1.9176511012851727,0.9219687939874636,-5.070180341955387,-1.662859257103218,199.0
399,5.085999963615586,-2.1360490257412916,-1.9176511021999634,0.9219687828117082,-5.070180330113819,-1.697708359713662,199.5
400,5.0859999551076855,-2.1360490171920348,-1.9176511028522532,0.9219687748428518,-5.070180321670205,-1.7225574623240951,200.0
401,5.085999950023612,-2.136049012083247,-1.9176511032420427,0.9219687700808944,-5.070180316624547,-1.7374065649345327,200.5
402,5.086211472354591,-2.1356333049089695,-1.9185014212457854,0.9224034656374249,-5.0703911353335736,-1.7427443267363916,201.0
403,5.086611766858891,-2.1348466154481884,-1.920110582842448,0.9232260981519355,-5.070790098252025,-1.7393230889090234,201.5
404,5.0867183757159,-2.1346371116184786,-1.9205391278544648,0.9234451820799665,-5.070896352455834,-1.7265403267588146,202.0
405,5.086908385058465,-2.1342637122024715,-1.921302925143713,0.9238356561390634,-5.071085729698747,-1.703757564608619,202.5
406,5.087181794886588,-2.1337264172001675,-1.9224019747101933,0.9243975203292263,-5.071358229980765,-1.670974802458414,203.0
407,5.0875402235265135,-2.133025957942986,-1.9238347846253494,0.9251300179494315,-5.071715478545641,-1.6281920023060046,203.5
408,5.087985620344181,-2.1321632156754293,-1.9255995571339792,0.9260322371823265,-5.072159433092834,-1.5754091339610032,204.0
409,5.0885153999988635,-2.131137022217248,-1.9276986753430159,0.9271053867305272,-5.072687497231096,-1.5126262656160137,204.5
410,5.089132021779783,-2.1299484468934917,-1.9301299583014153,0.9283483602454722,-5.07330213898897,-1.439843332883088,205.0
411,5.0898360996689656,-2.1285977569303025,-1.9328928609845453,0.9297608812464151,-5.07400397453107,-1.357060332687258,205.5
412,5.090628222906922,-2.127085181650532,-1.9359869162178693,0.9313427138638587,-5.074793596019424,-1.2642772615954287,206.0
413,5.091509343585593,-2.1254111266890376,-1.9394112968569672,0.9330934388597381,-5.075671959193078,-1.16149410871637,206.5
414,5.0924824682931185,-2.123576811815066,-1.9431635165117318,0.935011796734196,-5.076642081857974,-1.0487108120206203,207.0
415,5.093546654719088,-2.1215818146774805,-1.9472444367399526,0.9370982245175781,-5.077703017924048,-0.9259274079292168,207.5
416,5.094704002845084,-2.119426968720624,-1.9516523589478516,0.9393518621403169,-5.078856875029424,-0.7931438619387569,208.0
417,5.095957640652327,-2.117113468751916,-1.956384848817673,0.9417714777748991,-5.080106792242659,-0.650360122358298,208.5
418,5.097308913363477,-2.114641760608778,-1.9614409991184947,0.9443566134997272,-5.081454119084319,-0.49757618332006875,209.0
419,5.0987512707415075,-2.112026755300417,-1.9667903126124928,0.9470916825576027,-5.082892332706613,-0.33568631189165665,209.5
420,5.100159139876483,-2.109497947823974,-1.9719633326235857,0.9497366589411751,-5.084296225957872,-0.17888284366368654,210.0
421,5.101486976215822,-2.107133966333611,-1.976799210578624,0.9522092949591534,-5.085620373348125,-0.03207918765730672,210.5
422,5.102732671266219,-2.10493398208203,-1.9812996353470675,0.9545104456212472,-5.086862658746584,0.10472462087315329,211.0
423,5.103894064208399,-2.1028971844385267,-1.9854662582776195,0.9566409463017982,-5.088020913776584,0.23152854935574654,211.5
424,5.104970709872372,-2.1010233781942835,-1.9892994774789188,0.9586009988813441,-5.0890946915137025,0.34833259517104753,212.0
425,5.105961534474399,-2.0993121409743276,-1.9928001536743811,0.9603910391157735,-5.090082914280179,0.45513674162462003,212.5
426,5.106862141520632,-2.097761980346252,-1.9959713246231021,0.962012601009935,-5.090981171304912,0.5519409284693577,213.0
427,5.107675547155206,-2.0963738771913656,-1.998810994533006,0.9634646775523923,-5.091792488224113,0.6387452039663395,213.5
428,5.108395863782438,-2.0951458845550257,-2.001323125431454,0.9647492684951611,-5.09251095868684,0.7155494877213836,214.0
429,5.109027064766494,-2.0940792823848047,-2.0035051132309674,0.9658650601460497,-5.093140568474433,0.7823538387256102,214.5
430,5.109563780739533,-2.0931723407986906,-2.005360477424876,0.9668138279977224,-5.093675931438558,0.8391581897298487,215.0
431,5.110006824800954,-2.0924253156003916,-2.0068886976816573,0.9675953096807381,-5.094117863176024,0.8859625510396352,215.5
432,5.110357474767146,-2.0918386086777234,-2.008088956520576,0.9682090929940226,-5.094467645427667,0.922766945047006,216.0
433,5.110612850792372,-2.091411313949846,-2.0089630970056156,0.9686561072760977,-5.09472238950219,0.9495713390543692,216.5
434,5.110772952876633,-2.0911434314167607,-2.0095111191367763,0.9689363525269639,-5.094882095399593,0.9663757330617251,217.0
435,5.110938578125547,-2.09086679501446,-2.0100770612208363,0.9692257678856498,-5.095047311652548,0.9733807550645891,217.5
436,5.11151113614624,-2.0899117031365777,-2.0120310153011824,0.9702250101897216,-5.0956184579541635,0.9714930746746924,218.0
437,5.11151139289733,-2.089911788062642,-2.0120308538889446,0.9702249342733735,-5.095618714975979,0.9605651968707143,218.5
438,5.111511884598968,-2.0899119507037622,-2.0120305447698588,0.9702247888866764,-5.095619207196082,0.9396373190667433,219.0
439,5.111512611251157,-2.0899121910599385,-2.012030087943926,0.9702245740296308,-5.095619934614472,0.9087094412627581,219.5
440,5.111513573032572,-2.089912509202039,-2.012029483324286,0.9702242898961679,-5.095620898765997,0.8677815872677674,220.0
441,5.111514769860959,-2.089912905097429,-2.0120287309509037,0.9702239363967982,-5.095622098942911,0.8168537396003354,220.5
442,5.1115161511021805,-2.089913363070668,-2.0120278627718005,0.970223529629624,-5.095623484055147,0.7559258926001783,221.0
443,5.111516150362318,-2.08991339830763,-2.012027867305621,0.9702235694350352,-5.095623483528467,0.684998063731032,221.5
444,5.111516149517555,-2.0899134385168514,-2.012027872474976,0.9702236148706872,-5.0956234829225995,0.604070235736261,222.0
445,5.111516148564303,-2.0899134837243563,-2.012027878257358,0.9702236660474727,-5.095623482207421,0.5131424134873293,222.5
446,5.111516139140566,-2.089913531643294,-2.01202788615338,0.9702237218115319,-5.0956234726633145,0.4122145980376521,223.0
447,5.111516122578594,-2.0899135826335202,-2.0120278959278446,0.9702237823280588,-5.095623455682354,0.3012867894138594,223.5
448,5.111516103702637,-2.0899136377376664,-2.0120279066921007,0.9702238479150704,-5.095623436348971,0.1803589874827374,224.0
449,5.1115160676778215,-2.0899136882347493,-2.012027920400729,0.9702239116469006,-5.09562339990304,0.04943119480589481,224.5
450,5.111516028901522,-2.089913742588643,-2.012027935156436,0.9702239802461715,-5.095623360673587,-0.09149659414787548,225.0
451,5.111515972491035,-2.0899137856867855,-2.012027952116102,0.9702240396389081,-5.095623303883968,-0.24242438255232976,225.5
452,5.111515910158043,-2.08991382839643,-2.0120279702408728,0.9702240997488907,-5.095623241170155,-0.40335216277174313,226.0
453,5.111515836698839,-2.0899138532231287,-2.012027988405868,0.9702241419408886,-5.09562316745966,-0.566015699098076,226.5
454,5.111515765945468,-2.0899138696859954,-2.0120280049686414,0.9702241742120594,-5.095623096521948,-0.7187619021465572,227.0
455,5.111515696299358,-2.0899138714513765,-2.0120280194634597,0.9702241897601662,-5.095623026806212,-0.8615081051949971,227.5
456,5.111515631657275,-2.089913867621767,-2.012028032231881,0.970224198049626,-5.095622962141855,-0.9942543082434279,228.0
457,5.11151557216537,-2.089913851800581,-2.012028042442715,0.9702241918676895,-5.095622902724686,-1.117000511291816,228.5
458,5.111515517520203,-2.089913837268333,-2.0120280518216758,0.9702241861893846,-5.095622848148166,-1.2297467143401906,229.0
459,5.11151547160441,-2.0899138120720395,-2.012028058075802,0.9702241668335609,-5.095622802390623,-1.332492917388552,229.5
460,5.111515430593808,-2.089913787984736,-2.0120280634635406,0.9702241477678819,-5.095622761533623,-1.4252391204368833,230.0
461,5.111515394005014,-2.089913766494554,-2.0120280682703635,0.9702241307578842,-5.0956227250818715,-1.5079853234852214,230.5
462,5.111515366067833,-2.0899137416724543,-2.012028070886718,0.9702241083205461,-5.095622697314486,-1.5807315265335475,231.0
463,5.111515343236704,-2.089913718488351,-2.0120280726617876,0.970224086728384,-5.095622674644569,-1.6434777295818797,231.5
464,5.1115153240442215,-2.08991369899915,-2.0120280741539585,0.9702240685774108,-5.095622655587606,-1.6962239326302337,232.0
465,5.111515308490386,-2.0899136832048506,-2.012028075363231,0.970224053867627,-5.0956226401435964,-1.7389701356786036,232.5
466,5.111515296575198,-2.0899136711054522,-2.012028076289608,0.9702240425990339,-5.095622628312542,-1.7717163387269708,233.0
467,5.111515288298657,-2.089913662700955,-2.0120280769330887,0.9702240347716317,-5.095622620094442,-1.7944625417753286,233.5
468,5.111498362837008,-2.089943375635647,-2.0119701118295565,0.9701957697803393,-5.095605726403697,-1.8072627965008354,234.0
469,5.110194257391401,-2.092233744403225,-2.0075026545166836,0.9680176958600448,-5.09430406705245,-1.8123365810085224,234.5
470,5.108834785335959,-2.0946213618553715,-2.002845515920921,0.9657471450368085,-5.09294714589529,-1.8076559682083633,235.0
471,5.10880221263072,-2.094678580081693,-2.002733916338829,0.9656927325112178,-5.092914636829832,-1.7952476356412068,235.5
472,5.108802221299106,-2.0946785854329604,-2.002733918132962,0.9656927278744339,-5.092914650054451,-1.772942894752663,236.0
473,5.108802233853835,-2.0946785931833887,-2.0027339207314685,0.9656927211588169,-5.09291466920813,-1.7406381538641242,236.5
474,5.1088022502949055,-2.0946786033329783,-2.002733924134348,0.9656927123643664,-5.092914694290871,-1.698333412975562,237.0
475,5.108802270282276,-2.094678615604399,-2.002733928625363,0.9656927004854895,-5.092914722443569,-1.6460286819047067,237.5
476,5.108802293595531,-2.094678629817886,-2.0027339343884503,0.9656926848703574,-5.0929147518129465,-1.5837239639274094,238.0
477,5.108802321612706,-2.094678646743881,-2.002733938797318,0.9656926736339897,-5.092914785056093,-1.5114192493090979,238.5
478,5.108802357572815,-2.094678667834129,-2.002733934178869,0.9656926899552788,-5.092914819344896,-1.429114547820408,239.0
479,5.108802397895801,-2.0946786915364126,-2.0027339289560975,0.9656927084708105,-5.092914857746868,-1.3368098526878478,239.5
480,5.108802442878948,-2.094678717000738,-2.0027339229490395,0.9656927282045467,-5.09291490068819,-1.2345051646920426,240.0
481,5.1088024969696155,-2.094678731400921,-2.0027339136293074,0.965692733890217,-5.092914954697659,-1.1222004876560696,240.5
482,5.108802555878688,-2.0946787470840014,-2.002733903478906,0.9656927400839621,-5.092915013533027,-0.9998958184369705,241.0
483,5.1088026198866405,-2.0946787516996963,-2.0027338909053993,0.9656927328029952,-5.092915077560815,-0.8675911553673966,241.5
484,5.108802688885283,-2.094678749968478,-2.002733876518002,0.965692717390839,-5.092915146632684,-0.7252864946246453,242.0
485,5.1088027592338,-2.094678734614667,-2.0027338601416522,0.9656926864094824,-5.092915217159674,-0.5729818381729942,242.5
486,5.108802832073862,-2.09467871004377,-2.0027338420954033,0.9656926445860801,-5.092915290250769,-0.4106771880896158,243.0
487,5.108802896150337,-2.0946786674054376,-2.0027338235786143,0.9656925841734597,-5.09291535471227,-0.24548626204128665,243.5
488,5.108802953752963,-2.0946786232317063,-2.0027338061983815,0.9656925232992715,-5.0929154127066605,-0.09005019073582504,244.0
489,5.1088029935192045,-2.094678567565733,-2.00273379103709,0.9656924529941361,-5.092915452939916,0.055385880569598145,244.5
490,5.108803030053647,-2.0946785154353247,-2.0027337769837477,0.9656923872921566,-5.092915489911138,0.19082195187496853,245.0
491,5.108803048662326,-2.0946784582175115,-2.0027337659724953,0.9656923193728606,-5.092915508981762,0.31625802318034213,245.5
492,5.1088030657874866,-2.094678405561215,-2.0027337558390728,0.9656922568682156,-5.09291552653204,0.43169409448568846,246.0
493,5.108803072561043,-2.0946783551089982,-2.0027337481084713,0.96569219886035,-5.09291553370509,0.5371301657910181,246.5
494,5.108803073635416,-2.09467830809763,-2.0027337419806455,0.9656921458308039,-5.092915535147456,0.632566237096325,247.0
495,5.108803074597214,-2.0946782660122185,-2.0027337364949016,0.965692098357807,-5.092915536438687,0.718002308401618,247.5
496,5.108803070561811,-2.0946782289753334,-2.0027337326697836,0.9656920575324373,-5.092915532689231,0.7934383797069194,248.0
497,5.108803062267862,-2.0946781969684394,-2.0027337303512684,0.9656920231897017,-5.0929155246384905,0.8588744510122153,248.5
498,5.108803055241402,-2.094678169852869,-2.00273372838707,0.965691994095254,-5.09291551781807,0.9143105223175226,249.0
499,5.108803049482431,-2.0946781476286227,-2.002733726777186,0.9656919702490931,-5.092915512227972,0.9597465936228635,249.5
500,5.108803044990948,-2.094678130295698,-2.002733725521621,0.9656919516512207,-5.092915507868195,0.9951826649281947,250.0
501,5.108803041766954,-2.094678117854096,-2.0027337246203745,0.9656919383016368,-5.09291550473874,1.0206187362335237,250.5
502,5.108803039810449,-2.094678110303816,-2.0027337240734457,0.9656919302003413,-5.092915502839606,1.0360548075388571,251.0
503,5.107962998838425,-2.096177236666337,-1.999807327527469,0.9642640517325041,-5.0920770959861565,1.0432013205927273,251.5
504,5.106380985846903,-2.0990004875866215,-1.9942961648531774,0.9615749930078182,-5.0904981605586395,1.0411220221348203,252.0
505,5.1061280022997995,-2.0994519663478943,-1.9934148583472484,0.9611449762293361,-5.090245669723517,1.0308423164131482,252.5
506,5.106128004911617,-2.0994519731646384,-1.9934148614088532,0.9611449749653601,-5.090245673463668,1.011250885783746,253.0
507,5.106128008856576,-2.0994519834608347,-1.9934148660331843,0.9611449730562165,-5.090245679112894,0.9816594551543466,253.5
508,5.106128014134678,-2.099451997236483,-1.9934148722202423,0.961144970501905,-5.090245686671196,0.9420680245249291,254.0
509,5.106128020871614,-2.099452014540836,-1.9934148799120504,0.9611449674504625,-5.090245697201426,0.8924765964619126,254.5
510,5.106128029714788,-2.099452035627583,-1.993414888809991,0.9611449646643885,-5.090245716178072,0.8328851822861576,255.0
511,5.106128040041929,-2.099452060252884,-1.9934148992010896,0.9611449614107851,-5.090245738339178,0.7632937681103916,255.5
512,5.10612804018278,-2.0994520985581735,-1.993414904628076,0.9611450025081345,-5.090245740489058,0.6837023693401489,256.0
513,5.1061280394041475,-2.0994521425097004,-1.9934149102010368,0.9611450524493214,-5.090245741025971,0.5941109745797662,256.5
514,5.106128038527315,-2.099452191445697,-1.9934149163272519,0.9611451083010507,-5.090245741526909,0.4945195896221815,257.0
515,5.106128025432913,-2.0994522419312136,-1.9934149253210867,0.9611451678036022,-5.090245728394893,0.3849282139602014,257.5
516,5.106128007797258,-2.099452296094567,-1.993414935757884,0.9611452321919306,-5.0902457102807634,0.2653368458792899,258.0
517,5.1061279823408094,-2.099452351056083,-1.9934149479124195,0.9611452989839578,-5.0902456843397985,0.13574548485052168,258.5
518,5.106127944409816,-2.099452404080327,-1.993414962403003,0.9611453659990694,-5.0902456459570855,-0.003845872201354846,259.0
519,5.10612789817192,-2.0994524552385307,-1.993414978367856,0.9611454325417266,-5.0902455992765026,-0.15343722671660487,259.5
520,5.106127838482494,-2.0994524993173567,-1.9934149962082608,0.9611454937595061,-5.0902455391910495,-0.31302857454292216,260.0
521,5.106127769440896,-2.0994525332864153,-1.993415014698947,0.9611455454434215,-5.090245469825297,-0.4793478474034863,260.5
522,5.106127698905247,-2.0994525570349096,-1.9934150322087498,0.9611455859319648,-5.0902453990446945,-0.6374987868153618,261.0
523,5.106127628682605,-2.09945256329753,-1.9934150474499823,0.9611456067056636,-5.090245328715031,-0.7856497262272146,261.5
524,5.106127562113564,-2.099452564950262,-1.9934150613582033,0.9611456215833719,-5.090245262078263,-0.9238006656390413,262.0
525,5.106127500669734,-2.0994525530727346,-1.9934150725061213,0.9611456202510267,-5.0902452006774555,-1.0519516050508297,262.5
526,5.106127444113813,-2.0994525380432023,-1.9934150822507828,0.961145614419898,-5.090245144193391,-1.1701025444626132,263.0
527,5.106127393899903,-2.099452519509554,-1.9934150902485532,0.9611456034098234,-5.090245094084139,-1.2782534838743658,263.5
528,5.106127351036072,-2.0994524943760298,-1.9934150959017451,0.9611455835440957,-5.090245051382973,-1.3764044232861083,264.0
529,5.106127312539373,-2.0994524718032097,-1.9934151009789618,0.9611455657023631,-5.090245013032367,-1.4645553626978427,264.5
530,5.106127279640825,-2.0994524500702156,-1.9934151050099453,0.9611455477096427,-5.090244980277898,-1.5427063021095742,265.0
531,5.106127255149316,-2.099452425250416,-1.9934151069216637,0.9611455246031293,-5.090244955961682,-1.610857241521301,265.5
532,5.106127234251522,-2.0994524040725024,-1.9934151085528693,0.9611455048871068,-5.09024493521346,-1.6690081809330466,266.0
533,5.106127216947444,-2.099452386536478,-1.9934151099035593,0.9611454885615731,-5.090244918033232,-1.7171591203448098,266.5
534,5.10612720323708,-2.099452372642339,-1.9934151109737372,0.9611454756265305,-5.090244904420999,-1.7553100597565716,267.0
535,5.106127193120432,-2.099452362390087,-1.9934151117634036,0.9611454660819791,-5.090244894376759,-1.7834609991683306,267.5
536,5.106127186597501,-2.099452355779721,-1.9934151122725587,0.9611454599279191,-5.090244887900513,-1.8016119385800873,268.0
537,5.105700621686638,-2.1002258388805553,-1.9919040589791446,0.9604075940888832,-5.0898191832360675,-1.8108104802765561,268.5
538,5.104096098943651,-2.103135327852071,-1.9862201920068587,0.9576321036051627,-5.088217896444099,-1.8114620219973177,269.0
539,5.103489296552685,-2.1042356535586584,-1.984070642244172,0.9565824547290149,-5.087612319459227,-1.8032443569227534,269.5
540,5.1034893030267074,-2.104235657552692,-1.984070643591719,0.956582451288276,-5.0876123294074524,-1.7863896521829945,270.0
541,5.103489313341809,-2.104235663916411,-1.984070645738774,0.9565824458061254,-5.08761234525802,-1.7595349474432338,270.5
542,5.103489327497988,-2.104235672649814,-1.9840706486853366,0.9565824382825632,-5.087612367010932,-1.7226802427034706,271.0
543,5.103489345495244,-2.1042356837529024,-1.9840706524314073,0.9565824287175895,-5.087612394666185,-1.6758255379637055,271.5
544,5.103489366618456,-2.1042356966274482,-1.9840706575927725,0.956582414930253,-5.087612422145514,-1.6189708537811676,272.0
545,5.103489391354018,-2.104235711680338,-1.9840706637506045,0.9565823984039288,-5.087612453583059,-1.5521161722971382,272.5
546,5.103489422964472,-2.1042357304024133,-1.9840706632125822,0.9565824022117535,-5.087612486691956,-1.4752615016389812,273.0
547,5.103489460447953,-2.1042357523463515,-1.9840706583822145,0.9565824191572919,-5.087612522428641,-1.3884068365828142,273.5
548,5.1034895022347015,-2.104235776912412,-1.9840706529115044,0.9565824384620634,-5.087612562174037,-1.2915521837333535,274.0
549,5.103489550838125,-2.104235796834139,-1.984070645414933,0.9565824513081164,-5.087612609673357,-1.1846975375590283,274.5
550,5.103489606427742,-2.104235811623952,-1.9840706357982734,0.9565824571068459,-5.0876126651826175,-1.0678428995101403,275.0
551,5.1034896668226,-2.1042358256554725,-1.9840706250950746,0.9565824611097549,-5.087612725520147,-0.9409882694695502,275.5
552,5.10348973236088,-2.1042358240459995,-1.9840706113743463,0.9565824464537136,-5.087612791129151,-0.8041336451388814,276.0
553,5.103489802233819,-2.104235820570203,-1.9840705965237615,0.9565824288489579,-5.087612861091168,-0.6572790216371293,276.5
554,5.10348987175956,-2.1042357972060057,-1.9840705792295998,0.9565823889501933,-5.08761293086016,-0.5004244051158135,277.0
555,5.103489941748091,-2.104235766233359,-1.9840705608778082,0.9565823404058391,-5.087613001152706,-0.33446098994576223,277.5
556,5.103490001549197,-2.1042357221382666,-1.9840705429676717,0.9565822791036522,-5.087613061353554,-0.1735769617412138,278.0
557,5.1034900498938,-2.1042356729484544,-1.9840705267761432,0.9565822143186304,-5.087613110128822,-0.022692933536690416,278.5
558,5.103490087938614,-2.104235619834989,-1.9840705122127458,0.9565821471407836,-5.087613148626883,0.11819109466780098,279.0
559,5.103490115586728,-2.104235565982396,-1.984070499700182,0.9565820811697727,-5.0876131767254735,0.24907512287226757,279.5
560,5.103490133297009,-2.104235511659517,-1.9840704891778111,0.9565820166179386,-5.087613194881705,0.36995915107669164,280.0
561,5.103490148395705,-2.1042354615258536,-1.9840704797238364,0.9565819572883397,-5.087613210390924,0.4808431792811132,280.5
562,5.103490149515533,-2.104235412561522,-1.9840704733008636,0.9565819020136054,-5.087613211900374,0.5817272074855263,281.0
563,5.103490150524358,-2.1042353684507193,-1.9840704675145555,0.9565818522179064,-5.0876132132602,0.6726112356899216,281.5
564,5.103490151422183,-2.1042353291934446,-1.9840704623649148,0.956581807901244,-5.087613214470404,0.75349526389433,282.0
565,5.103490143157861,-2.104235295012015,-1.9840704597468484,0.9565817710877569,-5.087613206470552,0.8243792920987205,282.5
566,5.103490135534855,-2.1042352656656327,-1.9840704576079502,0.9565817395850641,-5.087613199074168,0.885263320303117,283.0
567,5.1034901291639025,-2.104235241139298,-1.984070455820356,0.956581713256583,-5.087613192892615,0.9361473485075422,283.5
568,5.103490124045003,-2.1042352214330093,-1.9840704543840681,0.9565816921023147,-5.087613187925893,0.9770313767119764,284.0
569,5.103490120178157,-2.1042352065467664,-1.9840704532990883,0.9565816761222596,-5.087613184174003,1.007915404916394,284.5
570,5.103490117563365,-2.1042351964805697,-1.9840704525654158,0.956581665316418,-5.087613181636946,1.0287994331208163,285.0
571,5.103372890934212,-2.104451168437316,-1.9836482100852777,0.9563753171402635,-5.087496200036256,1.040046265400374,285.5
572,5.101924410269734,-2.1071198669355082,-1.978430823208748,0.9538256692221355,-5.0860507465418605,1.0434288662588358,286.0
573,5.100888721195907,-2.1090280385104196,-1.9747002971140315,0.9520026252053765,-5.085017222310236,1.0372620937183312,286.5
574,5.100888723058991,-2.109028043347188,-1.974700299305315,0.9520026243054206,-5.085017225032745,1.02316315113071,287.0
575,5.100888726243511,-2.109028051614545,-1.9747003030508172,0.9520026227671504,-5.085017229686257,0.9990642085430845,287.5
576,5.100888730749466,-2.109028063312491,-1.974700308350538,0.9520026205905657,-5.085017236270772,0.9649652659554548,288.0
577,5.100888736576856,-2.1090280784410265,-1.974700315204477,0.9520026177756667,-5.08501724478629,0.9208663233678139,288.5
578,5.100888744227016,-2.1090280972051185,-1.9747003233719065,0.9520026149492091,-5.085017259518345,0.8667673910101527,289.0
579,5.100888753643156,-2.109028119581549,-1.9747003328800967,0.9520026120401927,-5.0850172799814635,0.8026684652733607,289.5
580,5.100888759962271,-2.109028149388118,-1.9747003413319715,0.9520026261309756,-5.085017294442205,0.7285695458504956,290.0
581,5.100888759242665,-2.1090281900254184,-1.9747003465351134,0.9520026722886918,-5.085017294963004,0.6444706365904332,290.5
582,5.100888758427841,-2.1090282355606202,-1.9747003522987805,0.952002724216695,-5.08501729546281,0.5503717359810143,291.0
583,5.100888753952155,-2.109028284977473,-1.974700359312439,0.9520027812273673,-5.085017291947166,0.4462728423299287,291.5
584,5.100888737335759,-2.109028335892087,-1.9747003691869232,0.9520028418217772,-5.08501727488174,0.33217395753552204,292.0
585,5.100888719260837,-2.109028391267013,-1.9747003799288887,0.9520029077194332,-5.085017256301759,0.2080750823151607,292.5
586,5.100888685889332,-2.109028442981034,-1.974700393385188,0.9520029724538375,-5.085017222477711,0.0739762126433717,293.0
587,5.100888647215655,-2.1090284968999495,-1.9747004082208903,0.9520030406990334,-5.085017183337073,-0.0701226557994008,293.5
588,5.100888593192087,-2.1090285417497165,-1.9747004250785432,0.9520031017599304,-5.08501712890865,-0.2242215188009555,294.0
589,5.100888532298679,-2.10902858590232,-1.9747004432676893,0.9520031633866181,-5.085017067610801,-0.38831514382705373,294.5
590,5.100888460210026,-2.109028610081848,-1.9747004612369747,0.9520032047465763,-5.085016995268039,-0.5519565385483762,295.0
591,5.100888391267827,-2.109028627943333,-1.9747004777542576,0.9520032383816979,-5.085016926124937,-0.7055979332696753,295.5
592,5.10088832290185,-2.109028629603624,-1.9747004920969553,0.9520032536801278,-5.085016857688194,-0.8492393279909378,296.0
593,5.100888259380779,-2.1090286274151944,-1.9747005049498503,0.952003263697607,-5.085016794131234,-0.982880722712184,296.5
594,5.100888200921762,-2.1090286118884958,-1.9747005150641088,0.9520032577174137,-5.085016735747327,-1.1065221174333912,297.0
595,5.1008881471908545,-2.1090285976175855,-1.974700524360327,0.952003252220888,-5.0850166820854525,-1.220163512154578,297.5
596,5.100888101608975,-2.109028574122119,-1.9747005308017134,0.952003234747443,-5.0850166366532825,-1.323804906875752,298.0
597,5.100888061215021,-2.109028550473745,-1.9747005361512942,0.952003216082805,-5.085016596414622,-1.4174463015969267,298.5
598,5.1008880251347515,-2.109028529350792,-1.9747005409295866,0.9520031994113688,-5.085016560473065,-1.5010876963180764,299.0
599,5.100887997024962,-2.109028505654881,-1.9747005437338552,0.9520031782799645,-5.085016532529277,-1.574729091039253,299.5
600,5.100887974433604,-2.1090284828047072,-1.9747005455047018,0.9520031570157395,-5.085016510101792,-1.6383704857604042,300.0
601,5.100887955392036,-2.109028463544992,-1.9747005469972927,0.9520031390927703,-5.085016491198348,-1.6920118804815898,300.5
602,5.100887939900257,-2.109028447875735,-1.974700548211628,0.9520031245110574,-5.085016475818943,-1.7356532752027922,301.0
603,5.100887927958269,-2.109028435796936,-1.9747005491477103,0.9520031132706019,-5.085016463963579,-1.7692946699239707,301.5
604,5.10088791956607,-2.109028427308594,-1.9747005498055397,0.9520031053714035,-5.085016455632256,-1.7929360646451606,302.0
605,5.100887503563087,-2.1090291920760422,-1.9746990443556414,0.952002364389415,-5.085016040554566,-1.8065780053386835,302.5
606,5.099793335616857,-2.111077397441663,-1.9706917828210178,0.9500426165547147,-5.083924241503234,-1.8124085952856686,303.0
607,5.098405402707669,-2.113675521303622,-1.9656086268082418,0.9475567050531877,-5.08253931429651,-1.8085949309415843,303.5
608,5.098322173709115,-2.1138313315336412,-1.965303794597211,0.9474076245006788,-5.082456267909788,-1.7970054727606606,304.0
609,5.098322181804077,-2.1138313365248074,-1.9653037962915667,0.9474076202273733,-5.0824562804391284,-1.7756850770452177,304.5
610,5.098322193695856,-2.1138313438570027,-1.965303798780634,0.9474076139497403,-5.0824562988451625,-1.7443646813297944,305.0
611,5.098322209384451,-2.113831353530227,-1.965303802064413,0.9474076056677798,-5.0824563231278885,-1.703044285614347,305.5
612,5.098322228622022,-2.1138313653317766,-1.9653038063631847,0.9474075946020872,-5.08245635115803,-1.6517238975879445,306.0
613,5.098322251058528,-2.1138313789612355,-1.9653038119880706,0.9474075796518502,-5.082456379928251,-1.5904035251122037,306.5
614,5.098322277626058,-2.1138313950234724,-1.9653038173831054,0.9474075656674094,-5.082456412900049,-1.5190831543675105,307.0
615,5.098322312295857,-2.113831415285844,-1.96530381289916,0.9474075812799744,-5.0824564459500445,-1.437762798246041,307.5
616,5.098322351223937,-2.113831438078176,-1.9653038078297336,0.9474075989762176,-5.082456483020292,-1.3464424472768042,308.0
617,5.0983223944067815,-2.113831463426925,-1.96530380215127,0.947407618869323,-5.082456524080442,-1.245122104000549,308.5
618,5.098322446550238,-2.1138314778171594,-1.965303793161306,0.9474076248486689,-5.0824565760652405,-1.1338017720471942,309.0
619,5.098322503561812,-2.113831492978239,-1.965303783256251,0.9474076307506364,-5.082456633000895,-1.0124814473699932,309.5
620,5.098322565505648,-2.113831499228607,-1.9653037712069925,0.9474076256187045,-5.082456694950302,-0.881161129216681,310.0
621,5.098322632356929,-2.113831497623767,-1.9653037571518621,0.9474076106489528,-5.0824567618749334,-0.739840814055045,310.5
622,5.098322701066454,-2.1138314848747806,-1.9653037412932086,0.9474075827730961,-5.0824568307474935,-0.5885205025764619,311.0
623,5.098322771698528,-2.113831461228711,-1.9653037236490585,0.9474075422567736,-5.0824569016303665,-0.42720019755368943,311.5
624,5.0983228355798325,-2.113831421751684,-1.9653037053884228,0.9474074852558946,-5.082456965884464,-0.2614331630918032,312.0
625,5.098322893009499,-2.113831379530978,-1.9653036881152324,0.9474074264380818,-5.082457023703582,-0.10501691119296688,312.5
626,5.098322932678849,-2.1138313257726584,-1.9653036730531652,0.9474073581346564,-5.082457063840364,0.04139934070582975,313.0
627,5.098322969065943,-2.113831275107028,-1.9653036590648099,0.947407293957613,-5.0824571006671455,0.1778155926046159,313.5
628,5.09832298844368,-2.113831219765255,-1.9653036480053956,0.947407227868029,-5.082457120507837,0.3042318445033627,314.0
629,5.098323005289447,-2.113831168216736,-1.9653036379534217,0.9474071665454086,-5.082457137783804,0.42064809640209205,314.5
630,5.098323013363954,-2.1138311191512935,-1.965303630034841,0.9474071097440551,-5.082457146261018,0.5270643483007971,315.0
631,5.098323014419423,-2.1138310730342114,-1.9653036239458386,0.9474070576425022,-5.082457147689441,0.6234806001995032,315.5
632,5.0983230153654215,-2.113831031700256,-1.9653036184883628,0.9474070109447619,-5.082457148969709,0.7098968520981921,316.0
633,5.0983230123771595,-2.1138309952412553,-1.9653036144665696,0.9474069705073158,-5.082457146273043,0.7863131039969002,316.5
634,5.09832300416175,-2.1138309636882506,-1.9653036121522842,0.9474069366196776,-5.082457138305206,0.8527293558955915,317.0
635,5.098322997183299,-2.113830936886042,-1.96530361018645,0.9474069078343502,-5.082457131537051,0.9091456077942975,317.5
636,5.098322991441805,-2.1138309148346313,-1.9653036085690645,0.947406884151333,-5.082457125968578,0.9555618596930264,318.0
637,5.098322986937269,-2.113830897534015,-1.9653036073001315,0.9474068655706271,-5.082457121599786,0.9919781115917525,318.5
638,5.098322983669691,-2.1138308849841945,-1.965303606379651,0.947406852092233,-5.082457118430677,1.0183943634904762,319.0
639,5.09832298163907,-2.1138308771851695,-1.965303605807623,0.94740684371615,-5.082457116461248,1.0348106153891903,319.5
640,5.097681109543266,-2.1150516267230417,-1.9629135091282564,0.9462371099918525,-5.0818166835138365,1.0427114263185435,320.0
641,5.096151891898759,-2.1179599953300094,-1.9572192542097029,0.9434503016641567,-5.080290894600127,1.041655072896294,320.5
642,5.095792271396941,-2.1186439511515647,-1.9558801540816433,0.9427949354965113,-5.0799320810045625,1.0321695644135576,321.0
643,5.095792273823447,-2.118643957417958,-1.9558801569456716,0.9427949343273478,-5.079932084622398,1.0136459966030409,321.5
644,5.095792277559909,-2.118643967067281,-1.955880161355854,0.9427949325270082,-5.079932090193334,0.9851224287925127,322.0
645,5.095792282606328,-2.1186439800995345,-1.9558801673121904,0.9427949300954925,-5.079932097717369,0.9465988609819663,322.5
646,5.09579228900018,-2.118643996530696,-1.9558801747959444,0.9427949270824414,-5.079932107518324,0.8980752939624473,323.0
647,5.095792297511585,-2.1186440166891125,-1.9558801834221031,0.9427949245079309,-5.079932126250448,0.8395517420403976,323.5
648,5.095792307477345,-2.1186440402920255,-1.9558801935222252,0.9427949214935101,-5.079932148183353,0.7710281901183869,324.0
649,5.095792308837918,-2.118644075956718,-1.9558801994717054,0.9427949563124925,-5.079932152793216,0.6925046517539338,324.5
650,5.095792308087358,-2.118644118129865,-1.9558802048925987,0.9427950042983213,-5.079932153318388,0.6039811177990513,325.0
651,5.095792307239114,-2.1186441651532006,-1.9558802108489077,0.9427950580742647,-5.079932153790778,0.5054575950946091,325.5
652,5.095792296116322,-2.118644214120723,-1.9558802193238694,0.9427951156587151,-5.079932142815664,0.3969340804365934,326.0
653,5.095792279065978,-2.118644266238694,-1.9558802295015147,0.942795177752521,-5.0799321252908705,0.2784105735835297,326.5
654,5.095792256115885,-2.1186443201389196,-1.9558802411374634,0.9427952430010003,-5.079932101846973,0.14988707418029043,327.0
655,5.095792219391545,-2.1186443712067753,-1.9558802552872363,0.942795307735498,-5.079932064672752,0.011363579466210881,327.5
656,5.095792176200202,-2.118644422108582,-1.9558802707588967,0.9427953735594743,-5.07993202102817,-0.1371599133512071,328.0
657,5.095792118350944,-2.118644464575045,-1.95588028819695,0.9427954327823113,-5.079931962783892,-0.2956833993820771,328.5
658,5.095792052197696,-2.1186444996467126,-1.9558803064151287,0.94279548531989,-5.079931896288592,-0.46204055739163985,329.0
659,5.095791982911114,-2.118644522798227,-1.9558803237616085,0.9427955250574185,-5.079931826754146,-0.621255281870832,329.5
660,5.095791914464794,-2.1186445310241435,-1.955880339027314,0.9427955478273029,-5.079931758182066,-0.7704700063501294,330.0
661,5.0957918490098155,-2.118644532576834,-1.9558803528194728,0.9427955624946781,-5.0799316926581675,-0.9096847308295842,330.5
662,5.095791788513973,-2.118644522776623,-1.9558803641317377,0.9427955634032246,-5.0799316321899965,-1.0388994553091646,331.0
663,5.095791732831415,-2.118644507993064,-1.9558803738079023,0.9427955577519522,-5.079931576579776,-1.1581141797888554,331.5
664,5.095791682883932,-2.11864449119665,-1.9558803820359114,0.9427955487028117,-5.079931526725931,-1.2673289042687146,332.0
665,5.095791640604286,-2.118644466480036,-1.9558803876598974,0.942795529224403,-5.07993148461093,-1.3665436287486057,332.5
666,5.095791602586068,-2.118644444254648,-1.9558803927170274,0.9427955117092495,-5.079931446740762,-1.4557583532286327,333.0
667,5.095791569436254,-2.118644423676431,-1.9558803969734484,0.9427954950873946,-5.07993141372979,-1.534973077708693,333.5
668,5.095791545163749,-2.118644399170644,-1.9558803988845912,0.9427954722920622,-5.079931389635702,-1.604187802188831,334.0
669,5.095791524398085,-2.1186443782054023,-1.9558804005196162,0.9427954527901522,-5.0799313690226775,-1.663402526669016,334.5
670,5.095791507139262,-2.1186443607807073,-1.9558804018785194,0.9427954365816626,-5.079931351890716,-1.7126172511492181,335.0
671,5.095791493387281,-2.1186443468965583,-1.9558804029613053,0.9427954236665959,-5.079931338239819,-1.7518319756294476,335.5
672,5.095791483142141,-2.1186443365529533,-1.9558804037679742,0.9427954140449517,-5.079931328069986,-1.78104670010966,336.0
673,5.095791476403842,-2.118644329749894,-1.9558804042985256,0.9427954077167305,-5.079931321381216,-1.8002614245898554,336.5
674,5.09551800448852,-2.1191727289488727,-1.954845116838323,0.9422883627973021,-5.079658484240743,-1.8102642556775346,337.0
675,5.094031742334529,-2.1220445213274965,-1.9492184766651632,0.9395326634689362,-5.078175671974454,-1.812022198114164,337.5
676,5.093294997061902,-2.1234680866807185,-1.9464293206560166,0.9381666470949978,-5.077440638321808,-1.8046474433556585,338.0
677,5.093295002956651,-2.123468090313317,-1.9464293218967348,0.9381666440046186,-5.077440647512366,-1.7889429426913355,338.5
678,5.093295012604943,-2.1234680962590113,-1.946429323927493,0.9381666389464092,-5.077440662555107,-1.763238442027018,339.0
679,5.093295026006777,-2.123468104517799,-1.9464293267482908,0.9381666319203694,-5.077440683450028,-1.7275339413626551,339.5
680,5.0932950431621515,-2.1234681150896817,-1.9464293303591287,0.9381666229264995,-5.077440710197131,-1.6818294406983259,340.0
681,5.093295063483003,-2.1234681274567744,-1.9464293352996571,0.9381666100580928,-5.0774407376901545,-1.62612495762161,340.5
682,5.093295087260075,-2.123468141875122,-1.9464293413030722,0.9381665942578289,-5.077440768453649,-1.560420479814295,341.0
683,5.093295117163131,-2.123468159601023,-1.946429342049377,0.9381665941959101,-5.077440801080549,-1.4847160108652901,341.5
684,5.093295153263764,-2.1234681806662628,-1.9464293373623685,0.9381666103904021,-5.077440835490367,-1.3990115493254751,342.0
685,5.093295193565627,-2.1234682042702935,-1.9464293320556694,0.9381666288211585,-5.077440873819016,-1.3033070986162896,342.5
686,5.093295239964962,-2.1234682249579717,-1.946429325066891,0.9381666428773454,-5.077440918899038,-1.197602654719748,343.0
687,5.093295293680232,-2.1234682392379494,-1.9464293156926817,0.9381666483934263,-5.077440972531889,-1.0818982191718698,343.5
688,5.093295352039987,-2.1234682547528774,-1.946429305507346,0.9381666543885264,-5.077441030817753,-0.9561937920651655,344.0
689,5.093295415458266,-2.123468253324605,-1.9464292921211068,0.9381666402323242,-5.07744109430628,-0.8204893714166288,344.5
690,5.093295483551224,-2.123468251729041,-1.9464292777404701,0.9381666249619488,-5.077441162475196,-0.6747849510977822,345.0
691,5.093295551061299,-2.1234682298835192,-1.9464292608860323,0.9381665870026368,-5.077441230223177,-0.5190805375263033,345.5
692,5.093295620435774,-2.1234682022761495,-1.9464292429050332,0.9381665421857226,-5.077441299884271,-0.3537136522253953,346.0
693,5.093295679206804,-2.1234681591963054,-1.9464292251487172,0.938166482042576,-5.077441359059558,-0.19168360323102976,346.5
694,5.093295728466098,-2.123468112839351,-1.9464292089526811,0.9381664200909245,-5.0774414087417,-0.039653554236554325,347.0
695,5.093295765891336,-2.123468060862715,-1.9464291945002112,0.9381663541521821,-5.07744144662556,0.10237649475806479,347.5
696,5.09329579492211,-2.123468009180987,-1.9464291818331771,0.9381662902065093,-5.077441476105236,0.23440654375284387,348.0
697,5.093295812365108,-2.123467955928644,-1.9464291713773323,0.9381662267848868,-5.0774414939999355,0.3564365927477313,348.5
698,5.093295828378703,-2.123467907040177,-1.9464291617783063,0.9381661685604761,-5.077441510428216,0.4684666417427266,349.0
699,5.093295829978366,-2.1234678590687235,-1.9464291552976483,0.9381661142207671,-5.077441512422509,0.5704966907378572,349.5
700,5.093295830972099,-2.123467815679741,-1.9464291495303874,0.9381660651615094,-5.07744151377278,0.6625267397330457,350.0
701,5.093295831857852,-2.123467777005413,-1.9464291443897954,0.9381660214330372,-5.077441514976331,0.7445567887283318,350.5
702,5.093295824820621,-2.12346774322888,-1.946429141526357,0.9381659847879062,-5.077441508209857,0.8165868377236506,351.0
703,5.093295817239361,-2.12346771417722,-1.9464291393816822,0.9381659535713491,-5.077441500860148,0.8786168867190384,351.5
704,5.093295810880292,-2.123467689809042,-1.9464291375827527,0.9381659273872804,-5.077441494695303,0.9306469357144613,352.0
705,5.093295805743415,-2.1234676701243465,-1.94642913612957,0.9381659062357008,-5.077441489715319,0.9726769847098935,352.5
706,5.093295801828729,-2.1234676551231324,-1.9464291350221359,0.9381658901166111,-5.077441485920199,1.0047070337053303,353.0
707,5.093295799136236,-2.1234676448053995,-1.9464291342604503,0.9381658790300111,-5.07744148330994,1.0267370827007358,353.5
708,5.09325559958494,-2.1235465483276768,-1.946274421169081,0.9380900476044559,-5.077401380366135,1.0389081628407162,354.0
709,5.0920012113103486,-2.1260089225358207,-1.9414465846296691,0.9357239033563287,-5.07615000534505,1.0434079485763785,354.5
710,5.090844652155155,-2.1282792634235888,-1.9369952650458098,0.9335422930608694,-5.074996224781117,1.038172471436804,355.0
711,5.090832972951843,-2.128302197421652,-1.936950310136892,0.9335202587005571,-5.074984574510744,1.0252617041933028,355.5
712,5.090832975921693,-2.128302205051167,-1.9369503136553001,0.9335202572735493,-5.07498457902801,1.0023938868471658,356.0
713,5.090832980190246,-2.1283022160170364,-1.9369503187122938,0.933520255222517,-5.074984585520658,0.9695260695009895,356.5
714,5.0908329857575,-2.1283022303192602,-1.9369503253078721,0.9335202525474602,-5.074984593988688,0.9266582521548232,357.0
715,5.090832993002337,-2.128302248126217,-1.9369503332447993,0.9335202497791771,-5.074984607740827,0.8737904412760944,357.5
716,5.090833002055501,-2.1283022694960105,-1.9369503424550123,0.9335202471008381,-5.074984627918869,0.810922637283592,358.0
717,5.090833009540329,-2.1283022968243084,-1.9369503514392208,0.9335202553893513,-5.074984645087923,0.7380548375500189,358.5
718,5.0908330088471025,-2.1283023357342765,-1.9369503564820667,0.933520299676172,-5.074984645585056,0.6551870498972878,359.0
719,5.090833008062301,-2.1283023793914677,-1.9369503620866722,0.9335203495298017,-5.074984646072561,0.562319269391079,359.5
720,5.090833005483384,-2.128302427320292,-1.9369503685771665,0.9335204046634816,-5.07498464463224,0.45945149601624585,360.0
721,5.090832989444226,-2.1283024762382214,-1.9369503781957291,0.9335204630140641,-5.074984628146853,0.34658373293318645,360.5
722,5.090832971982176,-2.1283025294884874,-1.9369503886683024,0.933520526527911,-5.074984610184859,0.22371597825607586,361.0
723,5.090832941628404,-2.1283025803590947,-1.9369504015395933,0.933520589876591,-5.074984579367801,0.09084822958733646,361.5
724,5.090832904209161,-2.1283026322600294,-1.9369504160241289,0.9335206557695641,-5.074984541483934,-0.052019517034575496,362.0
725,5.0908328537285445,-2.1283026772696005,-1.9369504323482287,0.9335207164905495,-5.074984490586171,-0.20488725899456492,362.5
726,5.090832795009385,-2.128302720248521,-1.9369504501304897,0.9335207765585777,-5.074984431460348,-0.3677549946785077,363.0
727,5.090832725337433,-2.1283027458638952,-1.9369504679658989,0.9335208192373656,-5.074984361515472,-0.5325233382472417,363.5
728,5.090832658158122,-2.1283027657523883,-1.9369504845446122,0.9335208549697466,-5.074984294112737,-0.687391749552265,364.0
729,5.090832590863142,-2.1283027673092523,-1.9369504987901638,0.9335208700724817,-5.074984226745693,-0.8322601608574114,364.5
730,5.090832528247993,-2.1283027672494024,-1.9369505118510657,0.9335208824255022,-5.074984164075952,-0.9671285721627113,365.0
731,5.090832470624743,-2.1283027519540156,-1.9369505219109235,0.9335208766238219,-5.074984106528383,-1.0919969834681684,365.5
732,5.09083241761621,-2.1283027378835535,-1.9369505311651363,0.9335208712867606,-5.0749840535894695,-1.206865394773712,366.0
733,5.090832372066574,-2.128302716364927,-1.9369505379048046,0.9335208560789692,-5.074984008177555,-1.3117338060793733,366.5
734,5.090832332123857,-2.1283026930455895,-1.9369505432426777,0.93352083773028,-5.07498396839237,-1.4066022173851267,367.0
735,5.090832296391467,-2.1283026721843252,-1.936950548017885,0.9335208213157085,-5.074983932800908,-1.4914706286909696,367.5
736,5.090832267801995,-2.128302649713546,-1.936950551095304,0.9335208016709625,-5.074983904371944,-1.566339039996881,368.0
737,5.0908322453261174,-2.1283026270609495,-1.9369505528733573,0.933520780608677,-5.0749838820634565,-1.6312074513028318,368.5
738,5.090832226315083,-2.1283026079004377,-1.936950554377308,0.9335207627933159,-5.0749838631940065,-1.6860758626088217,369.0
739,5.090832210768889,-2.1283025922320107,-1.936950555607155,0.9335207482248782,-5.074983847763593,-1.7309442739148453,369.5
740,5.0908321986875364,-2.128302580055668,-1.936950556562901,0.9335207369033658,-5.074983835772217,-1.7658126852208587,370.0
741,5.090832190071025,-2.12830257137141,-1.9369505572445465,0.9335207288287787,-5.074983827219878,-1.7906810965268551,370.5
742,5.090832184919357,-2.1283025661792356,-1.936950557652091,0.9335207240011167,-5.074983822106575,-1.8055495078328558,371.0
743,5.089988937223616,-2.129984196322038,-1.9336512230937437,0.9319025854659959,-5.0741426701257915,-1.812323387711525,371.5
744,5.088584376982658,-2.132785227173432,-1.9281556489078158,0.9292073176280046,-5.072741601216998,-1.8097589649056143,372.0
745,5.08840225055252,-2.13314844100849,-1.9274430350439988,0.9288578185383016,-5.072559929674579,-1.7991674208339696,372.5
746,5.088402257978481,-2.1331484455822247,-1.9274430366158248,0.9288578146722275,-5.072559941337801,-1.7791580308679407,373.0
747,5.088402269115678,-2.1331484524417537,-1.9274430389731951,0.9288578088740236,-5.072559958829899,-1.7491486409019026,373.5
748,5.088402283964113,-2.133148461587077,-1.92744304211611,0.9288578011436894,-5.072559982150872,-1.709139250935848,374.0
749,5.088402302382779,-2.1331484728907464,-1.927443046178205,0.928857791009922,-5.072560010063375,-1.6591298653158593,374.5
750,5.088402323863448,-2.1331484858934058,-1.92744305164114,0.928857776774018,-5.072560038107696,-1.5991204970773407,375.0
751,5.0884023489236725,-2.1331485010628373,-1.9274430580144226,0.9288577601658339,-5.072560070825342,-1.5291111288388481,375.5
752,5.0884023821044275,-2.1331485204125595,-1.9274430539743859,0.9288577741704007,-5.072560102709916,-1.4491017763681064,376.0
753,5.088402419564764,-2.1331485422657415,-1.9274430490679522,0.928857791018878,-5.072560138384343,-1.359092427798192,376.5
754,5.0884024611770595,-2.133148566617773,-1.9274430435518497,0.9288578100438302,-5.072560177934924,-1.259083088675208,377.0
755,5.088402510886237,-2.133148582175855,-1.927443035149623,0.9288578177166418,-5.0725602272122945,-1.1490737593384566,377.5
756,5.088402565935638,-2.13314859680849,-1.927443025496456,0.9288578233261129,-5.072560282183314,-1.0290644375472648,378.0
757,5.0884026257454105,-2.1331486051385813,-1.9274430140423424,0.9288578208605909,-5.072560341979413,-0.8990551227597283,378.5
758,5.088402690394848,-2.1331486036624847,-1.9274430003239038,0.9288578063397728,-5.0725604067021335,-0.7590458118268344,379.0
759,5.08840275755777,-2.1331485940364034,-1.9274429850279202,0.9288577821331816,-5.072560474007183,-0.6090365037841906,379.5
760,5.088402825941282,-2.1331485713172817,-1.9274429677869276,0.9288577429271956,-5.072560542640712,-0.44902720232181015,380.0
761,5.088402889958433,-2.133148535498748,-1.9274429497692154,0.9288576898256281,-5.072560607013082,-0.28279170586352154,380.5
762,5.088402946482132,-2.133148494186978,-1.9274429326106413,0.9288576320230733,-5.072560663931094,-0.1250686632028571,381.0
763,5.088402987492347,-2.133148443481001,-1.9274429174860526,0.9288575667177944,-5.072560705400045,0.022654379457945614,381.5
764,5.088403023347269,-2.1331483938117004,-1.9274429035739824,0.9288575036061761,-5.072560741700483,0.16037742211892375,382.0
765,5.08840304450319,-2.1331483406916902,-1.9274428922924185,0.9288574395286153,-5.072560763317581,0.2881004647799904,382.5
766,5.088403061127691,-2.1331482900532484,-1.9274428822792795,0.9288573791491446,-5.072560780378562,0.40582350744123996,383.0
767,5.088403070936725,-2.1331482422821515,-1.9274428740622906,0.928857323356808,-5.0725607905941335,0.5135465501025365,383.5
768,5.0884030719777416,-2.133148196860151,-1.9274428679831552,0.928857271955818,-5.0725607920143245,0.6112695927639689,384.0
769,5.088403072912232,-2.1331481560861882,-1.9274428625260913,0.9288572258146892,-5.072560793289188,0.6989926354254918,384.5
770,5.088403071249212,-2.133148120017144,-1.9274428582196892,0.9288571854929324,-5.07256079192505,0.7767156780871683,385.0
771,5.088403063069987,-2.1331480887425056,-1.9274428558954915,0.9288571518707389,-5.072560783998984,0.8444387207488633,385.5
772,5.0884030560985085,-2.133148062085888,-1.9274428539144848,0.9288571232132061,-5.072560777243282,0.90216176341056,386.0
773,5.088403050334776,-2.1331480400472924,-1.9274428522766665,0.9288570995203325,-5.072560771657946,0.9498848060721927,386.5
774,5.08840304577879,-2.1331480226267163,-1.9274428509820403,0.92885708079212,-5.072560767242974,0.9876078487338085,387.0
775,5.08840304243055,-2.13314800982416,-1.9274428500306067,0.9288570670285687,-5.072560763998368,1.0153308913954642,387.5
776,5.088403040290056,-2.133148001639624,-1.9274428494223654,0.9288570582296786,-5.072560761924125,1.0330539340571174,388.0
777,5.087971534463069,-2.1340221865341253,-1.9257265548318354,0.9280147386741138,-5.072130365313222,1.041944981807769,388.5
778,5.086516732758153,-2.136969480845556,-1.9199401347820517,0.9251749048152088,-5.070679303258762,1.0422357017244663,389.0
779,5.086005444700488,-2.1380053084874575,-1.9179065022982273,0.9241768467154063,-5.070169330070194,1.0337722160800265,389.5
780,5.086005446906781,-2.138005314125823,-1.9179065049223953,0.9241768456580823,-5.070169333493337,1.0166382607096591,390.0
781,5.086005450400746,-2.1380053230549443,-1.917906509078124,0.9241768439836655,-5.07016933891435,0.9895043053392735,390.5
782,5.086005455182385,-2.138005335274821,-1.9179065147654133,0.9241768416921561,-5.070169346333235,0.9523703499688837,391.0
783,5.0860054612516965,-2.138005350785453,-1.9179065219842624,0.9241768387835537,-5.070169355749991,0.9052363945985324,391.5
784,5.086005469333991,-2.138005369922671,-1.9179065303414624,0.9241768363308743,-5.070169373565833,0.8481024471412824,392.0
785,5.086005478907494,-2.1380053924448847,-1.9179065401198812,0.9241768335622095,-5.070169395175842,0.7809685004578641,392.5
786,5.086005481776152,-2.1380054251932408,-1.917906546759554,0.9241768610327474,-5.0701694029757824,0.703834564947867,393.0
787,5.0860054810552775,-2.1380054655350205,-1.9179065520211511,0.9241769069984486,-5.070169403490248,0.6167006345157293,393.5
788,5.086005480237274,-2.1380055105989397,-1.917906557802353,0.9241769586364839,-5.070169403935756,0.5195667167679973,394.0
789,5.08600547145664,-2.1380055581131874,-1.9179065656759566,0.9241770143184509,-5.0701693955346645,0.4124328056629486,394.5
790,5.086005455010237,-2.1380056081581245,-1.9179065755875766,0.9241770740831343,-5.070169378619599,0.29529890263730996,395.0
791,5.086005434984888,-2.1380056612035636,-1.9179065866413167,0.9241771379367847,-5.070169358088956,0.16816500756257113,395.5
792,5.08600539949613,-2.138005710302869,-1.9179066004456993,0.9241772003737097,-5.070169322153251,0.031031118084131393,396.0
793,5.086005359760136,-2.1380057613127716,-1.9179066153887048,0.9241772658114509,-5.070169281950931,-0.11610277031933196,396.5
794,5.086005303783184,-2.1380058021655657,-1.9179066324232836,0.924177323036682,-5.070169225580826,-0.2732366518027724,397.0
795,5.086005241616629,-2.13800583858825,-1.9179066501827655,0.9241773765010095,-5.07016916305272,-0.4375623223448134,397.5
796,5.086005175116014,-2.1380058606393004,-1.9179066669904508,0.9241774146249433,-5.070169096307198,-0.5940976966501378,398.0
797,5.086005110459282,-2.138005872097712,-1.9179066820395636,0.9241774404375152,-5.070169031496113,-0.7406330709554746,398.5
798,5.086005047789342,-2.1380058735093566,-1.917906695370811,0.9241774545257255,-5.070168968757928,-0.8771684452609094,399.0
799,5.0860049898534925,-2.138005868534356,-1.9179067068817703,0.9241774604687117,-5.070168910811693,-1.0037038195663273,399.5
800,5.086004936714621,-2.1380058544301996,-1.9179067162041052,0.9241774551616316,-5.07016885774337,-1.1202391938718261,400.0
801,5.08600488813564,-2.1380058415363354,-1.9179067247264763,0.9241774503099532,-5.070168809228883,-1.2267745681773539,400.5
802,5.086004847386209,-2.1380058199045897,-1.9179067304746484,0.9241774340446931,-5.070168768624327,-1.3233099424829038,401.0
