Miguel-LA/TFM_MiguelLerinAlonso/workspace/ros_ur_driver/src/trayectories/data/saved_trajectories/20240523_1640_trajectory.csv
,shoulder_pan_joint,shoulder_lift_joint,elbow_joint,wrist_1_joint,wrist_2_joint,wrist_3_joint,time_from_start
0,1.4761815994259466,-1.193946561454978,2.023474692335774,-1.8832258920879144,1.5044623915888924,-1.4846204484220769,0.0
1,1.4762325938332617,-1.1929708198629934,2.0234332251233056,-1.8882258920879145,1.5048170434356947,-1.4844661999040683,1.0
2,1.4763855770552068,-1.1900435950870394,2.023308823485901,-1.9032258920879144,1.5058809989761017,-1.4840034543500424,2.0
3,1.476640549091782,-1.185164887127116,2.0231014874235598,-1.9282258920879145,1.507654258210113,-1.483232211759999,3.0
4,1.4769975099429877,-1.1783346959832235,2.022811216936282,-1.9632258920879146,1.510136821137729,-1.4821524721339385,4.0
5,1.4774566814242882,-1.1695406750982666,2.022410228000489,-2.008225874908217,1.5133314822270225,-1.4807708792157164,5.0
6,1.4780223868467466,-1.1585422366001257,2.0213571767221805,-2.0632256497814376,1.517292698982898,-1.479216874978846,6.0
7,1.4786989885291604,-1.1450966399313582,2.0191058963627735,-2.1282250727239678,1.522075417471842,-1.4776210530063731,7.0
8,1.4794905669316534,-1.1289768213844307,2.0151454848755685,-2.2032239898940724,1.5277310346803799,-1.4761055753921013,8.0
9,1.4803972852309064,-1.1100789541322138,2.0089027264810624,-2.2882222655030287,1.5342839616404778,-1.4748082871169852,9.0
10,1.4814190543932868,-1.0882594571736195,1.9995221892084603,-2.3832196685178877,1.541768123223447,-1.4739349594977034,10.0
11,1.482554431336843,-1.063434819743171,1.9862231217206614,-2.4882159429937873,1.5502034283620039,-1.473676942083182,11.0
12,1.4837956231605798,-1.035680882818015,1.967877863632141,-2.60321074981097,1.5595745393823828,-1.4743161582104807,12.0
13,1.4850918809636797,-1.006092196275727,1.9442096799841226,-2.7245767184909506,1.5695294017787769,-1.4760626926455997,13.0
14,1.486274858234268,-0.9785768173268011,1.9180436853534837,-2.837526339634812,1.5787763648416004,-1.4787408869615644,14.0
15,1.4873197075865086,-0.9538784443544778,1.8906929839162752,-2.9404776763500524,1.5870844909458501,-1.4821110912373623,15.0
16,1.4882277390111984,-0.9320866456881272,1.8632097125995366,-3.0334269066135153,1.5944235409577523,-1.4859230180248204,16.0
17,1.4890002431514464,-0.9132614698236259,1.836441836129219,-3.116375185225488,1.600771174749962,-1.4899751868828155,17.0
18,1.4896444312867763,-0.8973159347670916,1.8113151372007783,-3.189319618716535,1.6061484452462182,-1.4940307296351207,18.0
19,1.4901684169913056,-0.8841258817841147,1.788458245979907,-3.2522635920186698,1.6105934538749676,-1.4979167230354293,19.0
20,1.4905851137247166,-0.8734644731169454,1.7684702543327222,-3.3052073144661556,1.6141813742757378,-1.5014494685848543,20.0
21,1.490903244695608,-0.8651804718156009,1.7518209671011302,-3.348150834578938,1.6169609688725752,-1.5044905071282009,21.0
22,1.4911349787798147,-0.8590511196803496,1.738780346249503,-3.3810941300926247,1.6190122092994734,-1.5069317313440087,22.0
23,1.491290024697006,-0.8548985756892082,1.729560015829498,-3.4040372423777026,1.6203990159980872,-1.508687720345569,23.0
24,1.4913756880292728,-0.852589015986081,1.724319192111755,-3.4169802495906763,1.6211694883402716,-1.5096942033300014,24.0
25,1.4914041725761575,-0.851889920925093,1.7232101633254786,-3.4200569867317956,1.6214068926441767,-1.5098707015963317,25.0
26,1.4913630098694863,-0.8530056027173178,1.725782485692484,-3.4137321501310978,1.621035056536905,-1.5093735679747569,26.0
27,1.4912548595893786,-0.8559202479296277,1.7323845558381004,-3.3974072429093933,1.6200626471375301,-1.508106263698536,27.0
28,1.4910746838072468,-0.8607263203097575,1.7429178183802467,-3.3710822090819925,1.6184561731999378,-1.5061106409760228,28.0
29,1.490814393059127,-0.8675722874239082,1.7572239972359343,-3.334757004614888,1.6161618581299309,-1.5034539084981422,29.0
30,1.4904633365238438,-0.8766534453177397,1.775086062915337,-3.288431603790814,1.6131091580292303,-1.5002264568290669,30.0
31,1.4900119181848284,-0.8881417247860703,1.7961142025641899,-3.2321058790954407,1.6092403610501873,-1.4965524792587757,31.0
32,1.4894471000507299,-0.9022718450619132,1.8198444229504993,-3.1657797646639545,1.6044751031935771,-1.4925862945732828,32.0
33,1.488760259875905,-0.9191826657767319,1.8456467039641722,-3.0894531780685854,1.5987709207865382,-1.4885020301579197,33.0
34,1.4879414030947946,-0.9390317438239418,1.8727855932949529,-3.003126104600083,1.5920792089829847,-1.4845034052306256,34.0
35,1.4869862538238612,-0.9618407529580577,1.9003614805735143,-2.906798535179652,1.58440085000843,-1.4808119526078238,35.0
36,1.4858935570024396,-0.9875370906129393,1.9274435345671759,-2.8004705451073018,1.5757614031825704,-1.4776482810294846,36.0
37,1.4846648821970492,-1.0159515054857522,1.9530147052480935,-2.6841422468342193,1.5662124298883533,-1.475247131366233,37.0
38,1.4833657141780126,-1.045426164950117,1.9751475055043974,-2.563228773240533,1.5562923755655382,-1.4738742462015746,38.0
39,1.4821581789311302,-1.0722383284773338,1.9916549818284328,-2.4516147062386104,1.5472265841132542,-1.4735731104936223,39.0
40,1.4810602188082072,-1.0960660304413232,2.0035459293868043,-2.3499980342737796,1.5391088680065221,-1.4740603311345968,40.0
41,1.4800755992589176,-1.1169430173221386,2.0117699544444307,-2.2583803914288128,1.5319305825199239,-1.4751010469799477,41.0
42,1.4792075818820614,-1.1348979701192536,2.0171791206778846,-2.1767621395672476,1.525682145895061,-1.476487034488613,42.0
43,1.4784539884450094,-1.150126651385118,2.02047494137881,-2.10514272947187,1.5203187527497375,-1.4780502211079658,43.0
44,1.4778144158722504,-1.1627519835221545,2.0222746057467402,-2.043522536364685,1.5158122398369127,-1.4796431585616072,44.0
45,1.4772852227282816,-1.1729774224626475,2.0230408163169655,-1.9919020247275672,1.5121165240930698,-1.481155089151833,45.0
46,1.4768623124486011,-1.1810211690196424,2.0232343531277266,-1.9502811072066146,1.509182200825272,-1.482475704125061,46.0
47,1.4765413099976783,-1.1871163699527798,2.0233476893975912,-1.9186600162565344,1.5069564900156593,-1.4834870968163014,47.0
48,1.476321822845968,-1.1912839963620778,2.0234251836814714,-1.8970389253064552,1.5054346482829002,-1.484178642006759,48.0
49,1.4762038509934705,-1.1935240482475369,2.0234668359793675,-1.8854178343563752,1.504616675626994,-1.4845503396964341,49.0
50,1.4761815994259466,-1.193946561454978,2.023474692335774,-1.8832258920879144,1.5044623915888924,-1.4846204484220769,49.66210909
