Miguel-LA/TFM_MiguelLerinAlonso/workspace/ros_ur_driver/src/trayectories/data/saved_trajectories/20240523_1653_trajectory.csv
,shoulder_pan_joint,shoulder_lift_joint,elbow_joint,wrist_1_joint,wrist_2_joint,wrist_3_joint,time_from_start
0,1.157815091513058,-1.4122244890135744,2.0041033925875262,-0.5999570731827639,1.161857055692828,-1.5763087283750878,0.0
1,1.1610267933337661,-1.4111611784828648,2.0028103626639444,-0.5997016355419762,1.1649185276195377,-1.5813087283750877,1.0
2,1.1706618987958906,-1.4079712468907362,1.9989312728932003,-0.5989353226196129,1.1741029433996673,-1.5963087283750879,2.0
3,1.186720407899431,-1.4026546942371882,1.9924661232752925,-0.5976581344156741,1.1894103030332162,-1.6213087283750878,3.0
4,1.2091789846689056,-1.3951820353198956,1.9833707804479255,-0.595852739013331,1.2108182895688062,-1.6563087330635984,4.0
5,1.2377192763735951,-1.385150941862928,1.971043045721949,-0.5932826470981439,1.2380224517795484,-1.7013088912630623,5.0
6,1.271584172496044,-1.3723004237803622,1.9550517208028275,-0.5897442423475211,1.2703000962473867,-1.7556301211892635,6.0
7,1.3064907580731087,-1.3579403096782376,1.9369391421884012,-0.5854954752556938,1.303570325269084,-1.8127684035914768,7.0
8,1.3413973437410094,-1.3424096540902322,1.9170396646795251,-0.5805380533416744,1.3368456525993606,-1.8712762296500836,8.0
9,1.3763039295149373,-1.3256366546684404,1.8952260313299856,-0.5748103830839464,1.3701279398941473,-1.9312696905508426,9.0
10,1.4096505750794774,-1.3084029055998636,1.8724417650090095,-0.5685052435875693,1.4019371745596514,-1.99016572106087,10.0
11,1.4369553930894845,-1.2933573178168793,1.852272921173832,-0.5626878933050068,1.4279951887631708,-2.0396317123205723,11.0
12,1.4568518029132285,-1.282166105632197,1.8372074428568226,-0.5582892847690293,1.44698602930612,-2.0868909529582207,12.0
13,1.4668453986680978,-1.2765448114150204,1.829640022226293,-0.556079803032129,1.456524801153289,-2.1402786117721826,13.0
14,1.4680930934899221,-1.2758427312553604,1.8286947082568472,-0.5558037098515325,1.4577157564325889,-2.1969531425926996,14.0
15,1.4680944182578328,-1.275841639385047,1.828693016464792,-0.5558031013871456,1.4577170811194482,-2.2624626521818945,15.0
16,1.4680959456221039,-1.275840380728416,1.828691066121706,-0.5558023991198395,1.4577186111419795,-2.337972149693466,16.0
17,1.4680968381271988,-1.2758396326991928,1.8286899376718901,-0.555802012439544,1.457719505385877,-2.423481641592513,17.0
18,1.4680968373805472,-1.2758396043600588,1.8286899645287966,-0.5558020674633277,1.4577195050661043,-2.5189911272339764,18.0
19,1.4680968365601972,-1.2758395730709946,1.828689994260732,-0.5558021285039999,1.4577195047466784,-2.624500605324609,19.0
20,1.4680968254156994,-1.275839541142275,1.8286900276983182,-0.5558021938347109,1.4577194934444595,-2.74001007631277,20.0
21,1.468096806651426,-1.2758395079592022,1.8286900646046618,-0.5558022638395806,1.4577194740447763,-2.8655195396965802,21.0
22,1.4680967802713796,-1.275839474678377,1.8286901038792274,-0.5558023362412268,1.4577194470045427,-3.001028995343184,22.0
23,1.4680967398540599,-1.2758394439714624,1.828690144921023,-0.5558024077010142,1.4577194059409488,-3.1465384421457623,23.0
24,1.4680966899821966,-1.275839415604306,1.8286901865901841,-0.5558024773787148,1.4577193554412045,-3.3020478826735653,24.0
25,1.4680966265063344,-1.275839392342502,1.8286902275238655,-0.5558025411153596,1.457719291394854,-3.4675573190158735,25.0
26,1.4680965541742879,-1.275839377872249,1.8286902628262967,-0.5558025903626527,1.4577192186256074,-3.6347008004781953,26.0
27,1.4680964821372593,-1.2758393686473402,1.8286902930977305,-0.5558026293346543,1.4577191462448815,-3.7919171183457863,27.0
28,1.4680964098356764,-1.2758393711855636,1.8286903123641742,-0.5558026455340638,1.4577190738069847,-3.939133436213374,28.0
29,1.4680963418083075,-1.2758393750203834,1.828690329128483,-0.5558026579656911,1.4577190056769467,-4.076349754080958,29.0
30,1.4680962790190581,-1.2758393876743026,1.8286903360135804,-0.5558026517353767,1.457718942954135,-4.203566071948541,30.0
31,1.4680962212118247,-1.2758394008385079,1.828690340925454,-0.5558026430578428,1.4577188852348513,-4.320782389816121,31.0
32,1.4680961703229798,-1.2758394163933713,1.8286903415122167,-0.5558026277145731,1.457718834493578,-4.4279987076837,32.0
33,1.4680961265160204,-1.2758394346280564,1.828690337452421,-0.5558026050960891,1.4577187908993365,-4.525215025551275,33.0
34,1.4680960872151934,-1.275839450987056,1.8286903338102236,-0.5558025848042172,1.4577187517893462,-4.612431343418851,34.0
35,1.4680960542180124,-1.2758394668360276,1.8286903287603455,-0.5558025636608591,1.4577187189897796,-4.6896476612864255,35.0
36,1.4680960292435752,-1.2758394834810474,1.8286903205571283,-0.5558025386265585,1.4577186942471427,-4.7568639791540015,36.0
37,1.46809600798467,-1.275839497649731,1.8286903135743313,-0.5558025173166957,1.4577186731855518,-4.814080297021578,37.0
38,1.4680959904412967,-1.2758395093420758,1.8286903078119514,-0.55580249973127,1.457718655805007,-4.861296614889158,38.0
39,1.4680959766134554,-1.275839518558085,1.8286903032699928,-0.5558024858702826,1.4577186421055086,-4.898512932756737,39.0
40,1.4680959665011455,-1.2758395252977588,1.8286902999484553,-0.5558024757337333,1.4577186320870563,-4.9257292506243155,40.0
41,1.468095960104368,-1.2758395295610967,1.8286902978473396,-0.5558024693216223,1.4577186257496504,-4.942945568491895,41.0
42,1.4682508790547975,-1.2744737873346674,1.8268118046463695,-0.5552898717955492,1.4578764217729168,-4.951404814444997,42.0
43,1.4687179248642757,-1.2703564588781153,1.8211486882352597,-0.5537445466312833,1.4583521405320574,-4.951159200625617,43.0
44,1.4688507127929014,-1.2691858651027088,1.8195386171124117,-0.5533052015859948,1.458487391110635,-4.942335802698292,44.0
45,1.4688507184402468,-1.2691858609660467,1.8195386198723913,-0.5533052100075042,1.458487390157266,-4.924617422490827,45.0
46,1.468850727274873,-1.2691858544947117,1.8195386241900637,-0.5533052231819928,1.4584873886658287,-4.896899042283359,46.0
47,1.4688507392967804,-1.2691858456887037,1.8195386300654297,-0.5533052411094607,1.4584873866363237,-4.859180662075893,47.0
48,1.4688507545059686,-1.269185834548023,1.819538637498488,-0.5533052637899079,1.4584873840687507,-4.811462281868425,48.0
49,1.4688507730696183,-1.2691858214264569,1.8195386478026574,-0.5533052965878502,1.4584873822855595,-4.753743924211072,49.0
50,1.4688507948554854,-1.2691858060441472,1.8195386599389807,-0.553305335259779,1.4584873802406484,-4.686025567237694,50.0
51,1.4688508272750163,-1.269185790847276,1.8195386660264756,-0.5533053606445871,1.458487406086796,-4.608307222553472,51.0
52,1.4688508665887987,-1.2691857745961095,1.819538670018543,-0.5533053823195484,1.4584874456151202,-4.520588882589435,52.0
53,1.4688509104192886,-1.2691857564791524,1.8195386744280402,-0.5533054063388501,1.4584874899407385,-4.422870554839399,53.0
54,1.468850961470107,-1.2691857413990633,1.819538673528648,-0.5533054213791396,1.4584875411820715,-4.315152234190917,54.0
55,1.4688510191340398,-1.2691857282701937,1.8195386685974886,-0.5533054299737328,1.4584875988086756,-4.197433921495318,55.0
56,1.4688510817617733,-1.2691857162091578,1.81953866116232,-0.5533054350301849,1.458487661420067,-4.069715616497595,56.0
57,1.468851149570635,-1.2691857123973636,1.8195386443761703,-0.5533054225531631,1.458487729330571,-3.9319973166486877,57.0
58,1.4688512213378941,-1.269185710536025,1.8195386245544725,-0.553305405119313,1.4584878012439257,-3.784279018147185,58.0
59,1.4688512931111326,-1.2691857197447032,1.8195385942582245,-0.5533053661402543,1.4584878733615159,-3.6265607265412925,59.0
60,1.4688513639970482,-1.269185734675209,1.8195385588153523,-0.5533053162849955,1.4584879446912704,-3.4603230637487026,60.0
61,1.4688514249500035,-1.269185757033646,1.8195385193319318,-0.5533052548866013,1.4584880061950969,-3.3003005534818675,61.0
62,1.4688514727800694,-1.2691857842037009,1.819538479242576,-0.5533051879731444,1.4584880546284862,-3.1502780432150326,62.0
63,1.4688515114086003,-1.2691858135713119,1.8195384398412147,-0.5533051194820036,1.4584880938762155,-3.0102555329481957,63.0
64,1.4688515379639377,-1.2691858447188302,1.81953840238657,-0.5533050510685226,1.4584881210519758,-2.880233022681357,64.0
65,1.4688515557867183,-1.269185876255675,1.819538367189667,-0.5533049844591662,1.458488139480105,-2.7602105124145164,65.0
66,1.4688515696752307,-1.269185905722512,1.8195383351343297,-0.5533049230328909,1.4584881539272694,-2.650188002147676,66.0
67,1.4688515705840994,-1.2691859351784824,1.8195383069925684,-0.5533048654356232,1.4584881553619051,-2.5501654918808336,67.0
68,1.468851571402102,-1.2691859616895143,1.8195382816643455,-0.5533048135967857,1.4584881566531092,-2.460142981613989,68.0
69,1.4688515718437845,-1.2691859852716563,1.8195382592203269,-0.5533047675688938,1.4584881575149948,-2.3801204713471455,69.0
70,1.4688515626667622,-1.2691860064444211,1.819538241948413,-0.5533047290522675,1.45848814869113,-2.3100979610803005,70.0
71,1.4688515548003214,-1.2691860245934776,1.8195382271431224,-0.5533046960362474,1.458488141127412,-2.2500754508134557,71.0
72,1.4688515482444626,-1.2691860397188233,1.819538214804452,-0.5533046685208337,1.4584881348238412,-2.200052940546614,72.0
73,1.4688515429991855,-1.2691860518204607,1.8195382049324045,-0.5533046465060264,1.458488129780417,-2.160030430279771,73.0
74,1.4688515390644903,-1.2691860608983903,1.819538197526981,-0.5533046299918254,1.4584881259971403,-2.130007920012927,74.0
75,1.4688515364403767,-1.269186066952612,1.819538192588181,-0.5533046189782307,1.45848812347401,-2.1099854097460837,75.0
76,1.4689030901582438,-1.2687259616816553,1.8189019335210903,-0.5531285160664939,1.4585406618095649,-2.099437059522828,76.0
77,1.4693399899780535,-1.264826804811035,1.813510021049123,-0.5516361918238117,1.4589859051713878,-2.0968773336133344,77.0
78,1.4695962888221825,-1.2625394443647584,1.8103469718145988,-0.5507607572901884,1.459247096386995,-2.1036089278287013,78.0
79,1.4695962901020077,-1.2625394401943273,1.8103469764253601,-0.5507607688133657,1.459247092701449,-2.118498427478408,79.0
80,1.4695962922413819,-1.262539433222975,1.8103469841327746,-0.5507607880756729,1.4592470865406373,-2.1433879271281144,80.0
81,1.4695962952403048,-1.2625394234507017,1.8103469949368423,-0.5507608150771102,1.459247077904561,-2.1782774267778167,81.0
82,1.4695962990987763,-1.2625394108775074,1.8103470088375633,-0.5507608498176775,1.4592470667932191,-2.2231669264275205,82.0
83,1.4695963036221928,-1.2625393952897512,1.8103470250181948,-0.5507608889074564,1.4592470516230391,-2.2780564166668595,83.0
84,1.4695963088730701,-1.2625393767560638,1.810347043741113,-0.5507609334354451,1.4592470329027356,-2.3429459025871733,84.0
85,1.469596311701812,-1.262539355081735,1.810347064937331,-0.5507609802529718,1.4592470208591117,-2.4178353808670345,85.0
86,1.4695963108728476,-1.2625393301579995,1.8103470884492912,-0.5507610276116114,1.4592470191482587,-2.502724850245114,86.0
87,1.4695963099731575,-1.2625393022885758,1.8103471147035866,-0.5507610804584455,1.4592470174616987,-2.5976143100280216,87.0
88,1.4695963041976436,-1.2625392726106264,1.8103471442685686,-0.5507611386996758,1.459247010991075,-2.7025037629518875,88.0
89,1.4695962872588366,-1.262539242610802,1.8103471778779436,-0.5507612021750029,1.4592469935286139,-2.8173932073704515,89.0
90,1.4695962688460844,-1.2625392100007702,1.8103472144163248,-0.5507612711900638,1.4592469745494654,-2.9422826426145763,90.0
91,1.4695962332925385,-1.2625391812992073,1.8103472524190845,-0.5507613376391085,1.4592469383992803,-3.0771720720388926,91.0
92,1.4695961935912207,-1.2625391510990625,1.810347293098165,-0.5507614082334518,1.459246898058069,-3.222061500763983,92.0
93,1.4695961367602037,-1.2625391284084935,1.8103473318139671,-0.5507614692243095,1.4592468406778727,-3.3769509235349635,93.0
94,1.469596073155862,-1.2625391069060834,1.810347371445896,-0.5507615298924409,1.4592467765284343,-3.5417367159330437,94.0
95,1.4695959995485357,-1.2625390974463573,1.8103474026570994,-0.5507615700206716,1.4592467025658409,-3.7045902124796823,95.0
96,1.4695959287110365,-1.2625390926069044,1.8103474286425973,-0.5507616003224656,1.4592466314625945,-3.8574437090262634,96.0
97,1.4695958588514282,-1.2625390965238852,1.81034744601396,-0.5507616132591195,1.4592465614960826,-4.000297205572836,97.0
98,1.469595793978237,-1.2625391032771882,1.8103474591851783,-0.5507616191956177,1.459246496579261,-4.133150702119404,98.0
99,1.4695957342154056,-1.2625391168776976,1.8103474643083786,-0.5507616102732896,1.4592464369080107,-4.256004198665965,99.0
100,1.4695956793171348,-1.2625391293711516,1.8103474690145551,-0.5507616020772166,1.4592463820938661,-4.368857695212517,100.0
101,1.4695956330748885,-1.2625391474689742,1.8103474657829128,-0.5507615804018478,1.459246336057741,-4.471711191759069,101.0
102,1.4695955918040653,-1.2625391646489057,1.810347461922277,-0.550761559052352,1.459246294989233,-4.564564688305619,102.0
103,1.4695955549779671,-1.2625391799786156,1.8103474584774149,-0.5507615400021222,1.459246258343661,-4.647418184852163,103.0
104,1.4695955267511374,-1.2625391966183992,1.8103474511915834,-0.5507615158642072,1.459246230342521,-4.7202716813987085,104.0
105,1.4695955037165773,-1.2625392119766086,1.810347443555595,-0.550761492696394,1.459246207523909,-4.783125177945254,105.0
106,1.4695954843468184,-1.262539224891323,1.8103474371344916,-0.5507614732145825,1.4592461883357406,-4.835978674491808,106.0
107,1.4695954686418617,-1.2625392353625435,1.8103474319282742,-0.5507614574187731,1.459246172778017,-4.878832171038363,107.0
108,1.4695954566017067,-1.2625392433902713,1.8103474279369443,-0.5507614453089662,1.4592461608507374,-4.9116856675849165,108.0
109,1.4695954482263534,-1.2625392489745064,1.8103474251605016,-0.5507614368851618,1.4592461525539029,-4.934539164131469,109.0
110,1.469597871748348,-1.2625173136449248,1.810316924944093,-0.5507528743521618,1.459248623790855,-4.94742109676295,110.0
111,1.469944478402716,-1.2593858062109984,1.8059635322738241,-0.5495313301670035,1.45960203500132,-4.952617404861012,111.0
112,1.4703207005110959,-1.2559867593260952,1.8012382134670106,-0.5482054288327476,1.4599856413295411,-4.948130694899472,112.0
113,1.4703304543017268,-1.2558986684278293,1.8011157561558355,-0.5481710730456806,1.4599955820722936,-4.935981003439673,113.0
114,1.470330461247005,-1.2558986633502713,1.801115759568455,-0.5481710834071847,1.4599955809344483,-4.913944702857045,114.0
115,1.4703304713440275,-1.2558986559685343,1.8011157645297102,-0.548171098470705,1.4599955792802524,-4.8819084022744175,115.0
116,1.4703304845927938,-1.2558986462826187,1.8011157710396006,-0.5481711182362414,1.459995577109706,-4.839872101691782,116.0
117,1.4703305010571952,-1.2558986344308611,1.8011157796093173,-0.5481711447806207,1.4599955749344566,-4.787835809747921,117.0
118,1.470330520789505,-1.2558986205264442,1.8011157906571011,-0.548171179803038,1.459995573173118,-4.725799530669163,118.0
119,1.4703305453501954,-1.2558986049305234,1.8011158017217963,-0.5481712162151793,1.4599955774087732,-4.653763254499476,119.0
120,1.470330581617827,-1.2558985899385757,1.8011158054391554,-0.5481712362498455,1.4599956138634227,-4.571726991837434,120.0
121,1.4703306223224906,-1.255898573112992,1.8011158095919333,-0.548171258667297,1.4599956548977508,-4.47969073522372,121.0
122,1.4703306676235657,-1.2558985547287191,1.80111581384641,-0.5481712828006818,1.4599957006858892,-4.3776544858077555,122.0
123,1.4703307217627035,-1.2558985424101587,1.80111580917635,-0.5481712908304018,1.4599957547912255,-4.265618247661902,123.0
124,1.4703307807334705,-1.255898528991402,1.8011158040868582,-0.5481712995660746,1.4599958137204543,-4.14358201708968,124.0
125,1.4703308447476116,-1.2558985214517469,1.8011157918668261,-0.5481712953477689,1.459995877780106,-4.011545792782902,125.0
126,1.4703309137386704,-1.2558985175918722,1.8011157746326822,-0.5481712824860241,1.4599959468758374,-3.8695095710030745,126.0
127,1.4703309841738874,-1.2558985213418614,1.8011157497008559,-0.5481712543271795,1.4599960175567843,-3.717473353351884,127.0
128,1.4703310569183625,-1.2558985307040484,1.8011157187148117,-0.5481712145187824,1.4599960906543057,-3.5554371420850366,128.0
129,1.4703311213118704,-1.2558985510614014,1.801115679770356,-0.5481711556923454,1.4599961555769794,-3.390071143771176,129.0
130,1.4703311793364977,-1.2558985728793568,1.8011156413632101,-0.5481710958948818,1.459996214140789,-3.2343692064088634,130.0
131,1.470331218992771,-1.2558986030597288,1.8011156005464706,-0.5481710251869467,1.4599962544395582,-3.08866726904656,131.0
132,1.4703312558665593,-1.2558986311940008,1.8011155625254,-0.5481709593004753,1.4599962919120448,-2.952965331684267,132.0
133,1.4703312742843249,-1.25589866380665,1.8011155258269613,-0.5481708901199325,1.4599963109619103,-2.8272633943219776,133.0
134,1.4703312912368967,-1.2558986938248498,1.8011154920479968,-0.5481708264429285,1.4599963284962967,-2.711561456959697,134.0
135,1.4703312981992172,-1.2558987231881171,1.8011154619226273,-0.5481707670001977,1.4599963360032564,-2.605859519597421,135.0
136,1.4703312990600126,-1.2558987510117399,1.8011154351159848,-0.5481707123707185,1.4599963373655356,-2.5101575822351463,136.0
137,1.4703312998308626,-1.2558987759280371,1.8011154111103922,-0.5481706634495325,1.4599963385854688,-2.424455644872876,137.0
138,1.4703312958809587,-1.2558987981960772,1.8011153910626145,-0.5481706210998035,1.4599963350251126,-2.348753707510607,138.0
139,1.470331287388396,-1.2558988178058972,1.8011153749281648,-0.5481705852883356,1.4599963268628358,-2.2830517701483366,139.0
140,1.4703312801884225,-1.2558988344310524,1.8011153612494177,-0.5481705549274629,1.4599963199428778,-2.2273498327860612,140.0
141,1.4703312742810388,-1.2558988480715418,1.8011153500263726,-0.5481705300171855,1.4599963142652392,-2.1816478954237803,141.0
142,1.4703312696662443,-1.2558988587273678,1.8011153412590313,-0.5481705105575037,1.4599963098299196,-2.1459459580614997,142.0
143,1.470331266344039,-1.2558988663985307,1.801115334947395,-0.5481704965484172,1.4599963066369188,-2.1202440206992206,143.0
144,1.4703312643144233,-1.2558988710850303,1.801115331091463,-0.5481704879899263,1.4599963046862372,-2.1045420833369426,144.0
145,1.4705419921376524,-1.2539714760132665,1.79842182410091,-0.5474045828076303,1.4602112839821568,-2.097203967503894,145.0
146,1.470979548999576,-1.2499694323104389,1.7928290366991462,-0.5458142687992252,1.460657667779346,-2.0989392618116547,146.0
147,1.4710566856798604,-1.2492639189235113,1.7918431005238284,-0.5455339234888763,1.4607363574101146,-2.108866004180001,147.0
148,1.471056687317434,-1.2492639136254797,1.791843106426517,-0.5455339381681221,1.4607363527531771,-2.128031611807839,148.0
149,1.4710566898094413,-1.249263905563105,1.791843115409039,-0.5455339605065281,1.4607363456663989,-2.157197219435678,149.0
150,1.4710566931558822,-1.2492638947363868,1.7918431274713953,-0.5455339905040941,1.46073633614978,-2.1963628270635183,150.0
151,1.4710566973272199,-1.2492638811120826,1.7918431424872574,-0.5455340276394431,1.460736323960051,-2.245528434256798,151.0
152,1.4710567020929068,-1.2492638644307124,1.7918431594705755,-0.5455340678429603,1.4607363071983719,-2.3046940381819288,152.0
153,1.4710567076640766,-1.2492638449299047,1.7918431793243645,-0.5455341148415601,1.4607362876036818,-2.373859642107059,153.0
154,1.47105670766063,-1.24926382205049,1.7918432012534526,-0.5455341596984535,1.4607362838026765,-2.453025231366719,154.0
155,1.471056706805954,-1.249263796203654,1.7918432258393826,-0.5455342090001277,1.4607362820756906,-2.542190816450402,155.0
156,1.471056705884303,-1.2492637674475473,1.7918432531527306,-0.5455342637322441,1.460736280400111,-2.641356391150966,156.0
157,1.4710566936162908,-1.2492637384498164,1.7918432845299586,-0.545534323652503,1.4607362675542364,-2.7505219570538104,157.0
158,1.4710566762792447,-1.2492637077282256,1.791843319242406,-0.5455343889529399,1.4607362496761824,-2.869687515284201,158.0
159,1.4710566518233483,-1.2492636767862733,1.7918433563364515,-0.545534456810057,1.4607362246411957,-2.9988530663011144,159.0
160,1.4710566141983275,-1.249263648141182,1.7918433952405617,-0.5455345240854822,1.4607361864035684,-3.138018613053468,160.0
161,1.47105656892087,-1.2492636207380843,1.7918434352840644,-0.5455345912000846,1.4607361405159676,-3.287184157523953,161.0
162,1.471056509509297,-1.2492635988996381,1.7918434742977656,-0.5455346516114072,1.4607360805584784,-3.4463496952680592,162.0
163,1.4710564410158427,-1.2492635830928418,1.7918435102967503,-0.5455347029071206,1.4607360116046983,-3.6127110896433283,163.0
164,1.4710563703016808,-1.2492635739811453,1.791843540556431,-0.5455347417504767,1.4607359405453173,-3.771285797770531,164.0
165,1.471056300043368,-1.2492635746915366,1.7918435612656025,-0.5455347612227128,1.460735870120077,-3.9198605058977773,165.0
166,1.471056233184445,-1.2492635784248871,1.7918435780431694,-0.5455347737652583,1.4607358031574376,-4.058435214025062,166.0
167,1.4710561713824206,-1.2492635893801967,1.7918435863609532,-0.5455347706625223,1.4607357413948696,-4.187009922152363,167.0
168,1.4710561144751129,-1.2492636023237527,1.7918435912833752,-0.5455347622124582,1.4607356845753947,-4.305584630279705,168.0
169,1.4710560637203511,-1.2492636165724937,1.7918435930820198,-0.5455347493792707,1.4607356339477433,-4.414159338407073,169.0
170,1.471056020495439,-1.249263634565774,1.7918435890001405,-0.5455347269766971,1.4607355909367319,-4.512734046534467,170.0
171,1.4710559816555167,-1.2492636507337054,1.791843585332344,-0.5455347068467706,1.4607355522890115,-4.601308754661874,171.0
172,1.4710559481847427,-1.2492636658255605,1.7918435810610511,-0.545534687229864,1.4607355190047688,-4.679883462789297,172.0
173,1.4710559233918716,-1.249263682360394,1.7918435727651192,-0.545534662210072,1.4607354944466506,-4.748458170916734,173.0
174,1.471055902214455,-1.2492636964840131,1.7918435656789526,-0.5455346408388251,1.4607354734697535,-4.8070328790441845,174.0
175,1.4710558846524924,-1.2492637081964153,1.7918435598025484,-0.5455346231161222,1.4607354560740775,-4.855607587171642,175.0
176,1.4710558707059835,-1.2492637174976031,1.7918435551359102,-0.5455346090419646,1.460735442259622,-4.894182295299104,176.0
177,1.471055860374929,-1.249263724387577,1.7918435516790383,-0.5455345986163525,1.4607354320263877,-4.922757003426562,177.0
178,1.4710558536593286,-1.2492637288663366,1.7918435494319327,-0.5455345918392858,1.4607354253743745,-4.941331711554014,178.0
179,1.4711516790933796,-1.2483764301196278,1.7905971372729024,-0.5451755721625214,1.4608332370245076,-4.950822901231064,179.0
180,1.471588408404958,-1.2443326511968995,1.7849167527845233,-0.5435393939634127,1.4612790178903174,-4.951979248285389,180.0
181,1.4717719285650677,-1.24263341737735,1.7825298058585184,-0.5428518610683591,1.4614663388933133,-4.9442098659158145,181.0
182,1.471771933636387,-1.2426334136772386,1.7825298083647276,-0.5428518686389013,1.4614663380846322,-4.927938840930408,182.0
183,1.471771941824486,-1.2426334077030783,1.7825298124112268,-0.542851880862219,1.4614663367789442,-4.901667815944996,183.0
184,1.4717719531293643,-1.2426333994548684,1.7825298179980154,-0.5428518977383119,1.4614663349762496,-4.86539679095958,184.0
185,1.471771967551022,-1.2426333889326093,1.7825298251250938,-0.54285191926718,1.4614663326765478,-4.819125765974166,185.0
186,1.4717719852224587,-1.2426333764310522,1.7825298348762069,-0.542851949827574,1.4614663309579432,-4.762854749333773,186.0
187,1.4717720060648674,-1.2426333617755447,1.782529846609194,-0.5428519868249142,1.461466329181617,-4.696583734469907,187.0
188,1.4717720357503001,-1.2426333468216213,1.7825298539348102,-0.5428520145650363,1.4614663489221145,-4.6203127294134685,188.0
189,1.471772073380269,-1.2426333312676248,1.7825298578272064,-0.5428520353879783,1.461466386744291,-4.534041730867112,189.0
190,1.471772115402482,-1.2426333138988903,1.782529862136696,-0.5428520585106793,1.4614664292103516,-4.437770743854676,190.0
191,1.471772163807719,-1.2426332983272514,1.7825298625748243,-0.5428520755283255,1.4614664778746496,-4.331499763585729,191.0
192,1.471772219244109,-1.2426332857194815,1.7825298577487723,-0.5428520837033068,1.4614665332745767,-4.215228791557585,192.0
193,1.4717722794650179,-1.242633272597245,1.782529851951229,-0.5428520914479171,1.4614665934585789,-4.088957827757646,193.0
194,1.4717723447747464,-1.2426332689559818,1.7825298354860004,-0.5428520791149973,1.4614666588690137,-3.952686870064319,194.0
195,1.4717724147346367,-1.2426332653766035,1.7825298175394422,-0.5428520652741285,1.4614667289421965,-3.8064159128792148,195.0
196,1.4717724839583983,-1.2426332743047492,1.782529787780345,-0.5428520271070972,1.4614667985057448,-3.6501449627226576,196.0
197,1.4717725544480382,-1.2426332869630266,1.7825297540439657,-0.5428519812414756,1.4614668694060557,-3.4844515600316486,197.0
198,1.4717726143179974,-1.2426333089796713,1.7825297145473127,-0.5428519201752823,1.4614669298290277,-3.3229870378480015,198.0
199,1.4717726635682031,-1.2426333342427078,1.7825296751731332,-0.542851855904481,1.4614669796637618,-3.1715225156643316,199.0
200,1.4717727015619224,-1.242633363176818,1.7825296357073699,-0.5428517877854495,1.461467018279583,-3.030057993480648,200.0
201,1.471772730057741,-1.2426333929012174,1.782529598385041,-0.5428517209478079,1.4614670473873974,-2.8985934712969597,201.0
202,1.4717727476211142,-1.242633424013049,1.782529563070035,-0.5428516546473701,1.4614670655597928,-2.7771289491132607,202.0
203,1.4717727634297124,-1.2426334526337044,1.782529530689291,-0.5428515937596227,1.4614670819277513,-2.665664426929549,203.0
204,1.4717727643332388,-1.242633481753505,1.7825295023855174,-0.5428515363372366,1.4614670833613457,-2.5641999047458373,204.0
205,1.4717727651477164,-1.2426335080033533,1.7825294768712643,-0.5428514845742062,1.4614670846536495,-2.472735382562126,205.0
206,1.471772765873146,-1.2426335313832506,1.7825294541465333,-0.5428514384705315,1.4614670858046634,-2.3912708603784054,206.0
207,1.4717727579790725,-1.2426335523687684,1.7825294363618802,-0.542851399636795,1.4614670782706092,-2.3198063381946854,207.0
208,1.471772750141826,-1.2426335704762053,1.7825294213299758,-0.5428513664348725,1.4614670707413682,-2.2583418160109625,208.0
209,1.4717727435796644,-1.2426335856376418,1.7825294087436923,-0.5428513386347527,1.4614670644371008,-2.20687729382725,209.0
210,1.4717727382925871,-1.2426335978530796,1.7825293986030313,-0.5428513162364355,1.461467059357807,-2.1654127716435507,210.0
211,1.4717727342805946,-1.2426336071225201,1.7825293909079933,-0.542851299239921,1.4614670555034868,-2.133948249459836,211.0
212,1.4717727315436866,-1.242633613445963,1.7825293856585793,-0.5428512876452095,1.4614670528741398,-2.1124837272761283,212.0
213,1.4717904350099467,-1.2424676562973431,1.7822950622795164,-0.5427829386838566,1.4614851332810823,-2.100809511503365,213.0
214,1.4721685537209388,-1.2389232887309003,1.7772907506260065,-0.5413233636647373,1.4618713009543118,-2.0968084013034756,214.0
215,1.4724792620682978,-1.236010810939617,1.7731786136109347,-0.5401240087120852,1.4621886214690434,-2.1024363891081426,215.0
216,1.4724796129513602,-1.2360075288651533,1.7731739888770786,-0.5401226687860061,1.4621889754720823,-2.1158002662995044,216.0
217,1.472479614934823,-1.236007522493056,1.773173996035326,-0.5401226864973374,1.46218896989558,-2.139159582258092,217.0
218,1.4724796177673953,-1.2360075133930972,1.7731740062579813,-0.5401227117907962,1.4621889619318058,-2.1725188982166808,218.0
219,1.4724796214490776,-1.2360075015652772,1.7731740195450447,-0.5401227446663824,1.4621889515807605,-2.2158782141752673,219.0
220,1.4724796258386352,-1.2360074868465794,1.7731740352809195,-0.5401227825981916,1.4621889376652561,-2.269237519948634,220.0
221,1.472479630916748,-1.236007469214703,1.7731740533813944,-0.5401228252406889,1.4621889200242568,-2.3325968169039135,221.0
222,1.4724796346822204,-1.2360074486152612,1.7731740740806006,-0.5401228716792588,1.4621889056957438,-2.405956108782939,222.0
223,1.4724796338863966,-1.2360074247643948,1.7731740969819805,-0.5401229174050813,1.4621889040482943,-2.4893153893412427,223.0
224,1.4724796330152428,-1.2360073980448587,1.7731741226094133,-0.5401229685463174,1.4621889023761523,-2.5826746621473853,224.0
225,1.472479629639094,-1.2360073690310418,1.7731741512517256,-0.5401230250474708,1.4621888982731712,-2.6860339278932646,225.0
226,1.4724796133614158,-1.2360073401801075,1.7731741841402588,-0.5401230866540825,1.4621888814803539,-2.7993931839201833,226.0
227,1.472479595648172,-1.2360073087850145,1.7731742199334635,-0.5401231537090564,1.462188863209161,-2.9227524310728965,227.0
228,1.4724795638658705,-1.2360072801020032,1.7731742574274858,-0.5401232196512605,1.46218883083748,-3.0561116723993056,228.0
229,1.4724795256161176,-1.2360072509677233,1.7731742973447249,-0.5401232884206645,1.4621887919581376,-3.199470912003731,229.0
230,1.472479473158779,-1.2360072274977902,1.7731743361478511,-0.5401233503009497,1.4621887389375186,-3.3528301466377926,230.0
231,1.4724794129852568,-1.2360072053625644,1.7731743760299175,-0.5401234118659622,1.4621886782050784,-3.5161893750427984,231.0
232,1.4724793412784736,-1.2360071953514415,1.7731744077314888,-0.5401234530366159,1.4621886061304772,-3.6805417143355736,232.0
233,1.4724792724599884,-1.2360071886272133,1.773174435367992,-0.5401234868765972,1.4621885370115186,-3.8349200164882085,233.0
234,1.4724792037218282,-1.2360071924546567,1.7731744527776674,-0.5401234999367004,1.4621884681652817,-3.9792983186408595,234.0
235,1.4724791397892694,-1.2360071974527362,1.7731744675796102,-0.5401235092546671,1.4621884041583986,-4.113676620793521,235.0
236,1.4724790808868142,-1.236007210844281,1.7731744727213068,-0.5401235005554935,1.4621883453475084,-4.2380549229461995,236.0
237,1.4724790267201089,-1.2360072231591412,1.7731744774496028,-0.540123492555729,1.4621882912650062,-4.352433225098877,237.0
238,1.4724789803650506,-1.2360072398463204,1.7731744755513614,-0.5401234736155389,1.4621882450939947,-4.456811527251563,238.0
239,1.4724789395288784,-1.2360072568441571,1.773174471657835,-0.5401234524112107,1.4621882044618024,-4.5511898294042545,239.0
240,1.4724789030195664,-1.236007272040958,1.7731744681768484,-0.5401234334536187,1.462188168134857,-4.6355681315569495,240.0
241,1.4724788740844645,-1.2360072879101838,1.773174461719582,-0.5401234109046477,1.4621881394139589,-4.709946433709653,241.0
242,1.4724788511179412,-1.2360073032288492,1.773174453961618,-0.5401233876509173,1.4621881166670487,-4.774324735862349,242.0
243,1.47247883171885,-1.2360073161680372,1.7731744474087119,-0.5401233680092313,1.4621880974534582,-4.828703038015035,243.0
244,1.4724788158871913,-1.2360073267277476,1.7731744420608626,-0.5401233519795895,1.462188081773187,-4.873081340167715,244.0
245,1.4724788036229648,-1.2360073349079819,1.7731744379180725,-0.5401233395619924,1.462188069626235,-4.907459642320396,245.0
246,1.4724787949261706,-1.2360073407087402,1.7731744349803424,-0.5401233307564404,1.4621880610126026,-4.931837944473082,246.0
247,1.4724787897968084,-1.2360073441300226,1.7731744332476713,-0.5401233255629331,1.4621880559322893,-4.9462162466257675,247.0
248,1.4727398758551387,-1.2335297623236667,1.7696586574152473,-0.5390853858046195,1.4624548483203967,-4.952612434969382,248.0
249,1.473138296514179,-1.229748979611987,1.7642935995020605,-0.5375014989085346,1.462861975631824,-4.949598318188598,249.0
250,1.4731767087063286,-1.2293844985798141,1.7637763936377093,-0.5373488123843929,1.4629012234111656,-4.938735152240193,250.0
251,1.4731767150017743,-1.2293844939961014,1.7637763967680042,-0.5373488217901018,1.4629012224307245,-4.918311076270298,251.0
252,1.4731767243795848,-1.2293844871681197,1.7637764014309494,-0.5373488358010173,1.4629012209702417,-4.887887000300406,252.0
253,1.4731767368397606,-1.2293844780958685,1.7637764076265436,-0.5373488544171394,1.462901219029717,-4.847462924330523,253.0
254,1.4731767524180444,-1.2293844668604612,1.7637764156514328,-0.5373488788302033,1.462901216902398,-4.797038850926852,254.0
255,1.4731767712091757,-1.229384453676892,1.7637764262918898,-0.5373489121989652,1.4629012153655538,-4.736614785475677,255.0
256,1.4731767932345217,-1.2293844383534271,1.7637764385567791,-0.5373489507636575,1.4629012140511832,-4.666190720295112,256.0
257,1.4731768278516078,-1.2293844240467382,1.7637764421710704,-0.5373489699526903,1.4629012488435382,-4.585766671039049,257.0
258,1.4731768667829532,-1.2293844079572165,1.7637764462234118,-0.5373489914898957,1.4629012880479069,-4.495342625816767,258.0
259,1.4731769100429943,-1.2293843900791603,1.763776450697315,-0.5373490153203636,1.4629013317890418,-4.394918589495998,259.0
260,1.4731769614714163,-1.2293843773232727,1.7637764472741955,-0.5373490251789158,1.4629013832514413,-4.284494563447161,260.0
261,1.4731770181326052,-1.2293843644413283,1.763776442294598,-0.5373490334838356,1.462901439872232,-4.164070544863749,261.0
262,1.4731770796520438,-1.2293843555214208,1.7637764319718268,-0.5373490325306751,1.4629015014137194,-4.033646533140005,262.0
263,1.4731771460685077,-1.2293843518265422,1.7637764150705313,-0.5373490198298986,1.4629015679338127,-3.893222525008815,263.0
264,1.4731772147929867,-1.2293843534660676,1.763776392275796,-0.537348995918829,1.4629016368660142,-3.742798520021729,264.0
265,1.4731772849247236,-1.2293843625220944,1.763776361843051,-0.5373489569637012,1.4629017073458896,-3.58237452157078,265.0
266,1.4731773498146288,-1.2293843803896545,1.7637763244680076,-0.5373489022130717,1.462901772731657,-3.4162507672099363,266.0
267,1.4731774073803356,-1.2293844015695512,1.7637762861349222,-0.5373488431355279,1.4629018308348363,-3.2589420166509533,267.0
268,1.4731774484157116,-1.2293844299879875,1.7637762458700856,-0.5373487747601985,1.462901872497191,-3.1116332660919648,268.0
269,1.4731774848121941,-1.2293844577133448,1.763776207709597,-0.5373487091470215,1.462901909495897,-2.974324515532949,269.0
270,1.4731775055140415,-1.2293844888486452,1.76377617107859,-0.5373486415329747,1.46290193082157,-2.847015764973931,270.0
271,1.4731775222569725,-1.229384518509246,1.7637761371014158,-0.5373485780175176,1.462901948151033,-2.7297070144148976,271.0
272,1.4731775314619744,-1.2293845470304392,1.763776106556525,-0.537348519016432,1.4629019579021,-2.622398263855859,272.0
273,1.4731775323199923,-1.2293845745961327,1.7637760795148718,-0.5373484644105567,1.4629019592669796,-2.525089513296823,273.0
274,1.4731775330898356,-1.229384599329014,1.7637760552521669,-0.5373484154162907,1.462901960491596,-2.437780762737773,274.0
275,1.4731775308152417,-1.2293846213935389,1.7637760345206903,-0.537348372598866,1.4629019586150085,-2.360472012178725,275.0
276,1.4731775223474834,-1.229384640964864,1.7637760181216922,-0.5373483365603132,1.4629019504835052,-2.293163261619669,276.0
277,1.4731775151377726,-1.2293846576284952,1.763776004159078,-0.5373483058759754,1.4629019435600918,-2.235854511060632,277.0
278,1.4731775091861083,-1.2293846713844299,1.7637759926328456,-0.5373482805458524,1.4629019378447685,-2.1885457605015994,278.0
279,1.4731775044924915,-1.2293846822326708,1.7637759835429978,-0.5373482605699444,1.4629019333375353,-2.151237009942566,279.0
280,1.473177501056922,-1.2293846901732186,1.763775976889535,-0.5373482459482518,1.462901930038392,-2.1239282593835247,280.0
281,1.4731774988793995,-1.229384695206073,1.7637759726724573,-0.5373482366807742,1.462901927947339,-2.1066195088244863,281.0
282,1.4733132459953597,-1.2280805861629147,1.7619161655109863,-0.5367926705188588,1.4630407205116944,-2.098061246179492,282.0
283,1.4737355396430285,-1.2240236771197717,1.756130571468916,-0.5350643962695041,1.4634724875893483,-2.0981475708756534,283.0
284,1.4738665920517102,-1.2227646819536688,1.7543351132306557,-0.5345280621303357,1.4636064772700481,-2.1068392350095393,284.0
285,1.4738665935256279,-1.2227646772511274,1.7543351185602876,-0.5345280752483325,1.4636064731684102,-2.1243112774000337,285.0
286,1.4738665958431318,-1.2227646698571195,1.7543351269402958,-0.5345280958743219,1.463606466719229,-2.151783319790522,286.0
287,1.4738665990042223,-1.2227646597716455,1.7543351383706818,-0.5345281240083042,1.4636064579225043,-2.1892553621810085,287.0
288,1.4738666030088994,-1.222764646994705,1.7543351528514444,-0.5345281596502792,1.4636064467782361,-2.2367274045714924,288.0
289,1.473866607604273,-1.2227646312268405,1.754335169259188,-0.5345281982184582,1.4636064311535817,-2.2941994247779394,289.0
290,1.473866612983167,-1.222764612696381,1.7543351884504808,-0.5345282432063649,1.4636064126747887,-2.3616714437275994,290.0
291,1.4738666141067438,-1.2227645909788087,1.7543352098807292,-0.5345282879068123,1.4636064058670815,-2.4391434509283965,291.0
292,1.4738666132812204,-1.2227645662750786,1.7543352338257128,-0.5345283354922095,1.4636064041583787,-2.526615453376267,292.0
293,1.4738666123940396,-1.2227645387348471,1.75433526047295,-0.5345283884022196,1.4636064025385722,-2.6240874431500782,293.0
294,1.4738666029951513,-1.2227645103580418,1.7543352908500076,-0.5345284465051267,1.4636063925210292,-2.73155942610857,294.0
295,1.4738665863437608,-1.2227644808475968,1.7543353248091142,-0.5345285098407333,1.4636063753375619,-2.8490314010530344,295.0
296,1.4738665654993721,-1.222764449980685,1.7543353613951433,-0.534528577136409,1.4636063539209099,-2.976503368167003,296.0
297,1.4738665292957243,-1.222764422402564,1.7543353995336652,-0.5345286425823762,1.463606317115403,-3.1139753299034822,297.0
298,1.4738664882368535,-1.222764394300118,1.7543354396886592,-0.5345287105317942,1.4636062754318835,-3.261447290365731,298.0
299,1.4738664309858769,-1.2227643732347397,1.754335477992943,-0.534528769465644,1.4636062176434188,-3.4189192439412235,299.0
300,1.4738663663111258,-1.2227643556826466,1.7543355151690496,-0.5345288237003852,1.4636061524764346,-3.585091908112793,300.0
301,1.473866296705978,-1.2227643466924616,1.7543355455166543,-0.5345288625053305,1.463606082523761,-3.7453547378005894,301.0
302,1.473866228415607,-1.2227643452634969,1.7543355680768524,-0.5345288859703874,1.4636060140284304,-3.895617567488412,302.0
303,1.4738661625077243,-1.222764348927707,1.754335584927586,-0.5345288986501852,1.4636059480155352,-4.035880397176243,303.0
304,1.4738661014737517,-1.2227643579432286,1.7543355950447377,-0.5345288992815511,1.463605886987766,-4.166143226864085,304.0
305,1.4738660452640573,-1.222764370718496,1.7543355999970913,-0.5345288910247399,1.463605830866075,-4.286406056551927,305.0
306,1.4738659943333725,-1.2227643835033406,1.754335603303947,-0.5345288811533871,1.4636057800373816,-4.3966688862397865,306.0
307,1.4738659515184345,-1.2227644013226446,1.7543355991817289,-0.5345288588799123,1.463605737438303,-4.496931715927653,307.0
308,1.4738659129737668,-1.2227644173646863,1.754335595470647,-0.5345288388279446,1.4636056990879647,-4.587194545615523,308.0
309,1.4738658787128567,-1.2227644316397424,1.7543355921564971,-0.5345288209731047,1.4636056650000797,-4.6674573753034,309.0
310,1.4738658539755427,-1.222764448139251,1.7543355837195582,-0.5345287958437477,1.4636056405016356,-4.737720204991275,310.0
311,1.4738658327589116,-1.2227644622905043,1.754335576483388,-0.5345287742908701,1.4636056194898779,-4.797983034679145,311.0
312,1.4738658150629633,-1.2227644740935,1.7543355704479828,-0.534528756314471,1.4636056019648063,-4.848245864367003,312.0
313,1.473865800887698,-1.2227644835482399,1.7543355656133461,-0.5345287419145516,1.4636055879264211,-4.88850869405486,313.0
314,1.4738657902331151,-1.2227644906547241,1.7543355619794785,-0.5345287310911118,1.463605577374722,-4.918771523742721,314.0
315,1.4738657830992155,-1.2227644954129537,1.75433555954638,-0.5345287238441517,1.4636055703097088,-4.9390343534305785,315.0
316,1.4739080519691894,-1.2223533706945613,1.753746358923148,-0.5343506889394635,1.4636488123950973,-4.949791462446816,316.0
317,1.4742991972122754,-1.2185492365336403,1.748294533787263,-0.5327033776198398,1.464048962331607,-4.952677457264667,317.0
318,1.474546269454285,-1.2161463268374375,1.7448508516860672,-0.5316628455528779,1.4643017202093105,-4.94618905257372,318.0
319,1.4745462738735995,-1.216146323626655,1.7448508538978562,-0.5316628521623435,1.4643017195345331,-4.931692271715165,319.0
320,1.4745462813413934,-1.2161463182010486,1.744850857635356,-0.5316628633310737,1.464301718394289,-4.90719549085661,320.0
321,1.4745462918576675,-1.2161463105606176,1.7448508628985664,-0.5316628790590681,1.4643017167885777,-4.872698709998067,321.0
322,1.4745463054224213,-1.2161463007053626,1.7448508696874871,-0.531662899346327,1.4643017147174,-4.828201929139516,322.0
323,1.4745463221332982,-1.2161462888622885,1.7448508788276085,-0.5316629274895929,1.4643017129914813,-4.773705162986602,323.0
324,1.4745463419679403,-1.2161462749794132,1.7448508901299027,-0.5316629627339479,1.464301711425174,-4.709208404740826,324.0
325,1.4745463687033107,-1.2161462602390045,1.7448508989301472,-0.5316629933155665,1.4643017243320107,-4.634711653305147,325.0
326,1.4745464046002725,-1.2161462454063934,1.744850902713939,-0.5316630132491611,1.4643017604092639,-4.550214911107508,326.0
327,1.4745464447684462,-1.2161462288091809,1.7448509069188929,-0.5316630354534557,1.464301800956262,-4.455718178261501,327.0
328,1.474546490393961,-1.2161462125906424,1.7448509089476785,-0.5316630548815788,1.4643018469208573,-4.3512214523962625,328.0
329,1.474546543567781,-1.216146200505263,1.7448509042325593,-0.5316630626405994,1.464301900059416,-4.236724735101498,329.0
330,1.4745466013849546,-1.216146187363492,1.7448508991023703,-0.5316630710640345,1.4643019578324281,-4.112228027467758,330.0
331,1.4745466641346727,-1.216146182591384,1.744850884239589,-0.5316630614524291,1.464302020663986,-3.977731325562948,331.0
332,1.4745467315920238,-1.2161461788419303,1.7448508669096823,-0.5316630483919061,1.4643020882278353,-3.833234624793596,332.0
333,1.4745467990613434,-1.2161461855975266,1.7448508392735116,-0.5316630145199227,1.4643021559993246,-3.6787379297038396,333.0
334,1.4745468692779948,-1.2161461955845594,1.7448508076125702,-0.5316629734126909,1.46430222658542,-3.5142811451814047,334.0
335,1.474546928240497,-1.2161462172782724,1.7448507679744856,-0.5316629125325754,1.4643022861043269,-3.35104785638724,335.0
336,1.4745469794583448,-1.2161462403991217,1.7448507293484021,-0.531662851177246,1.4643023378845899,-3.19781456759312,336.0
337,1.4745470169365824,-1.2161462689454179,1.7448506896797182,-0.5316627832467793,1.4643023759894198,-3.054581278799066,337.0
338,1.4745470478887472,-1.2161462971256727,1.7448506524022869,-0.5316627180232579,1.464302407544233,-2.9213479900050943,338.0
339,1.474547065252704,-1.2161463278788445,1.7448506168328293,-0.5316626518293747,1.4643024255226649,-2.798114701211188,339.0
340,1.4745470812076291,-1.2161463561364851,1.744850584149716,-0.5316625910069194,1.4643024420422024,-2.6848814124173432,340.0
341,1.4745470843240478,-1.2161463844959548,1.7448505553647204,-0.5316625338815589,1.464302445691328,-2.5816481236235482,341.0
342,1.4745470851381954,-1.216146410562887,1.7448505295451466,-0.5316624819967743,1.4643024469897232,-2.488414834829801,342.0
343,1.4745470858650191,-1.2161464338339336,1.7448505064949207,-0.5316624356770392,1.4643024481488556,-2.405181546036088,343.0
344,1.4745470797842133,-1.2161464546826033,1.744850487940464,-0.5316623962232859,1.4643024424376396,-2.331948257242413,344.0
345,1.4745470719340632,-1.216146472828875,1.7448504725874627,-0.5316623626601914,1.4643024349024425,-2.2687149684487657,345.0
346,1.4745470653253716,-1.2161464881054111,1.7448504596624532,-0.5316623344049171,1.4643024285588961,-2.2154816796551344,346.0
347,1.4745470599581387,-1.2161465005122123,1.744850449165436,-0.531662311457463,1.4643024234069997,-2.1722483908615073,347.0
348,1.4745470558323641,-1.2161465100492799,1.7448504410964127,-0.5316622938178296,1.4643024194467538,-2.1390151020678903,348.0
349,1.474547052948048,-1.2161465167166143,1.7448504354553838,-0.5316622814860168,1.464302416678158,-2.1157818132742583,349.0
350,1.4745477388356403,-1.2161397510324206,1.7448406835037293,-0.5316592958716634,1.4643031188701054,-2.1025399301697583,350.0
351,1.474844633245172,-1.213216502342856,1.74063090844922,-0.530373057302254,1.4646070254969255,-2.096982968202356,351.0
352,1.4752019491148343,-1.2096983471365972,1.7355644147758533,-0.5288250659221072,1.4649727792976777,-2.10107426667018,352.0
353,1.4752190700034322,-1.2095297802076752,1.7353216695292022,-0.5287509062440042,1.4649903008405294,-2.1127973596618412,353.0
354,1.4752190718052713,-1.2095297744977858,1.7353216760618722,-0.5287509222366682,1.4649902958714778,-2.1343023468065097,354.0
355,1.475219074444981,-1.2095297661327495,1.7353216856322886,-0.5287509456660556,1.4649902885917752,-2.165807333951173,355.0
356,1.4752190779225607,-1.2095297551125666,1.7353216982404516,-0.5287509765321663,1.464990279001422,-2.207312321095834,356.0
357,1.475219082151908,-1.2095297413325943,1.7353217134964996,-0.5287510132548241,1.4649902663657068,-2.2588173033364463,357.0
358,1.475219087027211,-1.2095297246642378,1.7353217309213367,-0.5287510538921697,1.4649902497817524,-2.3203222764183673,358.0
359,1.4752190918748147,-1.2095297052142686,1.7353217510825505,-0.5287511000155087,1.464990232818172,-2.391827247482021,359.0
360,1.4752190911134069,-1.2095296824960367,1.735321773322244,-0.5287511439970382,1.4649902312366998,-2.4733322044048878,360.0
361,1.4752190902716835,-1.2095296569854457,1.7353217982762061,-0.5287511933277973,1.4649902295763333,-2.5648371558874477,361.0
362,1.475219089357137,-1.2095296286796273,1.735321825936225,-0.5287512479809409,1.4649902279029121,-2.666342099857478,362.0
363,1.4752190739910038,-1.2095296009778462,1.735321858034521,-0.5287513076287528,1.4649902120263159,-2.7778470322906004,363.0
364,1.4752190569864205,-1.2095295708540186,1.7353218930452066,-0.5287513726293919,1.4649901944733856,-2.8993519574561577,364.0
365,1.475219029329043,-1.2095295421007135,1.735321930041101,-0.5287514381682363,1.4649901662341611,-3.030856876116272,365.0
366,1.4752189925397194,-1.2095295140849227,1.73532196916871,-0.5287515050329321,1.4649901288266793,-3.1723617918365514,366.0
367,1.4752189447925086,-1.2095294896629503,1.735322008182389,-0.5287515681028507,1.464990080498895,-3.3238667037348746,367.0
368,1.4752188868283702,-1.2095294683406879,1.735322047337341,-0.5287516281332328,1.464990021984777,-3.4853716092254485,368.0
369,1.4752188185327944,-1.2095294561290746,1.7353220807450247,-0.5287516732238552,1.4649899532813204,-3.6511161739407543,369.0
370,1.4752187515101345,-1.2095294474744291,1.7353221102483483,-0.5287517108624389,1.4649898859203043,-3.807441698377209,370.0
371,1.4752186837480556,-1.2095294509931946,1.7353221279839932,-0.5287517245521107,1.4649898180442273,-3.953767222813611,371.0
372,1.4752186205146143,-1.209529454507894,1.7353221443065348,-0.5287517368679405,1.4649897547087036,-4.090092747249942,372.0
373,1.4752185622170984,-1.2095294672712096,1.7353221499683837,-0.5287517293112407,1.4649896964941151,-4.216418271686195,373.0
374,1.4752185085482896,-1.2095294794665021,1.7353221547417021,-0.5287517214701011,1.4649896429099298,-4.332743796122388,374.0
375,1.4752184617766637,-1.2095294946566846,1.735322154404769,-0.52875170557691,1.464989596296868,-4.439069320558527,375.0
376,1.475218421173923,-1.209529511552206,1.7353221504565641,-0.5287516844147582,1.464989555900729,-4.5353948449946335,376.0
377,1.4752183847863414,-1.209529526693721,1.7353221469182347,-0.5287516654495462,1.4649895196983012,-4.621720369430677,377.0
378,1.475218354884027,-1.2095295418099639,1.7353221413754603,-0.5287516445555642,1.464989489997841,-4.698045893866695,378.0
379,1.4752183318348782,-1.2095295571810971,1.7353221334369686,-0.5287516210641895,1.4649894671734303,-4.7643714183026695,379.0
380,1.4752183122608848,-1.2095295702347009,1.735322126695375,-0.5287516011146447,1.4649894477902905,-4.820696942738623,380.0
381,1.4752182961620464,-1.2095295809707738,1.735322121150677,-0.5287515847069292,1.464989431848422,-4.867022467174591,381.0
382,1.475218283538363,-1.209529589389318,1.7353221168028783,-0.5287515718410443,1.4649894193478243,-4.9033479916105565,382.0
383,1.475218274389835,-1.2095295954903338,1.7353221136519785,-0.5287515625169897,1.4649894102884977,-4.929673516046512,383.0
384,1.475218268716462,-1.2095295992738209,1.7353221116979782,-0.5287515567347657,1.4649894046704424,-4.945999040482472,384.0
385,1.4752204877646642,-1.2093320207039764,1.735516166098656,-0.529143240689919,1.4649879563891754,-4.9526042100513505,385.0
386,1.4752315562608695,-1.2083475607072942,1.7364830204699622,-0.5310948092007585,1.4649807524023977,-4.950654763365561,386.0
387,1.475231560115036,-1.2083474633722693,1.7364829151890564,-0.5310948013664574,1.464980756417114,-4.93972811947737,387.0
388,1.4752315674965133,-1.2083472769568038,1.7364827135556877,-0.5310947863622503,1.4649807641060753,-4.918801475589173,388.0
389,1.4752315784053014,-1.2083470014608977,1.7364824155698555,-0.5310947641881371,1.4649807754692812,-4.887874831700975,389.0
390,1.4752315928414002,-1.2083466368845512,1.7364820212315601,-0.5310947348441178,1.4649807905067322,-4.846948187812771,390.0
391,1.475231610809205,-1.2083461832214466,1.7364815305190802,-0.5310946982487917,1.4649808092579462,-4.796021549936612,391.0
392,1.4752316323188577,-1.2083456404569812,1.7364809433822688,-0.5310946542143374,1.4649808318141069,-4.735094929076147,392.0
393,1.4752316575780415,-1.2083450365348913,1.7364802908249932,-0.5310946059627047,1.4649808582309265,-4.664168308885911,393.0
394,1.4752316916931165,-1.208345022297733,1.7364802940722899,-0.5310946236480509,1.4649808922016327,-4.58324170273106,394.0
395,1.4752317300230053,-1.2083450063011996,1.736480297720287,-0.5310946435160435,1.4649809303635846,-4.492315096721035,395.0
396,1.4752317725668678,-1.2083449885451696,1.7364803017683472,-0.5310946655636224,1.4649809727094723,-4.3913884909832035,396.0
397,1.4752318233605202,-1.2083449762191456,1.7364802979730969,-0.53109467448157,1.464981023407489,-4.280461893777436,397.0
398,1.4752318791509333,-1.2083449635263954,1.7364802929822076,-0.531094682618424,1.4649810791061322,-4.159535301960453,398.0
399,1.4752319397223244,-1.2083449551474152,1.7364802822873764,-0.5310946807744787,1.4649811396799675,-4.028608714299905,399.0
400,1.4752320050891057,-1.208344951543531,1.7364802654333573,-0.531094668032939,1.4649812051522597,-3.887682129528474,400.0
401,1.4752320725032233,-1.2083449536966446,1.736480242317398,-0.5310946432873016,1.4649812727838296,-3.7367555498542457,401.0
402,1.4752321414976248,-1.208344962690593,1.7364802120263172,-0.531094604536714,1.4649813421264297,-3.575828977691497,402.0
403,1.4752322046301551,-1.2083449808274482,1.7364801746310508,-0.5310945494919224,1.4649814057608923,-3.4098182776238053,403.0
404,1.4752322609422126,-1.2083450016677606,1.736480136720797,-0.5310944911752361,1.4649814626069357,-3.2529143603595787,404.0
405,1.4752323004747214,-1.2083450300044336,1.7364800967178022,-0.5310944231378031,1.4649815027679323,-3.106010443095404,405.0
406,1.475232336067338,-1.2083450572476595,1.7364800590109828,-0.5310943584595742,1.464981538958423,-2.9691065258312346,406.0
407,1.4752323556752636,-1.2083450880848854,1.7364800227757162,-0.5310942915341001,1.464981559188617,-2.842202608567103,407.0
408,1.47523237204268,-1.208345117199437,1.7364799892332992,-0.5310942289992725,1.4649815761378893,-2.725298691302987,408.0
409,1.4752323804741323,-1.208345145310459,1.736479959144798,-0.5310941708604114,1.4649815851117196,-2.6183947740388875,409.0
410,1.4752323813162045,-1.2083451723391034,1.73647993247921,-0.5310941171680679,1.4649815864561475,-2.5214908567748116,410.0
411,1.4752323820713795,-1.208345196578522,1.7364799085653715,-0.5310940690165058,1.4649815876618368,-2.434586939510722,411.0
412,1.475232379454515,-1.2083452182098355,1.7364798882503343,-0.5310940270461026,1.4649815854383432,-2.3576830222466514,412.0
413,1.4752323712031288,-1.2083452373577785,1.7364798721174592,-0.5310939916978872,1.4649815775195307,-2.290779104982574,413.0
414,1.4752323641850613,-1.2083452536437147,1.7364798583959336,-0.5310939616331014,1.4649815707843281,-2.2338751877184877,414.0
415,1.4752323584003126,-1.2083452670676422,1.7364798470857545,-0.5310939368517451,1.4649815652327352,-2.1869712704543804,415.0
416,1.475232353848883,-1.2083452776295642,1.7364798381869262,-0.5310939173538187,1.4649815608647518,-2.1500673531902694,416.0
417,1.4752323505307723,-1.2083452853294807,1.7364798316994488,-0.5310939031393224,1.4649815576803784,-2.1231634359261684,417.0
418,1.47523234844598,-1.2083452901673912,1.7364798276233213,-0.531093894208256,1.4649815556796142,-2.1062595186620627,418.0
419,1.4750838098193773,-1.2098064428435922,1.7385869341736075,-0.5317396896408216,1.464829542620736,-2.0979743304888068,419.0
420,1.4746741140789363,-1.2138365807963065,1.7443987514922072,-0.533520932276948,1.464410263140451,-2.0984326727604934,420.0
421,1.4745605019115098,-1.214954177954635,1.746010432062434,-0.5340148960622835,1.464293990638705,-2.107390618827169,421.0
422,1.474560503423736,-1.214954173161304,1.7460104374529501,-0.5340149093393742,1.4642939865995832,-2.125222382886145,422.0
423,1.4745605057840132,-1.214954165679888,1.7460104458664518,-0.534014930062218,1.4642939802953345,-2.153054146945122,423.0
424,1.4745605089923424,-1.2149541555103862,1.7460104573029391,-0.5340149582308146,1.4642939717259584,-2.1908859110041066,424.0
425,1.4745605130487234,-1.2149541426527988,1.7460104717624119,-0.5340149938451642,1.4642939608914551,-2.238717675063086,425.0
426,1.4745605176958676,-1.214954126802765,1.7460104881004241,-0.5340150322451548,1.4642939456088908,-2.2965494160091433,426.0
427,1.4745605231412486,-1.2149541082057156,1.7460105072398406,-0.5340150771886301,1.4642939276385476,-2.364381156565116,427.0
428,1.474560524037258,-1.2149540864154593,1.7460105285972891,-0.5340151215565025,1.4642939216729698,-2.44221288502186,428.0
429,1.474560523214559,-1.2149540616700951,1.7460105524901062,-0.5340151691497389,1.4642939199798026,-2.530044608925646,429.0
430,1.4745605223287832,-1.2149540340957434,1.7460105790697913,-0.5340152220519205,1.464293918361157,-2.6278763204880304,430.0
431,1.4745605124451857,-1.214954005807468,1.7460106094240522,-0.5340152801003581,1.464293907869326,-2.735708024814889,431.0
432,1.4745604958495413,-1.2149539762655586,1.7460106432827387,-0.5340153433671146,1.4642938907398584,-2.8535397211826985,432.0
433,1.474560474505116,-1.2149539456106029,1.7460106796996504,-0.5340154102769454,1.464293868822211,-2.9813714097894684,433.0
434,1.4745604384408293,-1.2149539180009699,1.7460107177244353,-0.5340154756400552,1.4642938321555208,-3.119203093159117,434.0
435,1.474560397000818,-1.2149538902342045,1.7460107575693489,-0.5340155429386909,1.4642937900957256,-3.267034774945112,435.0
436,1.4745603399902378,-1.2149538691312463,1.7460107957659896,-0.534015601801775,1.4642937325472878,-3.4248664499249317,436.0
437,1.474560275282235,-1.214953852028598,1.7460108324619306,-0.5340156551036923,1.4642936673549447,-3.5911246238562446,437.0
438,1.474560206285485,-1.214953843032192,1.746010862608809,-0.5340156937157648,1.4642935980119078,-3.7510228288919794,438.0
439,1.474560138409481,-1.2149538420112864,1.7460108846557305,-0.5340157162596284,1.4642935299393662,-3.90092103392769,439.0
440,1.4745600730995183,-1.2149538456118452,1.7460109014145462,-0.5340157289129217,1.4642934645246568,-4.04081923896335,440.0
441,1.474560012643376,-1.2149538549164611,1.7460109111233124,-0.5340157288485822,1.46429340408148,-4.170717443999001,441.0
442,1.474559956968233,-1.2149538675839762,1.7460109160802586,-0.534015720705849,1.464293348493727,-4.2906156490346214,442.0
443,1.47455990669033,-1.2149538805359767,1.7460109190864954,-0.5340157103695484,1.4642932983225847,-4.4005138540702315,443.0
444,1.474559864308681,-1.2149538982187758,1.7460109150449783,-0.5340156883148358,1.46429325615546,-4.500412059105825,444.0
445,1.4745598261695156,-1.2149539141314893,1.7460109114080193,-0.5340156684678405,1.4642932182093447,-4.59031026414139,445.0
446,1.4745597924879095,-1.2149539284387756,1.7460109079488622,-0.5340156504387793,1.4642931847029086,-4.670208469176966,446.0
447,1.474559768039402,-1.214953944796623,1.7460108996325014,-0.5340156255728887,1.4642931604914953,-4.740106674212543,447.0
448,1.4745597470886247,-1.214953958814232,1.7460108925059228,-0.5340156042644416,1.4642931397438925,-4.800004879248131,448.0
449,1.4745597296355781,-1.2149539704916008,1.746010886569123,-0.5340155865134367,1.4642931224601003,-4.849903084283737,449.0
450,1.4745597156802615,-1.2149539798287305,1.7460108818221047,-0.5340155723198752,1.4642931086401183,-4.889801289319339,450.0
451,1.4745597052226753,-1.2149539868256223,1.746010878264869,-0.5340155616837573,1.464293098283947,-4.919699494354941,451.0
452,1.47455969826282,-1.2149539914822762,1.746010875897415,-0.534015554605083,1.464293091391586,-4.9395976993905455,452.0
453,1.4745090108961911,-1.2154464632767012,1.746717632999898,-0.5342297857962033,1.4642412486767369,-4.950075894828547,453.0
454,1.474112737578297,-1.2192968539283326,1.7522434494248014,-0.5359047886958185,1.463835941852228,-4.952589137635321,454.0
455,1.4738793806887036,-1.2215642901735448,1.7554975221901081,-0.536891176735602,1.463597262971786,-4.94581879144053,455.0
456,1.4738793852551455,-1.2215642868472194,1.7554975244445326,-0.5368911835343199,1.4635972623723255,-4.93096045578505,456.0
457,1.4738793928949077,-1.221564281282201,1.7554975282162366,-0.5368911949087305,1.4635972613694146,-4.906102120129568,457.0
458,1.4738794036079892,-1.2215642734784893,1.7554975335052196,-0.5368912108588337,1.4635972599630527,-4.871243784474082,458.0
459,1.473879417394391,-1.2215642634360846,1.7554975403114823,-0.5368912313846299,1.4635972581532404,-4.826385448818586,459.0
460,1.4738794343580675,-1.221564251389603,1.7554975494953846,-0.5368912599372642,1.4635972567983309,-4.771527127540738,460.0
461,1.4738794544660192,-1.2215642372645639,1.7554975607838026,-0.5368912954211595,1.463597255625836,-4.70666881288628,461.0
462,1.473879481843949,-1.221564222401343,1.7554975692075132,-0.536891325372862,1.4635972701534739,-4.631810505694924,462.0
463,1.473879518129631,-1.2215642073654058,1.7554975729576887,-0.5368913454705329,1.4635973066189627,-4.546952207262493,463.0
464,1.4738795587153068,-1.2215641905480257,1.7554975771220027,-0.5368913678439782,1.4635973475899642,-4.452093918588802,464.0
465,1.4738796049482699,-1.2215641743976393,1.7554975787780225,-0.5368913867834869,1.4635973941406837,-4.3472356368331635,465.0
466,1.473879658637454,-1.221564162179059,1.755497574011995,-0.5368913946258896,1.463597447793577,-4.232377363584924,466.0
467,1.4738797170002693,-1.221564148895864,1.755497568827927,-0.5368914031384505,1.4635975061113566,-4.107519099616475,467.0
468,1.4738797803396109,-1.2215641444803385,1.7554975535423551,-0.5368913927502222,1.4635975695378347,-3.9726608415710545,468.0
469,1.4738798484057396,-1.221564140726667,1.7554975361585856,-0.5368913796414468,1.4635976377107152,-3.827802584389606,469.0
470,1.4738799162789944,-1.2215641480659925,1.7554975081047166,-0.5368913447677295,1.4635977058947958,-3.67294433311925,470.0
471,1.4738799866554813,-1.2215641586974177,1.7554974760936373,-0.5368913026635487,1.4635977766491333,-3.5081842768940743,471.0
472,1.4738800458705001,-1.2215641806179165,1.755497436608435,-0.5368912417083883,1.4635978364197537,-3.345307838833786,472.0
473,1.4738800967558312,-1.2215642043334523,1.755497397958492,-0.5368911797291885,1.463597887871874,-3.1924314007735273,473.0
474,1.4738801343822545,-1.2215642331422236,1.7554973584752527,-0.5368911117207635,1.4635979261238412,-3.0495549627132905,474.0
475,1.473880164878522,-1.221564261810927,1.7554973213287808,-0.5368910461344725,1.463597957224527,-2.9166785246530984,475.0
476,1.4738801823031111,-1.2215642928187287,1.755497285955302,-0.5368909798813202,1.4635979752623447,-2.793802086592919,476.0
477,1.4738801983096421,-1.2215643213030298,1.7554972534606013,-0.5368909190200198,1.4635979918321989,-2.680925648532755,477.0
478,1.4738802009218364,-1.2215643499890372,1.7554972249060223,-0.5368908617942896,1.4635979949765408,-2.578049210472615,478.0
479,1.4738802017367196,-1.2215643762378474,1.755497199263835,-0.5368908099047942,1.4635979962742593,-2.4851727724124797,479.0
480,1.4738802024638646,-1.221564399660447,1.7554971763825369,-0.5368907636022368,1.4635979974322524,-2.402296334352359,480.0
481,1.473880196007562,-1.2215644206481213,1.7554971580743013,-0.5368907242529715,1.463597991343505,-2.329419896292229,481.0
482,1.473880188149963,-1.2215644388820226,1.7554971428624278,-0.5368906907435842,1.4635979837993813,-2.2665434582321,482.0
483,1.4738801815420528,-1.2215644542159647,1.7554971300698805,-0.5368906625635997,1.463597977455091,-2.213667020171942,483.0
484,1.4738801761838316,-1.2215644666499477,1.7554971196966602,-0.536890639713018,1.4635979723106334,-2.170790582111782,484.0
485,1.4738801720752996,-1.2215644761839737,1.7554971117427687,-0.5368906221918393,1.4635979683660092,-2.1379141440516256,485.0
486,1.4738801692164563,-1.2215644828180428,1.755497106208206,-0.5368906100000633,1.4635979656212181,-2.115037705991472,486.0
487,1.4738777932274996,-1.2215872754424855,1.7555296483626963,-0.5369003569811309,1.4635955369608131,-2.1021308783397927,487.0
488,1.4735564055297583,-1.224671898424713,1.7599348593339383,-0.5382206017114896,1.463267011160642,-2.0968640432369283,488.0
489,1.4732024068604574,-1.2280695234978458,1.7647870816390379,-0.5396748216415385,1.462905148632612,-2.1012840578054703,489.0
490,1.4731912512373293,-1.2281765999762078,1.764940008133202,-0.5397206618566555,1.4628937414169954,-2.113326108629109,490.0
491,1.473191253107935,-1.2281765940085432,1.7649400147822796,-0.5397206783198962,1.4628937363785561,-2.135227674896943,491.0
492,1.4731912558326372,-1.2281765853161126,1.7649400244672486,-0.539720702300061,1.4628937290396244,-2.1671292411647647,492.0
493,1.4731912594114362,-1.2281765738989159,1.7649400371881092,-0.5397207337971496,1.4628937194001999,-2.2090308074326224,493.0
494,1.473191263745392,-1.2281765596428957,1.7649400525130086,-0.5397207710418745,1.4628937066306282,-2.260932366797481,494.0
495,1.4731912687448925,-1.2281765424447473,1.764940070050807,-0.539720812431751,1.4628936899794702,-2.3228339154262136,495.0
496,1.4731912734413672,-1.2281765223746623,1.7649400902946528,-0.5397208590039713,1.4628936737074263,-2.3947354614006064,496.0
497,1.47319127266441,-1.2281764989967778,1.7649401126527366,-0.5397209037568695,1.462893672101499,-2.4766369939090342,497.0
498,1.4731912718072817,-1.2281764727590125,1.7649401377249392,-0.5397209539220988,1.4628936704264097,-2.5685385204545144,498.0
499,1.4731912705532562,-1.2281764437354805,1.7649401655436012,-0.5397210094716288,1.4628936684122291,-2.670440039698147,499.0
500,1.4731912545889647,-1.2281764153100116,1.76494019780961,-0.5397210700321554,1.4628936519391886,-2.7823415475304416,500.0
501,1.47319123719834,-1.2281763843450766,1.7649402329618247,-0.5397211360158065,1.4628936339965217,-2.9042430478697097,501.0
502,1.473191208280844,-1.2281763550538582,1.7649402700475605,-0.5397212021774469,1.4628936044941234,-3.036144541828503,502.0
503,1.4731911706675307,-1.2281763262550265,1.764940309332569,-0.5397212699821129,1.462893566258808,-3.178046033080151,503.0
504,1.4731911212528068,-1.2281763015495781,1.7649403483029094,-0.539721333286564,1.4628935162659245,-3.3299475202600304,504.0
505,1.4731910620072368,-1.2281762796189915,1.7649403876224898,-0.5397213940888066,1.4628934564673246,-3.49184900108207,505.0
506,1.4731909920303436,-1.2281762676027395,1.7649404206951562,-0.5397214386460956,1.4628933860903528,-3.6572940977660484,506.0
507,1.4731909238107854,-1.2281762589462695,1.7649404499932375,-0.5397214760818051,1.4628933175365035,-3.8131252534338937,507.0
508,1.473190854837574,-1.2281762627521,1.7649404675252283,-0.5397214892810641,1.46289324845412,-3.958956409101707,508.0
509,1.473190790594025,-1.2281762662969484,1.7649404838549982,-0.539721501575216,1.4628931841088848,-4.094787564769498,509.0
510,1.4731907313928583,-1.2281762796689926,1.7649404891743852,-0.5397214930684332,1.462893124998139,-4.220618720437249,510.0
511,1.4731906768993697,-1.2281762920708676,1.7649404939810593,-0.5397214850552015,1.462893070589579,-4.336449876104984,511.0
512,1.473190629574355,-1.2281763077870171,1.7649404933940995,-0.539721468388135,1.4628930234284354,-4.442281031772735,512.0
513,1.4731905883830114,-1.2281763249758284,1.7649404895044638,-0.5397214469922512,1.4628929824436707,-4.538112187440459,513.0
514,1.4731905514899923,-1.2281763403709802,1.7649404860207074,-0.5397214278290314,1.4628929457356743,-4.623943343108181,514.0
515,1.4731905213507366,-1.2281763558524932,1.7649404803783362,-0.5397214064723431,1.462892915800494,-4.699774498775883,515.0
516,1.4731904980210895,-1.2281763714631253,1.7649404725190245,-0.5397213828215208,1.4628928926948992,-4.765605654443585,516.0
517,1.4731904782353036,-1.2281763847024432,1.764940465853571,-0.5397213627633469,1.4628928730991309,-4.821436810111302,517.0
518,1.4731904619933784,-1.2281763955704457,1.7649404603819736,-0.539721346297821,1.4628928570131894,-4.867267965779048,518.0
519,1.4731904492953145,-1.2281764040671348,1.7649404561042359,-0.5397213334249441,1.4628928444370746,-4.9030991214467825,519.0
520,1.473190440141112,-1.228176410192511,1.7649404530203583,-0.5397213241447163,1.4628928353707866,-4.928930277114516,520.0
521,1.47319043453077,-1.2281764139465738,1.7649404511303401,-0.5397213184571376,1.4628928298143253,-4.944761432782252,521.0
522,1.4729938803583702,-1.2300398270827138,1.767588464670826,-0.5405057086890077,1.4626920235441057,-4.9522192000008785,522.0
523,1.472573112651352,-1.2340289292063904,1.7732572083434541,-0.5421849005305167,1.4622621523412165,-4.950647191810472,523.0
524,1.4724926973398103,-1.2347913350808626,1.7743406354688889,-0.5425058366098364,1.4621799938397362,-4.94085460378233,524.0
525,1.4724927032349453,-1.2347913307779443,1.7743406383602098,-0.5425058453763387,1.4621799930508153,-4.921886650075897,525.0
526,1.472492712238025,-1.234791324206506,1.77434064277585,-0.5425058587645849,1.4621799918459706,-4.892918696369461,526.0
527,1.472492724349049,-1.2347913153665475,1.7743406487158087,-0.5425058767745747,1.4621799902252028,-4.853950742663014,527.0
528,1.4724927395818488,-1.2347913042885477,1.7743406562924902,-0.5425058998598188,1.4621799883013518,-4.804982791133914,528.0
529,1.4724927580718614,-1.2347912912709629,1.7743406666066042,-0.5425059324612982,1.4621799871793968,-4.746014859993888,529.0
530,1.4724927796974792,-1.234791276045808,1.7743406786698241,-0.5425059705914574,1.4621799858671771,-4.677046928853876,530.0
531,1.472492812731622,-1.2347912614591832,1.774340683460456,-0.5425059925993581,1.462180015770219,-4.598079011941556,531.0
532,1.4724928512845759,-1.23479124548105,1.774340687401039,-0.5425060138927157,1.46218005455499,-4.509111099275383,532.0
533,1.472492894198759,-1.2347912276960447,1.7743406917528162,-0.5425060374733739,1.4621800979386863,-4.410143197330646,533.0
534,1.4724929446660384,-1.2347912138940256,1.774340689659207,-0.5425060498719328,1.4621801485163748,-4.301175303953179,534.0
535,1.472493001011808,-1.2347912010664044,1.774340684702039,-0.542506058141967,1.4621802048223178,-4.182207418302142,535.0
536,1.4724930621990082,-1.2347911906450735,1.7743406759593445,-0.5425060602600724,1.4621802660100813,-4.053239539968646,536.0
537,1.4724931283602332,-1.2347911869908743,1.7743406592199706,-0.5425060476753296,1.4621803322739257,-3.9142716660770747,537.0
538,1.4724931976573674,-1.234791186843851,1.774340638160717,-0.5425060272873063,1.4621804017454392,-3.7653037943857894,538.0
539,1.472493267610138,-1.2347911959586528,1.774340608026189,-0.5425059885667254,1.462180472043407,-3.606335929417744,539.0
540,1.4724933347381262,-1.2347912121969786,1.7743405719296361,-0.5425059367377966,1.4621805396385048,-3.439968201026873,540.0
541,1.4724933932202187,-1.2347912338410452,1.7743405332979485,-0.5425058769013691,1.46218059866349,-3.281198639643517,541.0
542,1.4724934371791316,-1.2347912613749947,1.774340493465221,-0.5425058098627753,1.4621806432346887,-3.1324290782601985,542.0
543,1.4724934742037714,-1.2347912897209008,1.774340454975779,-0.5425057433027776,1.4621806808684865,-2.993659516876912,543.0
544,1.472493497637387,-1.2347913205824304,1.7743404182335427,-0.5425056758708318,1.4621807049218902,-2.8648899554936484,544.0
545,1.4724935146989133,-1.2347913509470296,1.7743403839168632,-0.5425056113131507,1.4621807225777983,-2.7461203941103975,545.0
546,1.4724935261949066,-1.2347913796948813,1.7743403528520725,-0.542505551582213,1.4621807346245401,-2.637350832727163,546.0
547,1.4724935270700188,-1.2347914079766977,1.7743403254830534,-0.5425054959326394,1.4621807360146184,-2.5385812713439364,547.0
548,1.4724935278565299,-1.2347914333950953,1.7743403008850267,-0.5425054459173485,1.4621807372639573,-2.4498117099607253,548.0
549,1.4724935270176085,-1.2347914560349542,1.7743402794468188,-0.5425054018286188,1.4621807368333088,-2.3710421485775233,549.0
550,1.472493518307953,-1.2347914762411882,1.7743402627485063,-0.542505364854193,1.462180728467552,-2.302272587194326,550.0
551,1.4724935108647963,-1.2347914935091695,1.7743402484783484,-0.5425053332563358,1.4621807213182867,-2.2435030258111244,551.0
552,1.4724935046881382,-1.2347915078388954,1.7743402366363419,-0.5425053070350464,1.4621807153855122,-2.194733464427893,552.0
553,1.4724934997779786,-1.2347915192303693,1.7743402272224902,-0.5425052861903257,1.4621807106692293,-2.155963903044661,553.0
554,1.4724934961343177,-1.234791527683591,1.7743402202367942,-0.5425052707221736,1.4621807071694375,-2.12719434166144,554.0
555,1.4724934937571554,-1.234791533198561,1.7743402156792532,-0.5425052606305901,1.4621807048861366,-2.1084247802782063,555.0
556,1.4724055624466468,-1.235614987254424,1.7755045232109468,-0.5428460199537782,1.462090921271033,-2.0987845331153845,556.0
557,1.4719768149957397,-1.2396301370883351,1.781181699636573,-0.5445075876221867,1.4616531415405043,-2.0974210382871434,557.0
558,1.4717867925438723,-1.2414096709782607,1.7836978574594724,-0.5452440094627105,1.4614591135847022,-2.1050349524149135,558.0
559,1.471786793924216,-1.2414096665456307,1.7836978623554105,-0.5452440216471623,1.4614591098308256,-2.121086239127361,559.0
560,1.4717867961645175,-1.2414096593514587,1.7836978703015323,-0.5452440414225647,1.4614591037382727,-2.1471375258398027,560.0
561,1.4717867992647768,-1.2414096493957452,1.783697881297838,-0.5452440687889172,1.4614590953070437,-2.1831888125522516,561.0
562,1.4717868032249948,-1.24140963667849,1.7836978953443277,-0.54524410374622,1.4614590845371378,-2.2292400992647092,562.0
563,1.4717868078270155,-1.2414096209545187,1.7836979115065392,-0.5452441424432481,1.461459069620795,-2.285291385093925,563.0
564,1.4717868131922165,-1.2414096023602417,1.7836979303043878,-0.5452441870227425,1.4614590515638155,-2.351342670705332,564.0
565,1.4717868152776892,-1.2414095806057257,1.7836979514716704,-0.5452442327688883,1.4614590421988127,-2.4273939469006454,565.0
566,1.4717868144523163,-1.2414095557220814,1.783697975051344,-0.5452442801849396,1.461459040495788,-2.513445216256738,566.0
567,1.471786813560434,-1.2414095279359,1.7836980013402655,-0.545244333008943,1.4614590388459276,-2.609496474328128,567.0
568,1.4717868061389796,-1.241409498777009,1.7836980311135182,-0.5452443911172579,1.4614590307651587,-2.715547725627509,568.0
569,1.4717867893657504,-1.2414094689128994,1.783698064705078,-0.545244454439255,1.461459013463899,-2.8315989686436667,569.0
570,1.471786770637393,-1.2414094366891106,1.7836981011467068,-0.5452445229660705,1.46145899416501,-2.9576502033470358,570.0
571,1.4717867340981337,-1.2414094087199818,1.7836981389569848,-0.5452445884778921,1.4614589570280878,-3.093701431784546,571.0
572,1.4717866948102207,-1.2414093787371543,1.7836981795254192,-0.545244658741473,1.4614589170986556,-3.2397526598394615,572.0
573,1.4717866369482666,-1.2414093573291558,1.7836982175704574,-0.5452447177626352,1.4614588587023536,-3.395803880843581,573.0
574,1.4717865729105324,-1.2414093375279287,1.7836982559637613,-0.5452447754784218,1.461458794143467,-3.561378312212298,574.0
575,1.4717865012898246,-1.2414093282022958,1.7836982866738371,-0.545244814976216,1.4614587221712418,-3.723062448528446,575.0
576,1.47178643176125,-1.2414093248754308,1.783698311024358,-0.5452448421302885,1.4614586524047115,-3.874746584844584,576.0
577,1.47178636385788,-1.241409328630392,1.7836983281243999,-0.5452448549629273,1.4614585843952879,-4.016430721160679,577.0
578,1.4717863008793621,-1.2414093364006162,1.7836983398941992,-0.5452448584863927,1.4614585213957478,-4.148114857476757,578.0
579,1.4717862428696245,-1.24140934960769,1.7836983449643073,-0.545244849909704,1.461458463475775,-4.2697989937928025,579.0
580,1.471786189627126,-1.241409361729402,1.7836983496177476,-0.5452448420378452,1.4614584103156647,-4.381483130108833,580.0
581,1.471786145334585,-1.2414093802091712,1.7836983454801654,-0.5452448190831164,1.461458366243106,-4.483167266424845,581.0
582,1.4717861053999548,-1.2414093968751554,1.7836983417454486,-0.5452447983782319,1.4614583265068941,-4.574851402740853,582.0
583,1.4717860698209992,-1.2414094117233765,1.7836983384180751,-0.545244779931631,1.4614582911047151,-4.656535539056855,583.0
584,1.4717860432670675,-1.2414094283280002,1.7836983306664096,-0.5452447553720043,1.4614582647823395,-4.728219675372856,584.0
585,1.4717860211148235,-1.2414094431500835,1.7836983232744785,-0.5452447329881698,1.461458242840763,-4.789903811688859,585.0
586,1.4717860025538176,-1.2414094555692652,1.7836983170808975,-0.5452447142331176,1.4614582244562722,-4.8415879480048885,586.0
587,1.4717859875840504,-1.2414094655855459,1.7836983120856682,-0.5452446991068483,1.461458209628867,-4.883272084320922,587.0
588,1.4717859762055217,-1.2414094731989267,1.7836983082887914,-0.5452446876093621,1.4614581983585477,-4.914956220636952,588.0
589,1.4717859684182315,-1.2414094784094074,1.783698305690267,-0.5452446797406592,1.4614581906453143,-4.93664035695298,589.0
590,1.4717715937380769,-1.2415424143612008,1.7838853101766379,-0.5452987328318111,1.4614435213070296,-4.948493641044913,590.0
591,1.471394803554632,-1.245027885969902,1.7887885547875184,-0.5467161017576174,1.4610590042097418,-4.952687136966992,591.0
592,1.4710710102037996,-1.2480231397810364,1.7930021816872526,-0.5479341280658875,1.460728568750956,-4.947225274977882,592.0
593,1.4710700760428157,-1.248031816469874,1.793014394043568,-0.5479376638316568,1.4607276106411782,-4.9340552302017295,593.0
594,1.4710700833217016,-1.248031811146517,1.7930143975915103,-0.5479376746451485,1.460727609643651,-4.910897108660732,594.0
595,1.471070093743712,-1.24803180352446,1.7930144026715036,-0.5479376901280568,1.460727608215378,-4.8777389871197325,595.0
596,1.4710701073088468,-1.2480317936037033,1.7930144092835476,-0.5479377102803819,1.4607276063563583,-4.834580865578714,596.0
597,1.4710701240979285,-1.2480317815582218,1.7930144180727106,-0.5479377377193808,1.4607276047180364,-4.781422750148293,597.0
598,1.4710701441286163,-1.2480317674260273,1.7930144291799335,-0.5479377730169004,1.460727603442745,-4.718264640442263,598.0
599,1.471070170012001,-1.2480317519741626,1.7930144391586502,-0.5479378069445854,1.4607276121118267,-4.645106535491571,599.0
600,1.4710702065272059,-1.2480317368387899,1.7930144428626182,-0.547937827098971,1.460727648810727,-4.5619484422231045,600.0
601,1.4710702474528679,-1.2480317198758633,1.7930144469903324,-0.547937849604307,1.4607276900875186,-4.468790356428073,601.0
602,1.4710702934289244,-1.2480317022414416,1.7930144501812137,-0.5479378717721084,1.4607277364801088,-4.365632277702315,602.0
603,1.4710703477424238,-1.2480316898716273,1.7930144454475556,-0.5479378797933515,1.460727790758487,-4.252474208933474,603.0
604,1.4710704068549756,-1.2480316764079076,1.7930144402926613,-0.5479378885113999,1.4607278498274927,-4.129316148830808,604.0
605,1.4710704710160636,-1.2480316700887166,1.7930144268311468,-0.5479378818392411,1.46072791405029,-3.9961580946086426,605.0
606,1.4710705400852095,-1.2480316662631235,1.7930144095167835,-0.5479378688666311,1.4607279832249338,-3.8530000422138357,606.0
607,1.4710706099434283,-1.2480316715290278,1.7930143833295247,-0.5479378379351216,1.4607280533549052,-3.699841994659927,607.0
608,1.4710706827004765,-1.2480316809938277,1.7930143522756754,-0.5479377979595693,1.4607281264669671,-3.5366839533656407,608.0
609,1.4710707449855205,-1.248031702746342,1.7930143127281115,-0.547937737121645,1.4607281893009856,-3.37215256562909,609.0
610,1.4710708004707593,-1.2480317255669031,1.793014274228406,-0.5479376762123872,1.4607282453370651,-3.217570480248455,610.0
611,1.4710708395596677,-1.2480317554796458,1.7930142339658643,-0.5479376063238993,1.460728285062367,-3.0729883948678465,611.0
612,1.47107087406221,-1.248031784109234,1.7930141963128332,-0.547937540293984,1.4607283201665984,-2.9384063094872612,612.0
613,1.471070892195021,-1.2480318163733455,1.793014160172617,-0.5479374720190386,1.4607283389246675,-2.813824224106711,613.0
614,1.471070908872341,-1.2480318460476623,1.793014126933309,-0.5479374092244113,1.460728356177057,-2.6992421387261616,614.0
615,1.4710709140907028,-1.2480318754101876,1.7930140974653042,-0.5479373504271203,1.4607283619357234,-2.5946600533456428,615.0
616,1.4710709149370924,-1.2480319028470668,1.7930140711519724,-0.5479372966777885,1.4607283632767263,-2.500077967965132,616.0
617,1.471070915693995,-1.2480319273830887,1.793014047620699,-0.5479372486112797,1.4607283644759472,-2.4154958825846204,617.0
618,1.471070910679178,-1.248031949332961,1.7930140282958866,-0.5479372072946691,1.460728359842339,-2.3409137972041147,618.0
619,1.4710709023883486,-1.2480319685584624,1.7930140125519218,-0.5479371722592846,1.46072835187548,-2.276331711823608,619.0
620,1.4710708953812852,-1.2480319848070536,1.7930139992457783,-0.5479371426488385,1.4607283451422228,-2.2217496264430867,620.0
621,1.4710708896579878,-1.2480319980787336,1.7930139883774552,-0.5479371184633309,1.4607283396425677,-2.177167541062543,621.0
622,1.4710708852184569,-1.2480320083735048,1.793013979946955,-0.5479370997027619,1.4607283353765146,-2.1425854556820165,622.0
623,1.4710708820626919,-1.2480320156913673,1.7930139739542779,-0.5479370863671315,1.4607283323440636,-2.1180033703014853,623.0
624,1.471070880190693,-1.2480320200323212,1.7930139703994237,-0.5479370784564397,1.4607283305452146,-2.103421284920957,624.0
625,1.4708079956051183,-1.2504341647815649,1.796375861609791,-0.5488965424611872,1.4604601995157198,-2.096900987645112,625.0
626,1.4703889037068778,-1.2542636862060854,1.801735428597478,-0.5504261382978373,1.4600327426242516,-2.099743424925991,626.0
627,1.4703456456955941,-1.2546589687796819,1.8022886495222454,-0.5505840321093793,1.4599886177879127,-2.1104915502245616,627.0
628,1.4703456474512846,-1.2546589631038498,1.8022886557404951,-0.5505840476615262,1.4599886129613835,-2.1307737964276625,628.0
629,1.4703456500726042,-1.2546589546295936,1.802288665024604,-0.5505840708815353,1.4599886057551728,-2.1610560426307504,629.0
630,1.4703456535595527,-1.254658943356914,1.802288677374571,-0.5505841017694065,1.4599885961692802,-2.201338288833853,630.0
631,1.4703456578524894,-1.2546589292204433,1.8022886925396682,-0.5505841392858664,1.4599885837153825,-2.251620531020617,631.0
632,1.470345662775385,-1.2546589120272529,1.8022887097798757,-0.5505841803635244,1.4599885669522026,-2.31190275945669,632.0
633,1.4703456685149219,-1.254658891981946,1.8022887298799983,-0.5505842282554061,1.4599885474082401,-2.3821849878591763,633.0
634,1.4703456677417384,-1.2546588684652824,1.802288751969738,-0.5505842728779826,1.4599885457883781,-2.4624671999301837,634.0
635,1.470345666875919,-1.2546588420152454,1.8022887767999916,-0.5505843230161745,1.4599885440682203,-2.552749408183972,635.0
636,1.470345665939116,-1.254658812626482,1.80228880435481,-0.5505843786225832,1.4599885423677772,-2.6530316074159113,636.0
637,1.470345651819027,-1.254658783400265,1.8022888361736151,-0.5505844393584459,1.4599885276993447,-2.763313796541009,637.0
638,1.4703456342034142,-1.254658752048016,1.8022888711364615,-0.5505845055402607,1.4599885095367298,-2.8835959781931546,638.0
639,1.4703456075260004,-1.2546587212594869,1.802288908305829,-0.5505845733047248,1.4599884822761127,-3.013878152975111,639.0
640,1.4703455693454321,-1.254658692052812,1.8022889474548136,-0.5505846413846225,1.4599884434773873,-3.1541603241311362,640.0
641,1.4703455216678178,-1.2546586652965508,1.8022889871544816,-0.5505847074926581,1.459988395201043,-3.3044424922614377,641.0
642,1.4703454614380425,-1.2546586430344722,1.8022890263947082,-0.5505847685512091,1.4599883344210496,-3.4647246538151295,642.0
643,1.4703453912229032,-1.2546586285140793,1.8022890613301152,-0.5505848174873583,1.4599882637687462,-3.6308939657237365,643.0
644,1.4703453205356734,-1.2546586193292335,1.8022890913628737,-0.5505848561807191,1.4599881927384928,-3.7883498282819486,644.0
645,1.4703452497184117,-1.254658621436221,1.8022891107575236,-0.5505848729408751,1.459988121779557,-3.935805690840266,645.0
646,1.4703451829528273,-1.2546586251411003,1.802289127417601,-0.5505848853983975,1.4599880549110966,-4.073261553398752,646.0
647,1.4703451213129994,-1.2546586372915334,1.8022891345437086,-0.5505848799128277,1.4599879933322124,-4.200717415957335,647.0
648,1.4703450645626308,-1.254658650218221,1.802289139459166,-0.5505848714765856,1.4599879366690325,-4.31817327851609,648.0
649,1.4703450144864982,-1.2546586653221459,1.802289140300226,-0.5505848568379413,1.4599878867358749,-4.425629141074911,649.0
650,1.4703449714636623,-1.2546586832776183,1.8022891363147986,-0.5505848345731783,1.4599878439248035,-4.523085003633868,650.0
651,1.4703449328554234,-1.254658699390665,1.8022891327383115,-0.5505848145930137,1.4599878055065993,-4.610540866192885,651.0
652,1.4703449002848055,-1.2546587149028403,1.802289127906627,-0.5505847940035814,1.459987773130571,-4.687996728751989,652.0
653,1.4703448757314488,-1.2546587313284914,1.8022891197899495,-0.5505847692751646,1.4599877488084179,-4.75545259131113,653.0
654,1.4703448548180065,-1.2546587453191198,1.802289112876529,-0.5505847482126139,1.4599877280919042,-4.812908453870323,654.0
655,1.4703448375444783,-1.2546587568747243,1.8022891071663631,-0.5505847308159282,1.45998771098103,-4.860364316429537,655.0
656,1.4703448239108647,-1.2546587659953075,1.8022891026594556,-0.5505847170851088,1.4599876974757955,-4.89782017898877,656.0
657,1.4703448139171655,-1.254658772680869,1.802289099355806,-0.550584707020156,1.4599876875762006,-4.925276041547971,657.0
658,1.4703448075633807,-1.254658776931409,1.802289097255415,-0.5505847006210698,1.4599876812822457,-4.94273190410717,658.0
659,1.4702055133528626,-1.2559160359994372,1.8040395201709802,-0.5510777144660036,1.4598456826599309,-4.951369572500859,659.0
660,1.4697518013260344,-1.260011291690545,1.8097411658082236,-0.552683615988288,1.4593831610297836,-4.951377667044507,660.0
661,1.4696099888532546,-1.2612913299129156,1.8115233112414706,-0.5531855712346428,1.459238591980161,-4.9427465519244205,661.0
662,1.4696099943941288,-1.2612913258529763,1.811523313926567,-0.5531855794595548,1.459238591199454,-4.925316293185796,662.0
663,1.4696100031138855,-1.261291319463789,1.8115233181521433,-0.5531855924032218,1.459238589970844,-4.897886034447161,663.0
664,1.4696100150125242,-1.2612913107453536,1.8115233239181994,-0.5531856100656437,1.4592385882943306,-4.860455775708502,664.0
665,1.4696100300900456,-1.2612912996976704,1.8115233312247356,-0.5531856324468206,1.4592385861699142,-4.813025516969861,665.0
666,1.4696100485045178,-1.2612912866532504,1.8115233413108227,-0.5531856646013583,1.4592385848561436,-4.755595264864641,666.0
667,1.46961007013644,-1.2612912713607116,1.8115233532397088,-0.5531857027079159,1.4592385834015404,-4.688165013188522,667.0
668,1.46961010196971,-1.2612912561798464,1.8115233595013072,-0.5531857284677164,1.4592386081155344,-4.61073477333677,668.0
669,1.4696101408848752,-1.261291240048981,1.811523363412691,-0.5531857499086489,1.4592386472305463,-4.523304538318868,669.0
670,1.469610184285711,-1.2612912220599546,1.8115233677334435,-0.5531857736740768,1.4592386911104072,-4.425874315864096,670.0
671,1.4696102347256406,-1.2612912068690285,1.8115233670601154,-0.553185789070506,1.4592387417495698,-4.318444100172871,671.0
672,1.4696102918561982,-1.2612911938502092,1.8115233621242806,-0.5531857975498922,1.459238798842034,-4.201013892489296,672.0
673,1.4696103539072072,-1.2612911815810233,1.8115233550011762,-0.5531858031247171,1.4592388608717988,-4.073583692595445,673.0
674,1.4696104211135788,-1.2612911778432463,1.811523338306317,-0.5531857906634777,1.4592389281796567,-3.9361534980192454,674.0
675,1.4696104924145534,-1.2612911756771727,1.8115233189001811,-0.5531857739496352,1.459238999620128,-3.7887233045959974,675.0
676,1.46961056356965,-1.261291184909897,1.811523288805595,-0.5531857351467524,1.459239071118477,-3.6312931181057078,676.0
677,1.4696106342914201,-1.2612911994773897,1.8115232538181698,-0.5531856861119351,1.4592391422772604,-3.4651294320072346,677.0
678,1.4696106949404921,-1.261291221879184,1.8115232144835849,-0.5531856248194742,1.4592392034772643,-3.3048168226894026,678.0
679,1.4696107429925815,-1.2612912487789587,1.8115231747025238,-0.553185558488449,1.4592392521284971,-3.1545042133714576,679.0
680,1.4696107814392319,-1.2612912781757344,1.8115231354593229,-0.5531854901267184,1.4592392911944738,-3.0141916040533667,680.0
681,1.469610808350764,-1.2612913091479752,1.8115230982020796,-0.5531854220898362,1.4592393187242811,-2.8838789947351144,681.0
682,1.469610826096649,-1.261291340706797,1.8115230631492532,-0.5531853556028765,1.4592393370757815,-2.7635663854167607,682.0
683,1.4696108403534864,-1.2612913701014419,1.811523031183579,-0.5531852943418906,1.459239351890981,-2.6532537760982815,683.0
684,1.4696108412602809,-1.2612913995786967,1.8115230031554,-0.5531852368370332,1.4592393533239785,-2.5529411667796853,684.0
685,1.4696108420766785,-1.261291426117408,1.8115229779212998,-0.5531851850647405,1.4592393546141231,-2.4626285574610107,685.0
686,1.4696108428026795,-1.2612914497175787,1.811522955481282,-0.5531851390250128,1.4592393557614145,-2.382315948142256,686.0
687,1.469610833667536,-1.2612914709225846,1.8115229382624518,-0.5531851005292009,1.459239346980152,-2.312003338823451,687.0
688,1.4696108258177834,-1.2612914891125409,1.8115229234959531,-0.5531850675109037,1.459239339433929,-2.251690729504595,688.0
689,1.4696108192695416,-1.261291504286549,1.811522911177779,-0.5531850399671328,1.459239333138891,-2.201378120185705,689.0
690,1.469610814022811,-1.2612915164446112,1.8115229013079313,-0.5531850178978881,1.459239328095038,-2.1610655108668118,690.0
691,1.4696108100775915,-1.261291525586728,1.8115228938864114,-0.5531850013031699,1.45923932430237,-2.1307529015479068,691.0
692,1.469610807433883,-1.2612915317128999,1.811522888913219,-0.5531849901829782,1.459239321760887,-2.1104402922290473,692.0
693,1.4695664058413116,-1.2616874104888511,1.812071140868918,-0.5533373154300985,1.4591940818224607,-2.099666617654977,693.0
694,1.4691341990043971,-1.2655409974863627,1.8174080356336952,-0.5548201567522416,1.4587537136542559,-2.096805422865645,694.0
695,1.468866244643227,-1.267930102465638,1.820716751365243,-0.5557394794899106,1.4584806974063202,-2.103304424875066,695.0
696,1.468866245914685,-1.267930098327066,1.8207167558650554,-0.5557394907984246,1.4584806938689587,-2.117900394230109,696.0
697,1.4688662480572454,-1.2679300913530729,1.820716763447782,-0.5557395098546347,1.458480687908078,-2.1424963635851535,697.0
698,1.4688662510709074,-1.2679300815436585,1.8207167741134231,-0.5557395366585414,1.458480679523678,-2.1770923329402274,698.0
699,1.4688662549556717,-1.2679300688988229,1.8207167878619785,-0.5557395712101443,1.4584806687157585,-2.2216883022952945,699.0
700,1.4688662595255195,-1.267930053219665,1.820716803925924,-0.5557396103103589,1.4584806539796284,-2.2762842561842915,700.0
701,1.4688662648271131,-1.2679300345560773,1.8207168224977912,-0.5557396547616703,1.4584806356927342,-2.3408802020384334,701.0
702,1.4688662678876578,-1.267930012743719,1.820716843573225,-0.5557397018424066,1.4584806233357357,-2.4154761407674346,702.0
703,1.4688662670575923,-1.2679299876427874,1.820716866952067,-0.5557397492617585,1.458480621628623,-2.500072070166557,703.0
704,1.468866266155125,-1.2679299595655298,1.820716893068437,-0.5557398021998873,1.4584806199341456,-2.594667990265501,704.0
705,1.4688662607880403,-1.2679299295517188,1.8207169224387356,-0.5557398605579198,1.4584806138631783,-2.699263903452067,705.0
706,1.4688662437787399,-1.2679298992991228,1.8207169558963272,-0.5557399241345026,1.4584805963302416,-2.813859808076653,706.0
707,1.4688662252855804,-1.2679298664075782,1.820716992277222,-0.5557399932740706,1.4584805772706704,-2.938455703211133,707.0
708,1.4688661900534583,-1.2679298372406858,1.820717030182165,-0.5557400600948003,1.4584805414420614,-3.07305159266732,708.0
709,1.4688661501638323,-1.267929806757846,1.8207170707166807,-0.555740130828065,1.4584805009132307,-3.2176474811889912,709.0
710,1.46886609351651,-1.2679297835286345,1.8207171094687067,-0.5557401923982873,1.458480443712961,-3.372243363952391,710.0
711,1.46886602993521,-1.2679297613960425,1.8207171492694665,-0.5557402538690228,1.4584803795807435,-3.536786598987094,711.0
712,1.4688659556935266,-1.2679297517785693,1.82071718052832,-0.5557402942017362,1.4584803049828932,-3.6999313847773143,712.0
713,1.4688658844014248,-1.2679297464591581,1.8207172068732589,-0.5557403253432398,1.4584802334180405,-3.8530761705676593,713.0
714,1.4688658139214414,-1.2679297503887972,1.8207172243020706,-0.5557403383235712,1.4584801628309363,-3.9962209563581306,714.0
715,1.4688657484520848,-1.267929756873273,1.8207172378341694,-0.5557403448886362,1.4584800973122058,-4.129365742148784,715.0
716,1.4688656881380084,-1.2679297706200394,1.820717243012051,-0.5557403358735398,1.4584800370901285,-4.252510527939525,716.0
717,1.46886563272175,-1.267929783250491,1.8207172477694544,-0.5557403275905146,1.458479981758399,-4.365655313730405,717.0
718,1.4688655858992985,-1.2679298013348748,1.820717244838269,-0.5557403062269715,1.4584799351384818,-4.468800099521374,718.0
719,1.4688655442155418,-1.2679298187311465,1.8207172410129284,-0.5557402846952999,1.4584798936579664,-4.561944885312449,719.0
720,1.468865507006942,-1.2679298342597567,1.8207172375982719,-0.5557402654752621,1.458479856630788,-4.645089671103605,720.0
721,1.4688654783000796,-1.267929850997735,1.8207172305027364,-0.555740241427204,1.4584798281480427,-4.718234456894815,721.0
722,1.4688654550000062,-1.2679298665799876,1.8207172228712207,-0.5557402180388751,1.4584798050651941,-4.781379242686066,722.0
723,1.4688654353898771,-1.2679298796945369,1.8207172164482774,-0.5557401983544664,1.4584797856378886,-4.834524028477357,723.0
724,1.468865419469692,-1.2679298903413827,1.8207172112339065,-0.555740182373978,1.458479769866126,-4.877668814268674,724.0
725,1.4688654072394511,-1.267929898520527,1.820717207228111,-0.5557401700974107,1.4584797577499065,-4.910813600059996,725.0
726,1.4688653986991544,-1.2679299042319696,1.8207172044308901,-0.5557401615247646,1.45847974928923,-4.933958385851285,726.0
727,1.468864603301496,-1.2679368699946383,1.8207267938543796,-0.5557427842937368,1.4584789394241349,-4.947111607670162,727.0
728,1.4685228574730205,-1.270946693222633,1.824872886064616,-0.5568786834430121,1.4581309199348191,-4.952508808695426,728.0
729,1.4681246511520274,-1.2744538051270742,1.8297040083986724,-0.5582022633182557,1.4577254018125985,-4.948253474541916,729.0
730,1.46811083885829,-1.2745754843808814,1.8298716298575335,-0.5582481915988936,1.4577113314880719,-4.936314398767049,730.0
731,1.4681108458630194,-1.2745754792389925,1.8298716332335205,-0.558248201990402,1.4577113304698264,-4.9145283858006525,731.0
732,1.46811085608299,-1.2745754717369242,1.8298716381591196,-0.5582482171517178,1.4577113289841956,-4.88274237283423,732.0
733,1.4681108695182024,-1.2745754618746772,1.829871644634331,-0.5582482370828408,1.4577113270311801,-4.840956359867812,733.0
734,1.4681108862302215,-1.27457544977887,1.8298716531331665,-0.5582482637275561,1.4577113250949483,-4.789170354180193,734.0
735,1.4681109062811266,-1.2745754355771761,1.8298716641335875,-0.5582482990458457,1.4577113236637032,-4.7273843606010955,735.0
736,1.4681109310106244,-1.274575419561092,1.8298716754092215,-0.5582483364225987,1.4577113273927471,-4.655598369529024,736.0
737,1.4681109679168982,-1.2745754042632185,1.829871679086187,-0.5582483567235302,1.4577113644880488,-4.573812392512664,737.0
738,1.468111009351294,-1.2745753870890444,1.8298716831959805,-0.5582483794501358,1.4577114062481855,-4.482026421142779,738.0
739,1.4681110553647672,-1.274575368115944,1.8298716876388794,-0.5582484043937048,1.4577114527660027,-4.380240456908323,739.0
740,1.4681111104999753,-1.274575355543813,1.829871682918257,-0.5582484126260656,1.4577115078669332,-4.268454504246526,740.0
741,1.4681111705667407,-1.2745753418463792,1.8298716777728523,-0.5582484215844481,1.4577115678917592,-4.146668558867908,741.0
742,1.4681112357711457,-1.2745753338741466,1.8298716657544172,-0.5582484179990137,1.4577116331376858,-4.014882619777864,742.0
743,1.468111306062808,-1.2745753299436569,1.8298716484490651,-0.5582484051363886,1.457711703533821,-3.8730966832838574,743.0
744,1.468111377976608,-1.274575333458392,1.8298716237068564,-0.5582483774031041,1.4577117756879687,-3.7213107507323646,744.0
745,1.4681114521064196,-1.2745753430434144,1.8298715926345253,-0.5582483372851301,1.4577118501712902,-3.5595248246301385,745.0
746,1.468111518229295,-1.2745753635831714,1.8298715537206183,-0.5582482783099353,1.4577119168206085,-3.3939300081359156,746.0
747,1.4681115779674538,-1.274575385722874,1.829871515217696,-0.5582482180987847,1.457711977097469,-3.2378808023329024,747.0
748,1.4681116185338454,-1.2745754167028467,1.8298714741796103,-0.558248146370265,1.4577120183103636,-3.0918315965297465,748.0
749,1.4681116563226535,-1.2745754455616087,1.829871435951396,-0.5582480795530028,1.457712056701408,-2.955782390726422,749.0
750,1.4681116754844934,-1.2745754789134995,1.8298713990853412,-0.5582480094677611,1.4577120764981322,-2.829733184923007,750.0
751,1.468111692834039,-1.2745755097413445,1.8298713651173335,-0.5582479447919241,1.4577120944336117,-2.7136839791194207,751.0
752,1.4681117002560895,-1.27457553983532,1.829871334797121,-0.5582478844254084,1.4577121024039221,-2.607634773315772,752.0
753,1.4681117011333147,-1.2745755684241893,1.8298713078355717,-0.5582478288751918,1.4577121037865912,-2.511585567511995,753.0
754,1.4681117019192091,-1.2745755940365715,1.8298712836810727,-0.5582477791084912,1.4577121050253061,-2.425536361708142,754.0
755,1.4681116980106086,-1.2745756169298494,1.8298712634668712,-0.5582477359674985,1.4577121015099546,-2.3494871559042343,755.0
756,1.4681116892937398,-1.2745756371103838,1.8298712472209768,-0.5582476994730293,1.4577120931265912,-2.2834379501002657,756.0
757,1.4681116818966244,-1.2745756542355386,1.8298712334347467,-0.5582476685039057,1.4577120860124881,-2.227388744296257,757.0
758,1.4681116758192632,-1.2745756683053124,1.8298712221081799,-0.5582476430601275,1.4577120801676453,-2.181339538492244,758.0
759,1.4681116710616557,-1.2745756793197083,1.829871213241279,-0.5582476231416951,1.457712075592063,-2.145290332688191,759.0
760,1.4681116676238022,-1.2745756872787255,1.8298712068340444,-0.5582476087486082,1.4577120722857408,-2.11924112688419,760.0
761,1.468111665505702,-1.274575692182365,1.8298712028864754,-0.5582475998808673,1.4577120702486788,-2.1031919210801706,761.0
762,1.468114638186204,-1.274322295025357,1.8301069693057237,-0.5587368401617813,1.4577105897314204,-2.0968073522637103,762.0
763,1.468126529217347,-1.2733089606851837,1.8310497518103805,-0.5606932637701012,1.4577046729060374,-2.098977485661734,763.0
764,1.4681265307197222,-1.2733088530139416,1.831049646269996,-0.5606932659253206,1.4577046745800828,-2.110126506755296,764.0
765,1.4681265335696374,-1.2733086487680843,1.8310494460662465,-0.5606932700136421,1.457704677755646,-2.1312755278488504,765.0
766,1.4681265377670925,-1.2733083479476115,1.8310491511991325,-0.5606932760350655,1.4577046824327269,-2.1624245489424405,766.0
767,1.4681265433120876,-1.2733079505525235,1.8310487616686542,-0.5606932839895908,1.4577046886113258,-2.2035735700360304,767.0
768,1.4681265502012428,-1.2733074565910192,1.8310482775029175,-0.5606932939882286,1.4577046962622728,-2.254722584468767,768.0
769,1.4681265584279128,-1.2733068660791917,1.8310476987571613,-0.5606933062492641,1.457704705328211,-2.315871582124466,769.0
770,1.4681265672935744,-1.2733062249929201,1.831047073258825,-0.5606933223781252,1.4577047150753106,-2.387020578799258,770.0
771,1.468126566548599,-1.27330620074375,1.831047095956135,-0.5606933694038843,1.4577047138742794,-2.4681695620790975,771.0
772,1.4681265657108433,-1.2733061735062279,1.8310471214497248,-0.56069342222111,1.4577047125172307,-2.5593185453302683,772.0
773,1.4681265647793897,-1.2733061432802373,1.8310471497389242,-0.5606934808264925,1.457704710996638,-2.660467528532422,773.0
774,1.4681265491776503,-1.2733061133864685,1.8310471820491092,-0.5606935429277748,1.4577046948248564,-2.771616502918582,774.0
775,1.4681265310654488,-1.273306081055222,1.8310472173589736,-0.5606936104410758,1.4577046760975234,-2.8927654719222726,775.0
776,1.468126502402591,-1.2733060498443107,1.831047254768614,-0.5606936788576635,1.457704646814983,-3.0239144368013227,776.0
777,1.4681264631978694,-1.2733060197500725,1.8310472942789127,-0.560693748182433,1.4577046069858468,-3.165063398798944,777.0
778,1.4681264130401794,-1.2733059930074737,1.8310473339428273,-0.5606938142285721,1.4577045562352389,-3.3162123556195353,778.0
779,1.4681263512383753,-1.273305970080103,1.8310473735366988,-0.560693876303681,1.4577044938783978,-3.477361304967471,779.0
780,1.4681262787364815,-1.2733059562683096,1.8310474078737256,-0.5606939239262645,1.457704420954626,-3.643280842571953,780.0
781,1.4681262069444065,-1.2733059468963592,1.8310474378900907,-0.5606939627925536,1.457704348820222,-3.799966858594545,781.0
782,1.4681261346050725,-1.273305950044032,1.8310474564806372,-0.5606939777066711,1.4577042763565524,-3.9466528746171208,782.0
783,1.4681260668424336,-1.2733059538019462,1.8310474731458095,-0.5606939901184493,1.4577042084916252,-4.083338890639797,783.0
784,1.4681260043345565,-1.2733059670111415,1.831047479500556,-0.5606939828048149,1.457704146060089,-4.210024906662484,784.0
785,1.4681259467903724,-1.2733059801467606,1.8310474844478546,-0.560693974193559,1.4577040886032728,-4.326710922685232,785.0
786,1.4681258963943469,-1.2733059961134798,1.8310474846496976,-0.5606939580573107,1.4577040383619537,-4.433396938708004,786.0
787,1.4681258528274783,-1.273306014341858,1.8310474807280064,-0.5606939355852266,1.4577039950063613,-4.530082954730783,787.0
788,1.4681258137666249,-1.2733060306849149,1.8310474772119192,-0.5606939154373742,1.4577039561349325,-4.6167689707536,788.0
789,1.4681257813107218,-1.2733060467538198,1.8310474719861636,-0.5606938939022794,1.4577039238800382,-4.693454986776445,789.0
790,1.4681257565339458,-1.2733060633731228,1.8310474639681968,-0.5606938690805118,1.4577038993329665,-4.760141002799256,790.0
791,1.4681257354726078,-1.2733060775002532,1.8310474571525754,-0.5606938479809286,1.4577038784668872,-4.816827018822083,791.0
792,1.468125718126708,-1.2733060891352093,1.8310474515392974,-0.5606938306035293,1.4577038612818,-4.863513034844819,792.0
793,1.468125704496246,-1.273306098277994,1.831047447128366,-0.5606938169483151,1.4577038477777056,-4.9001990508676085,793.0
794,1.468125694581222,-1.273306104928607,1.8310474439197812,-0.560693807015286,1.4577038379546035,-4.926885066890382,794.0
795,1.468125688381636,-1.2733061090870483,1.8310474419135436,-0.560693800804442,1.4577038318124935,-4.943571082913151,795.0
796,1.4683031101866164,-1.2717451041978731,1.8288938349564092,-0.5601013707693869,1.457884566649837,-4.95163520381207,796.0
797,1.4687679457325677,-1.267655421080903,1.823251601435772,-0.5585492712769756,1.45835808132081,-4.950863366227292,797.0
798,1.4688801065117767,-1.2666686393960782,1.8218902159969212,-0.5581747770883321,1.4584723329871434,-4.941648895328537,798.0
