Miguel-LA/TFM_MiguelLerinAlonso/workspace/ros_ur_driver/src/trayectories/data/saved_trajectories/20240615_2014_trajectory.csv
,shoulder_pan_joint,shoulder_lift_joint,elbow_joint,wrist_1_joint,wrist_2_joint,wrist_3_joint,time_from_start
0,-1.3915001452600413,-2.0444282813880945,-1.8687304627821755,-2.2849691770490064,-1.7350705696782864,8.652548845857382e-05,0.0
1,-1.3910908620607878,-2.0438288986503435,-1.8687106122606116,-2.2864873583626286,-1.7343197899559744,-0.004913474511541429,1.25
2,-1.3898630124630276,-2.0420307504370903,-1.8686510606959201,-2.291041902303496,-1.7320674507890388,-0.019913474511541396,2.5
3,-1.3878165964667606,-2.0390338367483345,-1.8685518080881012,-2.2986328088716075,-1.728313552177479,-0.044913474511541325,3.75
4,-1.3849516140719869,-2.034838157584077,-1.8684128544371543,-2.3092600780669637,-1.7230580941212954,-0.07991347451154135,5.0
5,-1.3812373959340605,-2.029449408150702,-1.8682348119256784,-2.322846778604063,-1.7161154548599864,-0.12491343847431341,6.25
6,-1.3766011170188035,-2.0228811082575353,-1.8680191340460572,-2.3392102489545445,-1.7070448805960892,-0.17991330736153602,7.5
7,-1.3709842198063749,-2.015144130451012,-1.867766989590751,-2.358203608178342,-1.6954919640410449,-0.24491302281663785,8.75
8,-1.3643205647668206,-2.0062472673036114,-1.8674943515344278,-2.379577388490094,-1.6810845645297157,-0.31991254533119584,10.0
9,-1.356531157971188,-1.9961990762964823,-1.867228462260142,-2.402987071931239,-1.6633939049967577,-0.4049118458882025,11.25
10,-1.3475356241974559,-1.9850092887904403,-1.867003245524503,-2.4280215650901966,-1.6419971145926655,-0.499910850498719,12.5
11,-1.3372470862871058,-1.9726872374619688,-1.866870414253361,-2.4541274778669524,-1.6164669396079592,-0.6049095190072571,13.75
12,-1.3255917303345346,-1.9592458744065793,-1.8668971688731177,-2.4806109167573216,-1.5864825307286938,-0.7199078122316622,15.0
13,-1.3125046786952899,-1.9447034744700602,-1.8671593477576511,-2.5066802116808704,-1.55178559751971,-0.8449056789863888,16.25
14,-1.2979522876347414,-1.9290870728139702,-1.8677499093902732,-2.5313772110876305,-1.5123217468957688,-0.9799030968290584,17.5
15,-1.2819479665529177,-1.9124362576833154,-1.8687722717034858,-2.5536265671513703,-1.4683053843604479,-1.1249000619853344,18.75
16,-1.2652701663419672,-1.8955123717584215,-1.8702651544080786,-2.5716224517903545,-1.4222230273228063,-1.2736327163843963,20.0
17,-1.2495653267688795,-1.8798413576608757,-1.8720862876373279,-2.5839140080200047,-1.3790376211220225,-1.4127999828884423,21.25
18,-1.2350219427168656,-1.8654534915687726,-1.8741518308094502,-2.5913648230997324,-1.3395602790685137,-1.541967511335237,22.5
19,-1.2217223220971791,-1.8523213448282394,-1.876378895375876,-2.5949090779529684,-1.304157703562346,-1.6611379477450743,23.75
20,-1.2096949307402354,-1.8404140534957099,-1.8786867515413954,-2.5954245287701454,-1.2729069741644246,-1.770310082011477,25.0
21,-1.1989440946453334,-1.829701157615957,-1.8810003192138725,-2.593712464837386,-1.2457629298505393,-1.8694833270168312,26.25
22,-1.1894456765691497,-1.8201526160074524,-1.88324837987867,-2.590504471733769,-1.2225317262910749,-1.9586576025324258,27.5
23,-1.1811575582542717,-1.8117443066858894,-1.8853693007896015,-2.5864112074691037,-1.2028916361112791,-2.0378559037774946,28.75
24,-1.1757212351907502,-1.806215560646586,-1.8867888784689306,-2.583495068811136,-1.1901223186772432,-2.113812888731332,30.0
25,-1.1744361653664384,-1.804908855137092,-1.8871242930536358,-2.5828060330596836,-1.1871041529254676,-2.191110268932688,31.25
26,-1.1744362329696272,-1.804909235917403,-1.8871240414346557,-2.5828065498335957,-1.1871047303469322,-2.275498109087123,32.5
27,-1.174436296764874,-1.8049096712776245,-1.887123731969346,-2.5828072335278436,-1.1871052758021927,-2.3698859399543633,33.75
28,-1.1744363067197692,-1.8049097824895601,-1.8871236922887404,-2.582807335524543,-1.1871053548694943,-2.4742737615406565,35.0
29,-1.1744363034815957,-1.804909819705065,-1.887123718764345,-2.5828072938539615,-1.1871053192973509,-2.588661575726984,36.25
30,-1.1744363066716197,-1.80490985773567,-1.88712375138399,-2.582807236553737,-1.1871052966861244,-2.7130493816268944,37.5
31,-1.174436326486513,-1.8049098938810575,-1.8871237930058213,-2.582807157626349,-1.1871053163340797,-2.8474371792818998,38.75
32,-1.1744363519598033,-1.8049099309345467,-1.8871238372046906,-2.582807075441064,-1.1871053420095576,-2.991824968201413,40.0
33,-1.1744363943106404,-1.804909964132924,-1.8871238823822414,-2.582806997765822,-1.1871053850415714,-3.146212750384516,41.25
34,-1.1744364462450414,-1.8049099947174296,-1.887123928001943,-2.5828069224151466,-1.18710543761597,-3.3106005294877665,42.5
35,-1.174436511601149,-1.8049100194017682,-1.8871239720844355,-2.5828068546972798,-1.1871055035042681,-3.4834837579593407,43.75
36,-1.1744365833610653,-1.804910033143645,-1.8871240075935134,-2.5828068065572185,-1.1871055756362865,-3.650113837527538,45.0
37,-1.1744366540303959,-1.8049100423746933,-1.8871240384117538,-2.5828067675887425,-1.1871056466038175,-3.8067439170957327,46.25
38,-1.1744367252208203,-1.804910038829624,-1.8871240570624133,-2.582806753534982,-1.1871057178912656,-3.9533739966639176,47.5
39,-1.1744367918668273,-1.8049100347740477,-1.8871240738114696,-2.582806741824069,-1.1871057846164366,-4.090004076232096,48.75
40,-1.1744368532987137,-1.8049100210852336,-1.887124079647737,-2.58280675055369,-1.1871058459636687,-4.216634155800275,50.0
41,-1.1744369098485266,-1.8049100075682283,-1.887124084136165,-2.5828067603870046,-1.187105902421043,-4.333264235368457,51.25
42,-1.1744369593198092,-1.8049099911507902,-1.8871240836310221,-2.58280677800038,-1.1871059517387104,-4.439894314936637,52.5
43,-1.1744370020944785,-1.80490997252818,-1.8871240789216577,-2.582806801916904,-1.187105994310422,-4.53652439450482,53.75
44,-1.1744370404425086,-1.8049099558327808,-1.887124074699647,-2.58280682335837,-1.187106032476498,-4.623154474073002,55.0
45,-1.1744370722460298,-1.8049099394039116,-1.8871240687058042,-2.5828068462082734,-1.1871060640882052,-4.6997845536411855,56.25
46,-1.1744370965394453,-1.8049099224844225,-1.8871240599100978,-2.5828068722372115,-1.1871060881658755,-4.766414633209369,57.5
47,-1.1744371171868475,-1.804909908104251,-1.8871240524344717,-2.582806894359666,-1.1871061086299122,-4.823044712777552,58.75
48,-1.1744371341882376,-1.8049098962633983,-1.8871240462789227,-2.582806912575636,-1.1871061254803161,-4.869674792345733,60.0
49,-1.174437147543614,-1.8049098869618625,-1.8871240414434551,-2.582806926885122,-1.1871061387170863,-4.906304871913915,61.25
50,-1.174437157252977,-1.8049098801996426,-1.8871240379280687,-2.5828069372881224,-1.1871061483402223,-4.932934951482096,62.5
51,-1.1744371633163264,-1.8049098759767392,-1.887124035732763,-2.582806943784638,-1.1871061543497243,-4.949565031050279,63.75
52,-1.175142775083383,-1.8066757512036233,-1.8848186812028205,-2.583351579506502,-1.1878107852653657,-4.95753297005339,65.0
53,-1.1767810972550672,-1.8107758651176245,-1.8794659811888987,-2.584616138809974,-1.1894468306659796,-4.956364854470269,66.25
54,-1.1771428370459946,-1.8116811763272964,-1.878284100799199,-2.584895355717823,-1.1898080705290004,-4.946573314092428,67.5
55,-1.1771428309513199,-1.8116811817947207,-1.8782841009626803,-2.5848953582557863,-1.1898080700707152,-4.9276003704129305,68.75
56,-1.1771428216443465,-1.8116811901438403,-1.878284101212327,-2.584895362131424,-1.1898080693708835,-4.898627426733432,70.0
57,-1.1771428091250755,-1.8116812013746557,-1.8782841015481395,-2.5848953673447372,-1.1898080684295052,-4.8596544830539345,71.25
58,-1.177142793446946,-1.8116812154491522,-1.8782841020816157,-2.5848953734809736,-1.1898080677020946,-4.810681539943059,72.5
59,-1.1771427751599957,-1.8116812319760625,-1.8782841039603737,-2.5848953762712394,-1.1898080718771131,-4.751708602294363,73.75
60,-1.17714275377214,-1.8116812513054292,-1.8782841061577114,-2.5848953795346485,-1.1898080767600865,-4.682735664645665,75.0
61,-1.1771427204588485,-1.811681267213158,-1.8782841101210415,-2.5848953619517987,-1.1898080483395033,-4.6037627411558875,76.25
62,-1.1771426814707646,-1.811681284108638,-1.8782841148363314,-2.584895338584046,-1.1898080106813986,-4.514789821791442,77.5
63,-1.177142638069745,-1.8116813028850727,-1.8782841201477045,-2.584895312298808,-1.1898079685343337,-4.4158169124553535,78.75
64,-1.1771425868015803,-1.8116813175612156,-1.8782841186210426,-2.584895297923639,-1.189807917653504,-4.306844011651954,80.0
65,-1.1771425294664932,-1.8116813312395879,-1.878284114068363,-2.5848952879333,-1.1898078603479474,-4.187871118452753,81.25
66,-1.1771424671911572,-1.8116813424209877,-1.878284105555647,-2.5848952843385993,-1.1898077980648083,-4.058898232313308,82.5
67,-1.1771423998242803,-1.811681346495094,-1.8782840885675136,-2.5848952962620064,-1.1898077306155823,-3.919925350327942,83.75
68,-1.1771423292439294,-1.8116813469061088,-1.8782840670345222,-2.5848953163344053,-1.1898076598884035,-3.7709524704731683,85.0
69,-1.177142257963888,-1.8116813375672278,-1.8782840358452542,-2.5848953557722023,-1.1898075883058186,-3.611979597505918,86.25
70,-1.177142189517979,-1.8116813207393594,-1.878283998285759,-2.5848954090900786,-1.1898075194441944,-3.4455988775263924,87.5
71,-1.1771421298627747,-1.8116812981840504,-1.878283957912319,-2.584895471064146,-1.1898074593010055,-3.286808639307289,88.75
72,-1.1771420849642307,-1.8116812693918263,-1.8782839160853366,-2.5848955409310816,-1.1898074138470573,-3.1380184010881873,90.0
73,-1.1771420471360508,-1.8116812397134026,-1.8782838755971527,-2.584895610448402,-1.1898073754646377,-2.9992281628690813,91.25
74,-1.1771420231321843,-1.8116812073452389,-1.8782838368001127,-2.5848956811629407,-1.1898073508935687,-2.8704379246499734,92.5
75,-1.17714200562887,-1.8116811754732738,-1.878283800503269,-2.5848957489795117,-1.1898073328449938,-2.7516476864308697,93.75
76,-1.1771419937986733,-1.8116811452820694,-1.8782837675964221,-2.5848958118147873,-1.1898073205085526,-2.642857448211761,95.0
77,-1.1771419927910984,-1.8116811155426422,-1.8782837384896816,-2.5848958705609806,-1.1898073190253056,-2.544067209992651,96.25
78,-1.1771419918855148,-1.8116810888135806,-1.8782837123292526,-2.584895923360616,-1.1898073176921995,-2.455276971773541,97.5
79,-1.1771419926537454,-1.8116810649998323,-1.878283689511497,-2.5848959699355705,-1.1898073180829398,-2.3764867335544295,98.75
80,-1.177142001443377,-1.811681043717556,-1.878283671637041,-2.584896009162689,-1.1898073265527143,-2.307696495335316,100.0
81,-1.1771420089552649,-1.8116810255290725,-1.8782836563609855,-2.5848960426873826,-1.1898073337912423,-2.248906257116202,101.25
82,-1.1771420151894088,-1.8116810104343855,-1.8782836436833266,-2.5848960705096506,-1.1898073397985238,-2.2001160188970914,102.5
83,-1.1771420201458085,-1.811680998433491,-1.8782836336040682,-2.584896092629494,-1.1898073445745587,-2.161325780677985,103.75
84,-1.177142023824464,-1.811680989526389,-1.8782836261232105,-2.5848961090469116,-1.189807348119347,-2.1325355424588763,105.0
85,-1.1771420262253758,-1.8116809837130794,-1.8782836212407537,-2.5848961197619045,-1.1898073504328888,-2.1137453042397647,106.25
86,-1.177520047124659,-1.812638648616109,-1.8770258344238575,-2.585198984930316,-1.1901848131831132,-2.104094490625524,107.5
87,-1.179138873284821,-1.8167397515340205,-1.8716395166316773,-2.586495947698516,-1.1918012496306951,-2.103088275333874,108.75
88,-1.1798098317896264,-1.818439549337384,-1.8694070367291602,-2.587033501532648,-1.1924712207393804,-2.111174616520838,110.0
89,-1.179809830560441,-1.8184395549096997,-1.8694070395694307,-2.587033498647787,-1.1924712261540142,-2.127946726863709,111.25
90,-1.1798098285983807,-1.818439563804385,-1.8694070441031492,-2.58703349404289,-1.192471234797004,-2.1547188372065795,112.5
91,-1.179809825903446,-1.8184395760214405,-1.8694070503303162,-2.5870334877179593,-1.1924712466683494,-2.1914909475494517,113.75
92,-1.1798098224756366,-1.8184395915608662,-1.869407058250932,-2.587033479672993,-1.1924712617680504,-2.238263057892324,115.0
93,-1.1798098178637442,-1.8184396108771232,-1.8694070664850164,-2.5870334751798847,-1.1924712762055054,-2.295035157552374,116.25
94,-1.1798098123667904,-1.8184396336690347,-1.869407075947101,-2.587033470744882,-1.192471292559067,-2.361807255668715,117.5
95,-1.1798098106475543,-1.8184396578124975,-1.8694070943102243,-2.587033439858879,-1.192471298978694,-2.438579343225898,118.75
96,-1.179809811382421,-1.8184396839006665,-1.8694071194213808,-2.587033389940283,-1.1924712990267852,-2.5253514250305087,120.0
97,-1.1798098121691525,-1.8184397129743348,-1.8694071475029452,-2.5870333339349205,-1.1924712988070447,-2.6221234955309645,121.25
98,-1.1798098206942904,-1.8184397431807324,-1.869407179301346,-2.587033272664366,-1.1924713070217192,-2.728895559396496,122.5
99,-1.1798098377883461,-1.818439774318575,-1.8694072149005523,-2.5870332062037837,-1.192471324606908,-2.845667615184916,123.75
100,-1.1798098580076708,-1.818439807401424,-1.869407253364816,-2.587033134979479,-1.1924713453664244,-2.9724396631513823,125.0
101,-1.179809895055982,-1.818439836480794,-1.8694072931532308,-2.587033066745464,-1.192471382963247,-3.109211705665148,126.25
102,-1.1798099359691065,-1.8184398668819906,-1.869407335429093,-2.5870329947642596,-1.1924714244547179,-3.2559837474994233,127.5
103,-1.1798099945018787,-1.8184398890341837,-1.8694073751777736,-2.5870329338002063,-1.192471483469014,-3.4127557821912813,128.75
104,-1.1798100599519747,-1.818439908476782,-1.8694074144483053,-2.5870328761194594,-1.1924715493722435,-3.5786924055237233,130.0
105,-1.179810131690235,-1.8184399179016588,-1.8694074459450765,-2.5870328362955566,-1.1924716214169335,-3.7396837551894895,131.25
106,-1.1798102016747354,-1.8184399201985004,-1.869407469970915,-2.5870328110242227,-1.19247169158999,-3.8906751048552497,132.5
107,-1.17981026959645,-1.818439916115504,-1.8694074871564474,-2.5870327989241426,-1.1924717595936913,-4.031666454520998,133.75
108,-1.1798103325241416,-1.8184399071145048,-1.8694074980089825,-2.5870327979865575,-1.1924718225138333,-4.1626578041867415,135.0
109,-1.179810390461609,-1.8184398933075698,-1.8694075026385786,-2.5870328079897176,-1.1924718803560168,-4.283649153852477,136.25
110,-1.1798104432963847,-1.818439880069695,-1.869407506231924,-2.587032818385502,-1.1924719330935472,-4.3946405035182075,137.5
111,-1.1798104874472217,-1.8184398608787178,-1.8694075013375917,-2.587032843075536,-1.1924719770330328,-4.4956318531839345,138.75
112,-1.1798105272263153,-1.8184398435880027,-1.8694074969278844,-2.5870328653208032,-1.1924720166217027,-4.5866232028496565,140.0
113,-1.1798105626336652,-1.8184398281975487,-1.8694074930028042,-2.587032885121304,-1.1924720518595568,-4.667614552515378,141.25
114,-1.179810588588288,-1.818439810719234,-1.8694074841056523,-2.5870329118346937,-1.1924720775907685,-4.738605902181098,142.5
115,-1.1798106105497579,-1.8184397954383391,-1.869407476099717,-2.5870329354060613,-1.1924720993553317,-4.799597251846818,143.75
116,-1.1798106289104766,-1.8184397826628662,-1.8694074694064136,-2.587032955112724,-1.1924721175514281,-4.850588601512548,145.0
117,-1.1798106436704439,-1.8184397723928138,-1.8694074640257443,-2.58703297095468,-1.192472132179058,-4.891579951178277,146.25
118,-1.1798106548296596,-1.8184397646281807,-1.8694074599577106,-2.5870329829319285,-1.19247214323822,-4.922571300844006,147.5
119,-1.1798106623881233,-1.8184397593689674,-1.8694074572023118,-2.5870329910444703,-1.1924721507289147,-4.943562650509736,148.75
120,-1.1799426735442526,-1.8187782954526102,-1.8689601755777032,-2.5871426879925252,-1.1926039552988155,-4.954931713669309,150.0
121,-1.181427094981006,-1.8225851671218003,-1.8639305071644523,-2.5883761828035077,-1.1940860541197411,-4.95816065212262,151.25
122,-1.1824414840218964,-1.825186627223174,-1.8604934413381211,-2.5892191018271875,-1.1950988577879629,-4.95181254860634,152.5
123,-1.182441479393198,-1.825186631368034,-1.8604934414355383,-2.589219103853786,-1.1950988573429102,-4.937279238072995,153.75
124,-1.18244147157961,-1.8251866383648663,-1.860493441599985,-2.589219107274834,-1.1950988565916278,-4.912745927539649,155.0
125,-1.182441460581133,-1.8251866482136712,-1.860493441831462,-2.5892191120903325,-1.1950988555341162,-4.878212617006301,156.25
126,-1.1824414463977668,-1.8251866609144485,-1.860493442129969,-2.589219118300281,-1.195098854170375,-4.833679306472953,157.5
127,-1.1824414294320138,-1.8251866761861812,-1.8604934433212286,-2.589219122853505,-1.1950988559672724,-4.779145999639999,158.75
128,-1.18244140959278,-1.8251866940924688,-1.8604934452183648,-2.589219126440538,-1.195098860140195,-4.71461269482996,160.0
129,-1.1824413825884474,-1.8251867118293543,-1.8604934481639968,-2.5892191203245956,-1.1950988492261825,-4.64007939699283,161.25
130,-1.182441346009331,-1.8251867276626101,-1.86049345260257,-2.5892190984627765,-1.1950988139574605,-4.555546108629729,162.5
131,-1.1824413050780522,-1.8251867453534767,-1.860493457622532,-2.5892190737688514,-1.1950987743072314,-4.461012828993437,163.75
132,-1.1824412584921498,-1.8251867626454552,-1.8604934603965844,-2.5892190518709843,-1.1950987286780543,-4.3564795560968586,165.0
133,-1.182441203977825,-1.8251867756123195,-1.860493456040564,-2.589219042429443,-1.1950986741974146,-4.241946291765908,166.25
134,-1.1824411447024104,-1.8251867897128105,-1.860493451299712,-2.5892190321807314,-1.1950986149478515,-4.117413036806082,167.5
135,-1.182441080335445,-1.8251867949071403,-1.8604934362714676,-2.5892190410647986,-1.19509855051346,-3.9828797872248516,168.75
136,-1.1824410111363761,-1.8251867990439035,-1.860493418701306,-2.589219053479626,-1.1950984812287544,-3.838346538465066,170.0
137,-1.1824409418948014,-1.8251867919793476,-1.86049339019908,-2.5892190879928747,-1.195098411722602,-3.68381329548692,171.25
138,-1.1824408698389324,-1.8251867814798406,-1.8604933574698737,-2.5892191301157945,-1.1950983393410057,-3.5193227550252537,172.5
139,-1.1824408092712868,-1.8251867585382375,-1.8604933161974597,-2.589219193360527,-1.1950982782723831,-3.3560963661946577,173.75
140,-1.1824407566779427,-1.8251867340369832,-1.860493275893881,-2.5892192573107944,-1.195098225170344,-3.2028699773640725,175.0
141,-1.182440718119985,-1.825186703760867,-1.860493234341927,-2.589219328477681,-1.1950981860413712,-3.059643588533496,176.25
142,-1.1824406862995365,-1.8251866738416171,-1.8604931952410946,-2.589219396938219,-1.1950981536703238,-2.9264171997029287,177.5
143,-1.1824406683645998,-1.8251866411747044,-1.8604931577962465,-2.5892194666901003,-1.1950981351708334,-2.803190810872367,178.75
144,-1.18244065188511,-1.8251866111587662,-1.8604931233900943,-2.5892195307815147,-1.195098118172604,-2.689964422041812,180.0
145,-1.1824406486175703,-1.825186580996177,-1.8604930929653256,-2.5892195912351266,-1.1950981144127453,-2.586738033211261,181.25
146,-1.18244064767709,-1.8251865532771443,-1.8604930656491478,-2.5892196461782295,-1.1950981130243221,-2.493511644380711,182.5
147,-1.1824406468374908,-1.8251865285314188,-1.8604930412630574,-2.5892196952278184,-1.1950981117848296,-2.4102852555501637,183.75
148,-1.1824406530311442,-1.8251865063446195,-1.8604930215671596,-2.5892197371405477,-1.1950981176350735,-2.3370588667196155,185.0
149,-1.1824406610094054,-1.82518648703048,-1.8604930052288438,-2.5892197728577804,-1.1950981253200221,-2.2738324778890706,186.25
150,-1.1824406677258104,-1.8251864707711014,-1.860492991474624,-2.5892198029259106,-1.195098131789506,-2.220606089058516,187.5
151,-1.1824406731803592,-1.8251864575664833,-1.8604929803045003,-2.589219827344939,-1.1950981370435243,-2.1773797002279567,188.75
152,-1.1824406773730516,-1.8251864474166237,-1.8604929717184748,-2.589219846114865,-1.195098141082077,-2.1441533113974036,190.0
153,-1.1824406803038883,-1.8251864403215228,-1.8604929657165477,-2.5892198592356896,-1.1950981439051644,-2.1209269225668494,191.25
154,-1.1824483962580075,-1.8252064635601588,-1.8604663465542193,-2.5892265103888685,-1.1951058470309992,-2.1076758473614565,192.5
155,-1.18365469175219,-1.8283381612898557,-1.856304398934965,-2.5902653944856526,-1.1963101461333723,-2.1023544289312026,193.75
156,-1.1849924540828227,-1.8318111698390016,-1.8516888644288028,-2.5914174971301347,-1.1976456962569428,-2.106826302231522,195.0
157,-1.1850351626042066,-1.8319220531955496,-1.851541510836198,-2.5914542771909126,-1.1976883389022608,-2.1192201275736897,196.25
158,-1.185035160968823,-1.8319220605182565,-1.8515415145346554,-2.591454273581676,-1.197688345899177,-2.141479401077285,197.5
159,-1.1850351585987422,-1.8319220711306963,-1.8515415198946488,-2.591454268350987,-1.1976883560394644,-2.173738674580883,198.75
160,-1.1850351554939633,-1.831922085032869,-1.8515415269161775,-2.5914542614988445,-1.1976883693231233,-2.2159979480844822,200.0
161,-1.1850351514458772,-1.831922102431117,-1.8515415349716258,-2.591454255408505,-1.197688383933014,-2.26825721987802,201.25
162,-1.1850351463094873,-1.8319221234688599,-1.851541543624763,-2.5914542517364736,-1.197688398606116,-2.33051648934405,202.5
163,-1.1850351416947045,-1.8319221472783394,-1.8515415558746782,-2.5914542398946168,-1.1976884121483058,-2.4027757555802993,203.75
164,-1.1850351423828263,-1.8319221717032,-1.851541579557325,-2.591454192969103,-1.1976884121761198,-2.4850350086108506,205.0
165,-1.1850351431385169,-1.8319221990864119,-1.851541606158479,-2.591454140168005,-1.1976884120719573,-2.577294255677524,206.25
166,-1.1850351447777845,-1.8319222292264594,-1.8515416357727204,-2.5914540815163964,-1.1976884127168819,-2.679553495916164,207.5
167,-1.1850351610110756,-1.8319222588011566,-1.8515416698121567,-2.591454018165476,-1.1976884294195131,-2.7918127251361478,208.75
168,-1.1850351786918703,-1.831922291009402,-1.8515417068865985,-2.5914539491610427,-1.1976884476225533,-2.914071946750251,210.0
169,-1.1850352085371945,-1.8319223212065578,-1.8515417457824954,-2.5914538805685075,-1.1976884780105326,-3.046331162410926,211.25
170,-1.1850352466011804,-1.8319223511029294,-1.851541786945096,-2.591453810160557,-1.1976885166443263,-3.188590375878606,212.5
171,-1.1850352970680746,-1.8319223763394663,-1.8515418274297826,-2.591453745263734,-1.1976885676310287,-3.3408495850736335,213.75
172,-1.185035356908344,-1.8319223990219708,-1.851541868348901,-2.591453682619977,-1.1976886279690442,-3.5031087877780864,215.0
173,-1.185035427693092,-1.8319224108485488,-1.8515419020720707,-2.591453638161177,-1.1976886990999005,-3.6683468883606882,216.25
174,-1.1850354964178216,-1.8319224192017614,-1.8515419317522999,-2.591453601178157,-1.19768876811006,-3.823847687994096,217.5
175,-1.1850355656528393,-1.8319224150850517,-1.8515419493920273,-2.591453588678313,-1.1976888374299854,-3.969348487627546,218.75
176,-1.185035630120059,-1.8319224109742978,-1.8515419655454626,-2.5914535775875702,-1.1976889019717774,-4.10484928726103,220.0
177,-1.1850356894798133,-1.8319223968683422,-1.8515419703214926,-2.5914535877651534,-1.1976889612333042,-4.230350086894534,221.25
178,-1.1850357441097397,-1.8319223838863652,-1.8515419747169588,-2.59145359713178,-1.1976890157728302,-4.345850886528075,222.5
179,-1.1850357913665859,-1.8319223672137954,-1.8515419731942242,-2.5914536159866906,-1.1976890628634655,-4.451351686161667,223.75
180,-1.1850358326046213,-1.8319223493173786,-1.8515419685905021,-2.591453639053065,-1.1976891039023316,-4.546852485795299,225.0
181,-1.185035869524576,-1.8319223332949202,-1.8515419644688356,-2.591453659704134,-1.1976891406439722,-4.632353285428936,226.25
182,-1.185035899453458,-1.8319223170469678,-1.8515419579386725,-2.591453682884085,-1.197689170375599,-4.70785408506257,227.5
183,-1.1850359227488667,-1.8319223008543914,-1.8515419493867196,-2.591453707931471,-1.1976891934601355,-4.773354884696214,228.75
184,-1.1850359424877683,-1.8319222871339345,-1.8515419421403914,-2.5914537291548756,-1.1976892130203582,-4.828855684329846,230.0
185,-1.1850359586701629,-1.8319222758855984,-1.8515419361996868,-2.591453746554299,-1.197689229056268,-4.874356483963469,231.25
186,-1.1850359712960494,-1.8319222671093804,-1.8515419315646084,-2.591453760129741,-1.197689241567864,-4.909857283597098,232.5
187,-1.1850359803654285,-1.8319222608052808,-1.8515419282351566,-2.5914537698812,-1.197689250555146,-4.935358083230725,233.75
188,-1.1850359858782997,-1.8319222569732996,-1.8515419262113313,-2.591453775808678,-1.1976892560181143,-4.9508588828643525,235.0
189,-1.1858665309314618,-1.8341050424075318,-1.8486242294598079,-2.592194591597404,-1.198518349863731,-4.957983250792118,236.25
190,-1.1873714288773338,-1.838060136719058,-1.8433375206197806,-2.593536905784052,-1.2000206190693201,-4.955763738378563,237.5
191,-1.1875949667640786,-1.8386476387145674,-1.842552220379115,-2.5937362977717893,-1.2002437693139185,-4.945207444251458,238.75
192,-1.1875949604649139,-1.8386476443453854,-1.8425522204778304,-2.593736300653733,-1.2002437685796141,-4.925258778277702,240.0
193,-1.187594951008062,-1.8386476527988571,-1.8425522206260307,-2.5937363049803563,-1.2002437674772128,-4.895310112303942,241.25
194,-1.1875949383935227,-1.838647664074983,-1.842552220823716,-2.59373631075166,-1.200243766006715,-4.8553614463301935,242.5
195,-1.1875949227329037,-1.8386476780971472,-1.84255222129631,-2.5937363171402654,-1.2002437651394393,-4.805412782740775,243.75
196,-1.1875949044608891,-1.8386476945669497,-1.8425522229217894,-2.5937363209237168,-1.200243768658465,-4.74546412937581,245.0
197,-1.1875948831409309,-1.8386477137840702,-1.8425522248184145,-2.5937363253382846,-1.2002437727644972,-4.675515476010839,246.25
198,-1.1875948493041804,-1.8386477287992193,-1.8425522289210248,-2.5937363057981724,-1.2002437411235762,-4.595566838617229,247.5
199,-1.187594810849556,-1.8386477454101877,-1.842552233634034,-2.5937362827474812,-1.200243704006106,-4.505618204992626,248.75
200,-1.1875947680943073,-1.8386477638512555,-1.84255223893142,-2.593736256872492,-1.2002436625465953,-4.405669580404206,250.0
201,-1.1875947171845063,-1.838647777462624,-1.8425522364514562,-2.5937362446883787,-1.2002436119041082,-4.295720965508619,251.25
202,-1.187594660788703,-1.8386477908409162,-1.8425522319115624,-2.593736234995439,-1.2002435555384325,-4.1757723580481505,252.5
203,-1.18759459953629,-1.838647800676262,-1.8425522223596298,-2.5937362337982233,-1.2002434942684566,-4.04582375737917,253.75
204,-1.1875945333492048,-1.838647804592501,-1.8425522054358932,-2.5937362458298945,-1.2002434279978622,-3.9058751602976534,255.0
205,-1.1875944645632739,-1.8386478036328309,-1.8425521829090066,-2.5937362682873317,-1.2002433590443373,-3.755926565906068,256.25
206,-1.187594394591654,-1.838647794377285,-1.8425521518645347,-2.5937363075153836,-1.200243288768602,-3.5959779782484977,257.5
207,-1.1875943289963047,-1.8386477765861924,-1.8425521138115668,-2.5937363623291674,-1.2002432227399322,-3.429714465290183,258.75
208,-1.1875942711521115,-1.8386477546470177,-1.8425520741174437,-2.593736423036554,-1.2002431644119682,-3.271906838921761,260.0
209,-1.1875942291153858,-1.838647725662802,-1.842552032465341,-2.5937364929637767,-1.2002431218116936,-3.124099212553313,261.25
210,-1.1875941924670275,-1.838647696871921,-1.8425519926938396,-2.593736560898175,-1.2002430846147722,-2.9862915861848602,262.5
211,-1.1875941707788988,-1.8386476648361976,-1.8425519544302187,-2.5937366307842304,-1.2002430623582103,-2.8584839598163967,263.75
212,-1.1875941538401111,-1.8386476339834132,-1.8425519188184594,-2.59373669690979,-1.200243044880656,-2.7406763334479205,265.0
213,-1.1875941437868174,-1.8386476044567361,-1.84255188666944,-2.593736758353147,-1.2002430343252861,-2.632868707079444,266.25
214,-1.1875941428107126,-1.8386475757360432,-1.8425518581601308,-2.5937368154887843,-1.2002430328801572,-2.535061080710952,267.5
215,-1.187594141934406,-1.8386475499518027,-1.8425518325656514,-2.593736866782787,-1.2002430315827806,-2.4472534543424644,268.75
216,-1.187594143653166,-1.8386475269563818,-1.8425518105240088,-2.5937369117816838,-1.200243032931508,-2.3694458279739727,270.0
217,-1.187594152104185,-1.8386475065050116,-1.8425517930930222,-2.5937369497336116,-1.200243041068647,-2.301638201605477,271.25
218,-1.1875941593088812,-1.8386474890697286,-1.842551778232688,-2.5937369820885396,-1.200243048005753,-2.243830575236986,272.5
219,-1.1875941652672548,-1.8386474746505357,-1.8425517659430035,-2.5937370088464675,-1.2002430537428261,-2.1960229488685066,273.75
220,-1.1875941699793056,-1.8386474632474292,-1.8425517562239722,-2.5937370300073956,-1.2002430582798662,-2.158215322500029,275.0
221,-1.1875941734450335,-1.8386474548604088,-1.8425517490755947,-2.5937370455713236,-1.2002430616168733,-2.1304076961315435,276.25
222,-1.1875941756644388,-1.8386474494894751,-1.842551744497871,-2.593737055538252,-1.2002430637538473,-2.112600069763061,277.5
223,-1.188070948115493,-1.8399159387964568,-1.8408464629754369,-2.594177214446781,-1.2007189581127018,-2.1036954655859974,278.75
224,-1.189610710257609,-1.844012610902214,-1.8353391597488464,-2.595598718880036,-1.2022558849823008,-2.1035962320026407,280.0
225,-1.1901182714211014,-1.8453630264862875,-1.8335237529589972,-2.5960672971330885,-1.2027625147111067,-2.112351371298665,281.25
226,-1.190118270124965,-1.845363032220356,-1.8335237558315365,-2.596067294439432,-1.2027625200985528,-2.129955747548463,282.5
227,-1.1901182680925704,-1.8453630412116078,-1.8335237603357943,-2.5960672902156694,-1.202762528546287,-2.1575601237982607,283.75
228,-1.1901182653239175,-1.8453630534600434,-1.8335237664717712,-2.5960672844618005,-1.202762540054309,-2.195164500048055,285.0
229,-1.1901182618190067,-1.845363068965662,-1.8335237742394668,-2.5960672771778257,-1.202762554622619,-2.242768876297846,286.25
230,-1.1901182570807978,-1.8453630882123007,-1.8335237821654253,-2.596067273924721,-1.2027625678776175,-2.300373250332645,287.5
231,-1.1901182514942354,-1.8453631108252404,-1.8335237913908013,-2.59606727039565,-1.2027625832065467,-2.3679776242604706,288.75
232,-1.190118250314786,-1.8453631344071368,-1.8335238106193077,-2.596067236779085,-1.202762587756997,-2.4455819861012422,290.0
233,-1.1901182510381698,-1.8453631600939793,-1.8335238357206576,-2.5960671872092185,-1.2027625877629038,-2.5331863431695525,291.25
234,-1.190118251812535,-1.8453631886903241,-1.8335238637688995,-2.5960671316304293,-1.2027625875008428,-2.63079068834639,292.5
235,-1.1901182614078982,-1.8453632180956152,-1.8335238956187807,-2.596067070991936,-1.2027625969126152,-2.738395026576439,293.75
236,-1.190118278210174,-1.8453632487012226,-1.833523931099998,-2.596067005172502,-1.202762614211503,-2.8559993568817674,295.0
237,-1.190118299405115,-1.8453632806264246,-1.8335239692631353,-2.596066935423284,-1.202762635947596,-2.983603679591746,296.25
238,-1.1901183357784917,-1.8453633092042556,-1.8335240088774247,-2.596066867852629,-1.2027626728711607,-3.121207997281325,297.5
239,-1.190118377195394,-1.8453633381924224,-1.8335240504828199,-2.5960667979578216,-1.2027627148560602,-3.26881231384259,298.75
240,-1.19011843461515,-1.8453633599812918,-1.8335240900267622,-2.5960667375444344,-1.2027627727587402,-3.42641662339745,300.0
241,-1.1901184995580152,-1.8453633779435354,-1.833524128165959,-2.596066682464394,-1.2027628381385733,-3.592632646622135,301.25
242,-1.1901185691939977,-1.845363387171174,-1.8335241591722495,-2.5960666432978985,-1.2027629080791202,-3.752785020428208,302.5
243,-1.1901186375466255,-1.845363388407658,-1.8335241818979333,-2.596066620361917,-1.2027629766028856,-3.902937394234291,303.75
244,-1.1901187034276495,-1.8453633845278836,-1.8335241988028859,-2.5960666083118284,-1.2027630425659788,-4.043089768040378,305.0
245,-1.1901187644055757,-1.8453633749752982,-1.8335242085734618,-2.596066608979913,-1.20276310352244,-4.173242141846476,306.25
246,-1.1901188205457183,-1.8453633616695893,-1.8335242131224287,-2.596066618539988,-1.2027631595690997,-4.293394515652597,307.5
247,-1.1901188713488633,-1.8453633482609195,-1.8335242158906364,-2.5960666299036412,-1.2027632102652943,-4.403546889458725,308.75
248,-1.1901189140700632,-1.8453633297501062,-1.8335242110867702,-2.5960666538065045,-1.2027632527783152,-4.503699263264848,310.0
249,-1.1901189525256446,-1.8453633130875615,-1.8335242067625548,-2.5960666753227195,-1.2027632910465038,-4.59385163707098,311.25
250,-1.1901189866257433,-1.8453632982026793,-1.8335242028201262,-2.596066694619218,-1.2027633249786436,-4.674004010877116,312.5
251,-1.1901190112720372,-1.8453632810897744,-1.8335241937069624,-2.596066721166868,-1.2027633493996932,-4.744156384683252,313.75
252,-1.1901190324050799,-1.845363266416261,-1.833524185892852,-2.5960667439302343,-1.2027633703395988,-4.804308758489389,315.0
253,-1.1901190500248713,-1.8453632541821396,-1.833524179377791,-2.5960667629093175,-1.2027633877983614,-4.854461132295512,316.25
254,-1.190119064131411,-1.8453632443874088,-1.833524174161783,-2.5960667781041176,-1.2027634017759805,-4.894613506101633,317.5
255,-1.1901190747246992,-1.8453632370320685,-1.8335241702448284,-2.5960667895146328,-1.2027634122724555,-4.924765879907758,318.75
256,-1.1901190818047354,-1.8453632321161184,-1.8335241676269272,-2.596066797140864,-1.2027634192877867,-4.94491825371388,320.0
257,-1.1903156582652135,-1.8458926948589127,-1.832808364879117,-2.596254516034742,-1.2029596147184662,-4.95563775159323,321.25
258,-1.1917672928918006,-1.8498026461772081,-1.8275223739723754,-2.597640738117732,-1.204408435880907,-4.958102599492214,322.5
259,-1.1926090887750453,-1.852070017478981,-1.8244570439543801,-2.5984446045355005,-1.205248602073037,-4.951179412141721,323.75
260,-1.1926090840086059,-1.852070021732458,-1.8244570440050871,-2.5984446068029206,-1.2052486014224353,-4.935954620763844,325.0
261,-1.1926090761114574,-1.8520700287797185,-1.8244570440891001,-2.5984446105596355,-1.2052486003445029,-4.910729829385966,326.25
262,-1.1926090650835999,-1.8520700386207622,-1.8244570442064187,-2.598444615805645,-1.20524859883924,-4.875505038008091,327.5
263,-1.1926090509250329,-1.8520700512555894,-1.8244570443570427,-2.5984446225409488,-1.2052485969066467,-4.83028024663022,328.75
264,-1.1926090340771538,-1.852070066385797,-1.8244570454197553,-2.5984446275622086,-1.2052485984279768,-4.775055466693191,330.0
265,-1.1926090143666008,-1.852070084128584,-1.8244570470494108,-2.5984446321275483,-1.205248601878853,-4.70983069126002,331.25
266,-1.1926089870443284,-1.8520701011583935,-1.8244570499562338,-2.598444625080356,-1.205248588290538,-4.63460592402093,332.5
267,-1.1926089510583897,-1.8520701166883522,-1.8244570543756777,-2.598444603598699,-1.2052485536365045,-4.549381165173844,333.75
268,-1.1926089108244415,-1.852070134022921,-1.8244570593774112,-2.5984445793226616,-1.2052485146977787,-4.4541564160869935,335.0
269,-1.1926088647533009,-1.8520701504113506,-1.8244570614621274,-2.598444559172642,-1.2052484695141055,-4.3489316737631105,336.25
270,-1.1926088112335924,-1.8520701630744714,-1.8244570571251195,-2.598444550026723,-1.2052484160289816,-4.233706939869462,337.5
271,-1.1926087530677763,-1.8520701768379155,-1.824457052407655,-2.5984445401023586,-1.2052483578905078,-4.108482214742336,338.75
272,-1.1926086899053412,-1.852070181107731,-1.8244570367016562,-2.5984445506045626,-1.2052482946524785,-3.973257495510813,340.0
273,-1.1926086220519176,-1.8520701850867767,-1.8244570192264145,-2.598444563098937,-1.2052482267123894,-3.828032776615554,341.25
274,-1.1926085545453273,-1.852070177199926,-1.8244569901202867,-2.5984445990598153,-1.2052481589264137,-3.672808063958476,342.5
275,-1.1926084848040708,-1.8520701659169418,-1.8244569569485765,-2.5984446424393397,-1.2052480888451425,-3.507765143201621,343.75
276,-1.1926084259472465,-1.8520701435744114,-1.8244569162678856,-2.5984447045200256,-1.2052480294906243,-3.345236996098032,345.0
277,-1.1926083758929313,-1.8520701190111588,-1.8244568761673898,-2.5984447683669627,-1.2052479789216601,-3.192708848994435,346.25
278,-1.1926083384450417,-1.852070089587497,-1.8244568352354198,-2.598444838081237,-1.205247940907237,-3.0501807018908313,347.5
279,-1.192608308642923,-1.8520700600555502,-1.82445679660893,-2.5984449057125047,-1.2052479105537688,-2.917652554787206,348.75
280,-1.192608291236357,-1.8520700283588973,-1.8244567597518733,-2.5984449739187245,-1.2052478925877885,-2.795124407683575,350.0
281,-1.1926082752504092,-1.8520699992491385,-1.8244567259028577,-2.5984450365583682,-1.2052478760880818,-2.68259626057994,351.25
282,-1.1926082730537435,-1.8520699697984706,-1.8244566960677535,-2.5984450957305545,-1.2052478734026533,-2.5800681134762935,352.5
283,-1.1926082721401032,-1.8520699429672618,-1.8244566692295057,-2.5984451493128136,-1.205247872046136,-2.487539966372645,353.75
284,-1.192608271325205,-1.8520699190358447,-1.824456645291805,-2.5984451971041587,-1.2052478708362246,-2.4050118192689895,355.0
285,-1.192608277996968,-1.852069897571024,-1.8244566261572812,-2.598445237744593,-1.2052478771701143,-2.3324836721653313,356.25
286,-1.1926082856950178,-1.852069878951605,-1.8244566101621797,-2.598445272423366,-1.2052478845793186,-2.2699555250616767,357.5
287,-1.192608292161934,-1.8520698633099537,-1.8244565967251407,-2.5984453015560334,-1.2052478908035842,-2.2174273779580305,358.75
288,-1.1926082973977168,-1.8520698506460695,-1.8244565858461645,-2.598445325142595,-1.205247895842911,-2.174899230854392,360.0
289,-1.192608301402366,-1.8520698409599505,-1.8244565775252535,-2.59844534318305,-1.2052478996972982,-2.1423710837507524,361.25
290,-1.192608304175882,-1.8520698342515969,-1.8244565717624073,-2.5984453556773994,-1.2052479023667466,-2.119842936647108,362.5
291,-1.1926349570805035,-1.8521425040528081,-1.824357770852532,-2.5984716725086283,-1.2052745009270762,-2.107223804851165,363.75
292,-1.193856729529783,-1.8554740601662938,-1.8198286098348542,-2.599677790861125,-1.2064937847338395,-2.102452197116813,365.0
293,-1.1950471999380612,-1.8587202667629616,-1.8154154852758733,-2.6008530058542174,-1.207681832142677,-2.107481673816736,366.25
294,-1.1950647954842966,-1.8587682534718657,-1.81535025638889,-2.6008703750026174,-1.2076993966316807,-2.1203561564378766,367.5
295,-1.1950647938017043,-1.8587682608285374,-1.8153502600475941,-2.6008703717059247,-1.207699403427969,-2.14316911271539,368.75
296,-1.1950647913815517,-1.858768271409987,-1.8153502653100815,-2.600870366964135,-1.2076994132033927,-2.175982068992903,370.0
297,-1.1950647882238399,-1.8587682852162148,-1.815350272176353,-2.6008703607772494,-1.2076994259579519,-2.21879502527041,371.25
298,-1.1950647840920317,-1.8587683024742478,-1.8153502799544885,-2.6008703557403683,-1.2076994395892366,-2.271607979063974,372.5
299,-1.1950647788951934,-1.8587683232713652,-1.8153502883784869,-2.600870352851155,-1.2076994532889958,-2.3344209301174166,373.75
300,-1.19506477461358,-1.8587683465828073,-1.8153503010399072,-2.6008703396276807,-1.207699464988422,-2.4072338769798267,375.0
301,-1.1950647752903178,-1.858768370560223,-1.81535032465874,-2.6008702931596144,-1.2076994649858932,-2.4900468114534298,376.25
302,-1.1950647760321187,-1.8587683974204043,-1.8153503511748355,-2.6008702408876827,-1.207699464839969,-2.5828597391574717,377.5
303,-1.19506477844014,-1.8587684267763829,-1.8153503807574805,-2.600870182933719,-1.2076994663326457,-2.6856726599515506,378.75
304,-1.1950647943654833,-1.858768455774247,-1.8153504146306516,-2.6008701203177167,-1.2076994827304612,-2.798485570371711,380.0
305,-1.195064811704012,-1.8587684873415788,-1.8153504515092678,-2.6008700521409684,-1.2076995005952973,-2.9212984725938402,381.25
306,-1.1950648418352128,-1.858768516562267,-1.815350490085229,-2.60086998485012,-1.2076995312685055,-3.0541113689799846,382.5
307,-1.1950648791337646,-1.8587685458667584,-1.8153505310034326,-2.600869915264838,-1.2076995691374437,-3.196924263543173,383.75
308,-1.1950649294044915,-1.8587685700378818,-1.8153505709271214,-2.6008698519888687,-1.2076996199206882,-3.349737153519688,385.0
309,-1.1950649880109785,-1.8587685922911303,-1.8153506115835596,-2.600869790018127,-1.2076996790255163,-3.512550037108491,386.25
310,-1.1950650575724011,-1.8587686031270352,-1.8153506443646203,-2.6008697474730664,-1.2076997489210635,-3.677377385268445,387.5
311,-1.19506512470003,-1.8587686106039296,-1.8153506730383453,-2.600869712348722,-1.2076998163218964,-3.832317904420601,388.75
312,-1.195065192013749,-1.858768606672535,-1.8153506904373222,-2.6008696998791527,-1.2076998837207777,-3.9772584235727577,390.0
313,-1.1950652546537859,-1.8587686021484326,-1.815350705768244,-2.6008696899986976,-1.2076999464257623,-4.112198942724927,391.25
314,-1.1950653123296862,-1.8587685885122585,-1.8153507104755815,-2.6008696997547096,-1.2077000040050125,-4.237139461877111,392.5
315,-1.1950653653893204,-1.8587685759675037,-1.8153507148061445,-2.6008697087298716,-1.2077000569757328,-4.352079981029297,393.75
316,-1.1950654110288914,-1.8587685594097993,-1.8153507128015844,-2.6008697279309914,-1.2077001024435496,-4.4570205001815015,395.0
317,-1.1950654510398875,-1.8587685421005844,-1.815350708268999,-2.6008697503252565,-1.2077001422578246,-4.55196101933371,396.25
318,-1.1950654868365627,-1.858768526614537,-1.8153507042138217,-2.6008697703607555,-1.2077001778784997,-4.636901538485921,397.5
319,-1.195065515521494,-1.858768510675208,-1.815350697457483,-2.600869793442893,-1.2077002063640847,-4.711842057638138,398.75
320,-1.1950655380620565,-1.8587684950426437,-1.8153506890612274,-2.6008698177669425,-1.2077002286966665,-4.776782576790346,400.0
321,-1.195065557131664,-1.8587684818172932,-1.8153506819578853,-2.6008698383454036,-1.20770024759032,-4.831723095942553,401.25
322,-1.195065572730317,-1.8587684709991565,-1.8153506761474558,-2.6008698551782765,-1.2077002630450453,-4.8766636150947456,402.5
323,-1.1950655848580147,-1.8587684625882321,-1.8153506716299417,-2.60086986826556,-1.2077002750608417,-4.9116041342469305,403.75
324,-1.1950655935147572,-1.85876845658452,-1.815350668405343,-2.6008698776072543,-1.207700283637709,-4.936544653399132,405.0
325,-1.1950655987005445,-1.8587684529880202,-1.8153506664736603,-2.6008698832033597,-1.2077002887756474,-4.951485172551337,406.25
326,-1.1959269698143231,-1.8611463800653874,-1.8121001388748672,-2.6017484465573446,-1.2085598183926893,-4.958217219099702,407.5
327,-1.1973219596393783,-1.8649974471749458,-1.8068358960114992,-2.6031712803835854,-1.2099518267208007,-4.955509117912647,408.75
328,-1.197489330461488,-1.8654595100161182,-1.8062042800220977,-2.6033419968689238,-1.2101188425736533,-4.944627806185205,410.0
329,-1.197489324139639,-1.8654595156483977,-1.8062042800593512,-2.603341999983285,-1.2101188415876962,-4.924260825328784,411.25
330,-1.1974893147138206,-1.865459524046075,-1.8062042801148956,-2.6033420046267683,-1.210118840117643,-4.89389384447238,412.5
331,-1.1974893021840325,-1.865459535209149,-1.806204280188731,-2.6033420107993748,-1.2101188381634937,-4.853526863615973,413.75
332,-1.197489286685285,-1.8654595490476082,-1.8062042805460692,-2.603342017541105,-1.210118836924614,-4.803159886712773,415.0
333,-1.1974892685978207,-1.8654595653079415,-1.8062042819338515,-2.6033420221482144,-1.2101188397788993,-4.742792922867951,416.25
334,-1.1974892474591414,-1.8654595842199722,-1.806204283564882,-2.6033420273664567,-1.210118842896186,-4.672425959167621,417.5
335,-1.1974892139310076,-1.8654595986675215,-1.806204287708552,-2.6033420073620177,-1.210118810627526,-4.592059011927416,418.75
336,-1.1974891762217814,-1.8654596149060552,-1.8062042923919566,-2.6033419847655535,-1.2101187742640684,-4.5016920684816055,420.0
337,-1.1974891343173344,-1.8654596329252748,-1.8062042976521246,-2.6033419594192466,-1.210118733683668,-4.401325133706244,421.25
338,-1.1974890842481911,-1.8654596458800914,-1.8062042947790768,-2.603341948368052,-1.2101186838299518,-4.290958209126851,422.5
339,-1.1974890290078481,-1.8654596589198735,-1.8062042902678836,-2.603341938997241,-1.2101186286207726,-4.170591291934265,423.75
340,-1.197488969010877,-1.865459668035552,-1.806204280322269,-2.6033419389280494,-1.210118568602179,-4.040224381456537,425.0
341,-1.1974889042105672,-1.8654596718066532,-1.806204263509727,-2.6033419510107736,-1.2101185037175206,-3.899857474372019,426.25
342,-1.1974888370995944,-1.8654596702732738,-1.8062042406726762,-2.603341974372489,-1.2101184364298567,-3.74949057026486,427.5
343,-1.1974887686182307,-1.8654596611626244,-1.8062042098428401,-2.603342013261352,-1.210118367643786,-3.5891236728034475,428.75
344,-1.197488705108425,-1.8654596432212576,-1.80620417178264,-2.603342068261936,-1.2101183036936614,-3.422971547255739,430.0
345,-1.1974886487945031,-1.86545962183548,-1.8062041325711677,-2.6033421279567914,-1.2101182468982887,-3.2655889032515084,431.25
346,-1.1974886084997054,-1.8654595931856857,-1.8062040911995618,-2.603342197296409,-1.2101182060372926,-3.1182062592473248,432.5
347,-1.1974885728333766,-1.8654595651667638,-1.806204051926716,-2.6033422639775154,-1.210118169825619,-2.9808236152432035,433.75
348,-1.1974885523844652,-1.8654595337315345,-1.806204014077361,-2.6033423328704255,-1.2101181488087234,-2.853440971239168,435.0
349,-1.1974885359064755,-1.8654595037415116,-1.806203978930322,-2.603342397679274,-1.2101181317956549,-2.7360583272352006,436.25
350,-1.1974885267119244,-1.8654594749178972,-1.8062039472591764,-2.603342457958208,-1.2101181221017256,-2.628675683231289,437.5
351,-1.1974885257603893,-1.8654594470340828,-1.8062039191425365,-2.603342513869001,-1.210118120684899,-2.531293039227427,438.75
352,-1.1974885249065652,-1.8654594220135987,-1.806203893913124,-2.603342564038444,-1.2101181194135628,-2.4439103952236216,440.0
353,-1.1974885269841664,-1.8654593996915467,-1.8062038723061273,-2.6033426079382993,-1.210118121125045,-2.3665277512198437,441.25
354,-1.1974885351797706,-1.8654593798825012,-1.8062038551482744,-2.6033426449745534,-1.2101181290099854,-2.299145107216092,442.5
355,-1.1974885421590966,-1.8654593630132406,-1.8062038405367526,-2.6033426765143988,-1.210118135724752,-2.241762463212363,443.75
356,-1.1974885479221447,-1.865459349083767,-1.806203828471559,-2.6033427025578364,-1.2101181412693451,-2.194379819208649,445.0
357,-1.1974885524689145,-1.8654593380940776,-1.806203818952697,-2.603342723104865,-1.2101181456437642,-2.156997175204941,446.25
358,-1.197488555799406,-1.865459330044172,-1.806203811980167,-2.603342738155485,-1.2101181488480095,-2.1296145312012174,447.5
359,-1.197488557913619,-1.8654593249340503,-1.806203807553969,-2.603342747709697,-1.210118150882081,-2.112231887197497,448.75
360,-1.1979884701031718,-1.86685653359739,-1.8042834973326551,-2.6038692874284894,-1.2106169426900704,-2.1036324279568857,450.0
361,-1.1994423564674557,-1.8709200283445517,-1.7986986855799134,-2.605400604043387,-1.212067571269584,-2.1038885024853426,451.25
362,-1.1998800792089042,-1.8721434327135602,-1.7970172606438801,-2.605861638125082,-1.2125043163078806,-2.112883416363473,452.5
363,-1.1998800778875294,-1.8721434384250808,-1.797017263466105,-2.6058616356819715,-1.2125043214958813,-2.130773486747132,453.75
364,-1.1998800758275465,-1.8721434473291656,-1.7970172678658671,-2.605861631873238,-1.212504329583815,-2.1586635571307844,455.0
365,-1.1998800730289558,-1.872143459425815,-1.7970172738431665,-2.6058616266988803,-1.2125043405716818,-2.1965536275144264,456.25
366,-1.1998800694917573,-1.872143474715029,-1.7970172813980028,-2.6058616201588993,-1.2125043544594816,-2.244443697898083,457.5
367,-1.1998800647063341,-1.8721434936799,-1.7970172890575382,-2.60586161774215,-1.2125043666720103,-2.302333763246687,458.75
368,-1.199880059085061,-1.8721435159295168,-1.7970172980135715,-2.6058616150071314,-1.2125043809114564,-2.3702238285118877,460.0
369,-1.1998800580878823,-1.8721435389454166,-1.7970173174124118,-2.6058615808942713,-1.2125043846542116,-2.448113881142878,461.25
370,-1.1998800587965768,-1.8721435640696447,-1.7970173423777516,-2.6058615319550817,-1.2125043846240289,-2.536003929099351,462.5
371,-1.1998800595574557,-1.8721435920297513,-1.7970173702646433,-2.605861477104936,-1.2125043843434984,-2.633893965315289,463.75
372,-1.1998800693618683,-1.872143620682989,-1.797017401956566,-2.605861417316566,-1.2125043940095064,-2.741783994238485,465.0
373,-1.1998800858085403,-1.872143650608463,-1.7970174371984944,-2.605861352407702,-1.2125044109552934,-2.859674015272475,466.25
374,-1.1998801069998142,-1.8721436816273127,-1.7970174750447296,-2.6058612838806843,-1.212504432688269,-2.9875640287501057,467.5
375,-1.1998801425861978,-1.872143709577001,-1.7970175143770586,-2.6058612172064186,-1.2125044688245088,-3.125454037310101,468.75
376,-1.1998801835277602,-1.8721437376319792,-1.7970175555202625,-2.6058611486973464,-1.212504510329595,-3.2733440445398188,470.0
377,-1.1998802396880197,-1.8721437589599879,-1.7970175947721065,-2.60586108901791,-1.2125045669726715,-3.4312340448352927,471.25
378,-1.1998803025710771,-1.8721437760426052,-1.797017631912685,-2.6058610357845953,-1.2125046302827578,-3.5954632833114353,472.5
379,-1.199880368702472,-1.872143784848169,-1.7970176617968787,-2.605860998111156,-1.2125046967102384,-3.7512524403478693,473.75
380,-1.1998804333734203,-1.8721437863610233,-1.7970176839108505,-2.6058609754591373,-1.2125047615521802,-3.8970415973843098,475.0
381,-1.1998804956875446,-1.872143782746876,-1.7970177001384613,-2.605860963771333,-1.212504823946357,-4.032830754420715,476.25
382,-1.1998805532551866,-1.8721437747912075,-1.797017710505386,-2.6058609622028275,-1.212504881510843,-4.158619911457097,477.5
383,-1.1998806060708276,-1.8721437623325463,-1.7970177148481272,-2.605860971078073,-1.212504934237411,-4.274409068493437,478.75
384,-1.1998806543251073,-1.8721437509498677,-1.797017718815806,-2.60586097918682,-1.2125049824103102,-4.380198225529783,480.0
385,-1.1998806944961702,-1.8721437342357827,-1.7970177148684567,-2.605861000406348,-1.2125050223927314,-4.475987382566091,481.25
386,-1.1998807302201056,-1.8721437188055075,-1.7970177107906173,-2.605861020409251,-1.2125050579394463,-4.561776539602417,482.5
387,-1.1998807617798866,-1.8721437051738619,-1.797017707188107,-2.605861038080519,-1.2125050893426645,-4.637565696638741,483.75
388,-1.1998807869400414,-1.8721436915850813,-1.7970177015901727,-2.6058610576084016,-1.2125051143325525,-4.703354853675055,485.0
389,-1.199880806073435,-1.8721436783320171,-1.7970176944089233,-2.6058610782943195,-1.212505133287706,-4.759144010711379,486.25
390,-1.1998808217772385,-1.872143667454516,-1.7970176885148867,-2.605861095272363,-1.2125051488452185,-4.804933167747737,487.5
391,-1.1998808340514522,-1.8721436589525788,-1.7970176839080603,-2.6058611085425327,-1.21250516100509,-4.8407223247840765,488.75
392,-1.199880842896076,-1.872143652826204,-1.7970176805884468,-2.605861118104828,-1.2125051697673206,-4.866511481820413,490.0
393,-1.1998808483111096,-1.872143649075392,-1.7970176785560459,-2.605861123959249,-1.2125051751319098,-4.882300638856755,491.25
394,-1.1997309483303673,-1.8717298619079616,-1.7976060565851864,-2.6056855185512964,-1.2123557406510646,-4.888447468033722,492.5
395,-1.199275492245424,-1.8704726363187463,-1.7993937583208315,-2.605151959760928,-1.211901698986449,-4.88576481128245,493.75
396,-1.199175633640187,-1.8701970035147673,-1.7997856974766413,-2.60503497751539,-1.2118021505167382,-4.873763370078328,495.0
397,-1.1989925695235968,-1.8696917042904886,-1.800504213373647,-2.6048205217718383,-1.2116196549509102,-4.8517619288742075,496.25
398,-1.1987262998956532,-1.86895673864591,-1.8015493060118493,-2.604508592530272,-1.2113542122889644,-4.81976048767009,497.5
399,-1.1983755766948696,-1.8679919218493872,-1.8029193915025383,-2.604100946190883,-1.2110045672855116,-4.777759010897756,498.75
400,-1.1979378041815498,-1.8667968700744844,-1.8046111748880225,-2.6036012361216514,-1.210568109258356,-4.725757442134952,500.0
401,-1.1974158471861585,-1.8653720075836102,-1.8066282914174352,-2.6030054308612325,-1.2100477195273038,-4.663755873372163,501.25
402,-1.1968076583596778,-1.863716993987003,-1.808968227136289,-2.6023163638786517,-1.209441340238809,-4.591754241606958,502.5
403,-1.1961118698044533,-1.8618316021706798,-1.8116293017754574,-2.601535928609218,-1.2087475964758272,-4.509752519153134,503.75
404,-1.1953287595449549,-1.859715853639815,-1.8146119098879592,-2.600663712129059,-1.2079667670607797,-4.417750726613512,505.0
405,-1.1944564053838147,-1.8573694097659377,-1.8179137321881595,-2.5997023529858807,-1.2070969194443963,-4.315748822636951,506.25
406,-1.1934928965746374,-1.8547918750290369,-1.8215325935218156,-2.5986544025285703,-1.2061361330462352,-4.203746765315795,507.5
407,-1.1924386613264737,-1.8519833039338067,-1.8254690571173073,-2.5975192472326496,-1.2050848385234882,-4.0817445833137596,508.75
408,-1.191291609005117,-1.8489432641885064,-1.829720742299874,-2.596299678792353,-1.2039409344429903,-3.9497422358103784,510.0
409,-1.190047813075379,-1.8456708851232457,-1.8342833086641175,-2.5950008680711107,-1.2027004743723786,-3.8077396421786895,511.25
410,-1.1887074937655246,-1.8421661258086166,-1.8391571999242933,-2.5936224141321556,-1.2013636802612118,-3.6557368354163127,512.5
411,-1.1872728290955712,-1.8384397057812363,-1.8443245589979487,-2.59217146233842,-1.199932708491134,-3.49422221813965,513.75
412,-1.1858622831567798,-1.8348014793192435,-1.8493544602859693,-2.590769907245463,-1.1985257116304164,-3.3366390229429834,515.0
413,-1.1845314846462518,-1.8313917716959687,-1.8540548115951967,-2.5894699093288125,-1.197198188813,-3.1890556087029163,516.25
414,-1.1832825327583292,-1.8282110260315658,-1.8584279838763522,-2.588268675896313,-1.1959522500234168,-3.0514720166510703,517.5
415,-1.1821175786438582,-1.8252597373913513,-1.8624763146389445,-2.5871633964861496,-1.1947900571907077,-2.923888284658847,518.75
416,-1.1810364020307873,-1.8225377975950894,-1.866199694485195,-2.586154286104183,-1.1937113893331772,-2.806304404787429,520.0
417,-1.180041446987771,-1.8200457983797917,-1.8696007136909654,-2.585238188001176,-1.192718702567341,-2.69872042150769,521.25
418,-1.179136378861513,-1.8177847272462326,-1.8726830297866168,-2.5844104955924925,-1.1918156796175419,-2.601136389981456,522.5
419,-1.1783176949814842,-1.8157535883156637,-1.8754432663324958,-2.583675544156014,-1.190998801567516,-2.513552248879858,523.75
420,-1.1775923059684217,-1.8139543052058518,-1.8778881786121469,-2.5830247276335108,-1.1902750113743001,-2.435968105077513,525.0
421,-1.1769553224251528,-1.8123854764287657,-1.8800130795686352,-2.582464082790127,-1.1896393970433385,-2.3683838788187566,526.25
422,-1.176412589208999,-1.8110487770794959,-1.8818235727003816,-2.5819863929311264,-1.1890978304460196,-2.310799652560007,527.5
423,-1.1759635526221837,-1.8099440441181038,-1.8833191371508637,-2.581592336062099,-1.1886497553558641,-2.2632154184804776,528.75
424,-1.175606365820197,-1.8090707335972738,-1.884498035876744,-2.5812841735250616,-1.1882933164943479,-2.225631144043855,530.0
425,-1.1753442152553977,-1.8084297836937289,-1.8853632665210789,-2.5810580034015156,-1.1880317148664512,-2.1980468696072397,531.25
426,-1.1751771009277854,-1.808021194407469,-1.8859148290838683,-2.5809138256914608,-1.1878649504721739,-2.180462595170623,532.5
427,-1.1750461824850673,-1.807701409552294,-1.8863463288746896,-2.5808011665245365,-1.1877343054205154,-2.1727565986951314,533.75
428,-1.17443206596531,-1.8062032451684924,-1.8883667313714017,-2.580274495042812,-1.187121466708905,-2.174078370288591,535.0
429,-1.174431823173004,-1.806203176690581,-1.888366508761116,-2.580274783233201,-1.1871212231422845,-2.1844478761243287,536.25
430,-1.1744313462400267,-1.806203042174893,-1.8883660714730142,-2.5802753493446353,-1.1871207446882703,-2.204817381960061,537.5
431,-1.1744306351663778,-1.806202841621428,-1.8883654195070971,-2.580276193377114,-1.187120031346862,-2.2351868877957872,538.75
432,-1.1744296898642392,-1.8062025751350286,-1.888364552563151,-2.580277316454308,-1.1871190823407494,-2.275556371575356,540.0
433,-1.1744285103641248,-1.8062022426790456,-1.888363470745864,-2.5802787181840445,-1.1871178979411945,-2.3259258473912348,541.25
434,-1.1744270966943877,-1.8062018442195993,-1.8883621741522127,-2.580280398203304,-1.1871164783993167,-2.386295323207075,542.5
435,-1.1744270610780987,-1.8062018549694452,-1.8883621610089047,-2.5802804006138818,-1.1871164426749248,-2.4566647804551716,543.75
436,-1.17442706185791,-1.8062018794665209,-1.8883621845264194,-2.580280353063462,-1.1871164434986046,-2.5370342368432937,545.0
437,-1.1744270627241433,-1.80620190700549,-1.8883622109928782,-2.58028029949601,-1.1871164443373297,-2.6274036876173676,546.25
438,-1.1744270712190499,-1.806201935770347,-1.8883622410609378,-2.5802802410386123,-1.1871164530597862,-2.727773132195975,547.5
439,-1.17442708758023,-1.8062019657035893,-1.8883622747520366,-2.580280177723145,-1.1871164699125363,-2.8381425697021836,548.75
440,-1.1744271054242965,-1.806201998348594,-1.888362311496694,-2.5802801086672984,-1.1871164882963434,-2.958512000513247,550.0
441,-1.1744271411114426,-1.8062020265664884,-1.8883623495076578,-2.5802800430506965,-1.1871165245052246,-3.0888814215363354,551.25
442,-1.1744271796082826,-1.806202056917319,-1.8883623904262965,-2.5802799724417564,-1.1871165635636562,-3.2292508390957217,552.5
443,-1.174427234854631,-1.8062020796420306,-1.888362429223172,-2.580279911808957,-1.1871166192863338,-3.379620256033843,553.75
444,-1.1744272961915867,-1.8062021018672645,-1.888362469423175,-2.580279850361926,-1.18711668110465,-3.539989665206316,555.0
445,-1.1744273697788623,-1.8062021115782823,-1.8883625014368173,-2.5802798097621205,-1.1871167550022934,-3.7030901664469336,556.25
446,-1.1744274404369368,-1.8062021170973186,-1.8883625285363208,-2.580279778212736,-1.187116825898423,-3.8564079978995665,557.5
447,-1.1744275103438142,-1.8062021128772967,-1.8883625460886733,-2.5802797659104035,-1.1871168958883016,-3.9997258293521867,558.75
448,-1.1744275752806996,-1.8062021062152784,-1.8883625597704667,-2.58027975983953,-1.1871169608590844,-4.133043660804762,560.0
449,-1.174427635072089,-1.8062020919048605,-1.888362564547724,-2.5802797702229334,-1.1871170205528596,-4.25636149225732,561.25
450,-1.174427690014921,-1.806202078754898,-1.8883625689375794,-2.5802797797643335,-1.1871170754059932,-4.36967932370984,562.5
451,-1.1744277364820448,-1.8062020601299893,-1.8883625654733196,-2.580279802492731,-1.1871171216790297,-4.472997155162373,563.75
452,-1.1744277777897887,-1.8062020420969263,-1.8883625609818195,-2.58027982558131,-1.1871171627909782,-4.566314986614865,565.0
453,-1.174427814670969,-1.8062020259963014,-1.8883625569716278,-2.580279846195703,-1.187117199497345,-4.649632818067364,566.25
454,-1.1744278431986561,-1.806202008732138,-1.8883625492688143,-2.58027987153839,-1.187117227814023,-4.722950649519859,567.5
455,-1.174427866284047,-1.8062019925996111,-1.8883625409676918,-2.580279896269868,-1.187117250694597,-4.786268480972344,568.75
456,-1.1744278857234844,-1.8062019790149502,-1.8883625339775922,-2.580279917095421,-1.187117269961565,-4.839586312424865,570.0
457,-1.1744279015169679,-1.8062019679781551,-1.8883625282985146,-2.5802799340150475,-1.1871172856149266,-4.8829041438774015,571.25
458,-1.1744279136644968,-1.8062019594892245,-1.8883625239304627,-2.580279947028748,-1.187117297654681,-4.916221975329929,572.5
459,-1.1744279221660716,-1.8062019535481577,-1.8883625208734363,-2.5802799561365215,-1.1871173060808289,-4.93953980678246,573.75
460,-1.1744350436809636,-1.8062197389557995,-1.8883392591130106,-2.580285484429942,-1.1871244176028284,-4.9528791366300595,575.0
461,-1.1756923950137852,-1.80936261240238,-1.884229746882468,-2.5812612888749116,-1.1883800110264613,-4.958243643703867,576.25
462,-1.177089422345906,-1.8128546315571137,-1.8796637083175916,-2.5823454940592443,-1.1897750864994334,-4.95380615585687,577.5
463,-1.1771336864927437,-1.8129652879300429,-1.8795190227554301,-2.582379851300592,-1.1898192924198683,-4.94139356184385,578.75
464,-1.1771336793302367,-1.8129652943663677,-1.8795190229242342,-2.582379854303642,-1.189819291835074,-4.9191129808998175,580.0
465,-1.1771336689530436,-1.8129653036914526,-1.879519023168801,-2.5823798586545252,-1.1898192909878118,-4.8868323999557814,581.25
466,-1.1771336553611649,-1.8129653159052976,-1.8795190234891306,-2.582379864353241,-1.1898192898780813,-4.844551819011727,582.5
467,-1.1771336388134956,-1.812965330825842,-1.8795190244211948,-2.5823798694054045,-1.18981929071256,-4.792271240139083,583.75
468,-1.1771336194873017,-1.8129653483284294,-1.8795190263319723,-2.5823798724454594,-1.18981929500216,-4.72999066406719,585.0
469,-1.1771335951459392,-1.812965367286493,-1.8795190288719843,-2.5823798713260135,-1.189819292627044,-4.6577100912326195,586.25
470,-1.1771335590966718,-1.8129653829579042,-1.8795190331698226,-2.5823798497793025,-1.1898192578483529,-4.57542953149085,587.5
471,-1.1771335186486498,-1.8129654005237477,-1.8795190380276707,-2.582379825447956,-1.1898192186977634,-4.483148977680638,588.75
472,-1.1771334735294208,-1.812965419516185,-1.8795190428849895,-2.5823797994260245,-1.1898191748016644,-4.380868430642168,590.0
473,-1.177133419421103,-1.8129654324410207,-1.8795190385619507,-2.582379790002299,-1.189819120725992,-4.26858789459375,591.25
474,-1.1771333604926322,-1.8129654465181755,-1.8795190338502286,-2.582379779753331,-1.1898190618244975,-4.146307366144865,592.5
475,-1.1771332964977024,-1.8129654542229496,-1.8795190214433752,-2.58237978350951,-1.1898189977867761,-4.014026843608979,593.75
476,-1.1771332275287592,-1.8129654583605233,-1.8795190040674834,-2.58237979573441,-1.1898189287337582,-3.87174632327016,595.0
477,-1.1771331572185648,-1.812965454264426,-1.8795189783759345,-2.5823798244632794,-1.1898188582073153,-3.719465807246709,596.25
478,-1.177133084456855,-1.8129654446339964,-1.8795189466152595,-2.5823798647419327,-1.1898187851370166,-3.557185297728723,597.5
479,-1.1771330204284856,-1.812965423263969,-1.8795189062918165,-2.58237992541968,-1.189818720632784,-3.391959190711493,598.75
480,-1.1771329628620697,-1.8129654004461957,-1.8795188665789677,-2.5823799870268096,-1.1898186625814269,-3.2364767789675652,600.0
481,-1.1771329232107606,-1.812965369168627,-1.8795188242923935,-2.5823800599105122,-1.1898186223496707,-3.090994367223654,601.25
482,-1.1771328867303998,-1.8129653398466867,-1.8795187848638588,-2.582380128033406,-1.1898185853266399,-2.955511955479767,602.5
483,-1.1771328682414979,-1.8129653060156743,-1.8795187466764678,-2.5823801996796747,-1.189818566262283,-2.830029543735912,603.75
484,-1.1771328512260222,-1.8129652748807452,-1.8795187115323164,-2.5823802656162766,-1.189818548717212,-2.714547131992073,605.0
485,-1.1771328445167635,-1.8129652443311217,-1.8795186801395172,-2.5823803273715793,-1.189818541509754,-2.6090647202482584,606.25
486,-1.177132843543058,-1.812965215459055,-1.8795186521316496,-2.582380384154706,-1.189818540076729,-2.5135823085044633,607.5
487,-1.1771328426713294,-1.8129651896108028,-1.8795186270570787,-2.58238043499086,-1.1898185387937863,-2.428099896760661,608.75
488,-1.1771328467653437,-1.8129651664946052,-1.8795186061411222,-2.582380479018183,-1.189818542530513,-2.352617485016864,610.0
489,-1.1771328551322433,-1.8129651461520235,-1.8795185892092305,-2.5823805163594495,-1.189818550593223,-2.2871350732730726,611.25
490,-1.1771328622214106,-1.8129651289160142,-1.8795185748630538,-2.582380547998228,-1.1898185574246543,-2.231652661529272,612.5
491,-1.1771328680328454,-1.812965114786579,-1.8795185631025912,-2.5823805739345183,-1.1898185630248068,-2.1861702497854365,613.75
492,-1.1771328725665484,-1.8129651037637153,-1.8795185539278454,-2.582380594168321,-1.1898185673936807,-2.150687838041618,615.0
493,-1.1771328758225186,-1.8129650958474228,-1.8795185473388156,-2.5823806086996353,-1.1898185705312758,-2.1252054262977937,616.25
494,-1.1771328778007564,-1.8129650910377013,-1.8795185433355026,-2.582380617528462,-1.1898185724375925,-2.109723014553966,617.5
495,-1.178005989423785,-1.8151743394017632,-1.8766124048833075,-2.583083827967824,-1.190690388050642,-2.1026468535327365,618.75
496,-1.179574883222175,-1.8191441457934547,-1.8713903640217764,-2.5843474203503747,-1.1922569541499632,-2.104943490765859,620.0
497,-1.1798007703549096,-1.8197157183305355,-1.8706385010905517,-2.5845293494446886,-1.1924825101961531,-2.1156011852336207,621.25
498,-1.1798007688794392,-1.8197157250250016,-1.8706385044586031,-2.5845293460226113,-1.1924825166407238,-2.1356766445218756,622.5
499,-1.1798007666690062,-1.8197157350541193,-1.8706385095043498,-2.5845293408959256,-1.1924825262954677,-2.1657521038101266,623.75
500,-1.1798007637236108,-1.819715748417888,-1.8706385162277925,-2.5845293340646327,-1.1924825391603853,-2.205827563098389,625.0
501,-1.1798007599452558,-1.8197157652138283,-1.8706385243316037,-2.58452932666526,-1.192482554390555,-2.2559030200707686,626.25
502,-1.1798007549852336,-1.8197157857889474,-1.870638532757797,-2.5845293227419486,-1.1924825689794676,-2.315978468016163,627.5
503,-1.1798007491995792,-1.8197158097889463,-1.8706385425865915,-2.5845293181655733,-1.1924825859968118,-2.386053915961548,628.75
504,-1.1798007497096872,-1.8197158340440125,-1.8706385653851667,-2.584529273029985,-1.1924825864838,-2.4661293479517923,630.0
505,-1.179800750462882,-1.8197158612383575,-1.8706385913584371,-2.5845292211080646,-1.1924825864538948,-2.556204776294993,631.25
506,-1.179800751274069,-1.8197158914353255,-1.870638620275346,-2.584529163159177,-1.1924825862072732,-2.6562801959334394,632.5
507,-1.1798007650066606,-1.8197159215116456,-1.8706386534442547,-2.5845291003362227,-1.1924826001456628,-2.766355605749983,633.75
508,-1.1798007825844672,-1.8197159536850218,-1.870638689904017,-2.5845290319837875,-1.1924826182328168,-2.8864310082000815,635.0
509,-1.1798008087732579,-1.8197159854266216,-1.8706387286094421,-2.584528961969923,-1.1924826449632986,-3.01650640397405,636.25
510,-1.1798008467155583,-1.8197160153687497,-1.8706387692105026,-2.5845288920759,-1.1924826834669822,-3.156581796245981,637.5
511,-1.1798008937167497,-1.81971604301512,-1.8706388104106915,-2.584528824008065,-1.1924827310115944,-3.30665718565771,638.75
512,-1.1798009534816631,-1.8197160657791414,-1.8706388508686675,-2.5845287617422414,-1.192482791267746,-3.466732568308534,640.0
513,-1.1798010229651865,-1.819716080890164,-1.8706388869723862,-2.5845287116069233,-1.1924828611416016,-3.6329716586345246,641.25
514,-1.17980109323004,-1.819716090215281,-1.8706389177473148,-2.584528672581524,-1.1924829317063577,-3.790659481048639,642.5
515,-1.1798011634644179,-1.8197160881900536,-1.870638937583709,-2.584528655812428,-1.1924830020599024,-3.938347303462738,643.75
516,-1.1798012297934612,-1.8197160842348539,-1.870638954350324,-2.584528643979359,-1.1924830684689738,-4.076035125876792,645.0
517,-1.179801291010004,-1.819716071822802,-1.8706389613880807,-2.584528650231797,-1.1924831296199083,-4.20372294829083,646.25
518,-1.1798013473645637,-1.8197160583756649,-1.8706389659209903,-2.5845286599487043,-1.1924831858819023,-4.3214107707048495,647.5
519,-1.1798013971798955,-1.819716042867155,-1.8706389664405885,-2.5845286756369044,-1.1924832355577588,-4.429098593118843,648.75
520,-1.179801439885795,-1.8197160242537622,-1.8706389617652261,-2.5845286995100993,-1.1924832780594337,-4.526786415532822,650.0
521,-1.1798014782200257,-1.81971600754577,-1.8706389575684592,-2.5845287209394705,-1.192483316210345,-4.614474237946798,651.25
522,-1.1798015106817064,-1.819715991558745,-1.8706389522442617,-2.5845287426897356,-1.1924833484875235,-4.692162060360766,652.5
523,-1.1798015350540254,-1.8197159745432778,-1.8706389434205069,-2.5845287688444083,-1.1924833726415323,-4.759849882774736,653.75
524,-1.1798015558256498,-1.819715960041626,-1.8706389359003475,-2.584528791135066,-1.1924833932270986,-4.817537705188718,655.0
525,-1.1798015729965798,-1.8197159480537914,-1.8706389296837802,-2.5845288095617107,-1.1924834102442237,-4.865225527602725,656.25
526,-1.179801586566815,-1.8197159385797719,-1.8706389247708093,-2.5845288241243405,-1.1924834236929065,-4.902913350016723,657.5
527,-1.1798015965363553,-1.8197159316195668,-1.8706389211614352,-2.584528834822956,-1.1924834335731465,-4.930601172430726,658.75
528,-1.1798016029052005,-1.8197159271731762,-1.8706389188556571,-2.5845288416575563,-1.1924834398849442,-4.9482889948447255,660.0
529,-1.180324811329498,-1.821056092889041,-1.8688655299221835,-2.584965826181842,-1.193005825542835,-4.957092766312769,661.25
530,-1.1819328259239483,-1.8251749536333457,-1.8634152148749226,-2.586308840890618,-1.1946113119070239,-4.957023152478899,662.5
531,-1.1824325087240863,-1.8264548796217566,-1.8617215461334324,-2.5867261796808814,-1.195110211503561,-4.9481123628416,663.75
532,-1.1824325030404073,-1.8264548847198347,-1.8617215462346794,-2.5867261821849588,-1.1951102109200702,-4.930279874925067,665.0
533,-1.1824324941694673,-1.8264548926767843,-1.861721546392704,-2.5867261860932587,-1.1951102100093731,-4.902447387008536,666.25
534,-1.1824324821112664,-1.826454903492605,-1.8617215466075048,-2.5867261914057806,-1.1951102087714698,-4.864614899091986,667.5
535,-1.1824324668658046,-1.8264549171672964,-1.8617215468790829,-2.586726198122525,-1.1951102072063595,-4.8167824111754465,668.75
536,-1.1824324490600104,-1.8264549332681468,-1.8617215484834468,-2.5867262015269055,-1.1951102107136644,-4.758949929895822,670.0
537,-1.1824324281917609,-1.8264549521417264,-1.8617215503986102,-2.5867262053965496,-1.1951102149686974,-4.691117448775487,671.25
538,-1.1824323968138655,-1.8264549684238782,-1.8617215540016683,-2.5867261910854618,-1.1951101913274746,-4.613284980058696,672.5
539,-1.1824323588065078,-1.8264549849199365,-1.861721558562265,-2.586726168369975,-1.1951101546721592,-4.525452515996446,673.75
540,-1.182432316438406,-1.82645500327342,-1.8617215637181457,-2.586726142736007,-1.1951101135628903,-4.427620063455356,675.0
541,-1.1824322668515466,-1.8264550185040025,-1.8617215632748085,-2.5867261265809605,-1.195110064517157,-4.319787618122077,676.25
542,-1.1824322107674698,-1.8264550318619355,-1.8617215587622689,-2.58672611688597,-1.1951100084643396,-4.201955180654277,677.5
543,-1.1824321498462058,-1.8264550440261884,-1.861721551586313,-2.5867261109879243,-1.1951099475476914,-4.074122750677072,678.75
544,-1.1824320838564766,-1.8264550479392723,-1.8617215348472544,-2.5867261228428835,-1.195109881475931,-3.936290325558229,680.0
545,-1.182432014065514,-1.8264550497385974,-1.8617215148838366,-2.58672613997322,-1.1951098115615617,-3.7884579017616495,681.25
546,-1.182431944169345,-1.8264550404395843,-1.8617214841650829,-2.58672617892166,-1.1951097413654073,-3.6306254849619677,682.5
547,-1.182431875272385,-1.8264550251992284,-1.861721448016234,-2.586726229239718,-1.1951096720755205,-3.4643554467914095,683.75
548,-1.182431815930205,-1.826455002577724,-1.8617214077063733,-2.586726291221778,-1.1951096122429117,-3.304428410747038,685.0
549,-1.1824317694877706,-1.8264549749586068,-1.8617213665786543,-2.5867263591978085,-1.1951095652580115,-3.1545013747027117,686.25
550,-1.1824317318188504,-1.8264549452211196,-1.861721326132112,-2.5867264287360325,-1.1951095270317253,-3.0145743386584245,687.5
551,-1.1824317060515703,-1.826454913598074,-1.861721287564373,-2.586726498453355,-1.1951095007026735,-2.8846473026141544,688.75
552,-1.1824316885972923,-1.8264548816523203,-1.8617212512696741,-2.5867265663435175,-1.1951094826994555,-2.7647202665698996,690.0
553,-1.1824316751351145,-1.8264548517659145,-1.8617212182061136,-2.5867266290085658,-1.1951094687299313,-2.654793230525669,691.25
554,-1.1824316741271799,-1.8264548219225607,-1.8617211890567023,-2.586726687902423,-1.1951094672423013,-2.5548661944814524,692.5
555,-1.1824316732201121,-1.8264547950657257,-1.8617211628243564,-2.586726740902595,-1.195109465903543,-2.464939158437263,693.75
556,-1.1824316728102466,-1.8264547711719068,-1.86172113960961,-2.586726787937899,-1.1951094651104732,-2.3850121223930687,695.0
557,-1.1824316816339593,-1.8264547497231027,-1.8617211216284595,-2.5867268274392816,-1.1951094736100938,-2.3150850863488737,696.25
558,-1.1824316891958264,-1.8264547313416106,-1.8617211062187247,-2.5867268612917216,-1.1951094808942158,-2.255158050304674,697.5
559,-1.182431695495848,-1.826454716027433,-1.8617210933804031,-2.586726889495219,-1.1951094869628394,-2.205231014260451,698.75
560,-1.182431700534024,-1.8264547037805676,-1.861721083113498,-2.586726912049773,-1.1951094918159646,-2.165303978216214,700.0
561,-1.182431704310354,-1.8264546946010136,-1.8617210754180096,-2.5867269289553847,-1.1951094954535915,-2.1353769421719937,701.25
562,-1.1824317068248384,-1.8264546884887713,-1.861721070293938,-2.5867269402120536,-1.1951094978757193,-2.1154499061277616,702.5
563,-1.1826618688550405,-1.827051492437555,-1.8609267070795996,-2.5869261427719463,-1.195339277181878,-2.104912174033225,703.75
564,-1.1841903382388603,-1.8310148153406374,-1.8556514554365486,-2.5882489844907925,-1.1968652054057074,-2.1027298957444684,705.0
565,-1.185026275433727,-1.8331824059790407,-1.8527663597687318,-2.5889724602727124,-1.1976997554952178,-2.1098880276602,706.25
566,-1.1850262742877031,-1.8331824111147368,-1.8527663623288253,-2.5889724577742776,-1.1976997603560084,-2.1254424319006735,707.5
567,-1.1850262724048948,-1.833182419552196,-1.852766366534815,-2.588972453669588,-1.1976997683418247,-2.150996836141137,708.75
568,-1.1850262697853018,-1.8331824312914184,-1.852766372386701,-2.588972447958643,-1.197699779452666,-2.1865512403816036,710.0
569,-1.185026266428925,-1.8331824463324038,-1.8527663798844827,-2.5889724406414425,-1.1976997936885327,-2.2321056446220813,711.25
570,-1.1850262619506233,-1.8331824650515722,-1.8527663878786842,-2.588972436085416,-1.1976998076948646,-2.287660046647837,712.5
571,-1.1850262565268008,-1.8331824872765146,-1.8527663968957944,-2.5889724322901735,-1.1976998230081328,-2.3532144479476726,713.75
572,-1.1850262539943808,-1.8331825112258688,-1.8527664133738204,-2.588972406988662,-1.1976998311335507,-2.4287688405988983,715.0
573,-1.1850262547095745,-1.8331825367400645,-1.8527664378956654,-2.588972358176311,-1.1976998311588591,-2.5143232254580354,716.25
574,-1.1850262554811577,-1.833182565218,-1.8527664653509976,-2.5889723033670755,-1.1976998309582023,-2.609877600358473,717.5
575,-1.1850262620481937,-1.8331825952784815,-1.8527664963030996,-2.5889722431680715,-1.197699837024569,-2.7154319685630433,718.75
576,-1.1850262787577959,-1.8331826258677648,-1.8527665311998605,-2.5889721779516486,-1.1976998542187525,-2.8309863284193586,720.0
577,-1.1850262969150653,-1.8331826591031672,-1.8527665691196724,-2.5889721070800165,-1.1976998729150086,-2.956540679884225,721.25
578,-1.1850263328638257,-1.8331826878821973,-1.852766608234397,-2.588972039800047,-1.197699909406808,-3.092095025348281,722.5
579,-1.1850263718086544,-1.8331827186348362,-1.8527666501960465,-2.5889719677519447,-1.1976999489342426,-3.2376493706029543,723.75
580,-1.185026428456633,-1.8331827410195858,-1.852766689561299,-2.5889719069104533,-1.1977000060656622,-3.393203709176872,725.0
581,-1.1850264914146738,-1.833182761964043,-1.8527667294968482,-2.58897184702923,-1.1977000694975104,-3.558477675404204,726.25
582,-1.1850265628074166,-1.833182771483243,-1.8527667609825849,-2.5889718071170313,-1.1977001411986008,-3.7206831777467615,727.5
583,-1.185026631831225,-1.8331827754758554,-1.8527667863706774,-2.5889717787782627,-1.197700210436715,-3.8728886800892965,728.75
584,-1.1850266994969891,-1.8331827714849631,-1.8527668035937608,-2.588971766545448,-1.1977002781854227,-4.015094182431801,730.0
585,-1.1850267622737785,-1.833182763909659,-1.8527668158169877,-2.5889717628138875,-1.1977003409768716,-4.147299684774282,731.25
586,-1.1850268200739145,-1.8331827501565339,-1.8527668204981849,-2.5889717727106176,-1.197700398681478,-4.269505187116755,732.5
587,-1.185026873144304,-1.8331827375288228,-1.8527668247963158,-2.5889717817975066,-1.197700451664155,-4.3817106894592035,733.75
588,-1.185026917500582,-1.8331827187340417,-1.8527668203977954,-2.5889718056007713,-1.197700495814577,-4.483916191801628,735.0
589,-1.1850269573150265,-1.8331827014086075,-1.8527668160083053,-2.588971827861931,-1.197700535436923,-4.576121694144053,736.25
590,-1.1850269928114603,-1.8331826859621783,-1.8527668120948675,-2.5889718477087937,-1.197700570762092,-4.658327196486453,737.5
591,-1.1850270195891421,-1.8331826689196955,-1.8527668039158804,-2.5889718732826,-1.1977005973238797,-4.73053269882886,738.75
592,-1.1850270417122368,-1.8331826534904372,-1.8527667958503038,-2.5889718970647624,-1.1977006192469073,-4.79273820117126,740.0
593,-1.185027060278879,-1.8331826405415494,-1.8527667890813269,-2.5889719170237657,-1.1977006376456447,-4.844943703513694,741.25
594,-1.1850270752890681,-1.8331826300730305,-1.8527667836089505,-2.588971933159608,-1.1977006525200915,-4.887149205856131,742.5
595,-1.1850270867428043,-1.8331826220848804,-1.852766779433177,-2.5889719454722897,-1.1977006638702474,-4.919354708198552,743.75
596,-1.1850270946400872,-1.8331826165770981,-1.8527667765540057,-2.588971953961811,-1.1977006716961123,-4.941560210540991,745.0
597,-1.1850712690347127,-1.8332985590093713,-1.8526115564863586,-2.589011544876403,-1.1977447685401137,-4.9539062838610715,746.25
598,-1.186394251107411,-1.8367713587760737,-1.8479624504956844,-2.5901972327619722,-1.1990654289944784,-4.958346906700836,747.5
599,-1.1875790290866188,-1.8398813863882102,-1.8437989986728573,-2.5912590609028365,-1.2002481293700553,-4.9529994682980885,748.75
600,-1.187586162679783,-1.8399001267021642,-1.8437739157299322,-2.5912654598817735,-1.2002552541129907,-4.93973542493725,750.0
601,-1.1875861553358886,-1.8399001332776448,-1.8437739158214363,-2.5912654632610375,-1.200255253208677,-4.916495561214438,751.25
602,-1.1875861448319525,-1.8399001426825232,-1.8437739159523145,-2.591265468094383,-1.2002552519152418,-4.883255697491622,752.5
603,-1.1875861311679743,-1.839900154916799,-1.8437739161225664,-2.5912654743818093,-1.2002552502326846,-4.840015833768802,753.75
604,-1.1875861146605173,-1.8399001697656368,-1.8437739169664908,-2.591265479794535,-1.2002552509159177,-4.7867759769954485,755.0
605,-1.1875860953716335,-1.8399001871869252,-1.8437739186084232,-2.591265483876072,-1.2002552545049585,-4.723536126680568,756.25
606,-1.1875860702814163,-1.839900205334831,-1.8437739210850825,-2.591265481418217,-1.2002552481294806,-4.650296281246001,757.5
607,-1.187586034703692,-1.839900220754742,-1.8437739253760272,-2.591265460183042,-1.2002552138501588,-4.567056447468593,758.75
608,-1.1875859948323342,-1.8399002380143517,-1.843773930229108,-2.5912654361946372,-1.2002551752874844,-4.473816620930317,760.0
609,-1.187585949966936,-1.839900255898358,-1.843773934135517,-2.5912654124387005,-1.2002551315538106,-4.370576801238133,761.25
610,-1.1875858967270716,-1.839900268543767,-1.8437739298237328,-2.591265403291377,-1.2002550783483183,-4.257336991419296,762.5
611,-1.1875858387844256,-1.839900282307172,-1.8437739251271947,-2.5912653933514,-1.2002550204331945,-4.134097190184233,763.75
612,-1.1875857758612924,-1.8399002887349591,-1.8437739117205105,-2.591265399398311,-1.200254957456783,-4.000857394608218,765.0
613,-1.1875857081189132,-1.8399002927107826,-1.8437738944161786,-2.591265411728794,-1.2002548896291605,-3.8576176006009475,766.25
614,-1.1875856396060853,-1.8399002873445822,-1.8437738677795115,-2.5912654426940342,-1.2002548208795865,-3.704377811484003,767.5
615,-1.1875855681960295,-1.8399002778042002,-1.8437738361750464,-2.5912654827454196,-1.2002547491594104,-3.541138028721435,768.75
616,-1.187585507145565,-1.8399002556697766,-1.8437737955509508,-2.5912655445303217,-1.2002546876176894,-3.376662499254502,770.0
617,-1.187585452785435,-1.839900232464996,-1.843773755976124,-2.591265606433316,-1.2002546327635997,-3.2221462345328034,771.25
618,-1.1875854143538218,-1.8399002021113444,-1.8437737144218662,-2.5912656776828236,-1.2002545937572284,-3.0776299698111393,772.5
619,-1.187585380543284,-1.8399001730050826,-1.8437736755259564,-2.5912657450991023,-1.2002545594021967,-2.9431137050895204,773.75
620,-1.1875853626403738,-1.8399001402387372,-1.8437736380396559,-2.5912658149934176,-1.200254540930355,-2.818597440367918,775.0
621,-1.1875853461752612,-1.8399001101038914,-1.8437736035639016,-2.591265879274464,-1.200254523942002,-2.704081175646332,776.25
622,-1.1875853410503847,-1.8399000802475034,-1.8437735729035305,-2.5912659396318967,-1.2002545183231594,-2.5995649109247623,777.5
623,-1.1875853401072662,-1.8399000523705833,-1.8437735454767301,-2.5912659948442647,-1.2002545169272174,-2.5050486462032047,778.75
624,-1.187585339263932,-1.8399000274430988,-1.8437735209517325,-2.5912660442150606,-1.2002545156789688,-2.420532381481655,780.0
625,-1.187585344168245,-1.8399000051336059,-1.8437735007711884,-2.591266086716553,-1.2002545202332555,-2.3460161167601092,781.25
626,-1.1875853522089934,-1.839899985595341,-1.8437734842681102,-2.591266122823899,-1.200254527975639,-2.2814998520385497,782.5
627,-1.1875853590034287,-1.839899969085502,-1.8437734703230024,-2.5912661533346184,-1.2002545345179556,-2.226983587316981,783.75
628,-1.1875853645515508,-1.8398999556040891,-1.8437734589358643,-2.591266178248711,-1.2002545398602051,-2.1824673225953912,785.0
629,-1.1875853688533595,-1.839899945151101,-1.8437734501066991,-2.591266197566177,-1.2002545440023882,-2.1479510578738115,786.25
630,-1.1875853719088545,-1.8398999377265361,-1.843773443835506,-2.5912662112870155,-1.2002545469445043,-2.123434793152241,787.5
631,-1.1875853737180362,-1.8398999333303956,-1.8437734401222854,-2.5912662194112275,-1.2002545486865532,-2.108918528430659,788.75
632,-1.1885525491504463,-1.8424700909878085,-1.8403130691501806,-2.5921632451497914,-1.2012199356974158,-2.1025507040747504,790.0
633,-1.1899778731763446,-1.8462577335266313,-1.835213526969379,-2.5934851853693646,-1.202642625433068,-2.10573777784692,791.25
634,-1.190109553522338,-1.8466076653817194,-1.8347423982466484,-2.593607313554322,-1.202774066555978,-2.117027546007405,792.5
635,-1.1901095519798108,-1.8466076722111882,-1.834742401623145,-2.5936073103889488,-1.2027740729108136,-2.137919307033431,793.75
636,-1.1901095496989411,-1.8466076823096338,-1.834742406615827,-2.5936073057084448,-1.2027740823074393,-2.1688110680594535,795.0
637,-1.1901095466797287,-1.846607695677056,-1.8347424132246952,-2.59360729951281,-1.2027740947458556,-2.209702829085494,796.25
638,-1.1901095427830415,-1.8466077124472922,-1.8347424210405916,-2.5936072933471235,-1.202774109001891,-2.260594589155057,797.5
639,-1.190109537736797,-1.8466077328820676,-1.834742429263386,-2.5936072902328737,-1.2027741226816087,-2.3214863467983413,798.75
640,-1.190109532260766,-1.84660775649286,-1.8347424394940255,-2.593607284354273,-1.2027741376249037,-2.3923781034460814,800.0
641,-1.190109532928998,-1.8466077803150958,-1.8347424625665627,-2.593607238585837,-1.2027741376332535,-2.4732698445616617,801.25
642,-1.1901095336687986,-1.8466078070743548,-1.834742488520086,-2.5936071870359676,-1.2027741375487744,-2.564161581320286,802.5
643,-1.1901095344688597,-1.8466078367625158,-1.8347425173840033,-2.593607129578228,-1.2027741372753304,-2.6650533102034024,803.75
644,-1.1901095491578575,-1.8466078660399456,-1.8347425505794934,-2.593607067433521,-1.20277415230146,-2.7759450282899722,805.0
645,-1.190109566429976,-1.846607897651497,-1.8347425869046132,-2.593606999768385,-1.2027741700884031,-2.8968367391408423,806.25
646,-1.1901095934541592,-1.8466079282663375,-1.83474262529946,-2.5936069312064296,-1.2027741976542807,-3.02772844352816,807.5
647,-1.190109630695712,-1.8466079576827363,-1.834742665710412,-2.5936068620154797,-1.2027742354587798,-3.1686201449054785,808.75
648,-1.1901096780512215,-1.846607983982505,-1.834742706245985,-2.5936067959601035,-1.2027742833475015,-3.319511842958482,810.0
649,-1.190109736667507,-1.8466080063666483,-1.834742746485114,-2.5936067342750593,-1.2027743424563513,-3.4804035343841524,811.25
650,-1.190109805309103,-1.8466080200712798,-1.8347427813867783,-2.593606686732912,-1.2027744114713836,-3.646376407762446,812.5
651,-1.190109873514359,-1.8466080291994276,-1.8347428116806648,-2.593606648355858,-1.2027744799747124,-3.803241243073784,813.75
652,-1.1901099420996186,-1.8466080262597053,-1.8347428303038582,-2.5936066336898316,-1.2027745486627055,-3.9501060783852218,815.0
653,-1.1901100064341374,-1.846608022501744,-1.834742846795435,-2.5936066219078473,-1.202774613077328,-4.086970913696816,816.25
654,-1.1901100657509482,-1.8466080096552229,-1.834742852835294,-2.5936066295660964,-1.2027746723154853,-4.2138357490085445,817.5
655,-1.1901101203540922,-1.846607996697055,-1.8347428572887676,-2.593606638851588,-1.202774726827816,-4.330700584320407,818.75
656,-1.190110168236156,-1.846607981098484,-1.8347428570562412,-2.5936066553557167,-1.2027747745613921,-4.4375654196323815,820.0
657,-1.1901102095543532,-1.8466079631472134,-1.8347428524680636,-2.5936066784635723,-1.2027748156784501,-4.534430254944453,821.25
658,-1.1901102466070002,-1.8466079470491756,-1.834742848353548,-2.5936066991858517,-1.2027748525507227,-4.621295090256588,822.5
659,-1.1901102774861774,-1.846607931297326,-1.8347428426424321,-2.5936067210671863,-1.2027748832416054,-4.6981599255688185,823.75
660,-1.1901103009771268,-1.846607914932142,-1.8347428340165899,-2.593606746364421,-1.202774906518075,-4.765024760881076,825.0
661,-1.190110320954877,-1.8466079010144607,-1.8347428266807888,-2.5936067678783163,-1.2027749263134222,-4.821889596193394,826.25
662,-1.1901103374194284,-1.846607889544284,-1.8347428206350267,-2.5936067856088734,-1.2027749426276475,-4.8687544315057245,827.5
663,-1.1901103503707806,-1.8466078805216086,-1.8347428158793067,-2.593606799556091,-1.2027749554607496,-4.905619266818073,828.75
664,-1.190110359808933,-1.8466078739464356,-1.8347428124136294,-2.5936068097199696,-1.202774964812729,-4.932484102130398,830.0
665,-1.1901103657338858,-1.8466078698187642,-1.8347428102379941,-2.593606816100509,-1.2027749706835855,-4.949348937442713,831.25
666,-1.1907117221354924,-1.8482256593056465,-1.8325523972013373,-2.5941836471518385,-1.203375157133636,-4.95754060728554,832.5
667,-1.1922222183443578,-1.852289273029979,-1.8270504596301058,-2.5956325401629803,-1.204882715145823,-4.9567222386590055,833.75
668,-1.1926004540661665,-1.8533068324013067,-1.8256727367177743,-2.59599535419618,-1.2052602175473457,-4.94727249670131,835.0
669,-1.1926004482673769,-1.8533068375843846,-1.8256727367609542,-2.595995356969378,-1.2052602167174322,-4.928764026073582,836.25
670,-1.192600439335541,-1.8533068455678439,-1.8256727368274643,-2.5959953612409152,-1.2052602154391223,-4.900255555445822,837.5
671,-1.1926004272706587,-1.8533068563516846,-1.825672736917304,-2.5959953670107927,-1.2052602137124158,-4.861747084818051,838.75
672,-1.1926004120987623,-1.853306869918509,-1.8256727370818824,-2.595995374091563,-1.2052602117662028,-4.813238614952796,840.0
673,-1.1926003944051762,-1.8533068858771238,-1.825672738477113,-2.5959953782685066,-1.2052602147470544,-4.754730160906355,841.25
674,-1.1926003736874824,-1.853306904563313,-1.82567274011081,-2.595995383159354,-1.2052602182373795,-4.686221706859938,842.5
675,-1.1926003421432025,-1.85330692011485,-1.8256727437663571,-2.5959953677151804,-1.2052601924450688,-4.607713266455666,843.75
676,-1.1926003047680287,-1.8533069362853585,-1.8256727483101864,-2.595995345383606,-1.2052601564279513,-4.519204830458707,845.0
677,-1.1926002631411305,-1.8533069542628429,-1.8256727534401425,-2.595995320216183,-1.2052601160938585,-4.420696405362409,846.25
678,-1.1926002141443357,-1.853306968628012,-1.825672752340318,-2.5959953057165386,-1.2052600675595448,-4.312187988279404,847.5
679,-1.1926001590999236,-1.8533069816691043,-1.8256727478490888,-2.595995296328274,-1.205260012547259,-4.193679578948792,848.75
680,-1.1926000993100307,-1.8533069927901358,-1.8256727399762545,-2.595995292183204,-1.2052599527556755,-4.065171176939362,850.0
681,-1.1926000345957641,-1.8533069965542315,-1.8256727233264962,-2.5959953041136723,-1.2052598879584042,-3.926662779430418,851.25
682,-1.192599966536525,-1.8533069973669094,-1.8256727027308968,-2.595995322882975,-1.2052598197612852,-3.778154383630933,852.5
683,-1.192599898032398,-1.853306988184876,-1.8256726721941643,-2.5959953615516445,-1.2052597509561318,-3.619645994710072,853.75
684,-1.1925998315380508,-1.8533069723447304,-1.8256726357592097,-2.5959954127884783,-1.2052596840563243,-3.4532831844396386,855.0
685,-1.192599773871545,-1.8533069503154471,-1.8256725960289546,-2.5959954736248942,-1.2052596259025987,-3.294038869418009,856.25
686,-1.1925997297687736,-1.8533069227470622,-1.8256725551294473,-2.5959955413574844,-1.205259581251993,-3.1447945543962406,857.5
687,-1.192599693184467,-1.8533068938486101,-1.8256725152885924,-2.5959956094703553,-1.2052595441146954,-3.0055502393743394,858.75
688,-1.192599669234283,-1.8533068626814186,-1.8256724771936992,-2.595995678288852,-1.2052595196023013,-2.876305924352293,860.0
689,-1.1925996522946707,-1.8533068316867725,-1.825672441471511,-2.5959957446674724,-1.2052595021187582,-2.7570616093301323,861.25
690,-1.1925996401874581,-1.8533068024827264,-1.8256724090243124,-2.595995806057707,-1.205259489507538,-2.6478172943078397,862.5
691,-1.192599639207652,-1.8533067735772537,-1.8256723803673947,-2.595995863526409,-1.205259488053144,-2.548572979285454,863.75
692,-1.1925996383265727,-1.8533067475843428,-1.8256723545979843,-2.5959959152044814,-1.205259486745297,-2.4593286642629844,865.0
693,-1.1925996386006306,-1.85330672444255,-1.825672331987869,-2.5959959608972194,-1.2052594866417332,-2.3800843492404398,866.25
694,-1.1925996471254732,-1.8533067037392006,-1.8256723143625533,-2.595995999296842,-1.205259494847004,-2.3108400342178337,867.5
695,-1.1925996544191908,-1.85330668602575,-1.8256722992826189,-2.5959960321509365,-1.2052595018673007,-2.2515957191951887,868.75
696,-1.1925996604817828,-1.8533066713022008,-1.8256722867480621,-2.5959960594595053,-1.2052595077026236,-2.202351404172524,870.0
697,-1.1925996653132498,-1.8533066595685503,-1.8256722767588867,-2.5959960812225464,-1.2052595123529726,-2.163107089149834,871.25
698,-1.1925996689135914,-1.853306650824798,-1.8256722693150926,-2.5959960974400604,-1.2052595158183477,-2.133862774127154,872.5
699,-1.1925996712828075,-1.8533066450709437,-1.8256722644166803,-2.5959961081120477,-1.2052595180987487,-2.114618459104498,873.75
700,-1.1928850429315363,-1.8540838643468676,-1.824614086720013,-2.5962790499867645,-1.2055443063883258,-2.1046009992083996,875.0
701,-1.194354052938177,-1.8580847941177012,-1.8191668865536257,-2.5977355308139045,-1.2070103138626536,-2.103029030731472,876.25
702,-1.1950562461093268,-1.8599972604483415,-1.8165631001324234,-2.5984317340239396,-1.2077110745227762,-2.1106361916103733,877.5
703,-1.1950562449190198,-1.8599972656566124,-1.8165631026885622,-2.598431731722095,-1.2077110792871166,-2.1267292383700287,878.75
704,-1.195056242989072,-1.8599972741012318,-1.8165631068330508,-2.5984317279899165,-1.2077110870119532,-2.1528222851297087,880.0
705,-1.195056240319484,-1.8599972857822,-1.8165631125658894,-2.5984317228274034,-1.207711097697286,-2.1889153318894006,881.25
706,-1.195056236910255,-1.859997300699517,-1.8165631198870777,-2.5984317162345554,-1.207711111343115,-2.235008378649089,882.5
707,-1.195056232348512,-1.8599973192448063,-1.8165631275985574,-2.5984317127073147,-1.2077111242799676,-2.291101420451506,883.75
708,-1.19505622686478,-1.8599973411994082,-1.816563136369257,-2.598431709735402,-1.2077111385566697,-2.3571944610421225,885.0
709,-1.1950562246735639,-1.8599973646038164,-1.8165631533070252,-2.5984316829656717,-1.2077111452199105,-2.433287492001967,886.25
710,-1.1950562253766361,-1.8599973896388726,-1.8165631777510782,-2.598431634653677,-1.2077111452138665,-2.519380516010871,887.5
711,-1.1950562261344173,-1.8599974175613867,-1.8165632051080582,-2.5984315804158378,-1.2077111449755795,-2.615473529198227,888.75
712,-1.1950562333541739,-1.8599974468401488,-1.8165632360047057,-2.5984315209579814,-1.2077111517760075,-2.7215665356799645,890.0
713,-1.1950562497424666,-1.8599974768233796,-1.8165632707200547,-2.5984314565200903,-1.2077111686527355,-2.8376595339116184,891.25
714,-1.195056268083418,-1.8599975091546403,-1.81656330836734,-2.5984313868266953,-1.2077111875345623,-2.963752523997653,892.5
715,-1.1950563036261348,-1.8599975372282314,-1.8165633472154563,-2.5984313205118514,-1.207711223620149,-3.09984550809321,893.75
716,-1.1950563418874653,-1.8599975672903124,-1.816563388878338,-2.5984312494404334,-1.2077112624635484,-3.2459384921047447,895.0
717,-1.1950563980739415,-1.8599975887594065,-1.8165634277305904,-2.5984311900189114,-1.2077113191274045,-3.4020314689564763,896.25
718,-1.1950564602718319,-1.859997608566412,-1.8165634668413586,-2.5984311320864535,-1.2077113817886562,-3.5676332230957466,897.5
719,-1.1950565297188895,-1.8599976178867903,-1.816563497911833,-2.5984310927608787,-1.2077114515427938,-3.7292935088458963,898.75
720,-1.1950565971303744,-1.8599976211430755,-1.816563522369587,-2.5984310660651646,-1.2077115191571992,-3.880953794596129,900.0
721,-1.1950566629195287,-1.8599976173319894,-1.8165635393570247,-2.5984310538636497,-1.207711585029544,-4.02261408034655,901.25
722,-1.195056723917427,-1.8599976094553767,-1.8165635508309004,-2.598431051158435,-1.2077116460332056,-4.154274366097069,902.5
723,-1.1950567800781502,-1.8599975961602708,-1.8165635554445492,-2.5984310606447876,-1.2077117020999302,-4.275934651847758,903.75
724,-1.1950568316090677,-1.859997583933068,-1.8165635596501513,-2.5984310694048545,-1.2077117535441362,-4.38759493759856,905.0
725,-1.1950568744513173,-1.8599975653490746,-1.8165635548574586,-2.5984310933726302,-1.2077117961759554,-4.48925522334944,906.25
726,-1.1950569130793114,-1.8599975485931317,-1.8165635505362037,-2.5984311149827732,-1.2077118346142188,-4.580915509100439,907.5
727,-1.1950569474930501,-1.8599975336652397,-1.8165635466863883,-2.5984311342352826,-1.2077118688589261,-4.662575794851499,908.75
728,-1.195056973129848,-1.859997516961506,-1.8165635383210732,-2.598431159642877,-1.2077118942780571,-4.734236080602614,910.0
729,-1.1950569945315466,-1.8599975020693578,-1.8165635304044208,-2.5984311827317237,-1.207711915482472,-4.795896366353788,911.25
730,-1.195057012462341,-1.8599974895924039,-1.81656352377168,-2.5984312020760467,-1.2077119332479787,-4.847556652104982,912.5
731,-1.1950570269222307,-1.8599974795306433,-1.8165635184228526,-2.598431217675846,-1.207711947574576,-4.889216937856208,913.75
732,-1.1950570379112153,-1.8599974718840755,-1.8165635143579404,-2.5984312295311196,-1.207711958462263,-4.920877223607422,915.0
733,-1.1950570454292948,-1.8599974666526997,-1.8165635115769436,-2.598431237641868,-1.2077119659110402,-4.942537509358621,916.25
734,-1.1951265101639148,-1.8601889899666346,-1.816301318448432,-2.598502387124095,-1.2077812816236486,-4.954429461771026,917.5
735,-1.196425383542344,-1.8637704146386742,-1.8113984911010248,-2.599832758329178,-1.2090773690909309,-4.958421586737518,918.75
736,-1.1974797795227363,-1.8666777444241698,-1.8074184764007462,-2.600912726159491,-1.2101295050184813,-4.952693396453078,920.0
737,-1.1974808613226098,-1.8666807427814145,-1.8074143769611588,-2.6009138406339747,-1.2101305880388171,-4.93904577091561,921.25
738,-1.1974808539782291,-1.866680749335083,-1.8074143769811237,-2.600913844269945,-1.2101305868443484,-4.915402185190188,922.5
739,-1.1974808435275595,-1.8666807586606102,-1.8074143770095326,-2.6009138494437405,-1.2101305851446817,-4.881758599464726,923.75
740,-1.197480829970601,-1.8666807707579967,-1.8074143770463855,-2.600913856155362,-1.2101305829398172,-4.8381150137392765,925.0
741,-1.1974808136440815,-1.866680785405305,-1.807414377747719,-2.6009138620295102,-1.210130583220935,-4.7844714378604305,926.25
742,-1.1974807945611312,-1.8666808025938812,-1.8074143791391135,-2.600913866973562,-1.2101305861046738,-4.7208278697143236,927.5
743,-1.1974807694641685,-1.8666808201750982,-1.8074143814964203,-2.6009138643058765,-1.2101305779587825,-4.647184307153822,928.75
744,-1.1974807345699021,-1.8666808352532562,-1.8074143857571663,-2.600913843502384,-1.2101305443773351,-4.563540755612562,930.0
745,-1.1974806954844388,-1.866680852119896,-1.8074143905785534,-2.6009138199931736,-1.2101305066132404,-4.469897211953184,931.25
746,-1.197480651342132,-1.8666808692738535,-1.807414394064227,-2.6009137975094028,-1.2101304635705203,-4.366253675199522,932.5
747,-1.1974805991890625,-1.8666808816001812,-1.8074143897796955,-2.600913788665258,-1.2101304114533695,-4.25261014784588,933.75
748,-1.1974805424454917,-1.866680895012477,-1.8074143851141045,-2.600913779058031,-1.2101303547383413,-4.128966629531025,935.0
749,-1.1974804808240647,-1.8666809008060983,-1.8074143713585686,-2.600913786104098,-1.2101302930589815,-3.9953231168124965,936.25
750,-1.1974804145122868,-1.8666809046337365,-1.8074143541717242,-2.6009137984829316,-1.210130226661111,-3.8516796054624414,937.5
751,-1.1974803476709186,-1.8666808988097379,-1.8074143272760743,-2.60091383018596,-1.2101301595743212,-3.698036099258117,938.75
752,-1.1974802777916274,-1.8666808894214484,-1.807414295896152,-2.600913869881598,-1.2101300893843532,-3.5343925993223673,940.0
753,-1.197480218804595,-1.8666808672928978,-1.8074142553648793,-2.6009139315976664,-1.210130029900276,-3.3702920476765437,941.25
754,-1.1974801664824333,-1.8666808442610314,-1.8074142160481539,-2.6009139930999527,-1.2101299770809892,-3.2161861506988654,942.5
755,-1.1974801290714616,-1.8666808147154272,-1.807414175006917,-2.600914063046399,-1.2101299390984903,-3.0720802537210377,943.75
756,-1.1974800967974497,-1.8666807861187986,-1.8074141365283558,-2.600914129560742,-1.2101299062800746,-2.9379743567427945,945.0
757,-1.1974800793761216,-1.8666807542600292,-1.8074140995215242,-2.6009141980792974,-1.2101298882935296,-2.8138684597643717,946.25
758,-1.1974800633585412,-1.8666807249683313,-1.8074140654965596,-2.6009142610768774,-1.2101298717562754,-2.699762562785914,947.5
759,-1.197480058935564,-1.8666806958340016,-1.807414035293768,-2.600914320269112,-1.2101298668420568,-2.5956566658073967,948.75
760,-1.1974800580161942,-1.866680668770211,-1.8074140082459964,-2.6009143742938825,-1.2101298654734627,-2.5015507688288983,950.0
761,-1.1974800571945194,-1.8666806445823114,-1.807413984072405,-2.6009144225778043,-1.2101298642502998,-2.4174448718503485,951.25
762,-1.1974800623499697,-1.8666806229309638,-1.807413964296777,-2.600914464023634,-1.2101298690594897,-2.3433389748718123,952.5
763,-1.1974800701469852,-1.8666806040086825,-1.8074139480546316,-2.600914499253869,-1.2101298765612225,-2.2792330778932675,953.75
764,-1.1974800767277292,-1.8666805880381245,-1.807413934346128,-2.6009145289884725,-1.210129882892746,-2.225127180914767,955.0
765,-1.1974800820922022,-1.866680575019291,-1.8074139231712654,-2.6009145532274456,-1.2101298880540603,-2.181021283936312,956.25
766,-1.1974800862404043,-1.866680564952179,-1.8074139145300465,-2.6009145719707876,-1.2101298920451649,-2.1469153869578324,957.5
767,-1.197480089172335,-1.8666805578367887,-1.8074139084224712,-2.600914585218499,-1.21012989486606,-2.1228094899793555,958.75
768,-1.1974800908879946,-1.8666805536731204,-1.8074139048485398,-2.6009145929705793,-1.2101298965167455,-2.1087035930008664,960.0
769,-1.1984487619424613,-1.8693846717148184,-1.8036920076590097,-2.6019390171378376,-1.2110963900079426,-2.102606863018616,961.25
770,-1.1997707485608469,-1.8730751038335542,-1.798612573921455,-2.6033370887341682,-1.212415406159358,-2.106132791549736,962.5
771,-1.1998716934933575,-1.873356905663033,-1.798224714471732,-2.6034438427618776,-1.21251612833339,-2.1176306957702073,963.75
772,-1.1998716919258259,-1.873356912443597,-1.7982247177778556,-2.603443839902572,-1.2125161344308788,-2.138793997739813,965.0
773,-1.1998716896176103,-1.8733569224280857,-1.7982247226461752,-2.6034438356921985,-1.212516143409529,-2.1699572997094227,966.25
774,-1.199871686568711,-1.8733569356165,-1.7982247290766917,-2.603443830130758,-1.2125161552693404,-2.2111206016790077,967.5
775,-1.199871682626998,-1.8733569521513673,-1.798224736633278,-2.6034438248444696,-1.2125161686446344,-2.262283901771886,968.75
776,-1.1998716775484368,-1.8733569722613206,-1.7982247446163346,-2.6034438224419905,-1.2125161813446939,-2.323447197709072,970.0
777,-1.1998716722314804,-1.8733569953883686,-1.7982247548934285,-2.603443816285513,-1.2125161947706484,-2.3946104921805484,971.25
778,-1.1998716728869496,-1.8733570186909776,-1.798224777839836,-2.6034437711078495,-1.21251619475222,-2.475773771513754,972.5
779,-1.1998716736121295,-1.873357044855818,-1.7982248036451314,-2.603443720229765,-1.212516194635648,-2.566937046066145,973.75
