Miguel-LA/TFM_MiguelLerinAlonso/workspace/ros_ur_driver/src/trayectories/data/saved_trajectories/20240615_2017_trajectory.csv
,shoulder_pan_joint,shoulder_lift_joint,elbow_joint,wrist_1_joint,wrist_2_joint,wrist_3_joint,time_from_start
0,-1.3916343858169218,-2.0443998172452558,-1.8687442205081668,-2.284930281946602,-1.735206532335032,-2.3874903703513794e-05,0.0
1,-1.3912248113934795,-2.0438004449774367,-1.8687243996200906,-2.286448523774585,-1.7344555420916414,-0.0050238749037035116,1.25
2,-1.3899960881231535,-2.042002328173979,-1.868664936955862,-2.2910032492585337,-1.7322025713614697,-0.02002387490370346,2.5
3,-1.3879482160059429,-2.0390054668348836,-1.8685658325154808,-2.2985944583984486,-1.7284476201445167,-0.04502387490370336,3.75
4,-1.3850811950418482,-2.0348098609601495,-1.8684270862989476,-2.309222151194329,-1.7231906884407824,-0.08002387490370334,5.0
5,-1.3813643418524122,-2.029421206216824,-1.8682493039905301,-2.3228094050762413,-1.7162461106841724,-0.1250238392194228,6.25
6,-1.3767248058233066,-2.022853022247879,-1.868033923507261,-2.3391735979569015,-1.70717307546755,-0.18002370834717557,7.5
7,-1.3711040072382623,-2.0151161817274326,-1.8677821011478937,-2.3581678766824457,-1.6956171194313963,-0.2450234238560353,8.75
8,-1.364435777590134,-2.0062194792229406,-1.867509794211526,-2.3795427910921334,-1.6812060311470653,-0.3200229464356842,10.0
9,-1.356641083829937,-1.996171477575235,-1.8672442195565835,-2.4029538645378072,-1.6635109190405353,-0.4050222467891807,11.25
10,-1.347639510986079,-1.9849819157740076,-1.867019276236537,-2.427990011891609,-1.6421088130142851,-0.5000212507987354,12.5
11,-1.3373441299994606,-1.9726601413538267,-1.866886637712822,-2.4540978806419633,-1.616572297290089,-0.6050199182948989,13.75
12,-1.325681075264764,-1.9592191318248444,-1.8669134582365654,-2.480583578296427,-1.586580360001546,-0.7200182100285901,15.0
13,-1.3125854235864247,-1.944677197519657,-1.8671755222820035,-2.5066554220378534,-1.5518745682712622,-0.8450160750008299,16.25
14,-1.2980234882673292,-1.929061426600974,-1.867765719609438,-2.5313552379738007,-1.5124003473091996,-0.980013490627559,17.5
15,-1.2820086610543298,-1.9124114791610196,-1.868787393855809,-2.5536076049039456,-1.4683719794203012,-1.1250104531760925,18.75
16,-1.2653209943521242,-1.8954898561829046,-1.8702791258898848,-2.5716054144155205,-1.4222795838220692,-1.2737331802910519,20.0
17,-1.2496071623350289,-1.8798215488152379,-1.8720987790549628,-2.583898929641466,-1.3790851131384358,-1.412888037895089,21.25
18,-1.235055463699065,-1.8654364997415347,-1.8741626212591107,-2.5913519306058723,-1.3395990226218777,-1.5420432684852527,22.5
19,-1.2217482568382194,-1.8523072372345968,-1.8763878495695911,-2.594898459843274,-1.3041881604147005,-1.6612015069046562,23.75
20,-1.2097140296192648,-1.840402852408127,-1.8786938066332293,-2.595416194248791,-1.2729296867313784,-1.770361500030296,25.0
21,-1.1989571869105387,-1.8296929088388567,-1.8810054645657657,-2.5937063499559,-1.2457786765693961,-1.8695220071700285,26.25
22,-1.1894538127939653,-1.820147539223314,-1.8832516043142786,-2.590500596863778,-1.2225419022708808,-1.9586808852381528,27.5
23,-1.1811615195227867,-1.811742331738488,-1.8853706819250142,-2.5864095800709292,-1.202896994530481,-2.037863616835675,28.75
24,-1.175722554210633,-1.8062157537042927,-1.886788995951705,-2.583495058959518,-1.19012466172134,-2.1138029847107553,30.0
25,-1.1744361653476363,-1.8049088550110932,-1.8871242930029304,-2.5828060332361327,-1.1871041523969659,-2.1910825387025152,31.25
26,-1.174436232938796,-1.8049092356942003,-1.8871240415229436,-2.582806549652967,-1.1871047298736688,-2.275450341039772,32.5
27,-1.1744362967182533,-1.8049096709631003,-1.8871237321852166,-2.5828072330440652,-1.1871052753703808,-2.369818134182278,33.75
28,-1.1744363067212427,-1.8049097824596163,-1.8871236922731005,-2.5828073355366956,-1.187105354888595,-2.474185918349792,35.0
29,-1.174436303484733,-1.804909819669699,-1.8871237187402272,-2.5828072938898523,-1.1871053193316432,-2.5885536951641352,36.25
30,-1.1744363066528467,-1.8049098577012304,-1.887123751344462,-2.5828072366285606,-1.1871052966681632,-2.712921463712464,37.5
31,-1.1744363264647002,-1.8049098938412715,-1.8871237929599682,-2.582807157713366,-1.18710531631247,-2.8472892240941747,38.75
32,-1.1744363519137213,-1.8049099308984249,-1.8871238371555235,-2.582807075525619,-1.1871053419627413,-2.9916569756998865,40.0
33,-1.1744363942590605,-1.8049099640924913,-1.88712388232722,-2.58280699786042,-1.1871053849891575,-3.1460247205001,41.25
34,-1.1744364461663843,-1.8049099946877218,-1.8871239279488887,-2.582806922496646,-1.1871054375366712,-3.3103924621306176,42.5
35,-1.1744365115196864,-1.8049100193710004,-1.8871239720294892,-2.582806854781686,-1.1871055034221423,-3.4832682686923113,43.75
36,-1.174436583269504,-1.804910033131685,-1.8871240075535847,-2.5828068066077075,-1.187105575544339,-3.649910903250064,45.0
37,-1.1744366539444993,-1.8049100423634732,-1.887124038374295,-2.5828067676361073,-1.1871056465175585,-3.806553537807814,46.25
38,-1.1744367251340804,-1.8049100388349024,-1.8871240570406143,-2.582806753550224,-1.1871057178044226,-3.9531961723655553,47.5
39,-1.1744367917862115,-1.804910034778953,-1.8871240737912096,-2.5828067418382354,-1.187105784535725,-4.089838806923289,48.75
40,-1.174436853224668,-1.8049100211029325,-1.88712407964186,-2.582806750540814,-1.1871058458897439,-4.216481441481024,50.0
41,-1.1744369097805683,-1.8049100075844722,-1.887124084130771,-2.5828067603751874,-1.187105902353196,-4.333124076038761,51.25
42,-1.1744369592633233,-1.804909991175382,-1.8871240836372412,-2.582806777968797,-1.1871059516824924,-4.439766710596497,52.5
43,-1.1744370020435502,-1.8049099725503526,-1.8871240789272645,-2.582806801888429,-1.1871059942597355,-4.536409345154236,53.75
44,-1.174437040397138,-1.8049099558525337,-1.887124074704642,-2.5828068233330024,-1.1871060324313427,-4.623051979711974,55.0
45,-1.1744370722132376,-1.80490993942675,-1.8871240687176767,-2.5828068461731384,-1.1871060640557043,-4.6996946142697125,56.25
46,-1.1744370965112307,-1.804909922504073,-1.8871240599203132,-2.582806872206982,-1.1871060881379116,-4.766337248827453,57.5
47,-1.1744371171632106,-1.8049099081207132,-1.8871240524430295,-2.58280689433434,-1.1871061086064854,-4.822979883385191,58.75
48,-1.1744371341691782,-1.8049098962766728,-1.8871240462858232,-2.582806912555215,-1.1871061254614261,-4.869622517942927,60.0
49,-1.1744371475291322,-1.8049098869719484,-1.8871240414486985,-2.5828069268696057,-1.187106138702733,-4.906265152500664,61.25
50,-1.1744371572430727,-1.8049098802065404,-1.8871240379316543,-2.582806937277511,-1.187106148330406,-4.932907787058402,62.5
51,-1.1744371633109998,-1.804909875980449,-1.8871240357346917,-2.582806943778931,-1.187106154344445,-4.94955042161614,63.75
52,-1.1751407848064561,-1.8066707702843448,-1.884825183797224,-2.5833500432870107,-1.1878087977550196,-4.957528154385918,65.0
53,-1.1767794665554046,-1.8107717840728028,-1.879471308991622,-2.584614880132048,-1.18944520223076,-4.956372584784405,66.25
54,-1.1771428370516275,-1.8116811763222431,-1.8782841007990478,-2.584895355715477,-1.1898080705294238,-4.946590849227237,67.5
55,-1.1771428309609855,-1.8116811817860496,-1.8782841009624212,-2.5848953582517606,-1.189808070071442,-4.9276304605372925,68.75
56,-1.1771428216580455,-1.8116811901315515,-1.8782841012119595,-2.584895362125719,-1.1898080693719135,-4.89867007184735,70.0
57,-1.1771428091428073,-1.8116812013587489,-1.8782841015476635,-2.584895367337353,-1.1898080684308385,-4.8597096831574085,71.25
58,-1.1771427934679564,-1.811681215430164,-1.878284102079457,-2.584895373477768,-1.189808067697298,-4.810749295028518,72.5
59,-1.1771427751848988,-1.8116812319535556,-1.878284103957815,-2.58489537626744,-1.1898080718714275,-4.751788912369376,73.75
60,-1.1771427538009365,-1.811681251279404,-1.878284106154753,-2.584895379530255,-1.189808076753512,-4.682828529710234,75.0
61,-1.177142720505037,-1.8116812671931355,-1.878284110115469,-2.584895361979423,-1.1898080483840667,-4.603868161189521,76.25
62,-1.1771426815224983,-1.8116812840862566,-1.8782841148300002,-2.584895338615378,-1.1898080107316376,-4.5149077967995765,77.5
63,-1.1771426381269843,-1.8116813028603094,-1.8782841201406997,-2.584895312333474,-1.189807968589919,-4.415947442453043,78.75
64,-1.1771425868705347,-1.811681317544766,-1.8782841186265151,-2.584895297935664,-1.1898079177224168,-4.306987096624516,80.0
65,-1.1771425295415,-1.8116813312216928,-1.878284114074322,-2.584895287946358,-1.1898078604229223,-4.18802675840289,81.25
66,-1.1771424672726893,-1.8116813424160565,-1.8782841055762072,-2.5848952843241686,-1.1898077981464403,-4.059066427245381,82.5
67,-1.1771423999118984,-1.811681346489795,-1.8782840885896084,-2.584895296246498,-1.1898077307033068,-3.9201061002493747,83.75
68,-1.1771423293306031,-1.8116813469174642,-1.878284067072447,-2.5848953162864503,-1.1898076599754452,-3.7711457753756608,85.0
69,-1.177142258056191,-1.811681337579321,-1.8782840358856423,-2.5848953557211325,-1.1898075883985133,-3.612185457390915,86.25
70,-1.1771421895952374,-1.8116813207685702,-1.8782839983380457,-2.5848954090098166,-1.189807519522085,-3.4458045238807955,87.5
71,-1.1771421299353162,-1.8116812982114783,-1.878283957961414,-2.5848954709887844,-1.1898074593741406,-3.2870017306721375,88.75
72,-1.177142085013437,-1.8116812694304316,-1.878283916138003,-2.5848955408406544,-1.1898074138969845,-3.1381989374634793,90.0
73,-1.1771420471818352,-1.811681239749323,-1.8782838756461562,-2.5848956103642635,-1.189807375511093,-2.9993961442548165,91.25
74,-1.1771420231550858,-1.8116812073869404,-1.878283836847604,-2.5848956810742085,-1.1898073509171836,-2.870593351046155,92.5
75,-1.1771420056499213,-1.8116811755116067,-1.8782838005469236,-2.584895748897947,-1.1898073328667012,-2.7517905578374933,93.75
76,-1.1771419938000025,-1.8116811453212993,-1.8782837676348176,-2.584895811737294,-1.1898073205105093,-2.6429877646288293,95.0
77,-1.1771419927922995,-1.8116811155780925,-1.8782837385243778,-2.584895870490953,-1.1898073190270735,-2.5441849714201648,96.25
78,-1.1771419918865877,-1.8116810888452517,-1.87828371236025,-2.584895923298054,-1.1898073176937791,-2.4553821782114986,97.5
79,-1.1771419926419069,-1.8116810650284967,-1.8782836895355715,-2.5848959698827363,-1.189807318071532,-2.3765793850028314,98.75
80,-1.1771420014331428,-1.811681043742336,-1.8782836716578533,-2.5848960091170143,-1.1898073265428524,-2.3077765917941635,100.0
81,-1.177142008946635,-1.8116810255499685,-1.8782836563785354,-2.5848960426488676,-1.1898073337829262,-2.248973798585493,101.25
82,-1.1771420151823828,-1.8116810104513972,-1.878283643697614,-2.584896070478295,-1.1898073397917535,-2.200171005376828,102.5
83,-1.1771420201403868,-1.8116809984466185,-1.8782836336150934,-2.5848960926052973,-1.1898073445693342,-2.161368212168165,103.75
84,-1.1771420238206467,-1.811680989535632,-1.8782836261309734,-2.584896109029875,-1.1898073481156684,-2.132565418959501,105.0
85,-1.1771420262231624,-1.8116809837184382,-1.8782836212452545,-2.5848961197520266,-1.1898073504307558,-2.1137626257508337,106.25
86,-1.1775184108914403,-1.8126345034185243,-1.8770312786591228,-2.5851976740186813,-1.1901831793656452,-2.1041020331359426,107.5
87,-1.179136928256872,-1.8167348240343255,-1.87164598832084,-2.5864943893925614,-1.1917993074723907,-2.1030832730676776,108.75
88,-1.1798098317907093,-1.818439549332476,-1.8694070367266586,-2.587033501535189,-1.1924712207346113,-2.111159844529986,110.0
89,-1.1798098305624438,-1.8184395549006207,-1.869407039564803,-2.587033498652487,-1.1924712261451922,-2.1279193998833015,111.25
90,-1.1798098286013037,-1.8184395637911348,-1.8694070440963952,-2.58703349404975,-1.1924712347841284,-2.154678955236615,112.5
91,-1.179809825907289,-1.8184395760040193,-1.8694070503214364,-2.5870334877269787,-1.192471246651421,-2.1914385105899323,113.75
92,-1.1798098224803995,-1.8184395915392735,-1.8694070582399256,-2.5870334796841723,-1.1924712617470687,-2.2381980659432497,115.0
93,-1.1798098178701282,-1.8184396108506535,-1.8694070664740277,-2.5870334751850357,-1.1924712761865128,-2.294957610629095,116.25
94,-1.1798098123742078,-1.8184396336382793,-1.8694070759343329,-2.587033470750867,-1.1924712925369998,-2.361717153755879,117.5
95,-1.1798098106466848,-1.8184396577816337,-1.869407094280516,-2.5870334399179358,-1.1924712989786372,-2.4384766863439857,118.75
96,-1.179809811381445,-1.8184396838660277,-1.8694071193880393,-2.5870333900065625,-1.1924712990267214,-2.525236213159041,120.0
97,-1.1798098121681162,-1.818439712935951,-1.8694071474658638,-2.58703333400889,-1.1924712988073558,-2.6219957286849853,121.25
98,-1.1798098206737495,-1.8184397431433146,-1.8694071792585683,-2.5870332727442262,-1.1924713070005923,-2.7287552375756436,122.5
99,-1.1798098377659652,-1.8184397742778107,-1.8694072148539427,-2.5870332062908057,-1.1924713245838712,-2.8455147383864867,123.75
100,-1.1798098579628593,-1.8184398073662515,-1.86940725331669,-2.5870331350620113,-1.1924713453209497,-2.9722742313710135,125.0
101,-1.1798098950077693,-1.8184398364429517,-1.8694072931014527,-2.587033066834259,-1.1924713829143203,-3.109033718895423,126.25
102,-1.1798099358979655,-1.8184398668550665,-1.869407335380782,-2.587032994838356,-1.1924714243829915,-3.2557932057486405,127.5
103,-1.17980999442605,-1.8184398890054858,-1.8694073751262796,-2.587032933879185,-1.1924714833925616,-3.412552685457994,128.75
104,-1.1798100598591068,-1.8184399084645813,-1.8694074144075312,-2.5870328761710133,-1.1924715492789788,-3.5784839956761996,130.0
105,-1.1798101316029617,-1.8184399178901929,-1.869407445906759,-2.5870328363440045,-1.192471621329287,-3.739487900331522,131.25
106,-1.1798102015864318,-1.8184399202038086,-1.8694074699485723,-2.5870328110399536,-1.1924716915015798,-3.8904918049868393,132.5
107,-1.1798102695141948,-1.8184399161204485,-1.8694074871356352,-2.5870327989387962,-1.1924717595113368,-4.031495709642144,133.75
108,-1.1798103324483913,-1.8184399071325568,-1.8694074980029294,-2.587032797973479,-1.1924718224382076,-4.162499614297441,135.0
109,-1.179810390391871,-1.818439893324189,-1.8694075026330061,-2.587032807977677,-1.1924718802863934,-4.283503518952733,136.25
110,-1.1798104432382057,-1.8184398800949835,-1.8694075062383733,-2.587032818352967,-1.1924719330356466,-4.394507423608017,137.5
111,-1.1798104873945312,-1.8184398609016206,-1.8694075013434328,-2.5870328430460705,-1.1924719769805945,-4.495511328263299,138.75
112,-1.1798105271791135,-1.8184398436085198,-1.8694074969331167,-2.587032865294407,-1.1924720165747271,-4.586515232918579,140.0
113,-1.1798105625919522,-1.8184398282156802,-1.8694074930074285,-2.5870328850979774,-1.1924720518180436,-4.667519137573855,141.25
114,-1.179810588558452,-1.818439810739994,-1.869407484116529,-2.5870329118026705,-1.1924720775612,-4.738523042229129,142.5
115,-1.1798106105244426,-1.8184397954559532,-1.8694074761089454,-2.587032935378891,-1.1924720993302436,-4.7995269468844075,143.75
116,-1.1798106288896824,-1.818439782677335,-1.869407469413994,-2.587032955090405,-1.1924721175308204,-4.850530851539691,145.0
117,-1.1798106436541702,-1.818439772404137,-1.869407464031677,-2.587032970937213,-1.1924721321629304,-4.891534756194976,146.25
118,-1.1798106548179066,-1.8184397646363586,-1.869407459961995,-2.587032982919314,-1.1924721432265726,-4.922538660850262,147.5
119,-1.1798106623808913,-1.8184397593739994,-1.8694074572049484,-2.587032991036708,-1.1924721507217475,-4.943542565505546,148.75
120,-1.1799415772205115,-1.818775483885855,-1.868963890245197,-2.5871417769907334,-1.1926028606905037,-4.954921386919042,150.0
121,-1.1814250056210533,-1.8225798088478133,-1.8639375865546906,-2.588374446628601,-1.1940839680283382,-4.958162863939289,151.25
122,-1.182441484025706,-1.8251866272197628,-1.8604934413380412,-2.5892191018255195,-1.1950988577883292,-4.95182450978637,152.5
123,-1.1824414794010063,-1.825186631361042,-1.8604934414353738,-2.589219103850367,-1.195098857343661,-4.937303754242579,153.75
124,-1.1824414715914169,-1.8251866383542938,-1.8604934415997363,-2.589219107269664,-1.1950988565927632,-4.9127829986987885,155.0
125,-1.1824414605969387,-1.825186648199518,-1.8604934418311294,-2.589219112083412,-1.1950988555356359,-4.878262243154998,156.25
126,-1.1824414464175708,-1.8251866608967147,-1.8604934421295525,-2.5892191182916102,-1.1950988541722793,-4.833741487611204,157.5
127,-1.1824414294549894,-1.8251866761654438,-1.8604934433190314,-2.58921912284935,-1.1950988559624396,-4.779220735760621,158.75
128,-1.1824414096196154,-1.8251866940682477,-1.8604934452157984,-2.589219126435686,-1.1950988601345505,-4.714699985940134,160.0
129,-1.1824413826316527,-1.825186711810653,-1.8604934481587543,-2.5892191203504176,-1.19509884926784,-4.640179243071911,161.25
130,-1.182441346057969,-1.8251867276415574,-1.8604934525966683,-2.5892190984918453,-1.1950988140043561,-4.555658509698366,162.5
131,-1.1824413051321683,-1.8251867453300998,-1.8604934576158687,-2.5892190738016128,-1.1950987743597445,-4.461137785036411,163.75
132,-1.1824412585576007,-1.8251867626298868,-1.8604934604018142,-2.58921905188232,-1.1950987287434647,-4.356617067114697,165.0
133,-1.1824412040492531,-1.8251867755953277,-1.8604934560462767,-2.5892190424417927,-1.1950986742688117,-4.242096357761272,166.25
134,-1.1824411447798147,-1.8251867896943974,-1.8604934513059028,-2.589219032194115,-1.1950986150252223,-4.117575657791003,167.5
135,-1.1824410804193153,-1.8251867949021265,-1.8604934362927628,-2.5892190410497524,-1.1950985505974345,-3.9830549631916448,168.75
136,-1.1824410112262573,-1.8251867990385304,-1.8604934187241273,-2.5892190534635002,-1.1950984813187466,-3.8385342694212934,170.0
137,-1.1824409419835,-1.82518679199103,-1.8604933902381577,-2.589219087943472,-1.1950984118116814,-3.6840135814242307,171.25
138,-1.1824408699173072,-1.8251867815095273,-1.8604933575232805,-2.589219130033955,-1.195098339420029,-3.5195339709621116,172.5
139,-1.182440809345003,-1.8251867585661596,-1.8604933162476918,-2.5892191932835527,-1.195098278346709,-3.3562950271419627,173.75
140,-1.1824407567280444,-1.8251867340763233,-1.860493275947873,-2.5892192572183212,-1.1950982252211877,-3.2030560833218216,175.0
141,-1.1824407181667065,-1.825186703797553,-1.8604932343922764,-2.5892193283914464,-1.1950981860887846,-3.0598171395016878,176.25
142,-1.1824406863229684,-1.8251866738842963,-1.8604931952900166,-2.5892193968470876,-1.1950981536944933,-2.926578195681566,177.5
143,-1.1824406683862048,-1.8251866412140556,-1.860493157841353,-2.5892194666060755,-1.1950981351931182,-2.8033392518614493,178.75
144,-1.1824406519048873,-1.8251866111947892,-1.860493123431386,-2.589219530704597,-1.1950981181930038,-2.69010030804134,180.0
145,-1.1824406486188146,-1.825186581032847,-1.860493093001463,-2.589219591162441,-1.195098114414582,-2.5868613642212326,181.25
146,-1.1824406476782074,-1.8251865533100815,-1.8604930656816063,-2.5892196461129435,-1.1950981130259721,-2.4936224204011266,182.5
147,-1.1824406468384818,-1.8251865285606228,-1.860493041291837,-2.5892196951699322,-1.1950981117862924,-2.410383476581024,183.75
148,-1.1824406530203344,-1.8251865063707884,-1.860493021589296,-2.589219737092154,-1.195098117624661,-2.3371445327609215,185.0
149,-1.1824406610001799,-1.8251864870528138,-1.8604930052477362,-2.589219772816479,-1.195098125311136,-2.27390558894082,186.25
150,-1.182440667718169,-1.8251864707895997,-1.8604929914902721,-2.5892198028917015,-1.1950981317821454,-2.2206666451207107,187.5
151,-1.182440673174302,-1.8251864575811463,-1.8604929803169041,-2.5892198273178226,-1.1950981370376899,-2.177427701300597,188.75
152,-1.182440677368579,-1.8251864474274515,-1.8604929717276344,-2.5892198460948412,-1.1950981410777686,-2.1441887574804874,190.0
153,-1.1824406803009997,-1.8251864403285152,-1.860492965722463,-2.5892198592227578,-1.195098143902382,-2.1209498136603786,191.25
154,-1.1824481330615508,-1.8252057802747719,-1.8604672546300016,-2.5892262837146114,-1.195105584270171,-2.10768704212167,192.5
155,-1.1836525943564018,-1.8283327161760683,-1.8563116353486748,-2.590263588173365,-1.1963080522086884,-2.102355040442475,193.75
156,-1.1849918272004396,-1.8318095423645178,-1.8516910272930458,-2.5914169572497268,-1.1976450704077666,-2.1068153161469954,195.0
157,-1.1850351626057978,-1.8319220531884235,-1.8515415108325988,-2.591454277194425,-1.197688338895452,-2.119198466455221,196.25
158,-1.1850351609713368,-1.8319220605070001,-1.8515415145289702,-2.591454273587224,-1.1976883458884215,-2.1414451849692617,197.5
159,-1.1850351586021783,-1.8319220711153097,-1.8515415198868777,-2.5914542683585706,-1.1976883560247626,-2.1736919034833013,198.75
160,-1.185035155498322,-1.8319220850133524,-1.85154152690632,-2.591454261508464,-1.1976883693044749,-2.215938621997348,200.0
161,-1.1850351514518074,-1.8319221024068277,-1.851541534961635,-2.591454255412745,-1.197688383916073,-2.2681853388063966,201.25
162,-1.1850351463164532,-1.8319221234403285,-1.8515415436130276,-2.5914542517414536,-1.1976883985862163,-2.330432053282874,202.5
163,-1.1850351416938933,-1.8319221472495402,-1.8515415558467543,-2.5914542399499463,-1.1976884121482727,-2.4026787645502012,203.75
164,-1.1850351423819099,-1.8319221716706728,-1.8515415795257866,-2.5914541930315944,-1.197688412176083,-2.484925462591198,205.0
165,-1.1850351431375377,-1.8319221990501857,-1.8515416061232224,-2.591454140238107,-1.1976884120722713,-2.5771721546835167,206.25
166,-1.1850351447583125,-1.8319222291909842,-1.8515416357318897,-2.591454081592386,-1.1976884126968468,-2.6794188399472945,207.5
167,-1.185035160989788,-1.8319222587623736,-1.8515416697675193,-2.5914540182485513,-1.19768842939761,-2.791665514177724,208.75
168,-1.1850351786687647,-1.8319222909673134,-1.8515417068381494,-2.5914539492512194,-1.197688447598762,-2.9139121808142963,210.0
169,-1.1850352084910871,-1.831922321170344,-1.8515417457326344,-2.5914538806537943,-1.1976884779637351,-3.046158841493085,211.25
170,-1.1850352465517136,-1.831922351064077,-1.8515417868916022,-2.5914538102520566,-1.1976885165941187,-3.1884054999713367,212.5
171,-1.1850352969952633,-1.831922376311867,-1.851541827379994,-2.591453745339957,-1.1976885675576119,-3.3406521541852827,213.75
172,-1.1850353568309024,-1.8319223989926163,-1.851541868295946,-2.591453682701047,-1.1976886278909582,-3.502898801907212,215.0
173,-1.185035427604395,-1.83192241083684,-1.8515419020328572,-2.5914536382107403,-1.1976886990108202,-3.668145371892996,216.25
174,-1.1850354963279064,-1.8319224192071075,-1.8515419317293913,-2.5914536011943903,-1.1976887680200348,-3.8236587265159585,217.5
175,-1.1850355655688982,-1.8319224150900428,-1.8515419493706409,-2.591453588693468,-1.1976888373459413,-3.969172081138965,218.75
176,-1.18503563004256,-1.831922410992714,-1.851541965539227,-2.5914535775742826,-1.1976889018944066,-4.104685435762003,220.0
177,-1.1850356894082528,-1.8319223968853475,-1.851541970315735,-2.5914535877528837,-1.197688961161862,-4.230198790385064,221.25
178,-1.1850357440441175,-1.8319223839019594,-1.8515419747116788,-2.5914535971205286,-1.1976890157073163,-4.34571214500816,222.5
179,-1.1850357913120972,-1.8319223672374423,-1.8515419732003071,-2.5914536159562127,-1.1976890628092403,-4.4512254996313025,223.75
180,-1.1850358325555546,-1.8319223493386727,-1.85154196859598,-2.591453639025619,-1.1976891038535018,-4.546738854254497,225.0
181,-1.1850358694809304,-1.8319223333138615,-1.8515419644737081,-2.5914536596797206,-1.1976891406005374,-4.632252208877686,226.25
182,-1.1850358994219754,-1.8319223170688514,-1.8515419579502304,-2.591453682850234,-1.1976891703444013,-4.707765563500876,227.5
183,-1.1850359227218492,-1.831922300873171,-1.8515419493966379,-2.5914537079024216,-1.1976891934333622,-4.773278918124074,228.75
184,-1.185035942465216,-1.8319222871496104,-1.8515419421486705,-2.591453729130627,-1.19768921299801,-4.828792272747263,230.0
185,-1.1850359586520756,-1.8319222758981704,-1.8515419362063268,-2.5914537465348513,-1.1976892290383443,-4.8743056273704415,231.25
186,-1.1850359712824274,-1.8319222671188489,-1.8515419315696091,-2.591453760115094,-1.1976892415543652,-4.909818981993624,232.5
187,-1.1850359803562718,-1.8319222608116457,-1.8515419282385182,-2.591453769871355,-1.197689250546072,-4.935332336616807,233.75
188,-1.1850359858736081,-1.8319222569765607,-1.8515419262130535,-2.591453775803634,-1.1976892560134649,-4.950845691239992,235.0
189,-1.185864557976434,-1.834099857197335,-1.8486311604467922,-2.5921928317946064,-1.1985163803560035,-4.9579797551385925,236.25
190,-1.1873701056489057,-1.8380566590711849,-1.8433421691311622,-2.5935357255096028,-1.2000192981504105,-4.955772785989377,237.5
191,-1.1875949667700023,-1.838647638709272,-1.8425522203790219,-2.5937362977690794,-1.200243769314609,-4.9452262044045865,238.75
192,-1.1875949604748022,-1.838647644336546,-1.8425522204776754,-2.593736300649209,-1.2002437685807668,-4.925290093420384,240.0
193,-1.1875949510219148,-1.8386476527864744,-1.8425522206258138,-2.5937363049740187,-1.200243767478828,-4.895353982436184,241.25
194,-1.18759493841134,-1.838647664059056,-1.8425522208234368,-2.593736310743508,-1.200243766008792,-4.855417871451988,242.5
195,-1.1875949227539284,-1.8386476780781962,-1.8425522212944396,-2.5937363171359116,-1.2002437651353903,-4.805481762836291,243.75
196,-1.1875949044857408,-1.8386476945445493,-1.8425522229195788,-2.5937363209185715,-1.2002437686536789,-4.74554566446088,245.0
197,-1.187594883169609,-1.8386477137582207,-1.8425522248158632,-2.593736325332346,-1.200243772758974,-4.6756095660854635,246.25
198,-1.1875948493497628,-1.8386477287795184,-1.842552228915461,-2.5937363058253977,-1.200243741167498,-4.595673483660653,247.5
199,-1.1875948109005465,-1.8386477453881946,-1.8425522336277165,-2.5937362827783397,-1.2002437040555511,-4.505737405010237,248.75
200,-1.1875947681506682,-1.838647763826946,-1.8425522389244369,-2.593736256906601,-1.2002436626012483,-4.40580133541137,250.0
201,-1.187594717252355,-1.8386477774465297,-1.842552236456915,-2.5937362447000516,-1.2002436119719133,-4.295865275490635,251.25
202,-1.1875946608624561,-1.8386477908234196,-1.8425522319175016,-2.5937362350081052,-1.2002435556121527,-4.175929223007651,252.5
203,-1.1875945996164152,-1.838647800671521,-1.8425522223801174,-2.5937362337836585,-1.2002434943486833,-4.045993177320482,253.75
204,-1.1875945334352676,-1.8386478045874086,-1.842552205457899,-2.5937362458142488,-1.2002434280840333,-3.9060571352284716,255.0
205,-1.1875944646483734,-1.8386478036440874,-1.842552182946763,-2.5937362682396223,-1.2002433591298067,-3.756121095817994,256.25
206,-1.187594394682246,-1.838647794389268,-1.8425521519047277,-2.593736307464595,-1.2002432888595878,-3.596185063142978,257.5
207,-1.1875943290712319,-1.8386477766146108,-1.8425521138629835,-2.593736362250531,-1.200243222815486,-3.429918877976428,258.75
208,-1.1875942712224368,-1.8386477546736906,-1.8425520741657024,-2.5937364229627478,-1.2002431644828815,-3.2720986966184484,260.0
209,-1.1875942291630694,-1.838647725700262,-1.842552032517088,-2.5937364928753865,-1.2002431218600906,-3.1242785152604444,261.25
210,-1.1875941925113722,-1.8386476969067582,-1.8425519927419634,-2.593736560815974,-1.200243084659781,-2.986458333902439,262.5
211,-1.187594170801069,-1.8386476648765795,-1.8425519544768292,-2.593736630697682,-1.2002430623810858,-2.8586381525444193,263.75
212,-1.1875941538604762,-1.8386476340205071,-1.8425519188612745,-2.593736696830289,-1.200243044901669,-2.74081797118639,265.0
213,-1.1875941437881057,-1.8386476044946407,-1.8425518867070654,-2.593736758277742,-1.2002430343271935,-2.6329977898283574,266.25
214,-1.1875941428118753,-1.838647575770261,-1.842551858194097,-2.593736815420713,-1.2002430328818792,-2.535177608470312,267.5
215,-1.1875941419354439,-1.8386475499823338,-1.8425518325959576,-2.59373686672205,-1.2002430315843167,-2.447357427112268,268.75
216,-1.1875941436417723,-1.8386475269839542,-1.8425518105475094,-2.593736911730517,-1.2002430329205374,-2.36953724575422,270.0
217,-1.1875941520943563,-1.8386475065287973,-1.8425517931132949,-2.5937369496894718,-1.2002430410591831,-2.3017170643961715,271.25
218,-1.1875941593006172,-1.8386474890897273,-1.8425517782497334,-2.593736982051427,-1.2002430479977957,-2.2438968830381243,272.5
219,-1.1875941652605555,-1.838647474666748,-1.8425517659568214,-2.5937370088163823,-1.2002430537363755,-2.1960767016800915,273.75
220,-1.187594169974171,-1.8386474632598548,-1.8425517562345628,-2.5937370299843368,-1.2002430582749222,-2.1582565203220576,275.0
221,-1.187594173441464,-1.8386474548690481,-1.8425517490829577,-2.5937370455552924,-1.200243061613436,-2.1304363389640155,276.25
222,-1.1875941756624337,-1.8386474494943275,-1.8425517445020065,-2.5937370555292474,-1.2002430637519166,-2.1126161576059803,277.5
223,-1.1880692566782052,-1.8399114385831752,-1.840852512777629,-2.594175652913916,-1.2007172697904953,-2.1037018707731634,278.75
224,-1.189608983864714,-1.844008017679211,-1.8353453345794035,-2.595597125079632,-1.202254161766512,-2.103590091492135,280.0
225,-1.1901182714222658,-1.8453630264811358,-1.8335237529564163,-2.5960672971355088,-1.2027625147062662,-2.11233555439884,281.25
226,-1.1901182701270536,-1.8453630322111148,-1.8335237558269066,-2.596067294443773,-1.2027625200898702,-2.129927375659081,282.5
227,-1.1901182680955835,-1.845363041198277,-1.8335237603291163,-2.5960672902219315,-1.2027625285337622,-2.1575191969193224,283.75
228,-1.1901182653278553,-1.845363053442623,-1.8335237664630444,-2.5960672844699837,-1.202762540037942,-2.195111018179564,285.0
229,-1.1901182618238688,-1.8453630689441525,-1.8335237742286914,-2.59606727718793,-1.2027625546024099,-2.2427028394397985,286.25
230,-1.1901182570872924,-1.8453630881860126,-1.8335237821547006,-2.5960672739288233,-1.202762567859797,-2.300294658487954,287.5
231,-1.1901182515017674,-1.8453631107947526,-1.8335237913783635,-2.596067270400408,-1.2027625831858797,-2.3678864774262234,288.75
232,-1.1901182503139287,-1.8453631343767294,-1.8335238105895963,-2.5960672368377535,-1.202762587756982,-2.44547828429819,290.0
233,-1.1901182510372474,-1.845363160059918,-1.8335238356872492,-2.596067187275419,-1.202762587763216,-2.533070086392302,291.25
234,-1.1901182518115132,-1.8453631886525845,-1.8335238637318834,-2.5960671317037787,-1.2027625875011885,-2.630661876579583,292.5
235,-1.1901182613877017,-1.845363218058825,-1.8335238955761315,-2.5960670710710496,-1.202762596891827,-2.738253659834773,293.75
236,-1.1901182781881816,-1.8453632486611666,-1.833523931053557,-2.596067005258657,-1.202762614188849,-2.855845435162614,295.0
237,-1.1901182993611092,-1.8453632805918503,-1.833523969215209,-2.5960669355050325,-1.2027626359029249,-2.98343720289077,296.25
238,-1.1901183357311675,-1.845363309167074,-1.8335240088258842,-2.596066867940541,-1.2027626728231202,-3.121028965590857,297.5
239,-1.1901183771255937,-1.8453633381659351,-1.8335240504347494,-2.596066798031261,-1.2027627147856725,-3.268620727171017,298.75
240,-1.1901184345407756,-1.8453633599530694,-1.8335240899755418,-2.596066737622687,-1.2027627726837402,-3.426212481743327,300.0
241,-1.1901184994678542,-1.8453633779315877,-1.8335241281258137,-2.5960666825151044,-1.202762838048018,-3.592425290107932,301.25
242,-1.1901185691092961,-1.8453633871599502,-1.833524159134535,-2.5960666433455386,-1.2027629079940478,-3.7525902189035616,302.5
243,-1.1901186374609574,-1.8453633884127028,-1.8335241818759511,-2.596066620377586,-1.2027629765171106,-3.9027551476991973,303.75
244,-1.190118703347883,-1.845363384532581,-1.8335241987824178,-2.596066608326418,-1.202763042486113,-4.042920076494841,305.0
245,-1.190118764332155,-1.8453633749926996,-1.8335242085675127,-2.5960666089674103,-1.2027631034491415,-4.1730850052904955,306.25
246,-1.1901188204781639,-1.8453633616856002,-1.833524213116955,-2.596066618528484,-1.2027631595016577,-4.293249934086172,307.5
247,-1.1901188712925457,-1.8453633482853216,-1.833524215896969,-2.596066629872131,-1.2027632102092511,-4.403414862881854,308.75
248,-1.1901189140191013,-1.8453633297721879,-1.8335242110925007,-2.596066653777991,-1.2027632527276013,-4.50357979167753,310.0
249,-1.190118952480038,-1.8453633131073226,-1.8335242067676831,-2.5960666752972026,-1.2027632910011192,-4.593744720473218,311.25
250,-1.1901189865925916,-1.8453632982256978,-1.8335242028323842,-2.596066694583509,-1.202763324945795,-4.673909649268907,312.5
251,-1.1901190112432967,-1.8453632811097307,-1.8335241937175897,-2.5960667211359105,-1.202763349371215,-4.7440745780646,313.75
252,-1.19011903238075,-1.845363266433154,-1.833524185901848,-2.5960667439040277,-1.2027633703154912,-4.804239506860293,315.0
253,-1.1901190500049526,-1.8453632541959704,-1.8335241793851564,-2.596066762887862,-1.2027633877786246,-4.854404435655972,316.25
254,-1.190119064115903,-1.8453632443981771,-1.8335241741675172,-2.5960667780874127,-1.2027634017606141,-4.894569364451646,317.5
255,-1.190119074713602,-1.845363237039774,-1.8335241702489316,-2.5960667895026797,-1.2027634122614597,-4.924734293247323,318.75
256,-1.1901190817980491,-1.845363232120761,-1.8335241676293996,-2.5960667971336613,-1.2027634192811616,-4.944899222043002,320.0
257,-1.1903144226161817,-1.8458893666694816,-1.8328128643704462,-2.596253336065486,-1.2029583814643818,-4.955628380941972,321.25
258,-1.1917653628670142,-1.8497974476832546,-1.8275294019834136,-2.597638895061294,-1.204406509596016,-4.958105771292871,322.5
259,-1.1926090887790617,-1.8520700174753968,-1.8244570439543373,-2.59844460453359,-1.2052486020735853,-4.951192241475232,323.75
260,-1.192609084016553,-1.8520700217253663,-1.824457044005003,-2.5984446067991405,-1.20524860142352,-4.935980005086908,325.0
261,-1.1926090761233352,-1.852070028769119,-1.8244570440889738,-2.598444610553985,-1.205248600346124,-4.910767768698582,326.25
262,-1.1926090650994081,-1.852070038606655,-1.8244570442062504,-2.5984446157981247,-1.205248598841398,-4.87555553231026,327.5
263,-1.1926090509447718,-1.8520700512379749,-1.8244570443568329,-2.5984446225315585,-1.205248596909341,-4.830343295921945,328.75
264,-1.1926090341000009,-1.8520700663652305,-1.8244570454178664,-2.598444627556917,-1.2052485984239767,-4.775131070954449,330.0
265,-1.1926090143932422,-1.8520700841046027,-1.8244570470472083,-2.5984446321213777,-1.2052486018741888,-4.709918850510832,331.25
266,-1.1926089870868548,-1.8520701011400411,-1.8244570499510113,-2.5984446251057425,-1.2052485883314905,-4.634706638240479,332.5
267,-1.1926089511062172,-1.852070116667712,-1.8244570543698042,-2.5984446036272493,-1.205248553682562,-4.549494434382946,333.75
268,-1.192608910877613,-1.852070134000022,-1.824457059370781,-2.5984445793548305,-1.2052485147493033,-4.454282240270137,335.0
269,-1.1926088648175752,-1.8520701503961428,-1.8244570614673352,-2.5984445591836276,-1.2052484695783372,-4.349070052921094,336.25
270,-1.1926088113037001,-1.8520701630578822,-1.8244570571308054,-2.598444550038685,-1.2052484160990562,-4.233857874004892,337.5
271,-1.1926087531437155,-1.8520701768199466,-1.8244570524138142,-2.598444540115316,-1.2052483579664115,-4.108645703867318,338.75
272,-1.1926086899875945,-1.8520701811029074,-1.8244570367228399,-2.598444550589417,-1.2052482947348375,-3.9734335396175506,340.0
273,-1.192608622140037,-1.8520701850816093,-1.8244570192491092,-2.5984445630827104,-1.2052482268006213,-3.8282213757118195,341.25
274,-1.1926085546322636,-1.852070177211464,-1.8244569901591368,-2.5984445990107607,-1.2052481590137323,-3.6730092180288936,342.5
275,-1.1926084848802416,-1.852070165945857,-1.8244569570012243,-2.5984446423589973,-1.2052480889219575,-3.507975482496708,343.75
276,-1.1926084260188707,-1.8520701436016005,-1.824456916317391,-2.5984447044444776,-1.2052480295628543,-3.3454347804035587,345.0
277,-1.1926083759415986,-1.8520701190493978,-1.824456876220585,-2.598444768276362,-1.2052479789710637,-3.192894078310409,346.25
278,-1.1926083384904103,-1.8520700896231441,-1.8244568352850095,-2.5984448379967775,-1.2052479409532917,-3.050353376217249,347.5
279,-1.1926083086656698,-1.8520700600969713,-1.8244567966570946,-2.598444905623373,-1.2052479105772467,-2.9178126741240704,348.75
280,-1.1926082912573204,-1.8520700283970708,-1.8244567597962615,-2.598444973836582,-1.2052478926094254,-2.7952719720308874,350.0
281,-1.1926082752695888,-1.852069999284064,-1.824456725943469,-2.598445036483214,-1.205247876107878,-2.6827312699376957,351.25
282,-1.1926082730549525,-1.8520699698339795,-1.824456696103272,-2.5984450956596423,-1.2052478734044483,-2.5801905678444963,352.5
283,-1.1926082721411884,-1.85206994299913,-1.8244566692613828,-2.598445149249172,-1.205247872047747,-2.487649865751295,353.75
284,-1.192608271326166,-1.8520699190640726,-1.82445664532004,-2.5984451970477878,-1.2052478708376517,-2.405109163658083,355.0
285,-1.1926082779865295,-1.8520698975962722,-1.8244566261789705,-2.5984452376975673,-1.2052478771600672,-2.332568461564872,356.25
286,-1.1926082856861249,-1.8520698789731147,-1.8244566101806576,-2.598445272383304,-1.2052478845707595,-2.270027759471661,357.5
287,-1.1926082921545866,-1.8520698633277248,-1.824456596740407,-2.598445301522935,-1.2052478907965127,-2.2174870573784586,358.75
288,-1.1926082973919152,-1.852069850660102,-1.8244565858582193,-2.598445325116459,-1.205247895837327,-2.17494635528527,360.0
289,-1.1926083013981101,-1.8520698409702445,-1.8244565775340966,-2.5984453431638777,-1.2052478996932021,-2.1424056531920708,361.25
290,-1.1926083041731717,-1.8520698342581525,-1.8244565717680388,-2.59844535566519,-1.205247902364138,-2.119864951098874,362.5
291,-1.1926344831899305,-1.852141211843339,-1.8243595275826503,-2.598471204685855,-1.2052740280018166,-2.1072348384360553,363.75
292,-1.1938547471487901,-1.8554686545609973,-1.8198359586047859,-2.5996758338829853,-1.2064918063906918,-2.102452022658189,365.0
293,-1.195046811012428,-1.8587192062251654,-1.8154169270408484,-2.600852621913194,-1.207681444005115,-2.1074705538961744,366.25
294,-1.1950647954859457,-1.8587682534646564,-1.8153502563853043,-2.600870375005848,-1.2076993966250205,-2.120333800171264,367.5
295,-1.195064793804279,-1.8587682608172793,-1.815350260041995,-2.6008703717109696,-1.2076994034175685,-2.1431342014592207,368.75
296,-1.195064791385053,-1.8587682713946803,-1.8153502653024691,-2.6008703669709945,-1.2076994131892518,-2.1759346027471778,370.0
297,-1.1950647882282668,-1.8587682851968592,-1.8153502721667267,-2.600870360785923,-1.2076994259400706,-2.218735004035132,371.25
298,-1.1950647840980362,-1.8587683024502182,-1.8153502799447554,-2.6008703557437065,-1.2076994395734078,-2.2715354028457053,372.5
299,-1.1950647789022368,-1.8587683232431784,-1.8153502883670698,-2.600870352855071,-1.2076994532704282,-2.3343357989095916,373.75
300,-1.1950647746127818,-1.8587683465545237,-1.8153503010120466,-2.600870339682494,-1.207699464988425,-2.4071361908032642,375.0
301,-1.195064775289417,-1.8587683705283038,-1.8153503246272982,-2.600870293221473,-1.2076994649858965,-2.489936570287314,376.25
302,-1.1950647760311546,-1.8587683973848799,-1.8153503511397062,-2.600870240957041,-1.2076994648403105,-2.582736943017293,377.5
303,-1.1950647784210329,-1.8587684267415918,-1.8153503807168399,-2.600870183008844,-1.2076994663129719,-2.6855373088365235,378.75
304,-1.195064794344604,-1.8587684557362285,-1.8153504145862414,-2.600870120399811,-1.2076994827089624,-2.798337664267131,380.0
305,-1.1950648116813578,-1.858768487300335,-1.8153504514610832,-2.600870052230047,-1.207699500571953,-2.9211380115118155,381.25
306,-1.195064841790026,-1.858768516526765,-1.815350490035657,-2.6008699849344223,-1.207699531222628,-3.053938352916197,382.5
307,-1.1950648790852987,-1.8587685458286802,-1.8153505309502633,-2.600869915355257,-1.2076995690882368,-3.1967386924898404,383.75
308,-1.1950649293331737,-1.8587685700108019,-1.815350570877647,-2.600869852064281,-1.207699619848764,-3.349539027485229,385.0
309,-1.1950649879351414,-1.8587685922623347,-1.81535061153095,-2.600869790098317,-1.2076996789490342,-3.512339356091464,386.25
310,-1.1950650574861332,-1.8587686031155706,-1.8153506443259273,-2.6008697475219,-1.2076997488344134,-3.677176572232336,387.5
311,-1.1950651246125985,-1.858768610609036,-1.8153506730157463,-2.6008697123649185,-1.2076998162343544,-3.832129646374048,388.75
312,-1.1950651919321484,-1.8587686066773008,-1.8153506904162304,-2.600869699894269,-1.207699883639074,-3.9770827205157544,390.0
313,-1.1950652545784721,-1.8587686021662388,-1.8153507057620972,-2.6008696899859585,-1.207699946350575,-4.112035794657481,391.25
314,-1.1950653122601682,-1.8587685885286944,-1.8153507104699076,-2.6008696997429506,-1.2077000039356114,-4.236988868799217,392.5
315,-1.1950653653255983,-1.8587685759825692,-1.8153507148009438,-2.6008697087190926,-1.2077000569121175,-4.351941942940959,393.75
316,-1.195065410976009,-1.858768559432677,-1.8153507128075752,-2.6008697279013933,-1.2077001023909273,-4.456895017082718,395.0
317,-1.195065450992296,-1.8587685421211733,-1.8153507082743905,-2.6008697502986196,-1.2077001422104674,-4.551848091224477,396.25
318,-1.195065486794262,-1.8587685266328369,-1.8153507042186137,-2.60086977033708,-1.2077001778364074,-4.636801165366242,397.5
319,-1.1950655154910128,-1.8587685106963476,-1.8153506974688371,-2.6008697934099994,-1.2077002063338846,-4.711754239508015,398.75
320,-1.195065538035933,-1.8587684950607612,-1.815350689070958,-2.6008698177387517,-1.207700228670784,-4.77670731364978,400.0
321,-1.1950655571098983,-1.8587684818323882,-1.8153506819659926,-2.6008698383219153,-1.207700247568755,-4.83166038779154,401.25
322,-1.1950655727129091,-1.8587684710112293,-1.81535067615394,-2.600869855159491,-1.207700263027798,-4.876613461933285,402.5
323,-1.1950655848449645,-1.8587684625972827,-1.8153506716348027,-2.6008698682514773,-1.207700275047912,-4.911566536075027,403.75
324,-1.1950655935060648,-1.8587684565905485,-1.8153506684085812,-2.6008698775978742,-1.2077002836290966,-4.936519610216777,405.0
325,-1.19506559869621,-1.8587684529910262,-1.8153506664752748,-2.6008698831986816,-1.2077002887713528,-4.951472684358539,406.25
326,-1.1959250756856583,-1.8611411510623712,-1.8121072866994519,-2.6017465146237155,-1.20855792831339,-4.958214337107468,407.5
327,-1.1973208165799203,-1.8649942915888709,-1.8068402095589016,-2.6031701145052675,-1.2099506861025018,-4.9555187772837055,408.75
328,-1.197489330467474,-1.8654595100107851,-1.8062042800220626,-2.6033419968659746,-1.210118842574587,-4.944647091532231,410.0
329,-1.1974893241495221,-1.8654595156395928,-1.8062042800592928,-2.603341999978416,-1.2101188415892374,-4.924292665665367,411.25
330,-1.1974893147276007,-1.8654595240337974,-1.8062042801148144,-2.6033420046199796,-1.210118840119792,-4.893938239798516,412.5
331,-1.1974893022017097,-1.8654595351934002,-1.806204280188627,-2.6033420107906666,-1.2101188381662509,-4.853583813931661,413.75
332,-1.1974892867061107,-1.8654595490288868,-1.8062042805444714,-2.6033420175358004,-1.2101188369213276,-4.803229391996656,415.0
333,-1.197489268622408,-1.8654595652858381,-1.806204281931965,-2.603342022141952,-1.2101188397750193,-4.742874983141386,416.25
334,-1.1974892474986139,-1.865459584202963,-1.8062042835600038,-2.6033420273900076,-1.2101188429341756,-4.6725205744097655,417.5
335,-1.1974892139757178,-1.8654595986482558,-1.8062042877030264,-2.6033420073886937,-1.2101188106705565,-4.592166182159114,418.75
336,-1.1974891762717683,-1.8654596148845606,-1.806204292385682,-2.6033419847957884,-1.210118774312476,-4.501811793687202,420.0
337,-1.1974891343725629,-1.8654596329015263,-1.8062042976451917,-2.603341959452652,-1.2101187337371515,-4.401457413901394,421.25
338,-1.1974890843146597,-1.865459645864402,-1.8062042947845018,-2.603341948379339,-1.210118683896375,-4.291103044296841,422.5
339,-1.1974890290800801,-1.8654596589028223,-1.8062042902737843,-2.6033419390094865,-1.2101186286929697,-4.170748682081662,423.75
340,-1.197488969089332,-1.865459668030986,-1.8062042803426241,-2.6033419389134203,-1.2101185686807363,-4.04039432658562,425.0
341,-1.1974889042948182,-1.8654596718017502,-1.8062042635315865,-2.603341950995064,-1.2101185038018811,-3.900039974490564,426.25
342,-1.197488837182889,-1.865459670284355,-1.8062042407101748,-2.603341974325188,-1.2101184365135218,-3.7496856253645587,427.5
343,-1.1974887687068865,-1.865459661174419,-1.8062042098827527,-2.603342013211007,-1.2101183677328362,-3.589331282885735,428.75
344,-1.1974887051813763,-1.8654596432489614,-1.806204171833436,-2.603342068184605,-1.210118303767236,-3.4231754263770395,430.0
345,-1.197488648862962,-1.8654596218614778,-1.8062041326188356,-2.6033421278842224,-1.2101182469673326,-3.26578022738326,431.25
346,-1.1974886085461163,-1.8654595932221452,-1.8062040912506656,-2.60334219720964,-1.210118206084413,-3.1183850283895236,432.5
347,-1.1974885728765279,-1.865459565200663,-1.8062040519742306,-2.6033422638968404,-1.21011816986943,-2.980989829395846,433.75
348,-1.1974885524060357,-1.8654595337707929,-1.8062040141233702,-2.6033423327855876,-1.2101181488309942,-2.8535946304022577,435.0
349,-1.1974885359262832,-1.8654595037775625,-1.806203978972572,-2.6033423976013683,-1.210118131816106,-2.736199431408737,436.25
350,-1.1974885267131805,-1.8654594749547049,-1.8062039472962916,-2.6033424578844033,-1.2101181221035957,-2.6288042324152734,437.5
351,-1.1974885257615229,-1.8654594470672956,-1.8062039191760266,-2.603342513802405,-1.2101181206865868,-2.531409033421858,438.75
352,-1.197488524907576,-1.8654594220432168,-1.8062038939429894,-2.603342563979056,-1.2101181194150679,-2.444013834428496,440.0
353,-1.1974885269731124,-1.8654593997182647,-1.8062038723292695,-2.6033426078883455,-1.2101181211144096,-2.366618635435169,441.25
354,-1.1974885351702436,-1.8654593799055283,-1.8062038551682198,-2.6033426449315002,-1.2101181290008194,-2.299223436441861,442.5
355,-1.1974885421510968,-1.8654593630325766,-1.806203840553501,-2.603342676478247,-1.2101181357170552,-2.2418282374485754,443.75
356,-1.1974885479156716,-1.8654593490994122,-1.8062038284851103,-2.6033427025285847,-1.2101181412631172,-2.194433038455308,445.0
357,-1.1974885524639687,-1.8654593381060318,-1.8062038189630516,-2.6033427230825144,-1.2101181456390058,-2.1570378394620473,446.25
358,-1.197488555795987,-1.8654593300524356,-1.8062038119873247,-2.603342738140035,-1.2101181488447201,-2.1296426404687745,447.5
359,-1.1974885579117274,-1.8654593249386229,-1.8062038075579296,-2.6033427477011473,-1.2101181508802608,-2.112247441475498,448.75
360,-1.197986825056129,-1.8668519358278077,-1.8042898164484735,-2.603867554768398,-1.210615301329739,-2.1036383875386453,450.0
361,-1.1994407714978712,-1.8709155984793613,-1.7987047739223667,-2.605398934663215,-1.212065989849658,-2.1038819161548936,451.25
362,-1.199880079210099,-1.8721434327083963,-1.7970172606413284,-2.605861638127291,-1.2125043163031899,-2.1128672407749565,452.5
363,-1.1998800778896515,-1.8721434384159084,-1.7970172634615726,-2.6058616356858955,-1.2125043214875497,-2.1307447561690624,453.75
364,-1.1998800758305959,-1.8721434473159848,-1.7970172678593543,-2.605861631878876,-1.2125043295718425,-2.1586222715631584,455.0
365,-1.1998800730329324,-1.8721434594086261,-1.797017273834673,-2.605861626706233,-1.2125043405560683,-2.1964997869572476,456.25
366,-1.1998800694966612,-1.8721434746938317,-1.7970172813875287,-2.6058616201679663,-1.2125043544402274,-2.2443773023513476,457.5
367,-1.1998800647128711,-1.8721434936540255,-1.797017289047123,-2.6058616177453304,-1.2125043666554511,-2.3022548127168223,458.75
368,-1.1998800590926373,-1.8721435158995277,-1.7970172980015002,-2.6058616150108174,-1.212504380892264,-2.3701323229924665,460.0
369,-1.1998800580870412,-1.8721435389156684,-1.7970173173828585,-2.605861580952192,-1.2125043846542312,-2.448009820654751,461.25
370,-1.1998800587956704,-1.872143564036336,-1.7970173423445304,-2.6058615320204246,-1.212504384624363,-2.535887313637293,462.5
371,-1.1998800595564518,-1.8721435919928566,-1.7970173702278451,-2.605861477177313,-1.2125043843438688,-2.6337647948636773,463.75
372,-1.1998800693420972,-1.8721436206470123,-1.7970174019142,-2.6058614173945935,-1.2125043939891411,-2.7416422688120257,465.0
373,-1.1998800857870155,-1.8721436505693012,-1.7970174371523715,-2.605861352492657,-1.2125044109331042,-2.859519734868613,466.25
374,-1.1998801069567577,-1.872143681593496,-1.7970174749971408,-2.605861283961355,-1.2125044326445473,-2.9873971933645387,467.5
375,-1.1998801425399013,-1.8721437095406397,-1.7970175143258886,-2.6058612172931586,-1.2125044687774966,-3.1252746469350563,468.75
376,-1.1998801834594865,-1.8721437376060508,-1.7970175554725443,-2.6058611487698986,-1.2125045102607344,-3.273152099183619,470.0
377,-1.1998802396152803,-1.8721437589323635,-1.7970175947212672,-2.605861089095207,-1.212504566899307,-3.4310295444965107,471.25
378,-1.199880302485381,-1.8721437760311943,-1.7970176318739597,-2.6058610358334144,-1.212504630196678,-3.5952614048113283,472.5
379,-1.1998803686221056,-1.872143784837468,-1.7970176617605618,-2.605860998156939,-1.212504696629512,-3.7510631168373294,473.75
380,-1.1998804332923005,-1.8721437863657282,-1.7970176838897256,-2.6058609754743522,-1.2125047614709565,-3.8968648288633156,475.0
381,-1.1998804956121865,-1.8721437827512466,-1.797017700118837,-2.6058609637854673,-1.2125048238709022,-4.032666540889281,476.25
382,-1.1998805531860095,-1.8721437748075254,-1.7970177104996978,-2.6058609621912026,-1.2125048814417827,-4.158468252915209,477.5
383,-1.1998806060073774,-1.8721437623475137,-1.7970177148429098,-2.605860971067411,-1.212504934174068,-4.274269964941116,478.75
384,-1.1998806542673839,-1.8721437509634842,-1.7970177188110599,-2.60586097917712,-1.2125049823526843,-4.380071676967008,480.0
385,-1.1998806944487015,-1.8721437342562859,-1.7970177148738753,-2.605861000379769,-1.2125050223454983,-4.475873388992874,481.25
386,-1.1998807301778647,-1.8721437188237522,-1.7970177107954388,-2.605861020385599,-1.212505057897415,-4.561675101018754,482.5
387,-1.1998807617428742,-1.8721437051898486,-1.797017707192332,-2.605861038059795,-1.2125050893058356,-4.637476813044631,483.75
388,-1.199880786913864,-1.8721436916032137,-1.7970177015999977,-2.6058610575801,-1.2125051143066186,-4.703278525070499,485.0
389,-1.1998808060515633,-1.8721436783471672,-1.7970176944171325,-2.6058610782706726,-1.212505133266038,-4.7590802370963825,486.25
390,-1.1998808217596726,-1.8721436674666834,-1.7970176885214795,-2.6058610952533714,-1.2125051488278162,-4.804881949122293,487.5
391,-1.1998808340381923,-1.8721436589617637,-1.7970176839130376,-2.6058611085281966,-1.2125051609919537,-4.840683661148185,488.75
392,-1.199880842887122,-1.8721436528324067,-1.7970176805918072,-2.6058611180951474,-1.2125051697584497,-4.866485373174082,490.0
393,-1.1998808483064616,-1.8721436490786119,-1.7970176785577905,-2.6058611239542238,-1.2125051751273046,-4.882287085199976,491.25
394,-1.1997318050201518,-1.8717322266944563,-1.7976026939997276,-2.605686522148541,-1.212356594680412,-4.888444950382444,492.5
395,-1.1992755653200045,-1.870472838021459,-1.7993934715073971,-2.6051520453662547,-1.2119017718340785,-4.885773593703179,493.75
396,-1.1991758111792006,-1.8701974935634313,-1.7997850006464493,-2.605035185498592,-1.2118023275043606,-4.873784707488618,495.0
397,-1.198992851527043,-1.8696924826851034,-1.800503106526698,-2.604820852132915,-1.2116199360785247,-4.851795821274049,496.25
398,-1.198726686363532,-1.8689578053864757,-1.8015477891481422,-2.6045090452692237,-1.2113545975565716,-4.819806935059489,497.5
399,-1.1983760734046893,-1.8679932777909627,-1.8029174719543835,-2.60410151317691,-1.2110050625038757,-4.777818013436861,498.75
400,-1.1979384065848986,-1.8667985145431738,-1.8046088468844457,-2.6036019237550914,-1.2105687098528868,-4.72582899966361,500.0
401,-1.1974165552830367,-1.8653739405794134,-1.8066255549584358,-2.6030062391420845,-1.2100484254980013,-4.6638399858903785,501.25
402,-1.1968084785897635,-1.863719216580461,-1.8089650901294174,-2.602317283894485,-1.2094421580583918,-4.591850909307684,502.5
403,-1.1961127965642284,-1.861834113429715,-1.811625757340994,-2.6015369681146963,-1.208748520512029,-4.509861741843416,503.75
404,-1.1953298010300686,-1.8597186550093432,-1.8146079679124099,-2.6006648598753315,-1.2079678055533827,-4.417872504521257,505.0
405,-1.194457554243369,-1.8573724999494698,-1.8179093838050542,-2.5997036190618465,-1.2070980650029197,-4.3158831555342525,506.25
406,-1.1934941628099236,-1.8547952558941163,-1.8215278505650525,-2.5986557733336832,-1.2061373957250185,-4.203893653466579,507.5
407,-1.1924400467748337,-1.8519869759353005,-1.8254639215128199,-2.5975207204051265,-1.2050862201688461,-4.081904026745511,508.75
408,-1.1912931155362099,-1.8489472278136407,-1.8297152159527248,-2.596301251959372,-1.2039424369335687,-3.9499142345422014,510.0
409,-1.1900494295752022,-1.8456751380718632,-1.8342773789231175,-2.595002556070927,-1.202702086536751,-3.8079241959000716,511.25
410,-1.1887092341360708,-1.8421706710919932,-1.8391508823148532,-2.593624198570155,-1.2013654160722937,-3.6559339444502124,512.5
411,-1.1872746460295018,-1.838444416268641,-1.8443180323061408,-2.592173291235739,-1.199934520776574,-3.4944263488230707,513.75
412,-1.1858640021773295,-1.834805903347252,-1.8493483498854184,-2.5907716056728884,-1.1985274263572065,-3.3368305989636493,515.0
413,-1.1845331040953182,-1.8313959089930585,-1.8540491154368768,-2.589471479590393,-1.1971998043139822,-3.1892346300242504,516.25
414,-1.1832840509474682,-1.828214876294139,-1.8584226999339677,-2.588270120305026,-1.1959537646011051,-3.0516384832368777,517.5
415,-1.1821189938536176,-1.8252633002835907,-1.8624714409083878,-2.5871647173645735,-1.194791469116623,-2.924042196473378,518.75
416,-1.1810377017981826,-1.8225410698528837,-1.8661952183175958,-2.586155499235097,-1.1937126860846003,-2.806445761612414,520.0
417,-1.18004264107339,-1.8200487826422118,-1.8695966448048815,-2.5852392811293807,-1.1927198939510724,-2.6988492235254236,521.25
418,-1.1791374654701858,-1.8177874231014115,-1.8726793662272834,-2.5844114710662067,-1.191816763829404,-2.6012526371552984,522.5
419,-1.178318664233665,-1.8157559930116471,-1.8754399984468604,-2.583676414276093,-1.1909997686817473,-2.5136559410641506,523.75
420,-1.1775931649404707,-1.8139564207708203,-1.8778853131840707,-2.5830254836628543,-1.1902758684999672,-2.4360592423791556,525.0
421,-1.1769560630660147,-1.8123873005554798,-1.8800106088792543,-2.582464734669574,-1.1896401360921742,-2.368462461130855,526.25
422,-1.1764132115186736,-1.811050309767956,-1.8818214967496967,-2.5819869406606775,-1.1890984514180238,-2.3108656798825398,527.5
423,-1.1759640608036905,-1.8099452866059393,-1.8833174598925564,-2.5815927744951583,-1.1886502624732513,-2.2632688908739436,528.75
424,-1.1756067546838074,-1.8090716843565968,-1.8844967524283855,-2.5812845090167316,-1.1882937045436872,-2.22567206144776,530.0
425,-1.1753444848011114,-1.8084304427245397,-1.8853623768826688,-2.581058235951796,-1.188031983847743,-2.1980752320215906,531.25
426,-1.1751772511556027,-1.8080215617097672,-1.8859143332554074,-2.5809139553003515,-1.1878651003854177,-2.18047840259542,532.5
427,-1.1750469101010022,-1.807703184904831,-1.8863439344791475,-2.5808017908196152,-1.187735031521745,-2.172760997097412,533.75
428,-1.1744320661229692,-1.806203245212959,-1.8883667315159556,-2.5802744948556726,-1.1871214668670669,-2.174071636761007,535.0
429,-1.1744318236246267,-1.8062031768179583,-1.8883665091751973,-2.580274782697132,-1.1871212235953474,-2.184428587607186,536.25
430,-1.1744313469856125,-1.8062030423851803,-1.8883660721566233,-2.5802753484596366,-1.187120745436234,-2.2047855384533657,537.5
431,-1.1744306362059271,-1.8062028419146257,-1.8883654204602345,-2.580276192143186,-1.1871200323897266,-2.23514248929954,538.75
432,-1.174429691197916,-1.8062025755109412,-1.8883645537863765,-2.5802773148693534,-1.1871190836799659,-2.2754994181272443,540.0
433,-1.1744285119918012,-1.8062022431378253,-1.8883634722387408,-2.5802787162496976,-1.187117899575632,-2.325856338953564,541.25
434,-1.174427098616064,-1.8062018447612462,-1.8883621759147413,-2.5802803959195644,-1.1871164803289753,-2.386213259779851,542.5
435,-1.1744270610771794,-1.806201854940604,-1.8883621609812196,-2.580280400669853,-1.1871164426739473,-2.4565701620622002,543.75
436,-1.1744270618568826,-1.8062018794338612,-1.8883621844950316,-2.5802803531269904,-1.1871164434976098,-2.536927063468394,545.0
437,-1.1744270627229958,-1.8062019069690045,-1.8883622109578135,-2.5802802995669802,-1.1871164443362185,-2.6272839592529147,546.25
438,-1.1744270711994402,-1.8062019357344705,-1.8883622410205576,-2.5802802411144983,-1.1871164530395886,-2.727640848856585,547.5
439,-1.1744270875587586,-1.8062019656643082,-1.8883622747078224,-2.580280177806239,-1.1871164698904155,-2.837997731383686,548.75
440,-1.174427105400964,-1.8062019983059079,-1.8883623114486472,-2.580280108757595,-1.1871164882723049,-2.958354607206859,550.0
441,-1.1744271410648337,-1.806202026529742,-1.8883623494581165,-2.580280043136184,-1.187116524457936,-3.0887114732510383,551.25
442,-1.1744271795582304,-1.806202056877858,-1.8883623903730955,-2.5802799725335595,-1.1871165635128735,-3.2290683358256467,552.5
443,-1.1744272347808935,-1.8062020796140006,-1.88836242917359,-2.5802799118853894,-1.187116619211997,-3.3794251977745775,553.75
444,-1.174427296097916,-1.8062021018549035,-1.8883624693824244,-2.5802798504136066,-1.1871166810105844,-3.5397820519699748,555.0
445,-1.1744273696891792,-1.806202111566447,-1.8883625013978014,-2.580279809811601,-1.187116754912232,-3.702891390693508,556.25
446,-1.1744274403461028,-1.806202117102802,-1.888362528513514,-2.5802797782287215,-1.1871168258074811,-3.8562217771356946,557.5
447,-1.1744275102591042,-1.8062021128824104,-1.8883625460674043,-2.580279765925311,-1.187116895803491,-3.999552163577867,558.75
448,-1.1744275752025843,-1.8062021062339746,-1.8883625597642255,-2.5802797598259644,-1.1871169607810965,-4.1328825500200095,560.0
449,-1.1744276350000606,-1.8062020919220996,-1.8883625645419688,-2.5802797702104243,-1.187117020480949,-4.256212936462114,561.25
450,-1.1744276899489803,-1.8062020787706803,-1.888362568932311,-2.5802797797528823,-1.18711707534016,-4.369543322904193,562.5
451,-1.1744277364274007,-1.8062020601538444,-1.8883625654792613,-2.5802798024621882,-1.1871171216246446,-4.472873709346271,563.75
452,-1.1744277777407022,-1.8062020421183553,-1.888362560987157,-2.5802798255538737,-1.1871171627421246,-4.566204095788333,565.0
453,-1.17442781462744,-1.8062020260153042,-1.888362556976361,-2.5802798461713725,-1.1871171994540224,-4.649534482230383,566.25
454,-1.1744278431673807,-1.8062020087539936,-1.88836254928006,-2.5802798715048842,-1.187117227783025,-4.722864868672431,567.5
455,-1.1744278662573493,-1.8062019926182677,-1.888362540977292,-2.580279896241267,-1.1871172506681362,-4.786195255114469,568.75
456,-1.174427885701364,-1.806201979030408,-1.8883625339855459,-2.5802799170717234,-1.1871172699396408,-4.839525641556549,570.0
457,-1.174427901499425,-1.8062019679904144,-1.8883625283048229,-2.5802799339962545,-1.1871172855975394,-4.882856027998647,571.25
458,-1.1744279136515314,-1.806201959498285,-1.888362523935125,-2.580279947014858,-1.187117297641831,-4.916186414440727,572.5
459,-1.1744279221576839,-1.8062019535540192,-1.8883625208764523,-2.580279956127536,-1.1871173060725155,-4.939516800882811,573.75
460,-1.1744347841029483,-1.8062190901268276,-1.8883401075039647,-2.580285282975704,-1.1871241583877579,-4.952867880980884,575.0
461,-1.1756901999348601,-1.8093571255763454,-1.8842369212617043,-2.5812595853203533,-1.1883778190164633,-4.958242981551967,576.25
462,-1.1770887666008627,-1.8128529924425463,-1.879665851561373,-2.58234498514511,-1.1897744316679406,-4.953817149364091,577.5
463,-1.1771336864997157,-1.8129652879237774,-1.8795190227552656,-2.5823798512976683,-1.1898192924204376,-4.941415249713788,578.75
464,-1.1771336793412448,-1.8129652943564758,-1.8795190229239747,-2.5823798542990266,-1.189819291835973,-4.9191472237593095,580.0
465,-1.177133668968088,-1.812965303677934,-1.8795190231684464,-2.582379858648218,-1.1898192909890402,-4.8868791978048325,581.25
466,-1.177133655380245,-1.8129653158881518,-1.8795190234886812,-2.582379864345241,-1.1898192898796391,-4.844611171850332,582.5
467,-1.1771336388358093,-1.8129653308056337,-1.8795190244189883,-2.5823798694018945,-1.1898192907076073,-4.792343147961122,583.75
468,-1.1771336195135111,-1.8129653483046928,-1.8795190263293808,-2.5823798724413365,-1.1898192949963424,-4.7300751268787895,585.0
469,-1.1771335951884454,-1.8129653672680148,-1.879519028866917,-2.582379871351419,-1.1898192926680518,-4.657807109013275,586.25
470,-1.1771335591446785,-1.8129653829370347,-1.8795190331640994,-2.582379849807996,-1.1898192578946676,-4.575539104261064,587.5
471,-1.177133518702203,-1.8129654005005134,-1.879519038021193,-2.5823798254803716,-1.189819218749764,-4.48327110542534,588.75
472,-1.1771334735943249,-1.8129654195006815,-1.879519042890175,-2.5823797994373288,-1.1898191748665292,-4.381003113361736,590.0
473,-1.177133419492057,-1.8129654324240718,-1.8795190385676197,-2.582379790014657,-1.1898191207969036,-4.268735132302878,591.25
474,-1.1771333605696384,-1.8129654464997795,-1.879519033856387,-2.5823797797667196,-1.1898190619014715,-4.14646715883156,592.5
475,-1.1771332965812462,-1.8129654542179376,-1.8795190214644228,-2.5823797834947024,-1.1898189978704221,-4.01419919127761,593.75
476,-1.1771332276183886,-1.8129654583551462,-1.8795190040900644,-2.5823797957185226,-1.1898189288234966,-3.871931225928159,595.0
477,-1.1771331573070987,-1.8129654542761442,-1.87951897841458,-2.5823798244142697,-1.189818858296225,-3.71966326488577,596.25
478,-1.1771330845510184,-1.8129654446464594,-1.879518946656362,-2.5823798646898064,-1.1898187852315791,-3.557395310350288,597.5
479,-1.1771330205041821,-1.812965423292774,-1.8795189063428863,-2.5823799253410162,-1.1898187207090993,-3.392160684093217,598.75
480,-1.1771329629135647,-1.8129654004868159,-1.8795188666338853,-2.582379986932155,-1.189818662633676,-3.236665717359729,600.0
481,-1.177132923258834,-1.8129653692065482,-1.879518824343662,-2.582380059822148,-1.1898186223984477,-3.091170750626272,601.25
482,-1.1771328867545385,-1.8129653398908563,-1.8795187849137158,-2.5823801279398655,-1.1898185853515297,-2.9556757838928176,602.5
483,-1.1771328682637872,-1.812965306056459,-1.8795187467225039,-2.582380199593303,-1.1898185662852658,-2.83018081715941,603.75
484,-1.1771328512464612,-1.8129652749181446,-1.8795187115745318,-2.582380265537073,-1.1898185487382873,-2.714685850426018,605.0
485,-1.1771328445180502,-1.812965244369271,-1.8795186801765247,-2.5823803272965504,-1.1898185415116473,-2.6091908836926505,606.25
486,-1.1771328435442163,-1.812965215493408,-1.8795186521649745,-2.5823803840871435,-1.1898185400784338,-2.5136959169592883,607.5
487,-1.1771328426723602,-1.8129651896413594,-1.8795186270867208,-2.582380434930764,-1.1898185387953029,-2.4282009502259396,608.75
488,-1.1771328467540358,-1.8129651665220978,-1.8795186061640052,-2.582380478967717,-1.1898185425196164,-2.3527059834925828,610.0
489,-1.1771328551225397,-1.8129651461756158,-1.8795185892288673,-2.582380516316143,-1.1898185505838723,-2.287211016759246,611.25
490,-1.1771328622133113,-1.8129651289357065,-1.8795185748794445,-2.5823805479620807,-1.1898185574168494,-2.2317160500258857,612.5
491,-1.1771328680263506,-1.812965114802371,-1.8795185631157354,-2.5823805739055308,-1.189818563018548,-2.1862210832924975,613.75
492,-1.1771328725616574,-1.812965103775607,-1.8795185539377428,-2.5823805941464926,-1.1898185673889676,-2.150726116559111,615.0
493,-1.1771328758192319,-1.812965095855414,-1.8795185473454672,-2.5823806086849665,-1.1898185705281088,-2.1252311498257273,616.25
494,-1.1771328777990737,-1.8129650910417923,-1.8795185433389079,-2.5823806175209527,-1.1898185724359711,-2.109736183092353,617.5
495,-1.1780039280101955,-1.8151691233654086,-1.876619266268585,-2.5830821676965745,-1.1906883296968684,-2.1026502512829492,618.75
496,-1.1795735162691725,-1.819140686958541,-1.8713949139061277,-2.5843463194027025,-1.1922555892223572,-2.1049343469276436,620.0
497,-1.1798007703563003,-1.8197157183242267,-1.8706385010873778,-2.584529349447914,-1.1924825101900798,-2.1155822658916166,621.25
498,-1.1798007688817524,-1.8197157250145062,-1.8706385044533227,-2.584529346027976,-1.1924825166306199,-2.135645170190318,622.5
499,-1.179800766672242,-1.8197157350394368,-1.8706385094969629,-2.5845293409034307,-1.1924825262813337,-2.1657080744890167,623.75
500,-1.1798007637277697,-1.8197157483990192,-1.8706385162182992,-2.5845293340742783,-1.1924825391422207,-2.205770978787719,625.0
501,-1.1798007599509641,-1.8197157651901488,-1.8706385243219061,-2.584529326669775,-1.192482554373765,-2.2558338807847846,626.25
502,-1.1798007549919785,-1.819715785760968,-1.8706385327463382,-2.584529322747284,-1.1924825689596286,-2.3158967737406195,627.5
503,-1.1798007492073606,-1.8197158097566672,-1.8706385425733723,-2.5845293181717284,-1.192482585973924,-2.3859596666964444,628.75
504,-1.1798007497087832,-1.8197158340117605,-1.870638565354395,-2.584529273091439,-1.1924825864837456,-2.4660225437176213,630.0
505,-1.1798007504619146,-1.8197158612023414,-1.870638591323948,-2.58452922117718,-1.192482586454189,-2.556085417086325,631.25
506,-1.1798007512729995,-1.8197158913955216,-1.8706386202372294,-2.5845291632355627,-1.1924825862075983,-2.6561482817352116,632.5
507,-1.1798007649855131,-1.8197159214729353,-1.8706386534003903,-2.5845291004184525,-1.192482600123912,-2.766211136576889,633.75
508,-1.1798007825614798,-1.819715953642949,-1.8706386898563365,-2.5845290320731804,-1.1924826182091557,-2.8862739840494083,635.0
509,-1.179800808727324,-1.8197159853903728,-1.8706387285602892,-2.584528962054539,-1.1924826449166852,-3.0163368248414404,636.25
510,-1.1798008466662235,-1.819716015329817,-1.8706387691577113,-2.5845288921667797,-1.192482683416917,-3.1563996621240102,637.5
511,-1.1798008936440618,-1.8197160429874337,-1.870638810361485,-2.5845288240837956,-1.192482730938309,-3.3064624965546843,638.75
512,-1.1798009534042877,-1.8197160657496698,-1.8706388508162881,-2.5845287618228547,-1.1924827911897344,-3.466525324223004,640.0
513,-1.1798010228741682,-1.8197160808780843,-1.8706388869325214,-2.5845287116574753,-1.192482861050195,-3.6327673963620133,641.25
514,-1.1798010931446163,-1.819716090203944,-1.8706389177099005,-2.5845286726289687,-1.1924829316205694,-3.7904677737656876,642.5
515,-1.179801163378114,-1.8197160881952001,-1.870638937561893,-2.584528655827824,-1.1924830019734944,-3.9381681511693394,643.75
516,-1.1798012297132054,-1.8197160842396394,-1.8706389543300368,-2.5845286439936763,-1.1924830683886212,-4.075868528572946,645.0
517,-1.179801290936241,-1.819716071840403,-1.8706389613821475,-2.5845286502190787,-1.1924831295462666,-4.203568905976544,646.25
518,-1.1798013472968127,-1.8197160583918313,-1.8706389659155405,-2.5845286599370225,-1.1924831858142628,-4.321269283380109,647.5
519,-1.1798013971235304,-1.819716042891722,-1.8706389664467593,-2.584528675605396,-1.1924832355016632,-4.428969660783664,648.75
520,-1.1798014398349188,-1.819716024275937,-1.870638961770796,-2.584528699481659,-1.1924832780088004,-4.526670038187196,650.0
521,-1.179801478174638,-1.819716007565552,-1.8706389575734284,-2.584528720914099,-1.1924833161651742,-4.614370415590731,651.25
522,-1.1798015106488438,-1.8197159915816878,-1.870638952256159,-2.58452874265447,-1.1924833484549553,-4.692070792994252,652.5
523,-1.1798015350256834,-1.8197159745630647,-1.8706389434307678,-2.5845287688139935,-1.1924833726134443,-4.759771170397775,653.75
524,-1.1798015558018284,-1.8197159600582566,-1.8706389359089717,-2.584528791109503,-1.1924833932034908,-4.817471547801317,655.0
525,-1.179801572977279,-1.8197159480672662,-1.870638929690768,-2.5845288095409984,-1.192483410225096,-4.865171925204876,656.25
526,-1.179801586552035,-1.8197159385900905,-1.8706389247761606,-2.58452882410848,-1.1924834236782589,-4.902872302608435,657.5
527,-1.179801596526096,-1.819715931626729,-1.8706389211651493,-2.5845288348119464,-1.1924834335629793,-4.93057268001199,658.75
528,-1.179801602899462,-1.8197159271771826,-1.8706389188577348,-2.584528841651398,-1.1924834398792572,-4.948273057415543,660.0
529,-1.180323015895768,-1.8210514939694398,-1.8688716154816987,-2.5849643266347373,-1.1930040329324336,-4.9570865722630195,661.25
530,-1.1819310545039436,-1.825170416209605,-1.8634212190542494,-2.58630736139772,-1.1946095432707509,-4.9570295054158695,662.5
531,-1.182432508729219,-1.8264548796171527,-1.8617215461333407,-2.5867261796786196,-1.1951102115040877,-4.948128466135389,663.75
532,-1.1824325030495413,-1.8264548847116417,-1.861721546234517,-2.5867261821809344,-1.1951102109210079,-4.930308533208407,665.0
533,-1.1824324941826028,-1.826454892665002,-1.8617215463924697,-2.5867261860874713,-1.1951102100107218,-4.902488600281429,666.25
534,-1.1824324821284038,-1.826454903477233,-1.8617215466071997,-2.5867261913982302,-1.195110208773229,-4.86466866735444,667.5
535,-1.1824324668869437,-1.8264549171483355,-1.8617215468787065,-2.5867261981132117,-1.1951102072085298,-4.816848734427453,668.75
536,-1.1824324490842768,-1.8264549332462001,-1.8617215484812197,-2.5867262015224055,-1.1951102107087166,-4.759028808128848,670.0
537,-1.18243242821989,-1.826454952116286,-1.8617215503960287,-2.5867262053913334,-1.195110214962962,-4.691208881998073,671.25
538,-1.1824323968588617,-1.8264549684043467,-1.861721553996273,-2.5867261911123363,-1.1951101913708564,-4.613388968250186,672.5
539,-1.1824323588569787,-1.826454984898073,-1.8617215585561233,-2.5867261684005114,-1.1951101547211307,-4.525569059162269,673.75
540,-1.1824323164943142,-1.8264550032492008,-1.8617215637113422,-2.5867261427698334,-1.1951101136171374,-4.427749161610725,675.0
541,-1.1824322669189682,-1.826455018487945,-1.8617215632802315,-2.5867261265926222,-1.195110064584536,-4.319929271252305,676.25
542,-1.1824322108408687,-1.8264550318444526,-1.861721558768178,-2.5867261168986437,-1.1951100085377062,-4.202109388762043,677.5
543,-1.1824321499260466,-1.826455044021454,-1.8617215516065655,-2.5867261109735806,-1.1951099476276315,-4.0742895137667015,678.75
544,-1.1824320839423281,-1.8264550479341812,-1.861721534869032,-2.5867261228274594,-1.1951098815618886,-3.9364696436372983,680.0
545,-1.1824320141504852,-1.826455049749902,-1.8617215149211805,-2.5867261399258714,-1.1951098116468972,-3.7886497748218027,681.25
546,-1.1824319442598759,-1.8264550404516287,-1.8617214842048704,-2.5867261788712126,-1.1951097414563268,-3.6308299130046526,682.5
547,-1.1824318753492213,-1.826455025228519,-1.8617214480684277,-2.5867262291594635,-1.195109672152992,-3.4645625203942965,683.75
548,-1.1824318160023828,-1.8264550026052384,-1.861721407755402,-2.5867262911463893,-1.1951096123156857,-3.304622929360372,685.0
549,-1.1824317695367559,-1.826454974997278,-1.8617213666312518,-2.5867263591073795,-1.1951095653077217,-3.154683338326486,686.25
550,-1.182431731864456,-1.8264549452571226,-1.8617213261810803,-2.586726428651843,-1.1951095270780057,-3.0147437472926386,687.5
551,-1.1824317060743992,-1.8264549136398562,-1.8617212876118432,-2.586726498364561,-1.19510950072622,-2.8848041562588156,688.75
552,-1.1824316886182937,-1.8264548816907582,-1.8617212513133445,-2.586726566261831,-1.1951094827211173,-2.7648645652250075,690.0
553,-1.1824316751364432,-1.8264548518052601,-1.861721218244544,-2.5867266289309203,-1.1951094687318926,-2.6549249741912244,691.25
554,-1.182431674128382,-1.8264548219581567,-1.8617211890914704,-2.586726687832177,-1.1951094672440759,-2.5549853831574483,692.5
555,-1.1824316732211877,-1.8264547950975722,-1.8617211628554622,-2.5867267408397483,-1.1951094659051305,-2.4650457921237052,693.75
556,-1.1824316727983755,-1.8264547712007637,-1.8617211396338018,-2.5867267878847544,-1.1951094650990381,-2.3851062010899513,695.0
557,-1.1824316816236724,-1.8264547497481085,-1.8617211216494223,-2.5867268273932296,-1.1951094736001846,-2.3151666100562034,696.25
558,-1.1824316891871236,-1.8264547313627655,-1.8617211062364594,-2.5867268612527616,-1.1951094808858325,-2.255227019022451,697.5
559,-1.1824316954887295,-1.8264547160447369,-1.8617210933949098,-2.586726889463351,-1.1951094869559822,-2.205287427988668,698.75
560,-1.1824317005284897,-1.8264547037940204,-1.8617210831247761,-2.586726912024998,-1.1951094918106335,-2.165347836954878,700.0
561,-1.1824317043064039,-1.8264546946106155,-1.861721075426059,-2.5867269289377015,-1.1951094954497863,-2.1354082459210977,701.25
562,-1.1824317068224728,-1.826454688494522,-1.861721070298759,-2.5867269402014625,-1.1951094978734405,-2.1154686548873127,702.5
563,-1.1826605215704598,-1.8270479989315158,-1.8609313570015322,-2.586924976736813,-1.1953379321373914,-2.104921190314992,703.75
564,-1.1841883384718905,-1.8310096299388343,-1.8556583572923777,-2.5882472537578116,-1.196863208962284,-2.10272637006333,705.0
565,-1.1850262754347027,-1.8331824059746682,-1.8527663597665522,-2.5889724602748396,-1.1976997554910793,-2.1098747844980843,706.25
566,-1.1850262742896038,-1.8331824111062187,-1.8527663623245791,-2.5889724577784214,-1.1976997603479465,-2.125416633748998,707.5
567,-1.1850262724077205,-1.8331824195395323,-1.8527663665285024,-2.5889724536757486,-1.1976997683298392,-2.150958482999908,708.75
568,-1.1850262697890528,-1.8331824312746097,-1.8527663723783219,-2.58897244796682,-1.197699779436757,-2.186500332250822,710.0
569,-1.1850262664336009,-1.8331824463114497,-1.8527663798740373,-2.5889724406516366,-1.1976997936687004,-2.23204218150174,711.25
570,-1.185026261956913,-1.8331824650258,-1.8527663878682281,-2.5889724360898168,-1.1976998076771073,-2.2875840285416453,712.5
571,-1.1850262565341292,-1.8331824872464855,-1.852766396883611,-2.588972432295301,-1.1976998229874425,-2.353125874851913,713.75
572,-1.1850262539935352,-1.83318251119571,-1.8527664133448343,-2.5889724070463593,-1.1976998311335207,-2.4286677125342346,715.0
573,-1.185026254708624,-1.8331825367061618,-1.8527664378630813,-2.588972358241172,-1.1976998311588256,-2.514209542403812,716.25
574,-1.1850262554801458,-1.8331825651803826,-1.8527664653147076,-2.5889723034395646,-1.19769983095853,-2.6097513623299022,717.5
575,-1.185026262028124,-1.8331825952417402,-1.8527664962611854,-2.5889722432464013,-1.1976998370039191,-2.7152931755596064,718.75
576,-1.1850262787359087,-1.8331826258277015,-1.8527665311541506,-2.58897217803708,-1.1976998541962154,-2.8308349804383917,720.0
577,-1.185026296891362,-1.8331826590597806,-1.8527665690701705,-2.5889721071725345,-1.1976998728906019,-2.9563767769136975,721.25
578,-1.1850263328166124,-1.8331826878449156,-1.8527666081835257,-2.588972039887393,-1.1976999093588885,-3.091918567395882,722.5
579,-1.1850263717580818,-1.8331827185949017,-1.8527666501415563,-2.5889719678455045,-1.1976999488829132,-3.2374603576611296,723.75
580,-1.1850264283822973,-1.833182740991229,-1.852766689510629,-2.588971906988291,-1.197700005990709,-3.393002141260999,725.0
581,-1.1850264913222737,-1.833182761951723,-1.852766729456098,-2.5889718470808862,-1.1977000694047115,-3.5582677411892605,726.25
582,-1.1850265627205423,-1.8331827714716595,-1.8527667609442715,-2.5889718071655983,-1.1977001411113515,-3.720485798521371,727.5
583,-1.18502663174328,-1.8331827754810424,-1.8527667863482926,-2.5889717787941615,-1.1977002103486618,-3.8727038558534583,728.75
584,-1.185026699415018,-1.8331827714897977,-1.8527668035728966,-2.588971766560267,-1.1977002781033512,-4.014921913185523,730.0
585,-1.1850267621982375,-1.8331827639276335,-1.8527668158108694,-2.588971762800953,-1.1977003409014553,-4.147139970517564,731.25
586,-1.1850268200043117,-1.8331827501730953,-1.8527668204925478,-2.5889717726987,-1.1977003986119903,-4.269358027849582,732.5
587,-1.1850268730806395,-1.8331827375439713,-1.8527668247911597,-2.588971781786606,-1.1977004516005958,-4.381576085181599,733.75
588,-1.185026917447881,-1.833182718756975,-1.8527668204036054,-2.588971805571305,-1.1977004957621302,-4.483794142513569,735.0
589,-1.1850269572677468,-1.8331827014291817,-1.8527668160135184,-2.588971827835496,-1.1977005353898713,-4.576012199845555,736.25
590,-1.1850269927696018,-1.833182685980393,-1.8527668120994822,-2.5889718476853893,-1.1977005707204353,-4.6582302571775065,737.5
591,-1.1850270195591313,-1.833182668940626,-1.852766803926822,-2.5889718732503386,-1.1977005972941404,-4.730448314509474,738.75
592,-1.185027041686691,-1.8331826535082536,-1.8527667958596172,-2.5889718970373012,-1.1977006192215927,-4.792666371841427,740.0
593,-1.1850270602577981,-1.8331826405562515,-1.8527667890890123,-2.5889719170011043,-1.1977006376247548,-4.844884429173413,741.25
594,-1.1850270752724525,-1.8331826300846188,-1.8527667836150084,-2.588971933141747,-1.1977006525036265,-4.887102486505411,742.5
595,-1.1850270867306538,-1.8331826220933543,-1.8527667794376066,-2.588971945459228,-1.1977006638582068,-4.919320543837391,743.75
596,-1.1850270946324017,-1.8331826165824578,-1.8527667765568077,-2.588971953953549,-1.1977006716884966,-4.941538601169384,745.0
597,-1.1850706418872967,-1.8332969127712302,-1.8526137603421307,-2.5890109828114665,-1.197744142493264,-4.953895317082383,746.25
598,-1.1863921840939884,-1.8367659329009505,-1.8479697142189804,-2.590195380255727,-1.1990633656081338,-4.95834754457515,747.5
599,-1.1875787738144117,-1.8398807162906468,-1.843799895741092,-2.591258832117095,-1.2002478745427139,-4.953010653988684,748.75
600,-1.187586162687017,-1.839900126695687,-1.8437739157298418,-2.591265459878444,-1.2002552541138816,-4.939758317185709,750.0
601,-1.1875861553470903,-1.8399001332676155,-1.8437739158212971,-2.5912654632558834,-1.2002552532100565,-4.91653100845245,751.25
602,-1.1875861448471214,-1.8399001426689416,-1.8437739159521254,-2.5912654680874034,-1.2002552519171097,-4.883303699719194,752.5
603,-1.1875861311871108,-1.8399001548996652,-1.8437739161223283,-2.5912654743730044,-1.200255250235041,-4.840076390985934,753.75
604,-1.1875861146828173,-1.839900169745496,-1.8437739169645928,-2.5912654797898163,-1.200255250911768,-4.786849089185302,755.0
605,-1.187586095397763,-1.8399001871633258,-1.8437739186061992,-2.591265483870543,-1.2002552545000966,-4.723621793859975,756.25
606,-1.1875860703233976,-1.839900205316636,-1.8437739210800195,-2.5912654814432745,-1.2002552481699298,-4.650394503394211,757.5
607,-1.1875860347510394,-1.8399002207342208,-1.8437739253703167,-2.591265460211302,-1.2002552138957785,-4.567167224606356,758.75
608,-1.1875859948850909,-1.8399002379915328,-1.843773930222648,-2.591265436226544,-1.200255175338637,-4.473939953042249,760.0
609,-1.1875859500308235,-1.8399002558831834,-1.8437739341406911,-2.591265412449677,-1.200255131617657,-4.370712688324925,761.25
610,-1.187585896796862,-1.8399002685271908,-1.8437739298293847,-2.591265403303368,-1.2002550784180637,-4.257485433495647,762.5
611,-1.1875858388601204,-1.8399002822891917,-1.843773925133331,-2.5912653933643828,-1.200255020508855,-4.134258187238066,763.75
612,-1.1875857759433703,-1.8399002887301417,-1.8437739117414766,-2.591265399383371,-1.2002549575389647,-4.0010309466438585,765.0
613,-1.1875857082069285,-1.839900292705617,-1.8437738944386615,-2.5912654117127736,-1.2002548897172864,-3.8578037076260983,766.25
614,-1.1875856396929911,-1.8399002873561927,-1.843773867817974,-2.591265442645292,-1.2002548209668695,-3.7045764734902655,767.5
615,-1.1875855682884273,-1.8399002778165445,-1.8437738362159395,-2.5912654826935966,-1.2002547492522095,-3.5413492457102445,768.75
616,-1.187585507218976,-1.8399002556977972,-1.843773795601167,-2.591265544453259,-1.2002546876917137,-3.3768627796396453,770.0
617,-1.1875854528353573,-1.8399002325044251,-1.8437737560301029,-2.5912656063407633,-1.2002546328142685,-3.222333959928395,771.25
618,-1.1875854144004054,-1.8399002021481365,-1.8437737144722348,-2.591265677596461,-1.2002545938045088,-3.077805140217178,772.5
619,-1.187585380566665,-1.8399001730478746,-1.8437736755749126,-2.5912657450078216,-1.2002545594263208,-2.9432763205059915,773.75
620,-1.1875853626619497,-1.8399001402782253,-1.8437736380848324,-2.5912658149091845,-1.2002545409526164,-2.8187475007948435,775.0
621,-1.1875853461950316,-1.8399001101400758,-1.8437736036052985,-2.5912658791972785,-1.200254523962401,-2.704218681083697,776.25
622,-1.1875853410516317,-1.8399000802843566,-1.8437735729397888,-2.591265939558906,-1.2002545183250048,-2.599689861372575,777.5
623,-1.187585340108388,-1.8399000524037337,-1.8437735455093454,-2.5912659947786083,-1.2002545169288774,-2.505161041661457,778.75
624,-1.187585339264928,-1.839900027472546,-1.8437735209807042,-2.5912660441567374,-1.2002545156804434,-2.420632221950354,780.0
625,-1.1875853441573665,-1.8399000051600396,-1.8437735007935157,-2.5912660866677024,-1.2002545202227806,-2.346103402239249,781.25
626,-1.18758535219968,-1.8398999856179725,-1.843773484287226,-2.5912661227820752,-1.2002545279666705,-2.2815745825281364,782.5
627,-1.1875853589956797,-1.8398999691043312,-1.8437734703389066,-2.591266153299821,-1.200254534510494,-2.227045762817015,783.75
628,-1.1875853645453667,-1.8398999556191167,-1.8437734589485573,-2.5912661782209403,-1.2002545398542506,-2.182516943105872,785.0
629,-1.1875853688487399,-1.8398999451623257,-1.8437734501161804,-2.5912661975454325,-1.2002545439979402,-2.1479881233947324,786.25
630,-1.1875853719057996,-1.839899937733959,-1.8437734438417759,-2.5912662112732976,-1.2002545469415629,-2.1234593036836023,787.5
631,-1.1875853737165463,-1.8398999333340165,-1.8437734401253436,-2.591266219404536,-1.2002545486851184,-2.1089304839724674,788.75
632,-1.1885505509978493,-1.8424647811198205,-1.8403202181647358,-2.592161391928982,-1.2012179412395911,-2.102552983232306,790.0
633,-1.1899768033804299,-1.846254890656992,-1.835217354499441,-2.59348419317024,-1.202641557611429,-2.105727519295396,791.25
634,-1.1901095535238106,-1.8466076653751997,-1.834742398243425,-2.593607313557344,-1.2027740665499114,-2.11700760179942,792.5
635,-1.1901095519822102,-1.8466076722005642,-1.8347424016178924,-2.593607310393873,-1.202774072900928,-2.137886807835886,793.75
636,-1.1901095497022673,-1.8466076822949054,-1.8347424066085456,-2.5936073057152704,-1.2027740822937347,-2.1687660138723555,795.0
637,-1.1901095466839822,-1.8466076956582236,-1.8347424132153844,-2.5936072995215387,-1.202774094728332,-2.2096452199088366,796.25
638,-1.1901095427888562,-1.8466077124237457,-1.8347424210311167,-2.593607293350712,-1.2027741089861284,-2.260524424993095,797.5
639,-1.190109537743652,-1.8466077328543076,-1.8347424292522156,-2.593607290237104,-1.2027741226630253,-2.321403627646827,798.75
640,-1.190109532259979,-1.846607756464802,-1.8347424394668508,-2.5936072844081792,-1.202774137624894,-2.392282829325762,800.0
641,-1.1901095329281073,-1.8466077802833403,-1.8347424625358069,-2.5936072386468463,-1.2027741376332424,-2.4731620154517824,801.25
642,-1.1901095336678438,-1.8466078070389307,-1.8347424884856454,-2.5936071871045265,-1.2027741375491008,-2.5640411972362154,802.5
643,-1.1901095344678057,-1.8466078367233973,-1.834742517345971,-2.5936071296539365,-1.2027741372756908,-2.664920371129772,803.75
644,-1.1901095491370715,-1.8466078660019,-1.8347425505357786,-2.593607067514947,-1.2027741522800657,-2.7757995342414836,805.0
645,-1.1901095664073942,-1.8466078976101699,-1.8347425868571217,-2.5936069998568527,-1.2027741700651422,-2.8966786901148724,806.25
646,-1.1901095934090637,-1.8466079282307177,-1.8347426252505272,-2.593606931290213,-1.202774197608504,-3.0275578395203753,807.5
647,-1.190109630647298,-1.8466079576444951,-1.834742665657878,-2.5936068621054273,-1.2027742354096338,-3.1684369859081905,808.75
648,-1.1901096779799187,-1.846607983955276,-1.8347427061970367,-2.593606796035139,-1.2027742832755994,-3.3193161289800894,810.0
649,-1.1901097365916302,-1.8466080063376729,-1.834742746433026,-2.5936067343549083,-1.2027743423798367,-3.480195265423213,811.25
650,-1.1901098052207386,-1.8466080200594537,-1.8347427813475305,-2.593606686782632,-1.202774411382633,-3.6461731787493785,812.5
651,-1.1901098734314535,-1.846608029188332,-1.8347428116438418,-2.593606648402506,-1.2027744798914446,-3.8030505690502774,813.75
652,-1.1901099420158923,-1.8466080262645959,-1.8347428302823956,-2.593606633705165,-1.202774548578875,-3.9499279593512675,815.0
653,-1.1901100063563126,-1.84660802250629,-1.8347428467754852,-2.5936066219221,-1.2027746129994064,-4.086805349652422,816.25
654,-1.1901100656794572,-1.8466080096721889,-1.8347428528294634,-2.5936066295539395,-1.202774672244113,-4.213682739953703,817.5
655,-1.1901101202884674,-1.8466079967126285,-1.8347428572834152,-2.593606638840429,-1.2027747267623001,-4.330560130255119,818.75
656,-1.1901101681815998,-1.8466079811221867,-1.8347428570622992,-2.593606655325205,-1.2027747745071016,-4.437437520556646,820.0
657,-1.1901102095051523,-1.846607963168589,-1.834742852473527,-2.5936066784360556,-1.2027748156294888,-4.534314910858277,821.25
658,-1.190110246563155,-1.8466079470682248,-1.8347428483584167,-2.593606699161331,-1.202774852507091,-4.621192301159973,822.5
659,-1.1901102774544765,-1.8466079313194108,-1.8347428426540728,-2.593606721033048,-1.2027748832101937,-4.698069691461748,823.75
660,-1.1901103009498366,-1.846607914951154,-1.834742834026611,-2.5936067463350323,-1.202774906491034,-4.764947081763573,825.0
661,-1.1901103209319976,-1.8466079010303997,-1.83474282668919,-2.593606767853677,-1.202774926290752,-4.821824472065437,826.25
662,-1.1901103374009598,-1.8466078895571503,-1.8347428206418082,-2.5936067855889844,-1.2027749426093475,-4.868701862367335,827.5
663,-1.1901103503567227,-1.8466078805314021,-1.8347428158844687,-2.5936067995409524,-1.2027749554468203,-4.905579252669229,828.75
664,-1.1901103597992861,-1.8466078739531562,-1.8347428124171719,-2.593606809709581,-1.2027749648031703,-4.932456642971114,830.0
665,-1.19011036572865,-1.846607869822412,-1.8347428102399168,-2.59360681609487,-1.2027749706783972,-4.949334033272989,831.25
666,-1.1907099330992121,-1.8482208463565264,-1.832558913705707,-2.594181931079306,-1.2033733715779151,-4.957535352662102,832.5
667,-1.1922206590444917,-1.8522850781148748,-1.8270561393409013,-2.5956310444542283,-1.2048811588775965,-4.956729530559835,833.75
668,-1.1926004540714779,-1.8533068323965596,-1.8256727367177348,-2.59599535419364,-1.205260217548106,-4.947289448690683,835.0
669,-1.1926004482766217,-1.8533068375761215,-1.8256727367608856,-2.595995356964957,-1.2052602167187554,-4.928793533052509,836.25
670,-1.1926004393487193,-1.8533068455560648,-1.8256727368273662,-2.595995361234613,-1.2052602154410084,-4.900297617414308,837.5
671,-1.1926004272877706,-1.8533068563363897,-1.8256727369171766,-2.595995367002609,-1.205260213714865,-4.8618017017760895,838.75
672,-1.1926004121190756,-1.853306869900187,-1.8256727370802805,-2.5959953740867676,-1.2052602117627804,-4.813305786879583,840.0
673,-1.1926003944292864,-1.8533068858553778,-1.8256727384752118,-2.5959953782628147,-1.2052602147429923,-4.754809887822695,841.25
674,-1.1926003737153894,-1.8533069045381423,-1.8256727401086095,-2.595995383152766,-1.205260218232678,-4.686313988765831,842.5
675,-1.1926003421874687,-1.8533069200956933,-1.825672743760986,-2.595995367741586,-1.2052601924876938,-4.607818103330286,843.75
676,-1.1926003048176352,-1.853306936263935,-1.825672748304073,-2.595995345413598,-1.205260156476017,-4.519322222307362,845.0
677,-1.1926002631960424,-1.853306954239128,-1.8256727534333754,-2.5959953202493824,-1.2052601161470653,-4.42082635220063,846.25
678,-1.1926002142105239,-1.8533069686123316,-1.8256727523457164,-2.5959953057278358,-1.2052600676256886,-4.312330490092463,847.5
679,-1.1926001591719448,-1.8533069816520404,-1.8256727478549681,-2.595995296340546,-1.2052600126192463,-4.193834635739304,848.75
680,-1.1926000993883428,-1.8533069927855808,-1.825672739996403,-2.595995292168767,-1.2052599528340884,-4.065338788711604,850.0
681,-1.192600034679942,-1.853306996549335,-1.8256727233481533,-2.595995304098153,-1.2052598880426895,-3.926842946192197,851.25
682,-1.1925999666198153,-1.8533069973780734,-1.8256727027680246,-2.5959953228359596,-1.2052598198449413,-3.7783471053738453,852.5
683,-1.1925998981211143,-1.8533069881967672,-1.8256726722337109,-2.5959953615015667,-1.2052597510452383,-3.619851271435553,853.75
684,-1.192599831612727,-1.8533069723732576,-1.8256726358106592,-2.595995412709697,-1.2052596841316316,-3.453489400886992,855.0
685,-1.192599773941675,-1.8533069503422375,-1.825672596077272,-2.595995473550909,-1.2052596259733213,-3.294232530875809,856.25
686,-1.1925997298163566,-1.8533069227846486,-1.8256725551812658,-2.595995541268894,-1.205259581300295,-3.1449756608644877,857.5
687,-1.1925996932287513,-1.853306893883591,-1.825672515336819,-2.5959956093879066,-1.2052595441596492,-3.0057187908530265,858.75
688,-1.1925996692564436,-1.853306862721966,-1.8256724772404314,-2.595995678202015,-1.2052595196251734,-2.876461920841427,860.0
689,-1.1925996523150477,-1.8533068317240562,-1.825672441514482,-2.595995744587624,-1.2052595021397894,-2.7572050508297057,861.25
690,-1.1925996401887506,-1.853306802520848,-1.8256724090621061,-2.5959958059819157,-1.205259489509456,-2.6479481808178607,862.5
691,-1.1925996392088205,-1.8533067736117186,-1.825672380401563,-2.5959958634578872,-1.205259488054878,-2.5486913108059226,863.75
692,-1.192599638327617,-1.853306747615151,-1.8256723546285274,-2.59599591514323,-1.2052594867468471,-2.4594344407939,865.0
693,-1.1925996385891535,-1.8533067244704224,-1.8256723320115973,-2.595995960845523,-1.2052594866306865,-2.380177570781795,866.25
694,-1.192599647115542,-1.853306703763319,-1.8256723143830862,-2.595995999252108,-1.205259494837445,-2.3109207007696364,867.5
695,-1.1925996544108053,-1.8533066860461147,-1.825672299299956,-2.5959960321131654,-1.2052595018592296,-2.2516638307574315,868.75
696,-1.1925996604749431,-1.8533066713188118,-1.8256722867622035,-2.595996059428696,-1.2052595076960402,-2.202406960745214,870.0
697,-1.1925996653079556,-1.8533066595814076,-1.8256722767698323,-2.5959960811986997,-1.2052595123478769,-2.1631500907329637,871.25
698,-1.1925996689098428,-1.8533066508339011,-1.8256722693228424,-2.5959960974231766,-1.20525951581474,-2.1338932207207306,872.5
699,-1.1925996712806048,-1.8533066450762932,-1.8256722644212344,-2.595996108102126,-1.2052595180966286,-2.1146363507085146,873.75
700,-1.1928836412156822,-1.854080046700655,-1.8246192843870577,-2.596277660223419,-1.2055429075376924,-2.1046092510183865,875.0
701,-1.194352213201657,-1.8580797834902405,-1.8191737084366901,-2.597733706769911,-1.2070084778850767,-2.103024738544308,876.25
702,-1.1950562461103564,-1.8599972604438366,-1.8165631001302125,-2.5984317340259304,-1.2077110745186552,-2.110622272183141,877.5
703,-1.1950562449209778,-1.8599972656480444,-1.816563102684357,-2.5984317317258823,-1.2077110792792787,-2.1267027639532508,878.75
704,-1.195056242991959,-1.8599972740886006,-1.8165631068268517,-2.598431727995499,-1.2077110870003984,-2.1527832557233713,880.0
705,-1.1950562403232994,-1.8599972857655058,-1.816563112557696,-2.5984317228347815,-1.2077110976820145,-2.1888637474935027,881.25
706,-1.195056236914999,-1.8599973006787591,-1.8165631198768901,-2.59843171624373,-1.2077111113241266,-2.234944239263638,882.5
707,-1.1950562323548755,-1.85999731921933,-1.81656312758838,-2.598431712710763,-1.207711124263401,-2.291024726084254,883.75
708,-1.1950562268721852,-1.8599973411697617,-1.8165631363574133,-2.5984317097394154,-1.207711138537391,-2.3571052116853037,885.0
709,-1.1950562246727325,-1.8599973645742125,-1.8165631532781201,-2.5984316830228003,-1.2077111452199176,-2.4331856876764215,886.25
710,-1.1950562253757022,-1.859997389605618,-1.8165631777186086,-2.598431634717851,-1.2077111452138745,-2.5192661566957653,887.5
711,-1.1950562261334214,-1.859997417524512,-1.8165632050719136,-2.598431580487528,-1.207711144975936,-2.6153466149090656,888.75
712,-1.195056233334486,-1.859997446804128,-1.8165632359630006,-2.598431521035392,-1.207711151755736,-2.7214270664159583,890.0
713,-1.195056249721004,-1.8599974767841174,-1.8165632706745913,-2.598431456604484,-1.2077111686306194,-2.837507509670167,891.25
714,-1.1950562680404355,-1.8599975091206904,-1.8165633083203603,-2.5984313869068902,-1.2077111874909234,-2.9635879447744435,892.5
715,-1.1950563035798736,-1.8599975371916917,-1.8165633471648928,-2.5984313205981646,-1.207711223573181,-3.0996683738804474,893.75
716,-1.1950563418191857,-1.8599975672642224,-1.8165633888311232,-2.5984312495126445,-1.2077112623946888,-3.245748802910871,895.0
717,-1.1950563980011428,-1.8599975887315896,-1.8165634276802511,-2.598431190095902,-1.2077113190539872,-3.401829224780034,896.25
718,-1.1950564601819411,-1.8599976085543481,-1.8165634668011417,-2.598431132137356,-1.207711381698368,-3.567423973399663,897.5
719,-1.195056529634392,-1.8599976178754498,-1.816563497874029,-2.5984310928087266,-1.2077114514579228,-3.7290968141393717,898.75
720,-1.1950565970448572,-1.8599976211480294,-1.8165635223475056,-2.5984310660810253,-1.2077115190715735,-3.880769654879158,900.0
721,-1.1950566628398422,-1.8599976173366055,-1.816563539336449,-2.5984310538784285,-1.2077115849497566,-4.0224424956191385,901.25
722,-1.1950567238440157,-1.8599976094727555,-1.8165635508248696,-2.5984310511460347,-1.2077116459599173,-4.154115336359211,902.5
723,-1.1950567800105347,-1.8599975961762778,-1.8165635554389947,-2.598431060633367,-1.207711702032428,-4.275788177099454,903.75
724,-1.1950568315526304,-1.859997583957549,-1.8165635596564649,-2.5984310693732806,-1.2077117534879762,-4.387461017839807,905.0
725,-1.195056874400171,-1.8599975653712604,-1.81656355486318,-2.598431093344017,-1.2077117961250603,-4.489133858580248,906.25
726,-1.195056913033456,-1.859997548613023,-1.8165635505413333,-2.59843111495712,-1.2077118345685887,-4.5808066993208065,907.5
727,-1.195056947452486,-1.8599975336828356,-1.8165635466909262,-2.598431134212589,-1.207711868818561,-4.662479540061411,908.75
728,-1.1950569731007965,-1.8599975169817213,-1.8165635383318195,-2.5984311596115353,-1.2077118942492737,-4.734152380802094,910.0
729,-1.1950569945068528,-1.8599975020865405,-1.816563530413555,-2.5984311827050828,-1.207711915458006,-4.795825221542814,911.25
730,-1.195057012442005,-1.8599974896065545,-1.8165635237792024,-2.598431202054108,-1.20771193322783,-4.847498062283568,912.5
731,-1.1950570269062526,-1.8599974795417618,-1.816563518428763,-2.598431217658608,-1.2077119475587448,-4.889170903024347,913.75
732,-1.1950570378995948,-1.8599974718921615,-1.816563514362239,-2.598431229518583,-1.2077119584507496,-4.920843743765121,915.0
733,-1.195057045422032,-1.8599974666577532,-1.8165635115796301,-2.598431237634033,-1.2077119659038442,-4.942516584505865,916.25
734,-1.1951257507545805,-1.8601868960333297,-1.8163041849633637,-2.598501609298853,-1.207780523843175,-4.9544187112518125,917.5
735,-1.1964234410366394,-1.8637650584976628,-1.8114058234409516,-2.5998307687170468,-1.2090754307513225,-4.958422819927722,918.75
736,-1.1974796822017801,-1.8666774760649576,-1.8074188437693923,-2.60091262647321,-1.2101294079033589,-4.952704599803455,920.0
737,-1.1974808613298784,-1.8666807427749288,-1.807414376961139,-2.6009138406303762,-1.2101305880399995,-4.939069170036622,921.25
738,-1.1974808539893975,-1.866680749325117,-1.8074143769810933,-2.600913844264416,-1.2101305868461647,-4.91543813930076,922.5
739,-1.1974808435426278,-1.8666807586471643,-1.8074143770094917,-2.600913849436281,-1.2101305851471325,-4.881807108564852,923.75
740,-1.1974808299895694,-1.8666807707410706,-1.807414377046334,-2.6009138561459717,-1.210130582942902,-4.838176077828962,925.0
741,-1.1974808136661557,-1.8666807853854221,-1.8074143777461094,-2.6009138620237913,-1.2101305832175995,-4.784545056917606,926.25
742,-1.1974807945869697,-1.8666808025706079,-1.8074143791372297,-2.6009138669668674,-1.2101305861007692,-4.720914043761045,927.5
743,-1.1974807695053562,-1.8666808201573004,-1.8074143814913912,-2.6009138643304324,-1.2101305779984208,-4.647283036169256,928.75
744,-1.1974807346163272,-1.8666808352331954,-1.8074143857514975,-2.600913843530062,-1.2101305444220136,-4.563652039617556,930.0
745,-1.1974806955361417,-1.866680852097601,-1.8074143905721396,-2.600913820024424,-1.210130506663305,-4.470021050932071,931.25
746,-1.1974806514047258,-1.8666808692590595,-1.8074143940693692,-2.6009137975200174,-1.210130463633071,-4.366390069153253,932.5
747,-1.1974805992574178,-1.8666808815840255,-1.807414389785311,-2.6009137886768494,-1.210130411521678,-4.252759096789164,933.75
748,-1.1974805425196107,-1.8666808949949574,-1.8074143851201991,-2.6009137790705785,-1.2101303548124238,-4.129128133451711,935.0
749,-1.1974804809044177,-1.86668090080146,-1.8074143713793944,-2.600913786089099,-1.2101302931394393,-3.9954971757148776,936.25
750,-1.1974804145984357,-1.8666809046287638,-1.8074143541940526,-2.6009137984668493,-1.2101302267473713,-3.851866219354283,937.5
751,-1.197480347755968,-1.8666808988211643,-1.8074143273142664,-2.6009138301376464,-1.2101301596597487,-3.6982352681311057,938.75
752,-1.1974802778820381,-1.866680889433595,-1.8074142959367518,-2.600913869830239,-1.2101300894751656,-3.5346043231779594,940.0
753,-1.1974802188760725,-1.866680867320213,-1.8074142554144885,-2.600913931521886,-1.210130029972364,-3.3704918128454158,941.25
754,-1.1974801665310344,-1.8666808442994145,-1.807414216101471,-2.6009139930090845,-1.2101299771303329,-3.2163733608781775,942.5
755,-1.1974801291168033,-1.866680814751236,-1.8074141750566586,-2.6009140629616248,-1.2101299391445246,-3.0722549089107973,943.75
756,-1.1974800968202044,-1.8666807861604109,-1.8074141365766918,-2.600914129471247,-1.2101299063035675,-2.938136456942994,945.0
757,-1.1974800793971139,-1.8666807542984185,-1.8074140995661165,-2.6009141979967336,-1.2101298883152032,-2.814018004975019,946.25
758,-1.1974800633777714,-1.8666807250034976,-1.8074140655374082,-2.6009142610012455,-1.2101298717761293,-2.699899553007008,947.5
759,-1.1974800589367798,-1.866680695869788,-1.8074140353295327,-2.6009143201976754,-1.2101298668438663,-2.5957811010389236,948.75
760,-1.197480058017287,-1.8666806688023865,-1.807414008278153,-2.6009143742296534,-1.2101298654750896,-2.501662649070872,950.0
761,-1.1974800571954898,-1.8666806446108761,-1.807413984100953,-2.6009144225207828,-1.2101298642517442,-2.4175441971027696,951.25
762,-1.1974800623394162,-1.8666806229565762,-1.8074139643187617,-2.6009144639759487,-1.2101298690493358,-2.3434257451346805,952.5
763,-1.1974800701379584,-1.8666806040305888,-1.8074139480734353,-2.6009144992130833,-1.210129876552538,-2.2793072931665828,953.75
764,-1.1974800767202296,-1.866680588056325,-1.8074139343617504,-2.6009145289545863,-1.2101298828855305,-2.225188841198529,955.0
765,-1.19748008208623,-1.8666805750337856,-1.807413923183707,-2.600914553200459,-1.210129888048314,-2.181070389230508,956.25
766,-1.1974800862359587,-1.8666805649629674,-1.8074139145393069,-2.600914571950701,-1.2101298920408878,-2.1469519372624752,957.5
767,-1.1974800891694164,-1.8666805578438712,-1.8074139084285508,-2.600914585205312,-1.210129894863252,-2.1228334852944446,958.75
768,-1.197480090886603,-1.8666805536764972,-1.8074139048514384,-2.600914592964292,-1.2101298965154068,-2.108715033326389,960.0
769,-1.198446861702631,-1.869379367046118,-1.8036993088985234,-2.6019370075315065,-1.2110944940397894,-2.1026087140426477,961.25
770,-1.1997698366800795,-1.8730725582406844,-1.79861607761752,-2.6033361243719426,-1.2124144963246655,-2.106122284995558,962.5
771,-1.1998716934948601,-1.8733569056565342,-1.7982247144685635,-2.6034438427646185,-1.2125161283275459,-2.1176104106428593,963.75
772,-1.1998716919282582,-1.8733569124330751,-1.7982247177727253,-2.6034438399070092,-1.212516134421417,-2.1387611576228975,965.0
773,-1.1998716896209727,-1.8733569224135418,-1.798224722639084,-2.6034438356983323,-1.2125161433964498,-2.1699119046029542,966.25
774,-1.1998716865730032,-1.8733569355979331,-1.7982247290676385,-2.603443830138587,-1.212516155252644,-2.2110626515829863,967.5
775,-1.1998716826328522,-1.8733569521281859,-1.7982247366240756,-2.603443824847239,-1.2125161686299946,-2.262213396693886,968.75
776,-1.1998716775553335,-1.8733569722340113,-1.7982247446054935,-2.6034438224452527,-1.212516181327447,-2.323364137641505,970.0
777,-1.1998716722307083,-1.8733569953609168,-1.7982247548663963,-2.6034438163387352,-1.2125161947706704,-2.394514877144276,971.25
778,-1.1998716728860759,-1.873357018659921,-1.7982247778092542,-2.6034437711680596,-1.2125161947522447,-2.4756656014879286,972.5
