Miguel-LA/TFM_MiguelLerinAlonso/workspace/ros_ur_driver/src/trayectories/data/saved_trajectories/20240522_1927_trajectory.csv
,shoulder_pan_joint,shoulder_lift_joint,elbow_joint,wrist_1_joint,wrist_2_joint,wrist_3_joint,time_from_start
0,-0.34522715640738677,-2.2977433904398152,1.1049202429166334,-1.9492790710913215,0.34692196485018495,0.0021332811376903816,0.0
1,-0.3502082463626082,-2.301513870589867,1.1094949231220546,-1.9500336528316804,0.35192196485018495,0.004111753351696985,1.0
2,-0.3651515162282726,-2.3128253110400223,1.1232189637383176,-1.9522973980527576,0.3669219648501849,0.0100471699937168,2.0
3,-0.39005696600437983,-2.331677711790281,1.146092364765423,-1.9560703067545528,0.3919219648501849,0.019939531063749797,3.0
4,-0.42369860604654064,-2.3572234744792335,1.1770303953774903,-1.9611288131712263,0.42569167507997174,0.03336053892314439,4.0
5,-0.4586051914182798,-2.384712316556087,1.209635410445106,-1.9659152191077687,0.46073547312151963,0.04800284070221128,5.0
6,-0.49351177682011804,-2.4134846492318935,1.242898400913313,-1.9700977212701642,0.495784923483912,0.06358130581980848,6.0
7,-0.5284183622329827,-2.4435343622683234,1.2768103339139842,-1.973672134217204,0.5308399385832628,0.08008742370923105,7.0
8,-0.5633249478371196,-2.4750633077174626,1.3113885115382142,-1.9764403660094285,0.5659005216387257,0.09760921664041478,8.0
9,-0.5982315335089816,-2.508351684286596,1.346742388715963,-1.9782296701996467,0.6009675550331672,0.11632757031851138,9.0
10,-0.633138119285431,-2.5434145752697344,1.382829179939907,-1.9789796437880334,0.6360407562807413,0.13623535662029607,10.0
11,-0.6680447053004586,-2.5806758838625186,1.4196997918971306,-1.978311363483428,0.6711207503370723,0.15757304079979684,11.0
12,-0.7029512914468449,-2.620289705912975,1.4573725357700622,-1.9760879929642365,0.706207818318262,0.1804321095748328,12.0
13,-0.7378578779800339,-2.66265331076531,1.495784128351893,-1.97184425725913,0.7413021169208404,0.20502350002616854,13.0
14,-0.7727644647853916,-2.7080849413662014,1.5349377319371231,-1.965263060379212,0.7764041422025212,0.23153285784236527,14.0
15,-0.8076710521874965,-2.7571108068555077,1.5747001344978737,-1.9556808820924738,0.8115142423656839,0.2602468972671036,15.0
16,-0.842577640067955,-2.810134378930622,1.6149058348041772,-1.9425261508297667,0.8466327363727721,0.29139200358956835,16.0
17,-0.8774842287721627,-2.867842088954073,1.6552856094357145,-1.9248390756729161,0.8817603263123255,0.3253602100810046,17.0
18,-0.9123908186183274,-2.9309181220627587,1.6953996892068504,-1.9014916360623761,0.9168979129366845,0.3625518846774137,18.0
19,-0.9472974099916711,-3.0001498229021237,1.7346112884733116,-1.871055260703383,0.952047059052231,0.40346084974186036,19.0
20,-0.9821494243930275,-3.0763046607760485,1.7719109649112252,-1.8317487828331196,0.9871554052638232,0.4486286768870047,20.0
21,-1.0158043791403415,-3.157378244767815,1.8048179566821432,-1.7831075498108455,1.021075570991118,0.4970587529537576,21.0
22,-1.044162211657496,-3.231969958201945,1.828758074616518,-1.7320230253611546,1.0496754478499788,0.5421548950432251,22.0
23,-1.0670512659050437,-3.2965770601356534,1.844402149284536,-1.6826867876602551,1.0727769279085284,0.5818622494883271,23.0
24,-1.0853815669794584,-3.3511781302985244,1.8537502000001065,-1.637118853255499,1.091291883513048,0.6160808466853848,24.0
25,-1.0997801474753655,-3.3957758961992113,1.858594191615945,-1.5971076485206175,1.1058469563135476,0.6446284026347661,25.0
26,-1.110656226709513,-3.430373365230757,1.8605160052074607,-1.5642318145462053,1.116849255146959,0.6672441028739271,26.0
27,-1.118248616656681,-3.4549686044789434,1.8608475385965164,-1.5398254298720184,1.1245344338457806,0.6836103837392328,27.0
28,-1.1236208859318293,-3.4710431137307496,1.8579466043581883,-1.5232386615706857,1.128119059122789,0.6979022156291531,28.0
29,-1.128240144396978,-3.4798586594524794,1.846469522833369,-1.5132400280554705,1.1250638033544422,0.7183637672159783,29.0
30,-1.1305923784677863,-3.478727000495204,1.8305686930148521,-1.512953125369305,1.116625548160254,0.7379386947189462,30.0
31,-1.1308818141754602,-3.468922627837533,1.8113196363396264,-1.5211796161071902,1.10375255479719,0.7560905204555322,31.0
32,-1.1311469057580181,-3.4536673229257264,1.7824615707393332,-1.5340785693738916,1.084278028742136,0.7829376694563526,32.0
33,-1.1315038578229206,-3.433125695249565,1.7436035051390402,-1.5514473140137781,1.0580551203371387,0.8190879884522352,33.0
34,-1.131952670370168,-3.4072977448090493,1.6947454395387478,-1.5732858500268496,1.0250838295821978,0.8645414774431802,34.0
35,-1.1324933433997602,-3.376183471604179,1.6358873739384543,-1.599594177413108,0.9853641564773123,0.9192981364291893,35.0
36,-1.1331258769116967,-3.3397828756349526,1.567029308338159,-1.6303722961725515,0.9388961010224819,0.9833579654102624,36.0
37,-1.1338502709059783,-3.2980959569013706,1.4881712427378615,-1.6656202063051824,0.8856796632177064,1.0567209643864006,37.0
38,-1.1346665253826047,-3.251122715403432,1.3993131771375609,-1.7053379078109998,0.8257148430629848,1.1393871333576047,38.0
39,-1.1355746403415758,-3.1988631511411376,1.3004551115372571,-1.749525400690004,0.7590016405583173,1.2313564723238741,39.0
40,-1.1365746157828918,-3.141317264114486,1.1915970459369498,-1.7981826849421956,0.6855400557037037,1.3326289812852101,40.0
41,-1.137666451706552,-3.0784850543235067,1.0727389803366916,-1.8513097605675506,0.6053300884991795,1.443204660241563,41.0
42,-1.1388501481125566,-3.010366521768177,0.9438809147364429,-1.9089066275660869,0.5183717389447177,1.5630835091929698,42.0
43,-1.1401257050009062,-2.936961666448497,0.8050228491362015,-1.9709732859378053,0.4246650070403173,1.6922655281394325,43.0
44,-1.1414931223716005,-2.8582704883644605,0.6561647835359562,-2.037509735682711,0.3242098927859702,1.830750717080962,44.0
45,-1.1429524002246394,-2.7742929875160662,0.4973067179357049,-2.108515976800805,0.21700639618167566,1.9785390760175592,45.0
46,-1.144503538560023,-2.6850291639033204,0.32844865233545983,-2.1839920092920817,0.10305451722744119,2.135630604949214,46.0
47,-1.1461444067415458,-2.590601629887807,0.1498225293672728,-2.263834159638959,-0.01748922032029898,2.301809523702418,47.0
48,-1.147759425477435,-2.497661661683079,-0.025989603844527198,-2.3424185152721035,-0.1361339699875465,2.465370539948818,48.0
49,-1.1492825837309797,-2.410008016242701,-0.19180173705633663,-2.4165330795320665,-0.24803033730485669,2.6196283862001644,49.0
50,-1.1507138815021796,-2.327640693566673,-0.3476138702681528,-2.486177852418847,-0.35317832227222773,2.764583062456454,50.0
51,-1.152053318791035,-2.250559693654994,-0.4934260034799802,-2.551352833932447,-0.45157792488966253,2.9002345687176914,51.0
52,-1.1533008955975455,-2.1787650165076666,-0.6292381366918138,-2.6120580240728644,-0.5432291451571577,3.0265829049838717,52.0
53,-1.1544566119217115,-2.1122566621246914,-0.7550502699036519,-2.6682934228400983,-0.6281319830747121,3.143628071254993,53.0
54,-1.1555204677635325,-2.0510346305060687,-0.8708624031154939,-2.7200590302341485,-0.7062864386423253,3.251370067531056,54.0
55,-1.1564924631230091,-1.9950989216517983,-0.9766745363273399,-2.7673548462550146,-0.7776925118599975,3.3498088938120594,55.0
56,-1.157372598000141,-1.9444495355618798,-1.072486669539191,-2.810180870902698,-0.8423502027277294,3.4389445500980047,56.0
57,-1.158160872394928,-1.8990864722363157,-1.158298802751043,-2.8485371041771956,-0.9002595112455181,3.5187770363888884,57.0
58,-1.1588572863073705,-1.8590097316751044,-1.234110935962898,-2.8824235460785097,-0.951420437413365,3.5893063526847113,58.0
59,-1.159461839737468,-1.8242193138782477,-1.2999230691747532,-2.9118401966066383,-0.9958329812312683,3.650532498985472,59.0
60,-1.159974532685221,-1.794715218845745,-1.3557352023866092,-2.936787055761582,-1.0334971426992285,3.702455475291171,60.0
61,-1.1603953651506294,-1.7704974465775964,-1.4015473355984667,-2.9572641235433403,-1.0644129218172456,3.745075281601808,61.0
62,-1.160547750928721,-1.7512925045342769,-1.4375568874113993,-2.97325353262031,-1.0886411270985492,3.7784805137967155,62.0
63,-1.1539966480981096,-1.7271666489707664,-1.4708972109315313,-2.9840773069957227,-1.1083568668071304,3.8058434147774083,63.0
64,-1.1374526594282415,-1.6938958434473212,-1.503625741478205,-2.9886873545216726,-1.1236056526712035,3.8273151195006276,64.0
65,-1.1122833588122345,-1.654818389618245,-1.5319426912284968,-2.98621942165105,-1.132392545477824,3.8401079766254984,65.0
66,-1.0815068776347072,-1.6144957212679154,-1.5526841224055687,-2.977071717988846,-1.1338193354181696,3.84290231686367,66.0
67,-1.0475189805832679,-1.5759034145026904,-1.5645393465134743,-2.962090517385185,-1.1279789107273535,3.835761860383028,67.0
68,-1.0130311697524013,-1.5416035443799476,-1.5675242699165624,-2.942895601405655,-1.1159826159668254,3.8201462381140403,68.0
69,-0.9781245847125021,-1.507701685693948,-1.5690296345861499,-2.922798357137733,-1.1028233840560855,3.8029382424975826,69.0
70,-0.9432179996726244,-1.473799827007969,-1.5705349992557363,-2.9027011128698232,-1.0896641521453536,3.7857302468811356,70.0
71,-0.908311414632748,-1.4398979683219915,-1.5720403639253226,-2.882603868601914,-1.0765049202346224,3.76852225126469,71.0
72,-0.8734048295928729,-1.4059961096360152,-1.5735457285949093,-2.862506624334005,-1.0633456883238914,3.751314255648244,72.0
73,-0.8384982445529965,-1.3720942509500376,-1.5750510932644957,-2.842409380066096,-1.0501864564131604,3.734106260031798,73.0
74,-0.8035916595131201,-1.33819239226406,-1.576556457934082,-2.8223121357981866,-1.0370272245024292,3.716898264415352,74.0
75,-0.7686850744732436,-1.3042905335780823,-1.5780618226036685,-2.802214891530278,-1.0238679925916978,3.699690268798906,75.0
76,-0.7337784894333673,-1.2703886748921047,-1.5795671872732548,-2.7821176472623685,-1.0107087606809666,3.68248227318246,76.0
77,-0.6988719043934921,-1.2364868162061284,-1.5810725519428412,-2.76202040299446,-0.997549528770236,3.6652742775660143,77.0
78,-0.6639653193536157,-1.2025849575201508,-1.5825779166124276,-2.741923158726551,-0.9843902968595046,3.648066281949568,78.0
79,-0.6290587343137393,-1.1686830988341732,-1.584083281282014,-2.7218259144586416,-0.9712310649487734,3.6308582863331225,79.0
80,-0.5941521492738628,-1.1347812401481956,-1.5855886459516002,-2.7017286701907324,-0.9580718330380421,3.613650290716676,80.0
81,-0.5592455642339865,-1.1008793814622182,-1.587094010621187,-2.6816314259228236,-0.944912601127311,3.59644229510023,81.0
82,-0.52433897919411,-1.0669775227762404,-1.5885993752907732,-2.661534181654914,-0.9317533692165795,3.5792342994837836,82.0
83,-0.48943239415423373,-1.033075664090263,-1.5901047399603598,-2.641436937387005,-0.9185941373058485,3.562026303867338,83.0
84,-0.4545258091143584,-0.9991738054042865,-1.5916101046299462,-2.621339693119096,-0.9054349053951176,3.544818308250892,84.0
85,-0.41961922407448193,-0.9652719467183088,-1.5931154692995326,-2.601242448851187,-0.8922756734843863,3.527610312634446,85.0
86,-0.3847126390346056,-0.9313700880323312,-1.594620833969119,-2.5811452045832777,-0.879116441573655,3.510402317018,86.0
87,-0.3498060539947293,-0.8974682293463537,-1.5961261986387054,-2.561047960315369,-0.8659572096629238,3.4931943214015537,87.0
88,-0.3148994689548529,-0.8635663706603761,-1.5976315633082918,-2.5409507160474596,-0.8527979777521927,3.4759863257851076,88.0
89,-0.27999288391497756,-0.8296645119743997,-1.5991369279778782,-2.5208534717795508,-0.8396387458414618,3.4587783301686623,89.0
90,-0.24508629887510125,-0.7957626532884221,-1.6006422926474646,-2.5007562275116415,-0.8264795139307306,3.441570334552216,90.0
91,-0.21017971383522482,-0.7618607946024446,-1.602147657317051,-2.4806589832437327,-0.8133202820199994,3.42436233893577,91.0
92,-0.1752731287953485,-0.727958935916467,-1.6036530219866374,-2.4605617389758234,-0.8001610501092682,3.407154343319324,92.0
93,-0.14036654375547208,-0.6940570772304894,-1.6051583866562238,-2.440464494707914,-0.7870018181985369,3.3899463477028777,93.0
94,-0.10545995871559577,-0.6601552185445118,-1.6066637513258102,-2.420367250440005,-0.7738425862878057,3.3727383520864316,94.0
95,-0.07055337367572023,-0.6262533598585351,-1.6081691159953966,-2.4002700061720965,-0.7606833543770747,3.355530356469986,95.0
96,-0.03564678863584392,-0.5923515011725575,-1.609674480664983,-2.3801727619041873,-0.7475241224663436,3.3383223608535397,96.0
97,-0.0007402035959676034,-0.5584496424865801,-1.6111798453345694,-2.360075517636278,-0.7343648905556123,3.3211143652370936,97.0
98,0.03416638144390882,-0.5245477838006026,-1.6126852100041558,-2.3399782733683687,-0.7212056586448811,3.3039063696206474,98.0
99,0.06907296648378525,-0.490645925114625,-1.6141905746737422,-2.3198810291004595,-0.7080464267341497,3.2866983740042013,99.0
100,0.10397955152366034,-0.4567440664286485,-1.6156959393433286,-2.299783784832551,-0.694887194823419,3.269490378387756,100.0
101,0.138886136563538,-0.4228422077426698,-1.6172013040129152,-2.279686540564641,-0.6817279629126873,3.252282382771309,101.0
102,0.1737927216034132,-0.3889403490566935,-1.6187066686825013,-2.2595892962967326,-0.6685687310019566,3.2350743871548637,102.0
103,0.2086993066432895,-0.3550384903707159,-1.6202120333520877,-2.2394920520288233,-0.6554094990912254,3.2178663915384176,103.0
104,0.24360589168316615,-0.32113663168473816,-1.6217173980216744,-2.2193948077609145,-0.6422502671804939,3.2006583959219714,104.0
105,0.27851247672304114,-0.2872347729987619,-1.6232227626912608,-2.1992975634930056,-0.6290910352697633,3.183450400305526,105.0
106,0.3134190617629188,-0.25333291431278304,-1.6247281273608472,-2.179200319225096,-0.6159318033590315,3.166242404689079,106.0
107,0.348325646802794,-0.21943105562680676,-1.6262334920304338,-2.1591030749571876,-0.6027725714483008,3.149034409072634,107.0
108,0.3832322318426705,-0.1855291969408288,-1.62773885670002,-2.139005830689278,-0.5896133395375693,3.1318264134561873,108.0
109,0.4181388168825467,-0.15162733825485142,-1.6292442213696066,-2.118908586421369,-0.5764541076268384,3.1146184178397416,109.0
110,0.45304540192242204,-0.11772547956887491,-1.630749586039193,-2.09881134215346,-0.5632948757161074,3.097410422223296,110.0
111,0.48795198696229947,-0.08382362088289641,-1.6322549507087794,-2.0787140978855505,-0.5501356438053759,3.0802024266068493,111.0
112,0.522858572002175,-0.04992176219691968,-1.6337603153783657,-2.058616853617642,-0.536976411894645,3.0629944309904036,112.0
113,0.5577651570420513,-0.01601990351094207,-1.635265680047952,-2.038519609349733,-0.5238171799839137,3.0457864353739574,113.0
114,0.5926717420819277,0.017881955175035547,-1.6367710447175383,-2.0184223650818236,-0.5106579480731824,3.0285784397575113,114.0
115,0.6275783271218041,0.05178381386101294,-1.6382764093871247,-1.9983251208139143,-0.4974987161624512,3.0113704441410656,115.0
116,0.6624849121616804,0.08568567254699055,-1.6397817740567113,-1.978227876546005,-0.48433948425171996,2.9941624485246194,116.0
117,0.6973914972015558,0.11958753123296706,-1.6412871387262975,-1.9581306322780963,-0.4711802523409891,2.9769544529081733,117.0
118,0.7322980822414322,0.15348938991894467,-1.6427925033958841,-1.9380333880101874,-0.4580210204302579,2.9597464572917276,118.0
119,0.7672046672813086,0.1873912486049223,-1.6442978680654705,-1.917936143742278,-0.4448617885195266,2.942538461675281,119.0
120,0.802111252321185,0.22129310729089968,-1.645803232735057,-1.8978388994743691,-0.4317025566087954,2.9253304660588357,120.0
121,0.8370178373610614,0.2551949659768775,-1.6473085974046433,-1.8777416552064594,-0.41854332469806416,2.908122470442389,121.0
122,0.8719244224009376,0.2890968246628549,-1.64881396207423,-1.8576444109385506,-0.40538409278733295,2.8909144748259434,122.0
123,0.9068310074408129,0.3229986833488314,-1.650319326743816,-1.837547166670642,-0.3922248608766021,2.8737064792094973,123.0
124,0.9417375924806896,0.35690054203480903,-1.6518246914134025,-1.8174499224027327,-0.3790656289658708,2.856498483593051,124.0
125,0.9766441775205659,0.39080240072078665,-1.653330056082989,-1.7973526781348235,-0.3659063970551396,2.839290487976605,125.0
126,1.011550762560442,0.42470425940676426,-1.6548354207525755,-1.7772554338669142,-0.35274716514440835,2.822082492360159,126.0
127,1.0464573476003185,0.4586061180927419,-1.656340785422162,-1.757158189599005,-0.33958793323367714,2.8048744967437127,127.0
128,1.0813639326401936,0.49250797677871794,-1.657846150091748,-1.7370609453310968,-0.3264287013229464,2.7876665011272674,128.0
129,1.11627051768007,0.5264098354646956,-1.6593515147613345,-1.7169637010631875,-0.3132694694122152,2.7704585055108213,129.0
130,1.1511771027199464,0.5603116941506732,-1.6608568794309209,-1.6968664567952783,-0.3001102375014839,2.753250509894375,130.0
131,1.1860836877598226,0.5942135528366508,-1.6623622441005073,-1.6767692125273692,-0.2869510055907527,2.736042514277929,131.0
132,1.2209902727996993,0.6281154115226283,-1.6638676087700939,-1.65667196825946,-0.27379177368002144,2.718834518661483,132.0
133,1.2558968578395744,0.6620172702086049,-1.6653729734396803,-1.6365747239915514,-0.2606325417692907,2.7016265230450376,133.0
134,1.2908034428794508,0.6959191288945826,-1.6668783381092667,-1.6164774797236419,-0.24747330985855925,2.684418527428591,134.0
135,1.3257100279193272,0.72982098758056,-1.6683837027788533,-1.5963802354557333,-0.23431407794782821,2.6672105318121453,135.0
136,1.3606166129592037,0.7637228462665376,-1.6698890674484395,-1.5762829911878236,-0.2211548460370968,2.6500025361956987,136.0
137,1.3955231979990799,0.797624704952515,-1.671394432118026,-1.5561857469199147,-0.20799561412636575,2.632794540579253,137.0
138,1.4304297830389552,0.8315265636384918,-1.6728997967876125,-1.5360885026520061,-0.19483638221563476,2.6155865449628073,138.0
139,1.4653363680788316,0.8654284223244694,-1.6744051614571989,-1.5159912583840969,-0.18167715030490356,2.598378549346361,139.0
140,1.5002429531187085,0.899330281010447,-1.6759105261267853,-1.4958940141161876,-0.1685179183941723,2.581170553729915,140.0
141,1.5351495381585847,0.9332321396964246,-1.6774158907963717,-1.4757967698482783,-0.1553586864834411,2.563962558113469,141.0
142,1.5700561231984609,0.9671339983824021,-1.678921255465958,-1.455699525580369,-0.14219945457270983,2.5467545624970227,142.0
143,1.6049627082383373,1.0010358570683795,-1.6804266201355444,-1.43560228131246,-0.12904022266197868,2.5295465668805766,143.0
144,1.6398692932782126,1.034937715754356,-1.6819319848051308,-1.4155050370445517,-0.1158809907512478,2.5123385712641313,144.0
145,1.674775878318089,1.0688395744403338,-1.6834373494747172,-1.395407792776642,-0.10272175884051649,2.4951305756476847,145.0
146,1.7096824633579653,1.1027414331263112,-1.6849427141443036,-1.3753105485087331,-0.08956252692978528,2.477922580031239,146.0
147,1.7445890483978417,1.136643291812289,-1.68644807881389,-1.3552133042408236,-0.07640329501905407,2.4607145844147924,147.0
148,1.779495633437718,1.1705451504982662,-1.6879534434834764,-1.3351160599729148,-0.06324406310832287,2.4435065887983467,148.0
149,1.8144022184775934,1.204447009184243,-1.6894588081530628,-1.315018815705006,-0.050084831197591995,2.426298593181901,149.0
150,1.8493088035174696,1.2383488678702208,-1.6909641728226492,-1.2949215714370967,-0.03692559928686068,2.409090597565455,150.0
151,1.8842153885573465,1.2722507265561982,-1.6924695374922356,-1.2748243271691875,-0.02376636737612947,2.3918826019490087,151.0
152,1.919121973597223,1.306152585242176,-1.693974902161822,-1.2547270829012782,-0.010607135465398265,2.3746746063325626,152.0
153,1.9540285586370993,1.3400544439281532,-1.6954802668314084,-1.2346298386333694,0.002552096445332941,2.3574666107161164,153.0
154,1.988935143676974,1.3739563026141295,-1.6969856315009948,-1.2145325943654608,0.015711328356063814,2.340258615099671,154.0
155,2.0238417287168504,1.4078581613001073,-1.6984909961705812,-1.1944353500975518,0.02887056026679491,2.323050619483225,155.0
156,2.058748313756727,1.4417600199860847,-1.6999963608401676,-1.1743381058296425,0.042029792177526226,2.305842623866779,156.0
157,2.0936548987966033,1.4756618786720623,-1.7015017255097542,-1.1542408615617332,0.05518902408825743,2.2886346282503327,157.0
158,2.1285614838364793,1.50956373735804,-1.7030070901793406,-1.134143617293824,0.06834825599898875,2.2714266326338866,158.0
159,2.1634680688763552,1.5434655960440167,-1.7045124548489268,-1.1140463730259151,0.08150748790971962,2.254218637017441,159.0
160,2.1983746539162317,1.5773674547299943,-1.7060178195185132,-1.0939491287580059,0.09466671982045094,2.2370106414009947,160.0
161,2.2332812389561694,1.6112693134160316,-1.7075231841881024,-1.0738518844900615,0.10782595173120546,2.2198026457845184,161.0
162,2.2681878239961084,1.6451711721020699,-1.7090285488576915,-1.0537546402221165,0.12098518364195998,2.2025946501680416,162.0
163,2.303094409036047,1.6790730307881079,-1.7105339135272808,-1.0336573959541713,0.13414441555271472,2.1853866545515648,163.0
164,2.3380009940759847,1.7129748894741454,-1.7120392781968699,-1.0135601516862267,0.14730364746346924,2.1681786589350884,164.0
165,2.372907579115922,1.7468767481601821,-1.713544642866459,-0.9934629074182824,0.16046287937422354,2.150970663318612,165.0
166,2.407814164155861,1.78077860684622,-1.715050007536048,-0.9733656631503373,0.17362211128497823,2.1337626677021353,166.0
167,2.4427207491957983,1.8146804655322568,-1.7165553722056368,-0.953268418882393,0.18678134319573242,2.116554672085659,167.0
168,2.477627334235737,1.8485823242182948,-1.718060736875226,-0.9331711746144479,0.1999405751064871,2.0993466764691826,168.0
169,2.5125339192756755,1.8824841829043333,-1.7195661015448152,-0.9130739303465029,0.21309980701724185,2.0821386808527054,169.0
170,2.5474405043156128,1.9163860415903697,-1.7210714662144042,-0.8929766860785586,0.22625903892799598,2.064930685236229,170.0
171,2.5823470893555522,1.9502879002764082,-1.7225768308839933,-0.8728794418106132,0.23941827083875095,2.0477226896197522,171.0
172,2.6172536743954895,1.9841897589624453,-1.7240821955535823,-0.8527821975426688,0.25257750274950524,2.030514694003276,172.0
173,2.652160259435428,2.018091617648483,-1.7255875602231714,-0.8326849532747238,0.26573673466025993,2.013306698386799,173.0
174,2.6870668444753663,2.0519934763345207,-1.7270929248927605,-0.8125877090067792,0.27889596657101445,1.9960987027703228,174.0
175,2.7219734295153035,2.0858953350205574,-1.7285982895623497,-0.7924904647388349,0.2920551984817686,1.9788907071538464,175.0
176,2.7568800145552426,2.1197971937065954,-1.7301036542319388,-0.7723932204708898,0.30521443039252333,1.9616827115373696,176.0
177,2.79178659959518,2.1536990523926325,-1.7316090189015276,-0.7522959762029455,0.31837366230327757,1.9444747159208937,177.0
178,2.8266931846351184,2.18760091107867,-1.733114383571117,-0.7321987319350005,0.3315328942140323,1.927266720304417,178.0
179,2.861599769675056,2.221502769764707,-1.7346197482407057,-0.7121014876670559,0.3446921261247867,1.9100587246879404,179.0
180,2.8965063547149934,2.2554046284507443,-1.7361251129102948,-0.6920042433991116,0.35785135803554097,1.8928507290714642,180.0
181,2.931412939754932,2.2893064871367823,-1.7376304775798839,-0.6719069991311665,0.3710105899462957,1.8756427334549874,181.0
182,2.9663195247948693,2.3232083458228194,-1.7391358422494732,-0.6518097548632222,0.38416982185704984,1.8584347378385113,182.0
183,3.0012261098348083,2.3571102045088574,-1.7406412069190624,-0.6317125105952772,0.3973290537678046,1.8412267422220343,183.0
184,3.0361326948747474,2.3910120631948963,-1.7421465715886515,-0.6116152663273318,0.41048828567855955,1.8240187466055573,184.0
185,3.0710392799146846,2.4249139218809326,-1.7436519362582406,-0.5915180220593875,0.4236475175893138,1.806810750989081,185.0
186,3.1059458649546237,2.4588157805669706,-1.7451573009278296,-0.5714207777914424,0.43680674950006854,1.7896027553726042,186.0
187,3.1408524499945605,2.4927176392530077,-1.7466626655974185,-0.5513235335234982,0.44996598141082267,1.772394759756128,187.0
188,3.1757590350344995,2.5266194979390457,-1.7481680302670075,-0.5312262892555532,0.4631252133215774,1.7551867641396512,188.0
189,3.2106656200744377,2.560521356625083,-1.7496733949365968,-0.5111290449876085,0.4762844452323319,1.737978768523175,189.0
190,3.245572205114375,2.59442321531112,-1.7511787596061859,-0.4910318007196641,0.4894436771430861,1.7207707729066986,190.0
191,3.280478790154313,2.6283250739971575,-1.752684124275775,-0.4709345564517191,0.5026029090538408,1.7035627772902218,191.0
192,3.315385375194252,2.662226932683196,-1.754189488945364,-0.4508373121837741,0.5157621409645955,1.686354781673745,192.0
193,3.3502919602341894,2.6961287913692327,-1.755694853614953,-0.43074006791582986,0.5289213728753497,1.6691467860572688,193.0
194,3.385198545274129,2.7300306500552716,-1.757200218284542,-0.4106428236478844,0.5420806047861046,1.6519387904407918,194.0
195,3.420105130314065,2.763932508741307,-1.7587055829541312,-0.39054557937994083,0.5552398366968584,1.6347307948243164,195.0
196,3.4550117153540034,2.797834367427345,-1.7602109476237202,-0.3704483351119958,0.5683990686076131,1.6175227992078394,196.0
197,3.489918300393943,2.831736226113384,-1.7617163122933095,-0.3503510908440504,0.5815583005183681,1.6003148035913624,197.0
198,3.52482488543388,2.8656380847994205,-1.7632216769628983,-0.3302538465761061,0.5947175324291223,1.583106807974886,198.0
199,3.5597314704738188,2.899539943485458,-1.7647270416324876,-0.310156602308161,0.607876764339877,1.5658988123584092,199.0
200,3.594638055513756,2.933441802171495,-1.7662324063020765,-0.29005935804021676,0.6210359962506312,1.548690816741933,200.0
201,3.6295446405536946,2.967343660857533,-1.767737770971666,-0.26996211377227175,0.634195228161386,1.5314828211254563,201.0
202,3.6644512255936337,3.001245519543571,-1.769243135641255,-0.24986486950432668,0.6473544600721407,1.5142748255089795,202.0
203,3.6993578106335705,3.035147378229608,-1.7707485003108439,-0.22976762523638233,0.6605136919828949,1.4970668298925034,203.0
204,3.7342643956735087,3.069049236915645,-1.772253864980433,-0.2096703809684377,0.6736729238936493,1.4798588342760268,204.0
205,3.7691709807134464,3.102951095601682,-1.773759229650022,-0.18957313670049347,0.6868321558044036,1.4626508386595507,205.0
206,3.804077565753384,3.13685295428772,-1.775264594319611,-0.1694758924325484,0.6999913877151583,1.445442843043074,206.0
207,3.8389841507933236,3.170754812973759,-1.7767699589892003,-0.1493786481646029,0.7131506196259133,1.4282348474265967,207.0
208,3.8738907358332613,3.2046566716597957,-1.7782753236587894,-0.12928140389665865,0.7263098515366675,1.4110268518101206,208.0
209,3.9087973208731985,3.2385585303458324,-1.7797806883283784,-0.10918415962871442,0.7394690834474217,1.3938188561936444,209.0
210,3.9437039059131296,3.2724603890318633,-1.781286052997967,-0.08908691536077357,0.7526283153581736,1.3766108605771712,210.0
211,3.978610490953054,3.306362247717887,-1.7827914176675557,-0.06898967109283705,0.7657875472689228,1.3594028649607017,211.0
212,4.013517075992977,3.340264106403909,-1.784296782337144,-0.04889242682490119,0.7789467791796715,1.3421948693442327,212.0
213,4.048423661032898,3.374165965089931,-1.7858021470067325,-0.02879518255696578,0.7921060110904199,1.3249868737277644,213.0
214,4.083330246072822,3.408067823775955,-1.7873075116763208,-0.008697938289029261,0.805265243001169,1.3077788781112947,214.0
215,4.118236831112744,3.4419696824619774,-1.7888128763459092,0.011399305978906538,0.8184244749119177,1.2905708824948259,215.0
216,4.153143416152669,3.4758715411480012,-1.7903182410154976,0.031496550246843114,0.8315837068226668,1.2733628868783562,216.0
217,4.188050001192591,3.5097733998340237,-1.7918236056850863,0.05159379451477891,0.8447429387334154,1.2561548912618874,217.0
218,4.222956586232513,3.5436752585200453,-1.7933289703546746,0.07169103878271432,0.857902170644164,1.2389468956454188,218.0
219,4.2578631712724375,3.577577117206069,-1.794834335024263,0.0917882830506509,0.871061402554913,1.2217389000289491,219.0
220,4.29276975631236,3.6114789758920915,-1.7963396996938514,0.1118855273185867,0.8842206344656617,1.2045309044124803,220.0
221,4.3276763413522845,3.6453808345781153,-1.79784506436344,0.13198277158652327,0.8973798663764108,1.1873229087960109,221.0
222,4.362582926392205,3.679282693264137,-1.7993504290330282,0.15208001585445863,0.9105390982871593,1.1701149131795423,222.0
223,4.397489511432128,3.71318455195016,-1.8008557937026166,0.17217726012239448,0.9236983301979079,1.1529069175630733,223.0
224,4.432396096472052,3.7470864106361836,-1.802361158372205,0.19227450439033106,0.936857562108657,1.1356989219466038,224.0
225,4.467302681511975,3.7809882693222057,-1.8038665230417936,0.2123717486582668,0.9500167940194056,1.118490926330135,225.0
226,4.5022092665518985,3.8148901280082295,-1.8053718877113822,0.23246899292620343,0.9631760259301549,1.1012829307136653,226.0
227,4.537115851591821,3.8487919866942515,-1.8068772523809704,0.25256623719413884,0.9763352578409032,1.0840749350971968,227.0
228,4.572022436631743,3.8826938453802735,-1.8083826170505588,0.27266348146207464,0.9894944897516519,1.066866939480728,228.0
229,4.606929021671667,3.9165957040662978,-1.8098879817201474,0.29276072573001116,1.0026537216624012,1.0496589438642583,229.0
230,4.64183560671159,3.95049756275232,-1.8113933463897358,0.312857969997947,1.01581295357315,1.0324509482477895,230.0
231,4.676742191751513,3.9843994214383436,-1.8128987110593242,0.33295521426588354,1.028972185483899,1.01524295263132,231.0
232,4.711648776791436,4.018301280124366,-1.8144040757289126,0.35305245853381895,1.0421314173946474,0.9980349570148513,232.0
233,4.7465553618313585,4.052203138810388,-1.815909440398501,0.37314970280175475,1.0552906493053962,0.9808269613983824,233.0
234,4.781461946871282,4.086104997496411,-1.8174148050680894,0.39324694706969127,1.0684498812161451,0.9636189657819129,234.0
235,4.816368531911204,4.1200068561824335,-1.818920169737678,0.4133441913376268,1.0816091131268935,0.9464109701654444,235.0
236,4.851275116951129,4.153908714868458,-1.8204255344072664,0.4334414356055637,1.0947683450376429,0.9292029745489744,236.0
237,4.886181701991051,4.187810573554479,-1.8219308990768548,0.4535386798734991,1.1079275769483914,0.9119949789325059,237.0
238,4.921088287030973,4.221712432240502,-1.8234362637464432,0.47363592414143496,1.1210868088591401,0.894786983316037,238.0
239,4.955994872070897,4.255614290926526,-1.8249416284160316,0.4937331684093714,1.134246040769889,0.8775789876995674,239.0
240,4.988996426053333,4.287665951616111,-1.8263648376285586,0.5127336031653912,1.1466871060237174,0.8613101205039669,240.0
241,5.012824964456684,4.311321172784022,-1.826983710375998,0.5274213170746299,1.1558060199358184,0.8481511887022629,241.0
242,5.027240981938744,4.32989798108385,-1.8239563561797778,0.544368233583593,1.1624541462668379,0.8284379359733645,242.0
243,5.031664607812391,4.342499602996359,-1.8175238017712216,0.5626100878119931,1.1663244116637892,0.8033753024746874,243.0
244,5.0260888584880306,4.348035406027464,-1.8085500942125976,0.5800946540826852,1.1671267390284668,0.775952834381334,244.0
245,5.010515504766751,4.345410929791938,-1.797909491268282,0.594751445820909,1.164571081449694,0.7491897332761482,245.0
246,4.985165766099506,4.333397103515223,-1.786763032169384,0.603979176212498,1.1583578969884905,0.7269550804590874,246.0
247,4.951620789943678,4.314485848425301,-1.7744162873941187,0.6104953188811528,1.1493368664425514,0.7058347642607553,247.0
248,4.9167142049038395,4.294806975173465,-1.7615683815121497,0.6172759553358788,1.1399496673449574,0.6838571629048733,248.0
249,4.881807619864,4.275128101921629,-1.7487204756301804,0.6240565917906046,1.1305624682473632,0.6618795615489913,249.0
250,4.846901034824164,4.255449228669793,-1.7358725697482122,0.63083722824533,1.1211752691497698,0.6399019601931109,250.0
251,4.811994449784325,4.235770355417958,-1.7230246638662428,0.6376178647000558,1.1117880700521756,0.6179243588372288,251.0
252,4.7770878647444865,4.216091482166121,-1.7101767579842735,0.6443985011547816,1.1024008709545814,0.5959467574813467,252.0
253,4.74218127970465,4.196412608914286,-1.6973288521023053,0.6511791376095071,1.093013671856988,0.5739691561254664,253.0
254,4.707274694664811,4.17673373566245,-1.684480946220336,0.6579597740642329,1.083626472759394,0.5519915547695844,254.0
255,4.6723681096249745,4.1570548624106145,-1.671633040338368,0.6647404105189583,1.0742392736618007,0.5300139534137039,255.0
256,4.637461524585134,4.137375989158777,-1.6587851344563977,0.6715210469736846,1.064852074564206,0.5080363520578204,256.0
257,4.602554939545297,4.1176971159069415,-1.6459372285744294,0.6783016834284099,1.0554648754666125,0.4860587507019399,257.0
258,4.567648354505458,4.0980182426551055,-1.63308932269246,0.6850823198831358,1.0460776763690185,0.464081149346058,258.0
259,4.53274176946562,4.078339369403269,-1.6202414168104908,0.6918629563378617,1.0366904772714243,0.4421035479901759,259.0
260,4.497835184425783,4.058660496151434,-1.6073935109285227,0.6986435927925871,1.027303278173831,0.4201259466342956,260.0
261,4.462928599385944,4.038981622899598,-1.5945456050465536,0.705424229247313,1.017916079076237,0.3981483452784135,261.0
262,4.428022014346105,4.019302749647761,-1.5816976991645844,0.7122048657020388,1.0085288799786427,0.37617074392253147,262.0
263,4.393115429306269,3.999623876395927,-1.5688497932826162,0.7189855021567642,0.9991416808810494,0.35419314256665113,263.0
264,4.35820884426643,3.97994500314409,-1.556001887400647,0.72576613861149,0.9897544817834552,0.33221554121076907,264.0
265,4.323302259226592,3.9602661298922546,-1.5431539815186779,0.7325467750662159,0.9803672826858613,0.310237939854887,265.0
266,4.288395674186753,3.9405872566404176,-1.5303060756367084,0.7393274115209417,0.970980083588267,0.28826033849900506,266.0
267,4.253489089146917,3.920908383388583,-1.5174581697547402,0.7461080479756672,0.9615928844906737,0.2662827371431247,267.0
268,4.2185825041070775,3.9012295101367465,-1.504610263872771,0.752888684430393,0.9522056853930795,0.24430513578724256,268.0
269,4.183675919067238,3.8815506368849095,-1.4917623579908017,0.7596693208851188,0.9428184862954856,0.2223275344313606,269.0
270,4.148769334027403,3.8618717636330753,-1.4789144521088335,0.7664499573398442,0.9334312871978921,0.20034993307548027,270.0
271,4.113862748987564,3.842192890381239,-1.4660665462268643,0.77323059379457,0.924044088100298,0.1783723317195982,271.0
272,4.078956163947725,3.8225140171294028,-1.4532186403448952,0.780011230249296,0.914656889002704,0.1563947303637162,272.0
273,4.044049578907888,3.8028351438775676,-1.4403707344629268,0.7867918667040212,0.9052696899051105,0.13441712900783565,273.0
274,4.009142993868049,3.7831562706257307,-1.4275228285809574,0.7935725031587471,0.8958824908075163,0.11243952765195375,274.0
275,3.9742364088282107,3.763477397373895,-1.4146749226989885,0.8003531396134731,0.8864952917099223,0.09046192629607175,275.0
276,3.9393298237883725,3.743798524122058,-1.4018270168170193,0.8071337760681989,0.8771080926123281,0.06848432494018974,276.0
277,3.9044232387485334,3.724119650870222,-1.38897911093505,0.8139144125229247,0.8677208935147341,0.04650672358430763,277.0
278,3.869516653708697,3.704440777618387,-1.3761312050530818,0.8206950489776501,0.8583336944171407,0.02452912222842729,278.0
279,3.834610068668858,3.6847619043665505,-1.3632832991711126,0.8274756854323759,0.8489464953195466,0.0025515208725451766,279.0
280,3.7997034836290218,3.6650830311147162,-1.3504353932891444,0.8342563218871013,0.8395592962219532,-0.019426080483335162,280.0
281,3.7647968985891835,3.6454041578628793,-1.3375874874071751,0.8410369583418271,0.830172097124359,-0.041403681839217055,281.0
282,3.7298903135493444,3.6257252846110437,-1.3247395815252059,0.8478175947965532,0.8207848980267651,-0.06338128319509906,282.0
283,3.694983728509508,3.606046411359208,-1.3118916756432375,0.8545982312512784,0.8113976989291717,-0.08535888455097962,283.0
284,3.6600771434696666,3.5863675381073703,-1.2990437697612673,0.8613788677060048,0.8020104998315769,-0.10733648590686318,284.0
285,3.6251705584298306,3.5666886648555356,-1.2861958638792992,0.8681595041607302,0.7926233007339835,-0.12931408726274352,285.0
286,3.590263973389991,3.547009791603699,-1.27334795799733,0.874940140615456,0.7832361016363893,-0.15129168861862563,286.0
287,3.555357388350153,3.527330918351863,-1.2605000521153609,0.881720777070182,0.7738489025387952,-0.17326928997450752,287.0
288,3.520450803310317,3.507652045100028,-1.2476521462333925,0.8885014135249072,0.7644617034412018,-0.19524689133038797,288.0
289,3.4855442182704777,3.4879731718481914,-1.2348042403514232,0.8952820499796331,0.7550745043436078,-0.2172244926862701,289.0
290,3.4506376332306417,3.4682942985963567,-1.2219563344694548,0.9020626864343585,0.7456873052460145,-0.23920209404215043,290.0
291,3.415731048190803,3.4486154253445207,-1.209108428587486,0.9088433228890844,0.7363001061484202,-0.26117969539803243,291.0
292,3.380824463150964,3.4289365520926838,-1.1962605227055167,0.9156239593438102,0.7269129070508262,-0.28315729675391443,292.0
293,3.3459178781111243,3.4092576788408477,-1.1834126168235475,0.9224045957985361,0.717525707953232,-0.30513489810979655,293.0
294,3.311011293071286,3.389578805589011,-1.1705647109415782,0.9291852322532619,0.708138508855638,-0.32711249946567844,294.0
295,3.27610470803145,3.3698999323371766,-1.15771680505961,0.9359658687079874,0.6987513097580446,-0.349090100821559,295.0
296,3.241198122991611,3.3502210590853396,-1.1448688991776406,0.9427465051627132,0.6893641106604504,-0.371067702177441,296.0
297,3.2062915379517727,3.330542185833504,-1.1320209932956717,0.9495271416174391,0.6799769115628564,-0.3930453035333229,297.0
298,3.1713849529119353,3.310863312581669,-1.1191730874137031,0.9563077780721645,0.6705897124652629,-0.41502290488920346,298.0
299,3.136478367872097,3.2911844393298324,-1.106325181531734,0.9630884145268903,0.661202513367669,-0.43700050624508535,299.0
300,3.101571782832259,3.2715055660779964,-1.0934772756497648,0.9698690509816161,0.6518153142700749,-0.45897810760096724,300.0
301,3.0666651977924224,3.251826692826161,-1.0806293697677967,0.9766496874363416,0.6424281151724814,-0.4809557089568478,301.0
302,3.0317586127525833,3.2321478195743247,-1.0677814638858274,0.9834303238910674,0.6330409160748873,-0.5029333103127298,302.0
303,2.996852027712744,3.2124689463224883,-1.0549335580038584,0.9902109603457933,0.6236537169772932,-0.5249109116686117,303.0
304,2.9619454426729055,3.1927900730706518,-1.042085652121889,0.9969915968005191,0.6142665178796991,-0.5468885130244939,304.0
305,2.927038857633069,3.1731111998188175,-1.0292377462399207,1.0037722332552446,0.6048793187821058,-0.5688661143803743,305.0
306,2.892132272593231,3.153432326566981,-1.0163898403579517,1.0105528697099704,0.5954921196845117,-0.5908437157362562,306.0
307,2.8572256875533917,3.133753453315145,-1.0035419344759824,1.0173335061646962,0.5861049205869175,-0.6128213170921383,307.0
308,2.8223191025135552,3.1140745800633094,-0.990694028594014,1.0241141426194216,0.5767177214893241,-0.6347989184480187,308.0
309,2.7874125174737165,3.0943957068114734,-0.977846122712045,1.0308947790741474,0.56733052239173,-0.6567765198039006,309.0
310,2.752505932433878,3.074716833559637,-0.9649982168300756,1.0376754155288732,0.557943323294136,-0.6787541211597827,310.0
311,2.7175993473940414,3.055037960307802,-0.9521503109481075,1.0444560519835986,0.5485561241965426,-0.7007317225156632,311.0
312,2.6826927623542005,3.0353590870559644,-0.9393024050661373,1.051236688438325,0.5391689250989478,-0.7227093238715468,312.0
313,2.647786177314364,3.015680213804129,-0.9264544991841689,1.0580173248930502,0.5297817260013544,-0.7446869252274271,313.0
314,2.6128795922745254,2.9960013405522927,-0.9136065933021997,1.0647979613477763,0.5203945269037604,-0.7666645265833091,314.0
315,2.5779730072346885,2.9763224673004576,-0.9007586874202314,1.0715785978025016,0.5110073278061668,-0.7886421279391895,315.0
316,2.5430664221948502,2.956643594048622,-0.8879107815382623,1.0783592342572275,0.5016201287085729,-0.8106197292950714,316.0
317,2.508159837155011,2.9369647207967855,-0.8750628756562933,1.0851398707119533,0.49223292961097875,-0.8325973306509536,317.0
318,2.4732532521151747,2.9172858475449504,-0.8622149697743249,1.0919205071666789,0.48284573051338514,-0.8545749320068341,318.0
319,2.4383466670753364,2.897606974293114,-0.8493670638923558,1.0987011436214045,0.4734585314157912,-0.8765525333627159,319.0
320,2.403440082035497,2.877928101041278,-0.8365191580103863,1.1054817800761305,0.4640713323181971,-0.8985301347185983,320.0
321,2.3685334969955365,2.858249227789373,-0.8236712521283726,1.1122624165308799,0.4546841332205704,-0.9205077360745567,321.0
322,2.333626911955574,2.8385703545374668,-0.8108233462463577,1.1190430529856301,0.44529693412294286,-0.9424853374305169,322.0
323,2.2987203269156105,2.8188914812855597,-0.7979754403643425,1.12582368944038,0.43590973502531516,-0.9644629387864775,323.0
324,2.2638137418756523,2.799212608033656,-0.7851275344823293,1.132604325895129,0.426522535927689,-0.9864405401424345,324.0
325,2.2289071568356893,2.77953373478175,-0.7722796286003146,1.139384962349879,0.4171353368300616,-1.0084181414983948,325.0
326,2.1940005717957285,2.7598548615298446,-0.7594317227183005,1.1461655988046286,0.40774813773243473,-1.0303957428543535,326.0
327,2.1590939867557655,2.7401759882779384,-0.7465838168362855,1.1529462352593787,0.3983609386348072,-1.0523733442103138,327.0
328,2.124187401715803,2.720497115026032,-0.7337359109542705,1.1597268717141287,0.3889737395371797,-1.074350945566274,328.0
329,2.089280816675841,2.700818241774127,-0.7208880050722564,1.1665075081688783,0.3795865404395528,-1.0963285469222326,329.0
330,2.0543742316358804,2.6811393685222216,-0.7080400991902425,1.1732881446236278,0.3701993413419259,-1.1183061482781915,330.0
331,2.019467646595918,2.6614604952703154,-0.6951921933082275,1.1800687810783776,0.36081214224429836,-1.1402837496341518,331.0
332,1.9845610615559548,2.641781622018409,-0.6823442874262126,1.1868494175331277,0.35142494314667094,-1.162261350990112,332.0
333,1.949654476515994,2.622102748766504,-0.6694963815441983,1.1936300539878772,0.3420377440490441,-1.1842389523460706,333.0
334,1.9147478914760332,2.602423875514599,-0.6566484756621842,1.2004106904426268,0.3326505449514171,-1.2062165537020297,334.0
335,1.8798413064360702,2.5827450022626928,-0.6438005697801695,1.2071913268973768,0.3232633458537897,-1.2281941550579898,335.0
336,1.8449347213961074,2.563066129010786,-0.6309526638981545,1.2139719633521269,0.31387614675616216,-1.25017175641395,336.0
337,1.8100281363561466,2.5433872557588812,-0.6181047580161404,1.2207525998068762,0.3044889476585353,-1.2721493577699088,337.0
338,1.7751215513161833,2.523708382506975,-0.6052568521341254,1.2275332362616265,0.29510174856090776,-1.294126959125869,338.0
339,1.7402149662762225,2.5040295092550697,-0.5924089462521113,1.2343138727163758,0.2857145494632809,-1.316104560481828,339.0
340,1.7053083812362622,2.484350636003165,-0.5795610403700975,1.2410945091711252,0.2763273503656541,-1.3380821618377865,340.0
341,1.6704017961962987,2.464671762751258,-0.5667131344880824,1.2478751456258754,0.26694015126802645,-1.360059763193747,341.0
342,1.6354952111563354,2.444992889499352,-0.5538652286060675,1.2546557820806254,0.2575529521703991,-1.382037364549707,342.0
343,1.6005886261163726,2.4253140162474454,-0.5410173227240525,1.2614364185353755,0.24816575307277156,-1.4040149659056673,343.0
344,1.5656820410764143,2.405635142995542,-0.5281694168420392,1.2682170549901244,0.23877855397514525,-1.4259925672616245,344.0
345,1.5307754560364513,2.385956269743635,-0.5153215109600244,1.2749976914448746,0.22939135487751783,-1.447970168617585,345.0
346,1.495868870996488,2.366277396491729,-0.5024736050780094,1.2817783278996244,0.2200041557798902,-1.4699477699735453,346.0
347,1.4609622859565272,2.3465985232398237,-0.4896256991959953,1.288558964354374,0.21061695668226332,-1.4919253713295038,347.0
348,1.426055700916564,2.3269196499879174,-0.4767777933139803,1.295339600809124,0.2012297575846358,-1.513902972685464,348.0
349,1.3911491158766034,2.307240776736012,-0.46392988743196617,1.3021202372638736,0.19184255848700893,-1.535880574041423,349.0
350,1.3562425308366406,2.287561903484106,-0.4510819815499514,1.3089008737186236,0.1824553593893814,-1.5578581753973832,350.0
351,1.3213359457966793,2.2678830302322006,-0.43823407566793726,1.3156815101733732,0.17306816029175454,-1.579835776753342,351.0
352,1.2864293607567165,2.2482041569802944,-0.42538616978592236,1.3224621466281232,0.163680961194127,-1.6018133781093022,352.0
353,1.2515227757167535,2.2285252837283878,-0.41253826390390735,1.3292427830828732,0.1542937620964996,-1.6237909794652623,353.0
354,1.2166161906767954,2.2088464104764842,-0.3996903580218941,1.3360234195376222,0.1449065629988734,-1.6457685808212197,354.0
355,1.181709605636832,2.1891675372245776,-0.38684245213987933,1.3428040559923724,0.13551936390124575,-1.6677461821771802,355.0
356,1.1468030205968687,2.1694886639726714,-0.3739945462578643,1.3495846924471224,0.12613216480361833,-1.6897237835331405,356.0
357,1.111896435556906,2.1498097907207647,-0.3611466403758493,1.3563653289018722,0.1167449657059908,-1.7117013848891007,357.0
358,1.0769898505169453,2.13013091746886,-0.3482987344938352,1.3631459653566218,0.10735776660836394,-1.7336789862450595,358.0
359,1.0420832654769847,2.1104520442169545,-0.3354508286118212,1.3699266018113712,0.09797056751073718,-1.7556565876010177,359.0
360,1.0071766804370212,2.0907731709650483,-0.3226029227298063,1.3767072382661214,0.08858336841310954,-1.7776341889569784,360.0
361,0.9722700953970607,2.071094297713143,-0.3097550168477923,1.3834878747208708,0.07919616931548268,-1.799611790312937,361.0
362,0.9373635103570974,2.051415424461237,-0.29690711096577727,1.3902685111756208,0.06980897021785515,-1.8215893916688972,362.0
363,0.9024569253171344,2.03173655120933,-0.28405920508376226,1.3970491476303708,0.06042177112022773,-1.8435669930248575,363.0
364,0.8675503402771763,2.012057677957427,-0.271211299201749,1.40382978408512,0.05103457202260142,-1.8655445943808147,364.0
365,0.8326437552372128,1.9923788047055204,-0.25836339331973435,1.41061042053987,0.04164737292497389,-1.887522195736775,365.0
366,0.7977371701972498,1.9726999314536142,-0.24551548743771923,1.41739105699462,0.03226017382734647,-1.9094997970927357,366.0
367,0.7628305851572867,1.9530210582017073,-0.23266758155570422,1.42417169344937,0.022872974729718942,-1.9314773984486957,367.0
368,0.7279240001173259,1.9333421849498027,-0.2198196756736901,1.4309523299041196,0.013485775632091968,-1.9534549998046544,368.0
369,0.6930174150773656,1.9136633116978974,-0.20697176979167609,1.437732966358869,0.004098576534465215,-1.9754326011606127,369.0
370,0.6581108300374021,1.8939844384459912,-0.19412386390966108,1.4445136028136192,-0.005288622563162426,-1.9974102025165734,370.0
371,0.6232042449974413,1.8743055651940859,-0.18127595802764718,1.4512942392683685,-0.014675821660789179,-2.019387803872532,371.0
372,0.5882976599574783,1.8546266919421797,-0.16842805214563217,1.4580748757231188,-0.02406302075841682,-2.0413654052284924,372.0
373,0.5533910749175153,1.8349478186902732,-0.15558014626361727,1.4648555121778686,-0.03345021985604424,-2.0633430065844527,373.0
374,0.5184844898775545,1.8152689454383681,-0.14273224038160315,1.4716361486326182,-0.042837418953671214,-2.0853206079404116,374.0
375,0.4835779048375941,1.7955900721864628,-0.12988433449958914,1.4784167850873677,-0.052224618051297966,-2.10729820929637,375.0
376,0.44867131979763064,1.7759111989345566,-0.11703642861757424,1.4851974215421178,-0.061611817148925496,-2.12927581065233,376.0
377,0.41376473475766806,1.7562323256826502,-0.10418852273555912,1.4919780579968678,-0.07099901624655303,-2.1512534120082907,377.0
378,0.3788581497177068,1.736553452430745,-0.09134061685354522,1.4987586944516171,-0.08038621534417978,-2.173231013364249,378.0
379,0.343951564677746,1.7168745791788398,-0.0784927109715311,1.5055393309063667,-0.08977341444180675,-2.195208614720208,379.0
380,0.30904497963778343,1.6971957059269336,-0.06564480508951609,1.5123199673611167,-0.09916061353943417,-2.2171862160761684,380.0
381,0.27413839459781997,1.6775168326750272,-0.05279689920750119,1.5191006038158668,-0.10854781263706181,-2.2391638174321287,381.0
382,0.2392318095578596,1.657837959423122,-0.03994899332548718,1.5258812402706161,-0.11793501173468857,-2.2611414187880876,382.0
383,0.20432522451789614,1.6381590861712156,-0.02710108744347217,1.5326618767253664,-0.1273222108323162,-2.2831190201440474,383.0
384,0.16941863947793312,1.6184802129193092,-0.014253181561457162,1.5394425131801164,-0.13670940992994363,-2.3050966215000077,384.0
385,0.13451205443797454,1.5988013396674052,-0.0014052756794440402,1.5462231496348653,-0.14609660902756993,-2.3270742228559653,385.0
386,0.09960546939801196,1.579122466415499,0.011442630202570858,1.5530037860896153,-0.15548380812519746,-2.349051824211925,386.0
387,0.06469888435804894,1.5594435931635928,0.024290536084585868,1.5597844225443653,-0.16487100722282488,-2.3710294255678854,387.0
388,0.02979229931808547,1.5397647199116864,0.037138441966600655,1.5665650589991154,-0.1742582063204524,-2.3930070269238457,388.0
389,-0.0051142857218753335,1.5200858466597813,0.04998634784861489,1.573345695453865,-0.18364540541807928,-2.4149846282798046,389.0
390,-0.04002087076183569,1.500406973407876,0.06283425373062901,1.5801263319086145,-0.19303260451570614,-2.4369622296357636,390.0
391,-0.0749274558017965,1.4807281001559711,0.07568215961264302,1.586906968363364,-0.20241980361333312,-2.4589398309917225,391.0
392,-0.10983404084175996,1.4610492269040645,0.08853006549465792,1.5936876048181141,-0.21180700271096053,-2.4809174323476824,392.0
393,-0.14474062588172254,1.4413703536521583,0.10137797137667282,1.600468241272864,-0.22119420180858806,-2.5028950337036426,393.0
394,-0.17964721092168556,1.4216914804002518,0.11422587725868782,1.607248877727614,-0.23058140090621548,-2.524872635059603,394.0
395,-0.21455379596164414,1.402012607148348,0.12707378314070106,1.614029514182363,-0.2399686000038418,-2.54685023641556,395.0
396,-0.24946038100160717,1.3823337338964419,0.13992168902271596,1.620810150637113,-0.24935579910146932,-2.5688278377715204,396.0
397,-0.28436696604157063,1.3626548606445352,0.15276959490473097,1.6275907870918631,-0.25874299819909674,-2.5908054391274806,397.0
398,-0.31927355108153144,1.3429759873926301,0.16561750078674498,1.6343714235466127,-0.2681301972967237,-2.6127830404834396,398.0
399,-0.354180136121494,1.3232971141407237,0.17846540666875987,1.6411520600013627,-0.27751739639435113,-2.6347606418394,399.0
400,-0.38908672116145526,1.3036182408888188,0.1913133125507741,1.647932696456112,-0.2869045954919781,-2.656738243195359,400.0
401,-0.42399330620141784,1.2839393676369122,0.204161218432789,1.6547133329108623,-0.29629179458960553,-2.678715844551319,401.0
402,-0.45889989124137864,1.2642604943850073,0.21700912431480313,1.6614939693656117,-0.3056789936872324,-2.7006934459072776,402.0
403,-0.49380647628134167,1.2445816211331011,0.22985703019681802,1.6682746058203617,-0.3150661927848599,-2.722671047263238,403.0
404,-0.5287130613213047,1.2249027478811945,0.2427049360788328,1.6750552422751117,-0.32445339188248745,-2.744648648619198,404.0
405,-0.5636196463612633,1.2052238746292907,0.25555284196084627,1.6818358787298608,-0.33384059098011376,-2.7666262499751553,405.0
406,-0.5985262314012267,1.1855450013773843,0.26840074784286094,1.6886165151846109,-0.3432277900777413,-2.7886038513311155,406.0
407,-0.6334328164411893,1.165866128125478,0.28124865372487595,1.6953971516393609,-0.35261498917536876,-2.810581452687076,407.0
408,-0.6683394014811523,1.1461872548735716,0.29409655960689085,1.7021777880941107,-0.36200218827299624,-2.8325590540430357,408.0
409,-0.7032459865211131,1.1265083816216666,0.30694446548890497,1.7089584245488603,-0.37138938737062316,-2.854536655398995,409.0
410,-0.738152571561074,1.1068295083697612,0.3197923713709191,1.7157390610036098,-0.38077658646825,-2.8765142567549535,410.0
411,-0.7730591566010374,1.087150635117855,0.332640277252934,1.7225196974583599,-0.39016378556587755,-2.898491858110914,411.0
412,-0.8079657416409982,1.0674717618659497,0.3454881831349481,1.7293003339131094,-0.3995509846635044,-2.9204694594668728,412.0
413,-0.8428723266809608,1.0477928886140435,0.358336089016963,1.7360809703678595,-0.4089381837611319,-2.942447060822833,413.0
414,-0.8777789117209238,1.028114015362137,0.371183994898978,1.7428616068226095,-0.41832538285875936,-2.9644246621787933,414.0
415,-0.9126854967608846,1.008435142110232,0.38403190078099203,1.749642243277359,-0.4277125819563863,-2.986402263534752,415.0
416,-0.9475920818008456,0.9887562688583269,0.39687980666300615,1.7564228797321086,-0.43709978105401315,-3.0083798648907107,416.0
417,-0.9824986668408084,0.9690773956064206,0.40972771254502116,1.7632035161868587,-0.4464869801516407,-3.030357466246671,417.0
418,-1.0174052518807717,0.949398522354514,0.42257561842703606,1.7699841526416085,-0.45587417924926815,-3.0523350676026313,418.0
419,-1.0523118369207325,0.9297196491026091,0.4354235243090502,1.7767647890963583,-0.465261378346895,-3.0743126689585902,419.0
420,-1.0872184219606933,0.9100407758507039,0.4482714301910643,1.7835454255511076,-0.47464857744452194,-3.0962902703145487,420.0
421,-1.1221250070006563,0.8903619025987975,0.4611193360730792,1.7903260620058576,-0.4840357765421494,-3.118267871670509,421.0
422,-1.1570315920406191,0.8706830293468912,0.4739672419550939,1.7971066984606077,-0.4934229756397769,-3.1402454730264693,422.0
423,-1.19193817708058,0.851004156094986,0.4868151478371082,1.803887334915357,-0.5028101747374039,-3.1622230743824282,423.0
424,-1.2268447621205432,0.8313252828430797,0.499663053719123,1.8106679713701073,-0.5121973738350313,-3.184200675738388,424.0
425,-1.2617513471605017,0.8116464095911757,0.5125109596011365,1.8174486078248564,-0.5215845729326577,-3.206178277094346,425.0
426,-1.2966579322004645,0.7919675363392694,0.5253588654831511,1.8242292442796062,-0.5309717720302851,-3.228155878450306,426.0
427,-1.3315645172404278,0.772288663087363,0.5382067713651661,1.8310098807343562,-0.5403589711279126,-3.250133479806266,427.0
428,-1.3664711022803906,0.7526097898354567,0.551054677247181,1.8377905171891062,-0.5497461702255402,-3.2721110811622265,428.0
429,-1.4013776873203514,0.7329309165835515,0.5639025831291952,1.8445711536438558,-0.559133369323167,-3.2940886825181854,429.0
430,-1.4362842723603124,0.7132520433316466,0.5767504890112093,1.8513517900986054,-0.5685205684207939,-3.316066283874144,430.0
431,-1.4711908574002752,0.6935731700797402,0.5895983948932242,1.8581324265533554,-0.5779077675184214,-3.338043885230104,431.0
432,-1.506097442440236,0.6738942968278351,0.6024463007752383,1.864913063008105,-0.5872949666160483,-3.3600214865860627,432.0
433,-1.5410040274801993,0.6542154235759287,0.6152942066572532,1.871693699462855,-0.5966821657136758,-3.381999087942023,433.0
434,-1.5759106125201623,0.6345365503240223,0.6281421125392682,1.8784743359176048,-0.6060693648113032,-3.4039766892979832,434.0
435,-1.610817197560123,0.6148576770721171,0.6409900184212822,1.8852549723723546,-0.6154565639089302,-3.4259542906539426,435.0
436,-1.645723782600084,0.595178803820212,0.6538379243032963,1.892035608827104,-0.6248437630065571,-3.447931892009901,436.0
437,-1.6806303676400467,0.5754999305683056,0.6666858301853114,1.898816245281854,-0.6342309621041846,-3.4699094933658614,437.0
438,-1.71553695268001,0.5558210573163993,0.6795337360673263,1.905596881736604,-0.6436181612018121,-3.4918870947218217,438.0
439,-1.7504435377199705,0.5361421840644941,0.6923816419493404,1.9123775181913536,-0.6530053602994389,-3.51386469607778,439.0
440,-1.7853501227599313,0.516463310812589,0.7052295478313545,1.9191581546461032,-0.6623925593970659,-3.535842297433739,440.0
441,-1.8202567077998946,0.4967844375606827,0.7180774537133694,1.925938791100853,-0.6717797584946934,-3.5578198987896994,441.0
442,-1.8551632928398574,0.47710556430877626,0.7309253595953841,1.9327194275556032,-0.6811669575923209,-3.5797975001456592,442.0
443,-1.8900698778798184,0.45742669105687117,0.7437732654773982,1.9395000640103526,-0.6905541566899476,-3.601775101501618,443.0
444,-1.9249764629197812,0.43774781780496475,0.7566211713594132,1.9462807004651026,-0.6999413557875751,-3.6237527028575784,444.0
445,-1.959883047959742,0.4180689445530599,0.7694690772414272,1.9530613369198522,-0.7093285548852022,-3.6457303042135374,445.0
446,-1.9947896329997028,0.39839007130115467,0.7823169831234413,1.9598419733746018,-0.7187157539828288,-3.6677079055694963,446.0
447,-2.029696218039666,0.37871119804924835,0.7951648890054563,1.9666226098293518,-0.7281029530804564,-3.6896855069254566,447.0
448,-2.0646028030796293,0.35903232479734193,0.8080127948874712,1.9734032462841018,-0.7374901521780839,-3.7116631082814164,448.0
449,-2.099509388119592,0.3393534515454356,0.8208607007694861,1.9801838827388516,-0.7468773512757114,-3.7336407096373767,449.0
450,-2.134415973159551,0.31967457829353163,0.8337086066514994,1.986964519193601,-0.7562645503733376,-3.7556183109933343,450.0
451,-2.1693225581995135,0.2999957050416253,0.8465565125335144,1.993745155648351,-0.7656517494709651,-3.777595912349294,451.0
452,-2.2042291432394743,0.2803168317897201,0.8594044184155285,2.0005257921031006,-0.7750389485685921,-3.7995735137052535,452.0
453,-2.2391357282794373,0.2606379585378138,0.8722523242975434,2.0073064285578504,-0.7844261476662197,-3.821551115061214,453.0
454,-2.2740423133194003,0.24095908528590737,0.8851002301795583,2.0140870650126006,-0.7938133467638471,-3.843528716417174,454.0
455,-2.308948898359361,0.22128021203400228,0.8979481360615724,2.02086770146735,-0.8032005458614739,-3.865506317773132,455.0
456,-2.343855483399322,0.2016013387820973,0.9107960419435865,2.0276483379220993,-0.8125877449591009,-3.8874839191290915,456.0
457,-2.3787620684392854,0.18192246553019076,0.9236439478256016,2.0344289743768496,-0.8219749440567283,-3.9094615204850514,457.0
458,-2.413668653479248,0.16224359227828433,0.9364918537076165,2.0412096108315994,-0.8313621431543559,-3.9314391218410116,458.0
459,-2.4485752385192088,0.14256471902637946,0.9493397595896306,2.047990247286349,-0.840749342251983,-3.953416723196971,459.0
460,-2.4834818235591687,0.12288584577447481,0.9621876654716442,2.0547708837410985,-0.8501365413496094,-3.975394324552929,460.0
461,-2.518388408599133,0.10320697252256794,0.9750355713536596,2.0615515201958483,-0.8595237404472371,-3.9973719259088893,461.0
462,-2.5532949936390956,0.08352809927066152,0.9878834772356744,2.0683321566505986,-0.8689109395448646,-4.01934952726485,462.0
463,-2.5882015786790564,0.06384922601875642,1.0007313831176883,2.075112793105348,-0.8782981386424916,-4.041327128620809,463.0
464,-2.6231081637190194,0.044170352766849996,1.0135792889997033,2.081893429560098,-0.887685337740119,-4.063304729976769,464.0
465,-2.6580147487589803,0.024491479514944903,1.0264271948817174,2.0886740660148475,-0.8970725368377459,-4.085282331332727,465.0
466,-2.69292133379894,0.004812606263040364,1.039275100763731,2.0954547024695973,-0.9064597359353725,-4.107259932688685,466.0
467,-2.727827918838904,-0.014866266988866617,1.0521230066457465,2.102235338924347,-0.9158469350330003,-4.1292375340446466,467.0
468,-2.7627345038788675,-0.03454514024077293,1.0649709125277615,2.1090159753790974,-0.9252341341306278,-4.151215135400607,468.0
469,-2.79764108891883,-0.05422401349267936,1.0778188184097763,2.115796611833847,-0.9346213332282554,-4.173192736756567,469.0
470,-2.8325476739587874,-0.07390288674458267,1.0906667242917893,2.122577248288596,-0.9440085323258813,-4.195170338112524,470.0
471,-2.8674542589987517,-0.09358175999648954,1.1035146301738046,2.1293578847433463,-0.9533957314235091,-4.217147939468484,471.0
472,-2.9023608440387147,-0.11326063324839586,1.1163625360558196,2.136138521198096,-0.9627829305211366,-4.239125540824444,472.0
473,-2.9372674290786756,-0.13293950650030106,1.1292104419378335,2.142919157652846,-0.9721701296187634,-4.261103142180404,473.0
474,-2.972174014118639,-0.15261837975220738,1.1420583478198485,2.1496997941075957,-0.9815573287163909,-4.283080743536364,474.0
475,-3.0070805991585985,-0.17229725300411192,1.1549062537018622,2.156480430562345,-0.9909445278140175,-4.3050583448923225,475.0
476,-3.041987184198563,-0.1919761262560189,1.1677541595838776,2.1632610670170953,-1.0003317269116454,-4.327035946248283,476.0
477,-3.0768937692385223,-0.21165499950792344,1.1806020654658913,2.1700417034718447,-1.009718926009272,-4.34901354760424,477.0
478,-3.1118003542784862,-0.23133387275983042,1.1934499713479068,2.176822339926595,-1.0191061251068998,-4.370991148960202,478.0
479,-3.1467069393184492,-0.25101274601173684,1.2062978772299213,2.183602976381345,-1.0284933242045273,-4.392968750316162,479.0
480,-3.1816135243584065,-0.27069161926364005,1.2191457831119346,2.190383612836094,-1.0378805233021533,-4.4149463516721195,480.0
481,-3.21652010939837,-0.29037049251554636,1.2319936889939493,2.197164249290844,-1.0472677223997808,-4.43692395302808,481.0
482,-3.251426694438334,-0.31004936576745334,1.2448415948759646,2.203944885745594,-1.0566549214974086,-4.45890155438404,482.0
483,-3.286333279478297,-0.32972823901935966,1.2576895007579796,2.210725522200344,-1.0660421205950361,-4.48087915574,483.0
484,-3.3212398645182573,-0.349407112271265,1.2705374066399935,2.2175061586550937,-1.0754293196926628,-4.502856757095959,484.0
485,-3.356146449558217,-0.3690859855231693,1.2833853125220072,2.224286795109843,-1.0848165187902894,-4.524834358451917,485.0
486,-3.3910530345981784,-0.3887648587750745,1.2962332184040213,2.2310674315645924,-1.0942037178879165,-4.546811959807876,486.0
487,-3.425959619638141,-0.4084437320269808,1.3090811242860363,2.2378480680193427,-1.103590916985544,-4.568789561163836,487.0
488,-3.460866204678106,-0.4281226052788879,1.3219290301680515,2.244628704474093,-1.1129781160831715,-4.590767162519797,488.0
489,-3.4957727897180684,-0.4478014785307941,1.3347769360500665,2.2514093409288427,-1.122365315180799,-4.6127447638757575,489.0
490,-3.530679374758026,-0.46748035178269753,1.3476248419320793,2.2581899773835916,-1.1317525142784253,-4.634722365231714,490.0
491,-3.565585959797989,-0.48715922503460374,1.3604727478140943,2.264970613838342,-1.1411397133760528,-4.6566999665876745,491.0
492,-3.600492544837953,-0.5068380982865109,1.3733206536961098,2.2717512502930917,-1.1505269124736803,-4.678677567943635,492.0
493,-3.635399129877913,-0.5265169715384153,1.3861685595781235,2.2785318867478415,-1.159914111571307,-4.700655169299593,493.0
494,-3.6703057149178764,-0.5461958447903217,1.3990164654601382,2.2853125232025913,-1.1693013106689345,-4.7226327706555535,494.0
495,-3.7052122999578367,-0.5658747180422268,1.4118643713421524,2.292093159657341,-1.1786885097665616,-4.744610372011512,495.0
496,-3.7401188849978,-0.5855535912941332,1.4247122772241674,2.298873796112091,-1.188075708864189,-4.766587973367472,496.0
497,-3.77502547003776,-0.6052324645460382,1.4375601831061815,2.30565443256684,-1.1974629079618158,-4.788565574723432,497.0
498,-3.8099320550777236,-0.6249113377979447,1.4504080889881965,2.3124350690215905,-1.2068501070594433,-4.810543176079392,498.0
499,-3.8448386401176875,-0.6445902110498516,1.4632559948702115,2.3192157054763403,-1.216237306157071,-4.832520777435352,499.0
500,-3.879745225157645,-0.6642690843017549,1.4761039007522245,2.325996341931089,-1.225624505254697,-4.85449837879131,500.0
501,-3.9146518101976078,-0.6839479575536611,1.4889518066342395,2.332776978385839,-1.2350117043523245,-4.876475980147269,501.0
502,-3.9495583952375712,-0.7036268308055675,1.5017997125162543,2.3395576148405897,-1.244398903449952,-4.8984535815032295,502.0
503,-3.9844649802775347,-0.7233057040574746,1.5146476183982696,2.3463382512953395,-1.2537861025475798,-4.92043118285919,503.0
504,-4.019371565317495,-0.7429845773093791,1.5274955242802832,2.353118887750089,-1.2631733016452065,-4.942408784215148,504.0
505,-4.054278150357456,-0.7626634505612842,1.5403434301622974,2.359899524204838,-1.2725605007428333,-4.964386385571108,505.0
506,-4.089184735397419,-0.7823423238131906,1.5531913360443124,2.3666801606595884,-1.2819476998404606,-4.986363986927068,506.0
507,-4.12409132043738,-0.8020211970650957,1.5660392419263265,2.3734607971143378,-1.2913348989380877,-5.0083415882830264,507.0
508,-4.158997905477343,-0.8217000703170021,1.5788871478083415,2.3802414335690876,-1.3007220980357153,-5.030319189638987,508.0
509,-4.193904490517307,-0.841378943568909,1.5917350536903567,2.3870220700238383,-1.310109297133343,-5.052296790994947,509.0
510,-4.2288110755572665,-0.8610578168208136,1.6045829595723704,2.393802706478587,-1.3194964962309697,-5.0742743923509055,510.0
511,-4.263717660597227,-0.8807366900727186,1.6174308654543845,2.400583342933337,-1.3288836953285965,-5.096251993706865,511.0
512,-4.298624245637191,-0.900415563324625,1.6302787713363995,2.4073639793880868,-1.338270894426224,-5.118229595062825,512.0
513,-4.3335308306771525,-0.9200944365765316,1.6431266772184143,2.414144615842837,-1.3476580935238514,-5.140207196418785,513.0
514,-4.368437415717114,-0.9397733098284365,1.6559745831004284,2.4209252522975864,-1.3570452926214784,-5.162184797774743,514.0
515,-4.403344000757075,-0.9594521830803415,1.6688224889824426,2.427705888752336,-1.3664324917191053,-5.184162399130702,515.0
516,-4.438250585797038,-0.9791310563322481,1.6816703948644576,2.434486525207086,-1.3758196908167328,-5.206140000486663,516.0
517,-4.473157170836999,-0.998809929584153,1.6945183007464717,2.4412671616618358,-1.3852068899143597,-5.228117601842622,517.0
518,-4.508063755876962,-1.0184888028360595,1.7073662066284867,2.4480477981165856,-1.3945940890119872,-5.250095203198582,518.0
519,-4.542970340916925,-1.0381676760879657,1.7202141125105013,2.4548284345713354,-1.4039812881096148,-5.272072804554543,519.0
520,-4.577876925956885,-1.057846549339871,1.7330620183925156,2.461609071026085,-1.4133684872072414,-5.2940504059105,520.0
521,-4.612783510996847,-1.077525422591776,1.7459099242745297,2.468389707480835,-1.4227556863048685,-5.31602800726646,521.0
522,-4.6476900960368095,-1.0972042958436825,1.7587578301565445,2.4751703439355848,-1.432142885402496,-5.33800560862242,522.0
523,-4.682596681076772,-1.1168831690955887,1.7716057360385595,2.4819509803903346,-1.4415300845001235,-5.35998320997838,523.0
524,-4.717503266116734,-1.136562042347494,1.7844536419205734,2.4887316168450844,-1.4509172835977502,-5.381960811334339,524.0
525,-4.751472992841337,-1.1557127540498862,1.7969567226801442,2.4953302677048876,-1.4600525395298554,-5.403348555545626,525.0
526,-4.7770509330299475,-1.1701325273516934,1.8063710772445583,2.5002988062623475,-1.4669310473180797,-5.419452731085236,526.0
527,-4.792628873218571,-1.178914718738984,1.8121047778958808,2.503324835563465,-1.4711203206575978,-5.429260787617279,527.0
528,-4.7982068134071945,-1.1820593282117515,1.814157824634108,2.504408355608239,-1.4726203595484064,-5.432772725141749,528.0
529,-4.798223514150275,-1.1820687433924668,1.8141639715996452,2.504411599743041,-1.4726248507697677,-5.4327832401283445,528.05779401
