Miguel-LA/TFM_MiguelLerinAlonso/workspace/ros_ur_driver/src/trayectories/data/saved_trajectories/20240523_1958_trajectory.csv
,shoulder_pan_joint,shoulder_lift_joint,elbow_joint,wrist_1_joint,wrist_2_joint,wrist_3_joint,time_from_start
0,4.867448329925537,-2.139871422444479,-1.9513161818133753,0.9575825929641724,-4.851681176816122,-0.708505932484762,0.0
1,4.868112448710094,-2.1398132647782013,-1.9513826237181624,0.9575949561980277,-4.852344913549415,-0.703505932484762,1.0
2,4.870104805063765,-2.1396387917793698,-1.9515819494325237,0.9576320458995937,-4.854336123749295,-0.688505932484762,2.0
3,4.8734253989865515,-2.139348003447984,-1.9519141589564595,0.9576938620688706,-4.857654807415763,-0.6635059324847621,3.0
4,4.8780742303517,-2.1389409004561273,-1.9523792509416964,0.9577804040444189,-4.862300964417611,-0.6285059326460961,4.0
5,4.884049331267136,-2.138429993380342,-1.9529520977054666,0.9578793324747856,-4.868272543468088,-0.5835059472860643,5.0
6,4.8913469714796785,-2.1378390368398765,-1.9535849872495845,0.9579672174232456,-4.875565655959884,-0.5285059554403023,6.0
7,4.899963981356391,-2.137188115307314,-1.9542375811055628,0.958024251242847,-4.884176998712511,-0.46350595743190304,7.0
8,4.909894221011282,-2.1365012019521465,-1.9548620355398683,0.9580271697658684,-4.894100332031005,-0.388505960493173,8.0
9,4.921130393158331,-2.1358059945604566,-1.9554030999606873,0.9579491271983009,-4.905328248565688,-0.3035059548827398,9.0
10,4.933661954155799,-2.135134042248719,-1.9557981243366953,0.9577598860344594,-4.917850146377019,-0.20850594611258033,10.0
11,4.9474761529235325,-2.1345206942661665,-1.9559770307835933,0.9574257086289109,-4.931653237446056,-0.10350593231254313,11.0
12,4.96255517723486,-2.1340052619183005,-1.9558623397924606,0.9569096095401868,-4.946719785475778,0.011494085456934311,12.0
13,4.978877585304936,-2.13363083258389,-1.9553693468736029,0.9561712856189271,-4.963028494326159,0.13649233063638078,13.0
14,4.995087238734305,-2.133450575038596,-1.954495036460692,0.955251063685461,-4.979224592114824,0.2612259729450981,14.0
15,5.0099210957389735,-2.1334556501558026,-1.9533538067149152,0.9542434777081983,-4.994046323167497,0.3759596302845829,15.0
16,5.023392348009444,-2.133603425108216,-1.9520304276794143,0.9531894901964169,-5.0075069937824335,0.480693303088056,16.0
17,5.035516443231637,-2.133854816307416,-1.9506022067402995,0.9521261942057695,-5.019622041476958,0.5754269809150478,17.0
18,5.046308841659761,-2.134174458293936,-1.9491389224546083,0.9510869626062348,-5.030406866462382,0.6601606758047962,18.0
19,5.055784626789804,-2.134530642320618,-1.947702990075971,0.9501015492608662,-5.0398764546758805,0.7348943838678403,19.0
20,5.063958953021084,-2.1348954281894006,-1.9463492002868534,0.9491959614637153,-5.04804581224366,0.7996281052900529,20.0
21,5.070845533220156,-2.135244581503935,-1.9451250106603801,0.9483926859801404,-5.054928503208409,0.8543618324590725,21.0
22,5.07645611760551,-2.135557643237963,-1.9440704670710254,0.947710688564003,-5.060536146662565,0.8990955683264816,22.0
23,5.080801440835753,-2.135817902582321,-1.9432181573725735,0.9471653428047269,-5.064879333961877,0.9338293110813116,23.0
24,5.08388984206262,-2.136012386447126,-1.9425933798773478,0.9467685830960839,-5.067966292829836,0.9585630587381779,24.0
25,5.085728923552259,-2.1361313835383116,-1.942214968311382,0.9465292510174477,-5.069804540803201,0.9732968264438183,25.0
26,5.090004207099316,-2.136408444056521,-1.9413344498381755,0.9459724930554547,-5.074077889896014,0.9783719771211545,26.0
27,5.0943553037763545,-2.136690422469199,-1.9404383173419535,0.9454058670679498,-5.078427017779067,0.9734932682996373,27.0
28,5.094474737797667,-2.13669816875964,-1.9404137193895468,0.9453903199836693,-5.0785463977117375,0.9603839048244909,28.0
29,5.09447474239194,-2.1366981800742826,-1.940413718703518,0.9453903306103202,-5.078546402220853,0.9373838789737599,29.0
30,5.094474748983719,-2.1366981963083305,-1.9404137177192158,0.9453903458572489,-5.078546408690452,0.9043838531230302,30.0
31,5.094474757574335,-2.1366982174618334,-1.9404137164364281,0.9453903657240582,-5.0785464171321815,0.8613838517276748,31.0
32,5.094474768162924,-2.1366982435347612,-1.9404137148552925,0.9453903902110088,-5.078546427538476,0.8083838529315681,32.0
33,5.094474778129553,-2.1366982742893836,-1.9404137140391657,0.9453904201318465,-5.078546437283896,0.7453838572035193,33.0
34,5.094474777345461,-2.1366983088066,-1.9404137180991432,0.9453904586325481,-5.0785464362222115,0.672383874642796,34.0
35,5.094474776453954,-2.136698348052266,-1.9404137227152218,0.9453905024075838,-5.078546435015063,0.5893838934876262,35.0
36,5.094474775455031,-2.1366983920264846,-1.9404137278873044,0.9453905514573839,-5.078546433662409,0.49638391559701117,36.0
37,5.09447476398988,-2.1366984379522136,-1.9404137354989066,0.9453906047852098,-5.078546421815508,0.3933839382050978,37.0
38,5.0944747479297865,-2.1366984874033754,-1.9404137444825418,0.9453906629556619,-5.078546405339949,0.2803839651094542,38.0
39,5.094474726943151,-2.1366985391640454,-1.9404137547712992,0.9453907246851041,-5.078546383914785,0.15738399942384743,39.0
40,5.094474692098691,-2.136698587968388,-1.9404137676649218,0.9453907859253003,-5.078546348643728,0.024384040236056295,40.0
41,5.094474652696693,-2.136698638470013,-1.9404137817163485,0.945390849970015,-5.078546308797375,-0.11861591527528462,41.0
42,5.094474597520712,-2.136698679252347,-1.9404137980159861,0.9453909063996171,-5.0785462532421315,-0.2716158652685342,42.0
43,5.094474535312367,-2.1366987165790214,-1.9404138154168868,0.9453909604088657,-5.078546190676425,-0.4345039658732365,43.0
44,5.094474466123783,-2.136698739836213,-1.9404138327106981,0.9453910001972081,-5.078546121238574,-0.5953887899964379,44.0
45,5.094474398603909,-2.1366987514726934,-1.9404138483397961,0.9453910267404886,-5.07854605356521,-0.7462736141196435,45.0
46,5.09447433314416,-2.13669875300178,-1.9404138623918994,0.9453910416407911,-5.078545988035812,-0.8871584382428586,46.0
47,5.09447427252125,-2.1366987460416262,-1.9404138744607917,0.9453910461355919,-5.078545927416384,-1.0180432623660771,47.0
48,5.094474216723988,-2.136698731084495,-1.940413884604379,0.945391040773965,-5.07854587169173,-1.1389280864893017,48.0
49,5.094474165883924,-2.1366987163132722,-1.940413893717844,0.9453910346190876,-5.078545820927103,-1.2498129106125313,49.0
50,5.094474123399277,-2.1366986912645425,-1.9404138999003233,0.9453910153626558,-5.078545778608618,-1.3506977347357698,50.0
51,5.094474085125832,-2.136698668698718,-1.9404139054699723,0.9453909980149755,-5.078545740484861,-1.4415825588590157,51.0
52,5.094474051063588,-2.136698648615799,-1.9404139104267941,0.9453909825760487,-5.078545706555839,-1.5224673829822606,52.0
53,5.0944740261625405,-2.1366986240827113,-1.940413912939142,0.9453909603461846,-5.078545681832139,-1.5933522071055055,53.0
54,5.094474005062904,-2.1366986026064905,-1.9404139149903006,0.9453909407452907,-5.078545660888365,-1.6542370312287513,54.0
55,5.094473987428766,-2.136698584657623,-1.9404139167045646,0.9453909243637345,-5.07854564338449,-1.7051218553519936,55.0
56,5.094473973260129,-2.136698570236108,-1.9404139180819369,0.945390911201518,-5.078545629320516,-1.7460066794752358,56.0
57,5.094473962556992,-2.1366985593419447,-1.9404139191224181,0.9453909012586419,-5.078545618696443,-1.7768915035984794,57.0
58,5.094473955319356,-2.136698551975133,-1.9404139198260086,0.945390894535106,-5.07854561151227,-1.797776327721723,58.0
59,5.094362431100099,-2.136915211386723,-1.939982685924961,0.945176270637701,-5.078434356888545,-1.8090320403164315,59.0
60,5.092998165259116,-2.1395657244084734,-1.9347072555928286,0.9425507492280796,-5.077073388783411,-1.8124694733050999,60.0
61,5.092016934627238,-2.1414720801521594,-1.9309129585031568,0.9406623703429002,-5.076094531394638,-1.806352455231145,61.0
62,5.092016939857604,-2.1414720833927636,-1.9309129595354997,0.9406623675364724,-5.076094539841907,-1.7923491170043604,62.0
63,5.0920169488230576,-2.141472088947533,-1.9309129613050549,0.940662362725931,-5.0760945543215,-1.768345778777575,63.0
64,5.092016961523597,-2.141472096816469,-1.9309129638118219,0.9406623559112763,-5.076094574833419,-1.7343424405507908,64.0
65,5.092016977959222,-2.1414721069995695,-1.930912967055801,0.9406623470925081,-5.076094601377663,-1.6903391023240082,65.0
66,5.092016997684519,-2.1414721190654813,-1.9309129714912505,0.9406623346617861,-5.076094630046461,-1.6363357763424924,66.0
67,5.092017020738643,-2.1414721330521225,-1.930912977078239,0.9406623187604465,-5.076094661183327,-1.5723324585533445,67.0
68,5.092017049003161,-2.1414721499781657,-1.9309129793403867,0.9406623127429808,-5.076094694605043,-1.4983291468279298,68.0
69,5.092017083972323,-2.1414721705442044,-1.9309129743777964,0.9406623281000875,-5.076094727914653,-1.4143258452232592,69.0
70,5.092017123094472,-2.1414721936220764,-1.930912968766108,0.9406623455590075,-5.076094765102624,-1.3203225522857962,70.0
71,5.09201716744392,-2.141472216110863,-1.9309129619304453,0.9406623614439347,-5.076094807778976,-1.216319266375527,71.0
72,5.092017219748927,-2.1414722301523597,-1.9309129523806738,0.9406623665339999,-5.07609485999814,-1.1023159894193784,72.0
73,5.0920172766442215,-2.1414722454265624,-1.9309129419919988,0.9406623720737921,-5.0760949168177,-0.9783127220148576,73.0
74,5.092017338467036,-2.1414722470124516,-1.9309129290256737,0.9406623613493167,-5.076094978684937,-0.8443094602752751,74.0
75,5.092017404976959,-2.141472245480454,-1.930912914714512,0.9406623461993175,-5.076095045269898,-0.7003061999356659,75.0
76,5.092017471845399,-2.1414722273909677,-1.9309128984528932,0.9406623125777626,-5.076095112346254,-0.5463029449724289,76.0
77,5.092017541793825,-2.141472203592073,-1.9309128808902658,0.9406622719890685,-5.076095182551234,-0.3823015703672539,77.0
78,5.092017600486101,-2.14147216027544,-1.9309128635109587,0.9406622119877324,-5.076095241649811,-0.21857212439736579,78.0
79,5.092017652243619,-2.1414721161974297,-1.9309128475195587,0.9406621525424409,-5.076095293813724,-0.06484267842748023,79.0
80,5.092017689673478,-2.1414720638394313,-1.930912833636489,0.9406620867930789,-5.0760953317050435,0.07888676754240712,80.0
81,5.0920177213982925,-2.141472013297121,-1.9309128211716446,0.9406620242148328,-5.076095363871418,0.21261621351237117,81.0
82,5.092017738877421,-2.1414719595380416,-1.9309128113708445,0.9406619609423243,-5.076095381805823,0.3363456594823197,82.0
83,5.09201775494386,-2.141471910123857,-1.9309128023621513,0.9406619027835925,-5.076095398290742,0.45007510545224855,83.0
84,5.092017758939361,-2.14147186219749,-1.9309127960877628,0.9406618487187495,-5.076095402681873,0.5538045514221619,84.0
85,5.09201775993985,-2.1414718181918526,-1.930912790893825,0.9406617996162719,-5.076095404043265,0.6475339973920586,85.0
86,5.0920177608335955,-2.141471778881182,-1.9309127862540247,0.940661755752539,-5.076095405259409,0.7312634433619449,86.0
87,5.092017755415516,-2.141471744408424,-1.9309127835035471,0.9406617185409899,-5.076095400118563,0.8049928893318268,87.0
88,5.092017747717938,-2.141471714680685,-1.9309127817747351,0.9406616870631128,-5.076095392657383,0.8687223353016975,88.0
89,5.0920177412282115,-2.141471689617625,-1.930912780317195,0.9406616605245337,-5.076095386366959,0.9224517812715651,89.0
90,5.092017735946338,-2.1414716692192446,-1.9309127791309273,0.9406616389252527,-5.076095381247296,0.9661812272414296,90.0
91,5.092017731872318,-2.141471653485543,-1.9309127782159339,0.9406616222652707,-5.076095377298392,0.9999106732112939,91.0
92,5.09201772900615,-2.1414716424165197,-1.9309127775722148,0.9406616105445877,-5.076095374520246,1.023640119181162,92.0
93,5.092017668146168,-2.141471752882521,-1.9309125444865192,0.9406614878957469,-5.0760953138592555,1.0373695642203273,93.0
94,5.091009062334022,-2.1434628431585905,-1.926947862528573,0.9386874779155197,-5.075089230582244,1.0432894664287515,94.0
95,5.089685207603558,-2.1460762744543183,-1.9217439783498809,0.9360964739101094,-5.073768687129801,1.0395976414027506,95.0
96,5.089593432858861,-2.1462574542556085,-1.9213832208223405,0.9359168517740312,-5.073677142911993,1.0281444850783665,96.0
97,5.089593435623906,-2.1462574612687817,-1.9213832239671924,0.9359168502154375,-5.07367714751409,1.0070067334901018,97.0
98,5.089593439697058,-2.1462574715997977,-1.9213832285998333,0.935916847919493,-5.07367715429338,0.9758689819018405,98.0
99,5.08959344507832,-2.1462574852486567,-1.9213832347202637,0.935916844886198,-5.073677163249864,0.9347312303135801,99.0
100,5.089593452006293,-2.1462575023395307,-1.9213832421845027,0.9359168415248028,-5.073677176488817,0.8835934804465362,100.0
101,5.089593460863847,-2.146257523071669,-1.9213832507615183,0.935916838491998,-5.073677197388406,0.8224557343919474,101.0
102,5.089593470184505,-2.146257548023247,-1.9213832601824155,0.9359168386683562,-5.073677219546081,0.7513179897668351,102.0
103,5.089593469514242,-2.1462575859800292,-1.9213832645183198,0.9359168813510297,-5.073677220049361,0.6701802599800775,103.0
104,5.089593468755336,-2.1462576286499755,-1.9213832693563089,0.9359169294456249,-5.073677220561089,0.5790425351341719,104.0
105,5.089593467902862,-2.1462576760617353,-1.921383274670016,0.9359169830757259,-5.073677221037532,0.4779048182459176,105.0
106,5.089593453051926,-2.146257724238281,-1.9213832832748934,0.9359170397375794,-5.073677205845045,0.3667671124660427,106.0
107,5.08959343603577,-2.14625777651486,-1.9213832928200838,0.9359171013570546,-5.073677188338234,0.24562941400944155,107.0
108,5.089593409082385,-2.1462578280691993,-1.9213833044115463,0.9359171641569182,-5.073677160909963,0.11449172215900023,108.0
109,5.0895933725461795,-2.1462578791107365,-1.9213833179965059,0.9359172283011987,-5.073677123917296,-0.0266459665578317,109.0
110,5.089593325746748,-2.146257925969974,-1.9213833332934371,0.9359172898773794,-5.07367707668825,-0.1777836516943934,110.0
111,5.089593268327189,-2.1462579682843512,-1.9213833503371072,0.935917348555084,-5.073677018868481,-0.3389213303672348,111.0
112,5.089593200986673,-2.1462579973824147,-1.9213833679938075,0.9359173945521893,-5.073676951227787,-0.5047730445554011,112.0
113,5.08959313444214,-2.146258019662034,-1.9213833847063326,0.9359174328083192,-5.073676884439981,-0.6613697963619066,113.0
114,5.0895930674401395,-2.1462580223603545,-1.9213833992920772,0.9359174493898821,-5.073676817355761,-0.8079665481684051,114.0
115,5.089593004725979,-2.146258023784181,-1.9213834128192278,0.9359174636854675,-5.073676754573728,-0.9445632999748975,115.0
116,5.089592946951064,-2.1462580098021355,-1.921383423543766,0.935917459854081,-5.073676696862395,-1.0711600517813884,116.0
117,5.089592893771206,-2.146257995545716,-1.9213834332578479,0.9359174547862175,-5.073676643752495,-1.1877568035878712,117.0
118,5.089592847267038,-2.1462579760154807,-1.921383440950167,0.9359174425025528,-5.073676597367748,-1.2943535553943533,118.0
119,5.0895928070700736,-2.146257952343465,-1.9213834468278468,0.9359174243361967,-5.073676557330002,-1.3909503072008298,119.0
120,5.089592771034423,-2.146257931122053,-1.9213834520970434,0.9359174080504767,-5.073676521437086,-1.4775470590073052,120.0
121,5.089592741156738,-2.1462579095618612,-1.9213834560153968,0.9359173901398744,-5.073676491710442,-1.55414381081378,121.0
122,5.0895927183506835,-2.146257886386473,-1.9213834582432001,0.93591736900027,-5.073676469075076,-1.6207405626202507,122.0
123,5.0895926989691285,-2.146257866691043,-1.9213834601364812,0.9359173510349348,-5.073676449838579,-1.6773373144267265,123.0
124,5.089592683012073,-2.146257850475572,-1.9213834616952385,0.9359173362438677,-5.0736764340009515,-1.7239340662332114,124.0
125,5.089592670479516,-2.1462578377400585,-1.9213834629194748,0.9359173246270703,-5.073676421562192,-1.760530818039693,125.0
126,5.0895926613714595,-2.146257828484502,-1.921383463809191,0.9359173161845431,-5.073676412522303,-1.787127569846174,126.0
127,5.089592655687902,-2.1462578227089035,-1.9213834643643863,0.9359173109162859,-5.073676406881284,-1.8037243216526557,127.0
128,5.089010543342496,-2.147425443956725,-1.9190574837624192,0.934758726273756,-5.073095800423387,-1.8117919916712335,128.0
129,5.087566579967163,-2.1503218175136776,-1.913287725005032,0.9318847814331389,-5.071655572853634,-1.8109697745400302,129.0
130,5.087200349365358,-2.1510564298861046,-1.9118243356685838,0.9311558581080773,-5.071290291816675,-1.8016825872509732,130.0
131,5.087200356105452,-2.1510564340604805,-1.9118243370064818,0.9311558545164186,-5.071290302777785,-1.7834319149828743,131.0
132,5.08720036653861,-2.1510564405221024,-1.911824339077447,0.9311558489568004,-5.071290319744761,-1.7551812427147766,132.0
133,5.087200380664834,-2.1510564492709694,-1.9118243418814804,0.9311558414292225,-5.071290342717602,-1.7169305704466753,133.0
134,5.08720039846848,-2.151056460291561,-1.9118243454350319,0.9311558318756309,-5.071290371557623,-1.668679898597131,134.0
135,5.087200419223258,-2.1510564728633415,-1.91182435050183,0.9311558176008263,-5.071290399826191,-1.6104292438621008,135.0
136,5.087200443541046,-2.151056487593343,-1.9118243564384547,0.931155800875439,-5.071290432947678,-1.542178589127075,136.0
137,5.0872004749016195,-2.151056506111736,-1.911824354048485,0.9311558085426213,-5.071290465019686,-1.4639279472444273,137.0
138,5.087200511206637,-2.1510565274445663,-1.9118243488661368,0.9311558244622371,-5.071290499587306,-1.3756773098118218,138.0
139,5.08720055161181,-2.1510565512816004,-1.911824343016,0.9311558425601908,-5.071290537949599,-1.277426684138352,139.0
140,5.087200599176684,-2.1510565688040995,-1.9118243348608295,0.9311558523451684,-5.071290584712445,-1.1691760661914277,140.0
141,5.087200652791129,-2.151056583199298,-1.911824325023443,0.9311558575209671,-5.07129063824443,-1.0509254561225205,141.0
142,5.087200711040655,-2.1510565944308153,-1.9118243138388409,0.9311558582251223,-5.071290696453282,-0.9226748536595696,142.0
143,5.087200774139652,-2.151056593019579,-1.911824300194807,0.9311558438310971,-5.071290759624608,-0.7844242561526154,143.0
144,5.087200840643708,-2.1510565870397995,-1.911824285302525,0.9311558236640718,-5.071290826241473,-0.6361736604629689,144.0
145,5.087200907493459,-2.1510565647026043,-1.9118242684716602,0.9311557852365755,-5.071290893337385,-0.47792307154367153,145.0
146,5.087200972770568,-2.1510565324909536,-1.9118242508511796,0.931155736147817,-5.071290958941283,-0.31159557796740184,146.0
147,5.087201029263068,-2.1510564909213286,-1.9118242340410232,0.9311556784380028,-5.071291015830406,-0.15211560634952906,147.0
148,5.087201072867743,-2.1510564424688647,-1.911824219200151,0.9311556156935306,-5.071291059877236,-0.0026356347316669505,148.0
149,5.087201108760327,-2.1510563923889814,-1.91182420582169,0.9311555527067505,-5.071291096218516,0.1368443368861858,149.0
150,5.087201132682674,-2.151056340368797,-1.9118241947798698,0.9311554899951935,-5.0712911205948465,0.2663243085040314,150.0
151,5.087201149360398,-2.151056289189679,-1.91182418538197,0.9311554296914152,-5.071291137713004,0.3858042801218708,151.0
152,5.0872011616524695,-2.1510562414924883,-1.911824177318125,0.931155374151114,-5.071291150412601,0.49528425173970164,152.0
153,5.087201162700186,-2.151056195438404,-1.9118241718443065,0.9311553227234534,-5.071291151844007,0.5947642233575291,153.0
154,5.087201163642584,-2.151056154013806,-1.911824166920725,0.9311552764654402,-5.071291153131524,0.684244194975353,154.0
155,5.087201163699323,-2.1510561172361484,-1.9118241627161217,0.9311552355550936,-5.07129115349396,0.7637241665931755,155.0
156,5.087201155405131,-2.1510560852724314,-1.911824160844732,0.9311552016954463,-5.071291145457897,0.8332041382109987,156.0
157,5.087201148304693,-2.1510560579091367,-1.9118241592426843,0.9311551727090951,-5.071291138578436,0.8926841098288228,157.0
158,5.087201142398008,-2.151056035146265,-1.9118241579099764,0.9311551485960385,-5.071291132855576,0.9421640814466556,158.0
159,5.087201137685075,-2.151056016983815,-1.9118241568466106,0.9311551293562781,-5.071291128289317,0.9816440530644901,159.0
160,5.087201134165895,-2.151056003421786,-1.9118241560525877,0.9311551149898141,-5.07129112487966,1.0111240246823203,160.0
161,5.087201131840468,-2.1510559944601786,-1.9118241555279083,0.9311551054966465,-5.071291122626604,1.0306039963001492,161.0
162,5.086974117303218,-2.151518652942742,-1.9109021136568,0.9306956404784786,-5.071064715387921,1.0408060278945237,162.0
163,5.085587881108346,-2.154343862064338,-1.9052717514578847,0.9278899887258846,-5.069682187421826,1.0428672565148775,163.0
164,5.084840288548469,-2.155867492964499,-1.9022353126552378,0.9263769081030961,-5.068936595316314,1.0357202984464393,164.0
165,5.0848402905384935,-2.155867497987588,-1.9022353149285733,0.9263769069852117,-5.068936598686631,1.020373323370587,165.0
166,5.084840293825206,-2.1558675062836907,-1.902235318683201,0.9263769051389205,-5.068936604253025,0.9950263482947339,166.0
167,5.084840298408607,-2.155867517852809,-1.902235323919121,0.9263769025642221,-5.0689366120154995,0.9596793732188751,167.0
168,5.084840304288695,-2.155867532694942,-1.9022353306363329,0.9263768992611169,-5.068936621974052,0.9143323981430175,168.0
169,5.084840312036986,-2.1558675511182024,-1.902235338477003,0.926376896254673,-5.068936639224109,0.8589854246392504,169.0
170,5.084840321410496,-2.1558675729915944,-1.902235347593266,0.9263768931090773,-5.0689366615993245,0.793638451696866,170.0
171,5.084840326246664,-2.155867603200034,-1.902235354698829,0.9263769118331076,-5.068936674152241,0.7182914869851396,171.0
172,5.084840325549317,-2.1558676425755525,-1.9022353592255654,0.9263769561552233,-5.0689366746731785,0.6329445302104942,172.0
173,5.084840324757267,-2.1558676866390183,-1.9022353642135315,0.9263770059916604,-5.068936675138486,0.5375975838494855,173.0
174,5.084840318682916,-2.155867733876407,-1.9022353707463697,0.926377060288472,-5.06893666975348,0.4322506443515526,174.0
175,5.084840302673338,-2.155867782955909,-1.90223537977201,0.9263771182086257,-5.068936653284692,0.31690371326884686,175.0
176,5.084840285273937,-2.15586783628835,-1.9022353895822415,0.9263771811425673,-5.068936635371457,0.19155679099360168,176.0
177,5.084840251244091,-2.1558678848866166,-1.902235402433129,0.9263772421436105,-5.068936600898516,0.05620987497359966,177.0
178,5.084840214062087,-2.155867936699171,-1.902235416328124,0.9263773073599805,-5.068936563245739,-0.08913704046477657,178.0
179,5.08484016031937,-2.155867977869366,-1.9022354325533497,0.9263773641137911,-5.068936509108855,-0.24448394958244024,179.0
180,5.084840100483099,-2.1558680176399143,-1.902235449924009,0.926377420552553,-5.068936448884764,-0.40961159248770207,180.0
181,5.0848400322901615,-2.155868040380281,-1.9022354671368373,0.9263774597487588,-5.0689363804388945,-0.5719970068361429,181.0
182,5.084839966470455,-2.1558680546896833,-1.9022354828766206,0.9263774890819981,-5.068936314439041,-0.724382421184605,182.0
183,5.084839901866643,-2.155868056112589,-1.9022354968816066,0.9263775038314508,-5.068936249764126,-0.8667678355331186,183.0
184,5.08483984192884,-2.155868051778281,-1.9022355092281829,0.9263775112251591,-5.0689361898077125,-0.9991532498816686,184.0
185,5.084839786764028,-2.1558680369864858,-1.9022355193557008,0.926377506012363,-5.06893613471625,-1.1215386642302438,185.0
186,5.08483973610668,-2.1558680234033174,-1.9022355286557013,0.926377501225496,-5.068936084126257,-1.2339240785788566,186.0
187,5.084839693700528,-2.1558679995531955,-1.9022355350131939,0.9263774833352214,-5.068936041881012,-1.3363094929274903,187.0
188,5.084839655706903,-2.1558679772027123,-1.9022355405968088,0.9263774662139743,-5.068936004039777,-1.4286949072761526,188.0
189,5.08483962182579,-2.155867957271496,-1.9022355455760378,0.9263774509459671,-5.068935970294559,-1.5110803216248343,189.0
190,5.08483959615985,-2.155867934042473,-1.9022355484177806,0.9263774303349347,-5.0689359447996605,-1.5834657359735314,190.0
191,5.084839575046209,-2.1558679126198728,-1.9022355504907995,0.9263774108057392,-5.0689359238461,-1.6458511503222408,191.0
192,5.084839557316955,-2.1558678946311853,-1.9022355522315242,0.9263773944069527,-5.0689359062512676,-1.6982365646709567,192.0
193,5.084839542972088,-2.1558678800764097,-1.9022355536399558,0.9263773811385759,-5.068935892015162,-1.740621979019671,193.0
194,5.084839532011609,-2.1558678689555455,-1.9022355547160954,0.9263773710006102,-5.068935881137783,-1.7730073933683876,194.0
195,5.084839524435517,-2.155867861268593,-1.902235555459944,0.9263773639930555,-5.068935873619133,-1.7953928077170997,195.0
196,5.084814164279028,-2.155920361766227,-1.9021308757087982,0.926325176275312,-5.068910583611754,-1.8078749893508055,196.0
197,5.083668781594779,-2.1582921121499843,-1.8974022515417652,0.9239679217541472,-5.067768368276741,-1.8127392815410532,197.0
198,5.082532620474463,-2.160644777225536,-1.8927116839792384,0.9216296391931785,-5.066635350144275,-1.8078538762229897,198.0
199,5.082509448252178,-2.1606927724699942,-1.8926160011523667,0.921581937747132,-5.066612244927045,-1.795342173337881,199.0
200,5.0825094564407856,-2.160692777539257,-1.8926160027873205,0.9215819334129416,-5.066612258337621,-1.7729200025965368,200.0
201,5.0825094682814065,-2.1606927848693465,-1.892616005151443,0.9215819271457582,-5.066612277729142,-1.740497831855191,201.0
202,5.082509483774041,-2.1606927944602616,-1.8926160082447334,0.9215819189455812,-5.066612303101607,-1.6980756611138497,202.0
203,5.082509502609665,-2.1606928059978614,-1.892616012402348,0.9215819076335722,-5.066612331687119,-1.6456534957449676,203.0
204,5.082509524612656,-2.160692819303614,-1.8926160178147606,0.9215818925397767,-5.066612361912634,-1.583231337189003,204.0
205,5.082509551025577,-2.160692835155894,-1.892616021724892,0.9215818818783955,-5.066612395394856,-1.510809182094963,205.0
206,5.082509584540284,-2.160692854816749,-1.8926160169265343,0.9215818964845568,-5.0666124273118704,-1.428387039483051,206.0
207,5.08250962211372,-2.16069287690971,-1.8926160115022466,0.9215819130643328,-5.066612463033583,-1.3359649035479417,207.0
208,5.082509664078656,-2.1606929004851105,-1.8926160052584136,0.921581930531139,-5.066612503045013,-1.2335427748804044,208.0
209,5.082509714454255,-2.1606929140144944,-1.8926159959677424,0.921581935352373,-5.066612553335281,-1.121120657005795,209.0
210,5.082509769312589,-2.1606929287482117,-1.8926159858496012,0.9215819406053173,-5.066612608115099,-0.9986985471602464,210.0
211,5.082509828918219,-2.1606929330153477,-1.8926159735245283,0.9215819331962986,-5.0666126677415555,-0.8662764435522663,211.0
212,5.082509893161267,-2.160692931622771,-1.8926159595613852,0.9215819185168538,-5.066612732059463,-0.7238543423752539,212.0
213,5.0825099585923645,-2.1606929173548597,-1.8926159438646526,0.9215818892653547,-5.066612797672981,-0.5714322456018767,213.0
214,5.082510026401509,-2.160692894787865,-1.8926159267040308,0.92158185029174,-5.066612865735428,-0.4090101551083513,214.0
215,5.0825100858339125,-2.160692855242428,-1.8926159093937127,0.9215817941346885,-5.066612925556692,-0.2439118201670796,215.0
216,5.08251013919295,-2.1606928143279553,-1.8926158932311066,0.9215817376952625,-5.066612979310521,-0.088605518057203,216.0
217,5.082510176146013,-2.1606927628976536,-1.8926158793860521,0.921581672905589,-5.0666130167319245,0.056700784052683695,217.0
218,5.082510209908325,-2.1606927146260073,-1.892615866589235,0.92158161228332,-5.066613050932962,0.1920070861625672,218.0
219,5.082510227193072,-2.160692661700727,-1.8926158567984595,0.9215815498495485,-5.066613068680444,0.3173133882724713,219.0
220,5.082510243098421,-2.160692612999124,-1.8926158477890234,0.9215814923982665,-5.066613085011598,0.4326196903823779,220.0
221,5.082510249221068,-2.1606925662675986,-1.8926158411077114,0.9215814391388397,-5.0666130915343555,0.5379259924922993,221.0
222,5.082510250211618,-2.160692522753349,-1.8926158358984972,0.9215813905088271,-5.066613092893103,0.633232294602215,222.0
223,5.082510251098235,-2.1606924838048283,-1.892615831235854,0.9215813469813101,-5.066613094109285,0.7185385967121365,223.0
224,5.082510247232857,-2.160692449522807,-1.892615828130044,0.9215813096183848,-5.066613090529681,0.7938448988220641,224.0
225,5.08251023952702,-2.160692419887522,-1.8926158263829453,0.9215812782117639,-5.066613083066835,0.859151200931991,225.0
226,5.082510233001134,-2.160692394790128,-1.8926158249033695,0.9215812516142681,-5.066613076746735,0.9144575030419139,226.0
227,5.082510227655202,-2.160692374230626,-1.8926158236913149,0.9215812298258966,-5.06661307156938,0.9597638051518209,227.0
228,5.082510223489224,-2.160692358209014,-1.8926158227467846,0.9215812128466512,-5.066613067534769,0.9950701072617323,228.0
229,5.082510220503199,-2.160692346725292,-1.8926158220697789,0.9215812006765317,-5.066613064642904,1.0203764093716479,229.0
230,5.082510218697126,-2.16069233977946,-1.8926158216602977,0.9215811933155382,-5.066613062893784,1.035682711481561,230.0
231,5.081782950798033,-2.1622223937868426,-1.8895640675295804,0.9200592709797297,-5.065887873471084,1.042799862852759,231.0
232,5.080433688964745,-2.16506103287528,-1.8839023018322507,0.9172357307613392,-5.0645424679154205,1.0407101670344852,232.0
233,5.080210414051283,-2.1655307747695174,-1.8829653928933412,0.9167684899567935,-5.064319832050699,1.0304939414354886,233.0
234,5.080210416555635,-2.165530781059976,-1.8829653957676364,0.9167684885538022,-5.064319836366604,1.0110127121553232,234.0
235,5.080210420345509,-2.1655307905794188,-1.8829654001173495,0.916768486430635,-5.064319842897927,0.9815314828751647,235.0
236,5.080210425420903,-2.165530803327846,-1.88296540594248,0.9167684835872916,-5.064319851644665,0.9420502535950088,236.0
237,5.0802104318875,-2.165530819364274,-1.8829654131743538,0.9167684802218357,-5.06431986355883,0.892569025939898,237.0
238,5.080210440336291,-2.1655308390187313,-1.8829654214289389,0.9167684774418583,-5.0643198839641554,0.8330878074866843,238.0
239,5.080210450205497,-2.165530861977502,-1.882965431071287,0.9167684741945101,-5.064319907800029,0.7636065890334633,239.0
240,5.08021045046427,-2.165530897399491,-1.8829654357737997,0.916768511591656,-5.0643199103008225,0.6841253853932112,240.0
241,5.080210449737647,-2.1655309381396273,-1.8829654404680265,0.9167685575578094,-5.064319910807642,0.5946441858238517,241.0
242,5.0802104489168505,-2.1655309835057435,-1.882965445618207,0.9167686089766898,-5.064319911253364,0.495162996421564,242.0
243,5.080210436885407,-2.165531030286724,-1.8829654535279108,0.9167686637418545,-5.064319899173553,0.38568181618586517,243.0
244,5.08021042049571,-2.165531080418581,-1.8829654628176793,0.9167687229713728,-5.064319882300557,0.2662006436024105,244.0
245,5.080210396987432,-2.165531131359918,-1.882965473741839,0.9167687845401361,-5.064319858303212,0.1367194782182112,245.0
246,5.080210361722585,-2.1655311803786343,-1.882965486990224,0.916768846341503,-5.0643198225855315,-0.0027616829587334794,246.0
247,5.080210318878889,-2.1655312277946805,-1.8829655016868672,0.9167689079121111,-5.064319779296616,-0.15224284155356416,247.0
248,5.080210263373193,-2.1655312684582873,-1.882965518333213,0.9167689645613292,-5.064319723393103,-0.3117239935212369,248.0
249,5.080210199235172,-2.165531299945266,-1.8829655357820085,0.9167690127630539,-5.06431965892718,-0.47805112496723645,249.0
250,5.080210133552935,-2.1655313217602923,-1.8829655524488729,0.9167690505130259,-5.064319592997807,-0.6363001459775175,250.0
251,5.08021006820954,-2.1655313275521095,-1.8829655671961225,0.9167690703540811,-5.0643195275438755,-0.7845491669878257,251.0
252,5.080210006212102,-2.165531328874107,-1.882965580707273,0.9167690845328625,-5.064319465477057,-0.9227981879981509,252.0
253,5.0802099489785295,-2.165531317832752,-1.882965591767116,0.9167690839704881,-5.064319408283726,-1.0510472090084777,253.0
254,5.080209896297618,-2.165531303701716,-1.8829656014899037,0.9167690790350973,-5.0643193556736055,-1.1692962300188285,254.0
255,5.080209849474947,-2.1655312864739957,-1.8829656095935163,0.916769069451308,-5.064319308953557,-1.2775452510291805,255.0
256,5.080209809539052,-2.1655312630037047,-1.882965615493787,0.9167690515058393,-5.064319269179839,-1.375794272039545,256.0
257,5.080209773667919,-2.165531241922274,-1.882965620793509,0.9167690353868969,-5.064319233454376,-1.4640432930499188,257.0
258,5.080209742947893,-2.165531221719642,-1.8829656250845836,0.9167690191906019,-5.064319202877377,-1.5422923140602864,258.0
259,5.08020972011765,-2.165531198588961,-1.8829656273381796,0.9167689981172796,-5.064319180222461,-1.610541335070663,259.0
260,5.080209700632545,-2.16553117884744,-1.8829656292615733,0.9167689801316677,-5.064319160886995,-1.668790356081033,260.0
261,5.080209684492577,-2.1655311624950793,-1.8829656308547618,0.9167689652337643,-5.064319144870977,-1.7170393770913954,261.0
262,5.080209671697748,-2.165531149531878,-1.8829656321177488,0.9167689534235718,-5.064319132174408,-1.7552883981017455,262.0
263,5.080209662248059,-2.165531139957836,-1.8829656330505347,0.9167689447010903,-5.064319122797288,-1.7835374191121103,263.0
264,5.080209656143508,-2.165531133772953,-1.8829656336531195,0.9167689390663198,-5.064319116739619,-1.8017864401224686,264.0
265,5.079860481713474,-2.1662774738090085,-1.8814764293960344,0.9160259774311484,-5.063970973365953,-1.8110940715974229,265.0
266,5.078494909023795,-2.1691963434089687,-1.8756523065481103,0.9131203428870905,-5.06260943314298,-1.8119626630848622,266.0
267,5.077939456157971,-2.170383615193217,-1.8732833059598921,0.911938455258465,-5.062055622309627,-1.803941935654263,267.0
268,5.077939462124666,-2.170383618885071,-1.8732833071584676,0.9119384521208515,-5.06205563215129,-1.7874224353923571,268.0
269,5.07793947170327,-2.1703836248117714,-1.8732833090825953,0.9119384470838986,-5.062055647950558,-1.7609029351304488,269.0
270,5.077939484893784,-2.1703836329733175,-1.8732833117322745,0.9119384401476065,-5.06205566970743,-1.7243834348685456,270.0
271,5.077939501696209,-2.17038364336971,-1.873283315107506,0.9119384313119753,-5.062055697421906,-1.6778639346066435,271.0
272,5.077939521505131,-2.170383655370165,-1.8732833198857186,0.9119384182030619,-5.06205572561572,-1.6213444370534478,272.0
273,5.077939544704277,-2.1703836693744893,-1.8732833256375394,0.9119384023255341,-5.062055757761143,-1.5548249399768046,273.0
274,5.077939573993527,-2.1703836867074866,-1.873283325193984,0.9119384042786605,-5.062055789821281,-1.4783054528095618,274.0
275,5.077939608769754,-2.1703837070856453,-1.8732833201911852,0.9119384193771245,-5.062055822935803,-1.3917859715333698,275.0
276,5.077939647551598,-2.170383729903974,-1.8732833145298662,0.911938436586877,-5.06205585975127,-1.2952665023218464,276.0
277,5.077939692524943,-2.170383748880982,-1.8732833070367967,0.9119384483890868,-5.06205590358652,-1.1887470398297277,277.0
278,5.077939744133191,-2.1703837627477243,-1.873283297466832,0.9119384532868268,-5.062055955109769,-1.0722275855370884,278.0
279,5.077939800202528,-2.1703837764798997,-1.8732832869165796,0.9119384571195747,-5.062056011112586,-0.9457081394594236,279.0
280,5.077939861070351,-2.170383775204047,-1.8732832736151572,0.9119384431868293,-5.062056072052442,-0.8091886994517831,280.0
281,5.077939926138884,-2.170383772845002,-1.8732832592808297,0.9119384271835529,-5.062056137206392,-0.6626692602608819,281.0
282,5.077939990726847,-2.1703837514368587,-1.8732832428467665,0.9119383900623588,-5.0620562020391064,-0.5061498280109571,282.0
283,5.077940056185156,-2.1703837235801107,-1.8732832254786436,0.9119383455798303,-5.062056267798242,-0.3403360102125987,283.0
284,5.077940111966004,-2.1703836827747054,-1.8732832087039588,0.9119382886645064,-5.062056323981734,-0.17912924579237544,284.0
285,5.077940157535977,-2.1703836376658465,-1.8732831936380634,0.911938229054954,-5.062056369981545,-0.027922481372141705,285.0
286,5.077940193029288,-2.1703835883894156,-1.8732831802676753,0.9119381668749318,-5.062056405930852,0.11328428304810273,286.0
287,5.077940219322986,-2.1703835386750576,-1.8732831688346931,0.9119381060982232,-5.0620564326755755,0.24449104746835795,287.0
288,5.077940235847101,-2.170383488187949,-1.8732831594235628,0.9119380464690696,-5.06205644964807,0.36569781188861983,288.0
289,5.077940250385205,-2.170383441699141,-1.8732831509041228,0.9119379917014557,-5.0620564645984025,0.47690457630889277,289.0
290,5.077940251423406,-2.17038339611945,-1.8732831454072285,0.9119379407214697,-5.062056466028234,0.5781113407291631,290.0
291,5.077940252359026,-2.1703833550433824,-1.8732831404534651,0.9119378947786934,-5.062056467316787,0.6693181051494461,291.0
292,5.077940253192064,-2.1703833184709365,-1.8732831360428353,0.9119378538731276,-5.062056468464061,0.7505248695697321,292.0
293,5.077940245779624,-2.1703832865728416,-1.8732831339548017,0.9119378198687955,-5.062056461317975,0.8217316339900163,293.0
294,5.0779402386401875,-2.170383259170493,-1.8732831323278276,0.9119377908156983,-5.062056454406619,0.882938398410304,294.0
295,5.077940232667196,-2.1703832362451583,-1.873283130966667,0.9119377665093134,-5.062056448624444,0.9341451628305756,295.0
296,5.077940227860651,-2.1703832177968367,-1.873283129871322,0.9119377469496415,-5.062056443971452,0.9753519272508433,296.0
297,5.077940224220551,-2.1703832038255286,-1.8732831290417937,0.9119377321366836,-5.062056440447641,1.0065586916711156,297.0
298,5.077940221746897,-2.170383194331233,-1.8732831284780822,0.9119377220704394,-5.062056438053011,1.0277654560913847,298.0
299,5.077861577405878,-2.1705539689663156,-1.8729422315044142,0.9117675798650466,-5.061978033622056,1.039271205678318,299.0
300,5.076656161620909,-2.17317162651347,-1.8677170736870097,0.9091597751142818,-5.060776294467239,1.0430772434108182,300.0
301,5.075700229192284,-2.1752475164395584,-1.8635733562520895,0.9070917030468045,-5.059823278267335,1.0372399083342503,301.0
302,5.075699161189575,-2.1752498437609957,-1.8635687212489278,0.9070893878221622,-5.05982221482871,1.0236932711617652,302.0
303,5.075699164190252,-2.1752498512607192,-1.8635687247100905,0.9070893861440701,-5.059822220090903,1.0001512044964036,303.0
304,5.0756991684655315,-2.1752498619461123,-1.8635687296414563,0.9070893837531722,-5.059822227588328,0.9666091378310415,304.0
305,5.075699174015412,-2.1752498758171743,-1.8635687360430255,0.9070893806494685,-5.059822237320983,0.9230670711656894,305.0
306,5.075699181246955,-2.175249893109339,-1.8635687436402184,0.9070893776294706,-5.05982225299342,0.8695250146898282,306.0
307,5.07569919018579,-2.17524991383743,-1.8635687524157483,0.9070893747433255,-5.059822274838872,0.8059829663553535,307.0
308,5.0756991968018665,-2.1752499409069257,-1.8635687604199527,0.9070893852460531,-5.059822291646398,0.7324409232616458,308.0
309,5.075699196133875,-2.1752499784141626,-1.863568764789552,0.9070894275528691,-5.059822292140682,0.6488988908481714,309.0
310,5.075699195375921,-2.17525002046649,-1.8635687696295307,0.9070894751637191,-5.0598222926023375,0.5553568665777225,310.0
311,5.075699191968174,-2.175250066324343,-1.8635687754732733,0.9070895275967806,-5.059822290160229,0.4518148494279938,311.0
312,5.0756991765749735,-2.1752501133114026,-1.8635687842464455,0.9070895831813152,-5.0598222743145636,0.3382728417597689,312.0
313,5.075699159824218,-2.175250164434701,-1.8635687937944947,0.907089643653523,-5.059822257056681,0.2147308432301741,313.0
314,5.075699129698344,-2.1752502126210116,-1.8635688059155515,0.9070897035678327,-5.0598222264718835,0.08118885057041186,314.0
315,5.075699093826327,-2.1752502623610184,-1.8635688194670634,0.9070897663849351,-5.059822190133177,-0.0623531403377079,315.0
316,5.075699044479128,-2.17525030446115,-1.8635688350517743,0.907089823468836,-5.059822140374438,-0.21589512615480083,316.0
317,5.0756989882168435,-2.1752503455585943,-1.8635688520187228,0.9070898808617099,-5.059822083703352,-0.3794371058226089,317.0
318,5.075698921220246,-2.1752503684673203,-1.863568869200305,0.9070899202010425,-5.059822016444622,-0.543612741372696,318.0
319,5.075698857059927,-2.1752503859331527,-1.8635688851351044,0.9070899528908356,-5.059821952071893,-0.6977987461812434,319.0
320,5.075698793144648,-2.175250387249626,-1.8635688991415935,0.9070899675356586,-5.0598218880838965,-0.8419847509897941,320.0
321,5.075698733720512,-2.17525038591602,-1.8635689118669032,0.9070899783016428,-5.059821828614241,-0.9761707557986729,321.0
322,5.075698679031215,-2.175250371238544,-1.8635689220165046,0.9070899732229843,-5.059821773999202,-1.1003567606074725,322.0
323,5.0756986287457355,-2.175250357742966,-1.8635689313488075,0.9070899685532778,-5.059821723782003,-1.2145427654162033,323.0
324,5.075698585836772,-2.1752503363564246,-1.8635689381659883,0.9070899535701804,-5.059821681016542,-1.3187287702248767,324.0
325,5.075698547992511,-2.1752503141347233,-1.863568943788419,0.9070899366122724,-5.059821643327858,-1.4129147750335143,325.0
326,5.075698514166282,-2.1752502942723657,-1.8635689488138958,0.907089921454832,-5.05982160964069,-1.4971007798421045,326.0
327,5.07569848748878,-2.175250272428287,-1.8635689520597825,0.9070899026153479,-5.059821583126222,-1.5712867846506646,327.0
328,5.0756984662642095,-2.1752502509538996,-1.8635689541666771,0.9070898830635197,-5.059821562066727,-1.635472789459199,328.0
329,5.075698448346367,-2.175250232825163,-1.8635689559453217,0.907089866557811,-5.059821544288242,-1.6896587942677082,329.0
330,5.075698433735253,-2.175250218042076,-1.8635689573957164,0.9070898530982214,-5.059821529790767,-1.7338447990762074,330.0
331,5.07569842243087,-2.175250206604639,-1.8635689585178636,0.9070898426847525,-5.059821518574303,-1.7680308038847077,331.0
332,5.075698414433214,-2.1752501985128507,-1.8635689593117633,0.907089835317404,-5.059821510638849,-1.792216808693219,332.0
333,5.075698409742286,-2.1752501937667112,-1.8635689597774154,0.907089830996176,-5.059821505984406,-1.8064028135017312,333.0
334,5.0748443449159595,-2.1771344297144832,-1.8598063399720315,0.9052112537413757,-5.0589701312966096,-1.8127265230789933,334.0
335,5.07360793216651,-2.179862213743775,-1.8543592513300844,0.9024916675662313,-5.057737613790411,-1.8095552949277303,335.0
336,5.073485855440452,-2.1801315512119466,-1.8538214191278277,0.9022231399106181,-5.057615924193441,-1.7985548581449031,336.0
337,5.073485862780318,-2.180131555750653,-1.8538214206116317,0.9022231360748176,-5.05761593638819,-1.7780107482009146,337.0
338,5.07348587369292,-2.180131562498608,-1.8538214228176884,0.9022231303719124,-5.057615954518827,-1.7474666382569377,338.0
339,5.073485888178258,-2.1801315714558127,-1.853821425745998,0.9022231228019025,-5.05761597858535,-1.7069225283129659,339.0
340,5.073485906069273,-2.1801315824438263,-1.8538214295894728,0.902223112691495,-5.05761600706073,-1.656378420656393,340.0
341,5.073485926963644,-2.180131595032915,-1.853821434812701,0.9022230984192112,-5.057616036267449,-1.5958343195953946,341.0
342,5.073485951414802,-2.1801316097512413,-1.8538214406079896,0.9022230826138933,-5.057616070087751,-1.5252902190023494,342.0
343,5.073485983420605,-2.180131628486864,-1.8538214359805827,0.9022230964569506,-5.057616100560497,-1.4447461335803953,343.0
344,5.073486019395384,-2.180131649577059,-1.8538214307514664,0.9022231121415123,-5.057616134773013,-1.3542020524223277,344.0
345,5.073486059332919,-2.1801316730592846,-1.8538214248848273,0.9022231298293383,-5.05761617266788,-1.2536579801299539,345.0
346,5.073486107248231,-2.1801316874555754,-1.8538214161370745,0.9022231359913769,-5.057616220265064,-1.1431139182401122,346.0
347,5.073486160028555,-2.180131701645972,-1.8538214062936038,0.9022231409580455,-5.057616272963953,-1.0225698638358303,347.0
348,5.0734862173733415,-2.1801317088983367,-1.853821394658838,0.9022231372188034,-5.057616330301249,-0.8920258163338568,348.0
349,5.07348627931756,-2.1801317076456233,-1.8538213810452908,0.9022231230116616,-5.057616392319973,-0.7514817724720844,349.0
350,5.073486343385323,-2.180131697555203,-1.8538213659400018,0.9022230985135589,-5.057616456539758,-0.6009377318927653,350.0
351,5.0734864088743095,-2.180131675937008,-1.8538213491819797,0.9022230608714311,-5.057616522280426,-0.44039369778048526,351.0
352,5.073486469335927,-2.180131640873253,-1.8538213319496943,0.9022230092811642,-5.057616583105836,-0.2743146554736403,352.0
353,5.073486523099011,-2.1801316016586876,-1.853821315689907,0.9022229544493094,-5.057616637262333,-0.1171347389183525,353.0
354,5.073486561336069,-2.180131552699097,-1.8538213016697809,0.9022228919655275,-5.05761667596252,0.030045177636888545,354.0
355,5.073486595420631,-2.180131505494255,-1.8538212887569916,0.9022228322965649,-5.057616710490909,0.167225094192064,355.0
356,5.073486614726349,-2.180131454514429,-1.8538212786173045,0.9022227714760358,-5.057616730258951,0.29440501074716496,356.0
357,5.073486630516912,-2.1801314063708492,-1.853821269572455,0.9022227145440787,-5.05761674648375,0.4115849273022149,357.0
358,5.073486639117676,-2.180131360767368,-1.8538212623868464,0.9022226619305433,-5.057616755489664,0.5187648438571941,358.0
359,5.073486640101771,-2.1801313175893857,-1.8538212571399313,0.9022226135959689,-5.057616756850409,0.6159447604121187,359.0
360,5.0734866409846004,-2.180131278854505,-1.8538212524329274,0.9022225702351124,-5.057616758071131,0.7031246769669977,360.0
361,5.073486638903783,-2.1801312446206205,-1.8538212488949124,0.9022225325044961,-5.057616756286163,0.780304593521842,361.0
362,5.073486631156447,-2.1801312149424064,-1.8538212471199018,0.9022225010240541,-5.057616748789536,0.8474845100766657,362.0
363,5.073486624562333,-2.180131189681913,-1.853821245609108,0.9022224742296021,-5.05761674240881,0.9046644266314657,363.0
364,5.07348661912144,-2.1801311688391434,-1.8538212443625286,0.9022224521211386,-5.057616737143988,0.9518443431862444,364.0
365,5.0734866148337705,-2.180131152414094,-1.8538212433801675,0.9022224346986656,-5.05761673299507,0.9890242597410205,365.0
366,5.073486611699321,-2.1801311404067656,-1.8538212426620246,0.902222421962183,-5.057616729962054,1.0162041762958112,366.0
367,5.073486609718096,-2.1801311328171584,-1.8538212422080997,0.9022224139116907,-5.057616728044942,1.0333840928506026,367.0
368,5.073033872272542,-2.181145863958555,-1.8517941557142814,0.901209967762337,-5.05716546292828,1.0419063746828634,368.0
369,5.071717563386148,-2.1840961555288256,-1.8459005025942368,0.89826634152847,-5.055853434809025,1.0417271020752015,369.0
370,5.071302114389181,-2.1850273219194403,-1.8440403638695937,0.8973372812096959,-5.055439337725087,1.032935551677738,370.0
371,5.071302116604951,-2.1850273274293643,-1.84404036643906,0.8973372799712733,-5.0554393416792385,1.0154047376545328,371.0
372,5.071302120084652,-2.1850273360822827,-1.8440403704742123,0.8973372780264246,-5.0554393478889335,0.9878739236313341,372.0
373,5.07130212482828,-2.1850273478781945,-1.84404037597505,0.8973372753751495,-5.055439356354171,0.950343109608142,373.0
374,5.0713021308358375,-2.1850273628171,-1.8440403829415737,0.8973372720174484,-5.0554393670749525,0.9028122955849456,374.0
375,5.0713021388192825,-2.1850273813254364,-1.84404039087517,0.8973372694067254,-5.055439386596577,0.8452815034647085,375.0
376,5.071302148229395,-2.1850274030742414,-1.8440404001604795,0.8973372664217939,-5.055439409869864,0.7777507123927898,376.0
377,5.071302150605744,-2.185027434965022,-1.8440404059260644,0.8973372941517341,-5.055439417200405,0.7002199328089364,377.0
378,5.07130214991297,-2.185027473743093,-1.8440404104731292,0.8973373379451699,-5.055439417707609,0.6126891578140675,378.0
379,5.071302149124964,-2.185027517039229,-1.8440404154554146,0.8973373871218999,-5.0554394181235285,0.5151583956084391,379.0
380,5.07130214016855,-2.185027562481248,-1.8440404226017522,0.8973374400112595,-5.055439409445241,0.4076276402847626,380.0
381,5.071302124417103,-2.185027610458058,-1.844040431632037,0.8973374968364439,-5.0554393932193795,0.2900968929791368,381.0
382,5.071302104647675,-2.1850276609411523,-1.8440404418354692,0.8973375572799922,-5.055439372944688,0.16256615355686688,382.0
383,5.071302070671194,-2.185027707938157,-1.8440404547455391,0.8973376167376231,-5.0554393385200225,0.025035419591968026,383.0
384,5.071302032070853,-2.185027756176324,-1.8440404688093595,0.8973376785384076,-5.055439299456666,-0.12249531293449312,384.0
385,5.071301978495653,-2.185027795196829,-1.8440404850599164,0.8973377331681717,-5.05543924548685,-0.2800260386384125,385.0
386,5.071301917948893,-2.185027829377232,-1.8440405022645314,0.897337783846715,-5.055439184581038,-0.4462504459959836,386.0
387,5.071301852931793,-2.1850278507953886,-1.8440405189506723,0.8973378212205142,-5.055439119312304,-0.6065525739690636,387.0
388,5.071301789153804,-2.1850278600969677,-1.8440405339487151,0.8973378448250545,-5.0554390553901145,-0.7568547019419674,388.0
389,5.071301727669264,-2.18502786131715,-1.8440405475009003,0.897337858941557,-5.055438993834472,-0.8971568299147225,389.0
390,5.07130167077127,-2.1850278534928407,-1.844040558994422,0.8973378620202692,-5.055438936949169,-1.0274589578874396,390.0
391,5.0713016183959105,-2.1850278394268607,-1.8440405687711987,0.8973378572001027,-5.05543888464566,-1.14776108586014,391.0
392,5.07130157099624,-2.185027824635595,-1.8440405773779316,0.8973378505388343,-5.055438837329087,-1.2580632138328296,392.0
393,5.071301531153229,-2.1850278012583098,-1.8440405833318914,0.8973378327348701,-5.055438797651868,-1.3583653418054988,393.0
394,5.071301495282517,-2.1850277802117133,-1.844040588692243,0.8973378167059373,-5.055438761930418,-1.448667469778159,394.0
395,5.071301463497859,-2.185027761338455,-1.8440405934157695,0.8973378022529643,-5.055438730279984,-1.5289695977508238,395.0
396,5.071301440515152,-2.185027738115319,-1.8440405957106374,0.8973377811230105,-5.055438707478281,-1.599271725723476,396.0
397,5.07130142080158,-2.185027718195516,-1.844040597679076,0.8973377629986492,-5.055438687919966,-1.6595738536961326,397.0
398,5.071301404357142,-2.185027701579048,-1.8440405993210822,0.8973377478798785,-5.055438671605038,-1.7098759816688074,398.0
399,5.071301391181837,-2.1850276882659125,-1.8440406006366592,0.8973377357667002,-5.055438658533497,-1.7501781096414932,399.0
400,5.071301381275665,-2.1850276782561107,-1.8440406016258075,0.8973377266591145,-5.055438648705343,-1.780480237614169,400.0
401,5.071301374638628,-2.1850276715496415,-1.8440406022885272,0.8973377205571217,-5.055438642120577,-1.8007823655868491,401.0
402,5.071301371270725,-2.185027668146506,-1.8440406026248184,0.8973377174607216,-5.055438638779198,-1.811084493559533,402.0
403,5.071305697910945,-2.1867533451385692,-1.8442415860763877,0.8992612555240411,-5.0554278417141045,-1.8122937280726015,403.0
404,5.071306069372701,-2.1869005573157714,-1.8442586468023132,0.8994252622245297,-5.05542692372922,-1.80462885249107,404.0
405,5.071306074978157,-2.1869006627123637,-1.844258464235208,0.8994251852261586,-5.055426930047158,-1.7870928229001162,405.0
406,5.071306083780145,-2.1869008282118374,-1.8442581775583866,0.8994250643191187,-5.055426939967926,-1.7595567933091525,406.0
407,5.07130609577867,-2.1869010538141938,-1.8442577867718504,0.8994248995034103,-5.055426953491528,-1.7220207637181801,407.0
408,5.07130611097373,-2.186901339519432,-1.844257291875598,0.8994246907790333,-5.055426970617962,-1.6744847341272056,408.0
409,5.0713061293438955,-2.186901685213272,-1.8442566929838855,0.8994244376717468,-5.055426991151977,-1.6169487088147416,409.0
410,5.071306150904818,-2.186902090979185,-1.8442559900132567,0.899424140527915,-5.055427015236179,-1.5494126838606508,410.0
411,5.071306179978515,-2.186902236504117,-1.8442557569749993,0.8994240531635873,-5.055427045006139,-1.4718766699886412,411.0
412,5.071306214742756,-2.1869022568952197,-1.8442557517558809,0.8994240685393526,-5.055427079567765,-1.3843406607674837,412.0
413,5.071306253474994,-2.1869022796192366,-1.844255745937522,0.8994240856879657,-5.055427118046122,-1.2868046532159354,413.0
414,5.071306298567653,-2.186902297423737,-1.8442557381569706,0.8994240961015962,-5.055427162981296,-1.179268650832085,414.0
415,5.071306349737346,-2.1869023111687156,-1.844255728576119,0.8994241007880667,-5.0554272140756265,-1.0617326544252825,415.0
416,5.0713064053236145,-2.1869023233216103,-1.8442557178525283,0.899424102789901,-5.055427269605815,-0.9341966632257585,416.0
417,5.0713064655951285,-2.1869023220972132,-1.8442557045894616,0.8994240889449765,-5.055427329947109,-0.7966606749597944,417.0
418,5.071306529549863,-2.186902318104139,-1.8442556902097198,0.8994240712588355,-5.055427393999441,-0.6491246903037183,418.0
419,5.07130659344419,-2.186902296991289,-1.8442556738974363,0.8994240345509267,-5.055427458140717,-0.49158871359334,419.0
420,5.071306656960864,-2.1869022679063583,-1.8442556567613102,0.8994239890576954,-5.055427521973636,-0.32536270365728703,420.0
421,5.071306711476291,-2.1869022281080435,-1.844255640367533,0.8994239335174772,-5.055427576890132,-0.16506541072804834,421.0
422,5.071306754721386,-2.186902182830329,-1.8442556258050593,0.8994238742195133,-5.0554276205731625,-0.014768117798855642,422.0
423,5.071306789380607,-2.186902134789314,-1.8442556127980572,0.8994238136276034,-5.055427655686075,0.12552917513029593,423.0
424,5.07130681370387,-2.186902085552938,-1.8442556019058052,0.8994237538475076,-5.055427680463378,0.2558264680594225,424.0
425,5.071306829821198,-2.1869020363722047,-1.8442555928066842,0.8994236958289383,-5.055427697026241,0.3761237609885323,425.0
426,5.071306842794149,-2.1869019907950458,-1.8442555848017976,0.8994236424681812,-5.055427710410163,0.4864210539176391,426.0
427,5.071306843803417,-2.1869019464526716,-1.844255579542297,0.8994235929582796,-5.05542771180792,0.5867183468467302,427.0
428,5.071306844712058,-2.186901906531393,-1.8442555748071832,0.8994235483846905,-5.055427713066317,0.6770156397757936,428.0
429,5.071306845520071,-2.186901871031209,-1.8442555705964587,0.8994235087474157,-5.055427714185351,0.7573129327048647,429.0
430,5.071306837477273,-2.186901840129913,-1.8442555688356532,0.8994234760565263,-5.0554277064047355,0.8276102256339293,430.0
431,5.071306830563053,-2.1869018136247345,-1.844255567328746,0.899423448019582,-5.055427699715383,0.8879075185629877,431.0
432,5.071306824795521,-2.1869017915153064,-1.8442555660717486,0.8994234246324212,-5.055427694135426,0.9382048114920853,432.0
433,5.0713068201746765,-2.1869017738016283,-1.844255565064664,0.8994234058950453,-5.0554276896648656,0.9785021044211947,433.0
434,5.071306816700521,-2.186901760483699,-1.8442555643074932,0.8994233918074546,-5.055427686303699,1.0087993973502798,434.0
435,5.071306814373054,-2.186901751561519,-1.8442555638002358,0.8994233823696491,-5.055427684051927,1.0290966902793761,435.0
436,5.071448338981824,-2.1865853576034477,-1.8448892721505221,0.899740740729867,-5.055568742827668,1.0399229727622141,436.0
437,5.072684820029889,-2.1838211308510798,-1.8504258501249737,0.9025134760139517,-5.056801153672717,1.042866928690146,437.0
438,5.073491294831048,-2.1820182138410797,-1.8540369900077678,0.9043219460041556,-5.0576049744073,1.036380051463171,438.0
439,5.073491296671925,-2.182018218422642,-1.8540369920962878,0.9043219450116587,-5.057604977747932,1.0219662918210124,439.0
440,5.073491299789968,-2.182018226182807,-1.8540369956337843,0.9043219433305858,-5.057604983406233,0.9975525321788565,440.0
441,5.073491304185178,-2.182018237121576,-1.8540370006202576,0.9043219409609371,-5.0576049913822025,0.9631387725366968,441.0
442,5.0734913098575545,-2.182018251238947,-1.8540370070557073,0.9043219379027122,-5.057605001675841,0.9187250128945186,442.0
443,5.073491317275403,-2.182018268823877,-1.854037014604656,0.904321935148768,-5.0576050185706745,0.8643112624629927,443.0
444,5.073491326340358,-2.182018289815673,-1.8540370233375687,0.9043219324905613,-5.057605041166977,0.799897517117568,444.0
445,5.073491332052228,-2.1820183179367802,-1.8540370307082683,0.9043219468406661,-5.057605056224926,0.7254837782583604,445.0
446,5.073491331379618,-2.1820183556518633,-1.8540370349859654,0.9043219892926978,-5.057605056710252,0.6410700484656862,446.0
447,5.073491330615466,-2.182018397897438,-1.8540370397105934,0.904322037044851,-5.057605057143679,0.5466563280353557,447.0
448,5.073491326009584,-2.1820184435786407,-1.8540370456784394,0.9043220893497484,-5.057605053337758,0.4422426146329207,448.0
449,5.073491310587806,-2.182018490690886,-1.8540370543406162,0.9043221449479201,-5.057605037459108,0.3278289098011138,449.0
450,5.073491293816203,-2.1820185419185787,-1.8540370637623047,0.9043222053968453,-5.057605020174998,0.20341521476739685,450.0
451,5.073491262364586,-2.1820185894115403,-1.8540370759641676,0.9043222646791412,-5.0576049882714855,0.06900152549594252,451.0
452,5.073491226482739,-2.1820186392065453,-1.8540370893910978,0.9043223274265864,-5.05760495192044,-0.07541216248046156,452.0
453,5.073491175902116,-2.182018680083986,-1.8540371049985476,0.9043223832998079,-5.057604900936055,-0.22982584483991478,453.0
454,5.073491119062834,-2.1820187201208987,-1.8540371218692646,0.9043224395314845,-5.0576048436947145,-0.3942090822548754,454.0
455,5.073491052446345,-2.1820187421787365,-1.8540371388267878,0.9043224778006536,-5.057604776822566,-0.5575193290995459,455.0
456,5.073490988585334,-2.1820187578069214,-1.854037154458252,0.9043225083551645,-5.057604712764324,-0.7108295759442,456.0
457,5.073490925423244,-2.182018759114252,-1.8540371683166867,0.9043225228496352,-5.05760464952989,-0.8541398227888141,457.0
458,5.073490866758897,-2.1820187563591293,-1.8540371807388762,0.9043225319005399,-5.057604590832778,-0.9874500696334036,458.0
459,5.073490812767047,-2.182018741862609,-1.8540371908175326,0.9043225269376765,-5.057604536914518,-1.1107603164779827,459.0
460,5.073490763153734,-2.182018728541705,-1.8540372000788397,0.9043225223772785,-5.057604487368824,-1.2240705633225297,460.0
461,5.073490721205193,-2.1820187063583725,-1.8540372066730306,0.9043225063848708,-5.057604445572177,-1.3273808101670674,461.0
462,5.073490683927915,-2.1820186844565046,-1.8540372122851074,0.9043224897407619,-5.057604408448864,-1.420691057011602,462.0
463,5.073490650645619,-2.1820186649018476,-1.8540372172957373,0.9043224748803897,-5.057604375304031,-1.5040013038561182,463.0
464,5.073490624894978,-2.182018642786315,-1.854037220381568,0.9043224556188307,-5.05760434972034,-1.5773115507006252,464.0
465,5.0734906040799865,-2.1820186217125657,-1.8540372225139772,0.9043224364959763,-5.057604329068029,-1.6406217975451423,465.0
466,5.07349058655277,-2.1820186039674643,-1.8540372243095655,0.90432242039362,-5.057604311677798,-1.6939320443896766,466.0
467,5.073490572313331,-2.182018589551011,-1.8540372257683333,0.9043224073117618,-5.057604297549647,-1.7372422912342302,467.0
468,5.073490561361667,-2.1820185784632047,-1.854037226890283,0.9043223972504034,-5.057604286683577,-1.7705525380787805,468.0
469,5.073490553697779,-2.182018570704046,-1.8540372276754147,0.9043223902095444,-5.057604279079587,-1.7938627849233209,469.0
470,5.073493545750204,-2.1820119728388128,-1.8540504299285196,0.9043289955644418,-5.0576072616114285,-1.8071849688391182,470.0
471,5.074461210147657,-2.179882692045507,-1.858313813591576,0.9064634230434672,-5.058571840396545,-1.8128386808651908,471.0
472,5.07563591086674,-2.177297853009077,-1.8634893518482623,0.909054514404993,-5.059742796292282,-1.8088138506919085,472.0
473,5.075703095577926,-2.177150029825736,-1.8637853392891846,0.9092026956111624,-5.059809769597168,-1.7971315937768073,473.0
474,5.0757031032867,-2.1771500346191353,-1.8637853407986222,0.9092026916662703,-5.059809782466326,-1.7757123151518523,474.0
475,5.075703114594463,-2.177150041650426,-1.8637853430127698,0.9092026858796299,-5.059809801343697,-1.7442930365269023,475.0
476,5.075703129501216,-2.1771500509196073,-1.8637853459316276,0.9092026782512411,-5.05980982622928,-1.7028737579019357,476.0
477,5.075703147780061,-2.1771500621799302,-1.8637853498208026,0.9092026678475786,-5.059809855059566,-1.6514544865631353,477.0
478,5.075703169135917,-2.177150075110492,-1.8637853550257257,0.9092026534545645,-5.059809885150896,-1.5900352291573685,478.0
479,5.075703194418059,-2.177150090351384,-1.8637853598419691,0.9092026402367359,-5.059809919196693,-1.5186159736062883,479.0
480,5.075703226957722,-2.177150109423042,-1.8637853551030754,0.9092026542861884,-5.0598099501902984,-1.4371967320464973,480.0
481,5.075703263487695,-2.177150130873366,-1.8637853497476073,0.9092026702179027,-5.059809984933272,-1.345777495871325,481.0
482,5.075703304004099,-2.177150154724897,-1.8637853437540952,0.909202688129281,-5.059810023389994,-1.2443582673818472,482.0
483,5.075703352957923,-2.177150168227567,-1.8637853346657483,0.9092026931024575,-5.059810072205252,-1.1329390503228338,483.0
484,5.075703406426926,-2.1771501825998896,-1.8637853246930898,0.9092026981275705,-5.059810125592976,-1.0115198405778134,484.0
485,5.07570346452117,-2.1771501884548607,-1.8637853127709596,0.9092026927037968,-5.059810183692398,-0.8801006374182889,485.0
486,5.075703527209511,-2.1771501871338357,-1.8637852990558028,0.9092026783321947,-5.059810246455436,-0.7386814373244601,486.0
487,5.075703591583919,-2.177150175170747,-1.863785283775631,0.9092026517908127,-5.059810310995979,-0.5872622410266242,487.0
488,5.07570365780889,-2.17715015319745,-1.8637852669660095,0.9092026137480003,-5.059810377473309,-0.42584305111391385,488.0
489,5.075703717531515,-2.1771501162015774,-1.8637852498692524,0.9092025603548822,-5.059810437571413,-0.26013196820037987,489.0
490,5.075703771304757,-2.177150076830346,-1.8637852337920653,0.9092025055476082,-5.059810491734908,-0.10382318064228256,490.0
491,5.075703808296643,-2.177150026462204,-1.863785220106238,0.9092024419780268,-5.059810529195695,0.04248560691578925,491.0
492,5.075703842360354,-2.1771499791315985,-1.8637852073966499,0.9092023823856464,-5.059810563699363,0.17879439447384063,492.0
493,5.075703860342459,-2.1771499272899324,-1.8637851976584696,0.9092023210921785,-5.0598105821449115,0.3051031820318808,493.0
494,5.075703876106632,-2.1771498790857846,-1.8637851888104988,0.9092022642962472,-5.059810598339094,0.4214119695898938,494.0
495,5.075703883523213,-2.177149833149414,-1.8637851820247635,0.9092022117379527,-5.059810606158196,0.5277207571478896,495.0
496,5.075703884504884,-2.177149789994185,-1.8637851769452447,0.9092021635938857,-5.059810607512302,0.6240295447058695,496.0
497,5.075703885384625,-2.1771497513198836,-1.8637851723931407,0.9092021204487442,-5.059810608725808,0.7103383322638535,497.0
498,5.075703882489567,-2.177149717203919,-1.863785169172022,0.9092020831445788,-5.059810606121672,0.78664711982182,498.0
499,5.075703874799265,-2.1771496876678,-1.8637851675051464,0.909202051915339,-5.059810598678288,0.8529559073797772,499.0
500,5.075703868268734,-2.177149662586011,-1.863785166089651,0.9092020253957671,-5.059810592357438,0.9092646949377561,500.0
501,5.075703862897974,-2.177149641958553,-1.863785164925533,0.9092020035858619,-5.059810587159122,0.9555734824957571,501.0
502,5.075703858686985,-2.177149625785424,-1.8637851640127967,0.9092019864856256,-5.059810583083339,0.9918822700537553,502.0
503,5.075703855635767,-2.177149614066624,-1.863785163351442,0.909201974095058,-5.059810580130089,1.0181910576117437,503.0
504,5.075703853744321,-2.1771496068021534,-1.863785162941469,0.9092019664141591,-5.059810578299373,1.0344998451697363,504.0
505,5.076282590019637,-2.1758961717571252,-1.8662940054491832,0.9104575825103403,-5.060387527367391,1.0423806303594387,505.0
506,5.077624712958837,-2.172989396590405,-1.872112147404624,0.9133694321450655,-5.061725505798061,1.0413199155254944,506.0
507,5.0779449000764,-2.172295939608545,-1.873500164058651,0.9140641021715883,-5.062044705082619,1.031875799916693,507.0
508,5.0779449024516685,-2.1722959455502218,-1.8735001667388969,0.9140641008925443,-5.062044709320067,1.013435437433526,508.0
509,5.07794490611502,-2.1722959547140026,-1.8735001708726098,0.9140640989198894,-5.062044715855436,0.9849950749503691,509.0
510,5.077944911066454,-2.1722959670998883,-1.8735001764597894,0.9140640962536234,-5.062044724688725,0.946554712467201,510.0
511,5.077944917335989,-2.1722959827257817,-1.8735001834797087,0.9140640929548377,-5.062044736091742,0.898114350134288,511.0
512,5.0779449256394855,-2.172296002018631,-1.8735001914380942,0.9140640904803276,-5.062044756546076,0.8396739908275452,512.0
513,5.077944935363832,-2.172296024612769,-1.873500200758276,0.9140640875823924,-5.062044780500445,0.7712336315208059,513.0
514,5.077944936782638,-2.172296058457298,-1.8735002059230592,0.9140641199895398,-5.062044785658655,0.6927932850976157,514.0
515,5.07794493606845,-2.172296098515814,-1.8735002104255893,0.9140641650632199,-5.062044786157881,0.6043529430118297,515.0
516,5.077944935258382,-2.172296143184796,-1.8735002153605858,0.9140642155840605,-5.062044786575559,0.5059126125360498,516.0
517,5.077944924819506,-2.172296189686971,-1.8735002227359634,0.9140642696612327,-5.062044776263232,0.39747229000515033,517.0
518,5.077944908667623,-2.1722962391309717,-1.8735002317571694,0.9140643279377234,-5.062044759633184,0.2790319753307579,518.0
519,5.0779448870365504,-2.172296290323005,-1.8735002421622153,0.9140643892646809,-5.062044737505012,0.15059166824436854,519.0
520,5.077944852238631,-2.1722963387320866,-1.8735002551098159,0.9140644501620324,-5.062044702257877,0.012151366068531406,520.0
521,5.077944811418682,-2.172296387081081,-1.873500269349991,0.9140645122285381,-5.062044660984365,-0.1362889341078004,521.0
522,5.077944756595779,-2.1722964272795453,-1.8735002856952168,0.9140645681193525,-5.062044605766403,-0.29472922756989317,522.0
523,5.077944693957142,-2.172296460599027,-1.873500302953874,0.9140646179752652,-5.062044542784069,-0.46107443556204314,523.0
524,5.0779446282284875,-2.1722964824521873,-1.873500319590926,0.9140646557322731,-5.062044476806704,-0.6203603126762172,524.0
525,5.077944563332196,-2.172296490269342,-1.8735003344713737,0.9140646777317591,-5.0620444117823995,-0.7696461897903533,525.0
526,5.077944501232257,-2.172296491601,-1.8735003480197925,0.9140646919553332,-5.062044349612492,-0.9089320669044615,526.0
527,5.0779444438308206,-2.1722964822827118,-1.8735003593578816,0.9140646933880874,-5.062044292236507,-1.0382179440185388,527.0
528,5.077944390996166,-2.172296468105832,-1.8735003691647452,0.9140646884882324,-5.0620442394731215,-1.1575038211326116,528.0
529,5.077944343567263,-2.172296452128307,-1.8735003776029389,0.9140646804793705,-5.062044192135971,-1.266789698246674,529.0
530,5.077944303443775,-2.1722964285351942,-1.8735003836092596,0.9140646625142682,-5.062044152176191,-1.3660755753607092,530.0
531,5.077944267361493,-2.172296407318364,-1.8735003890106225,0.9140646463585951,-5.062044116241129,-1.4553614524747425,531.0
532,5.077944235851476,-2.1722963877390296,-1.8735003936094454,0.9140646310829588,-5.0620440848686545,-1.5346473295887588,532.0
533,5.077944212808562,-2.1722963643788167,-1.873500395956595,0.914064609871031,-5.062044062003574,-1.6039332067027776,533.0
534,5.077944193091423,-2.1722963443901726,-1.8735003979649811,0.9140645917206114,-5.0620440424386,-1.6632190838168006,534.0
535,5.077944176700056,-2.1722963277730996,-1.8735003996346007,0.9140645766316979,-5.0620440261737345,-1.7125049609308407,535.0
536,5.077944163634463,-2.1722963145275953,-1.8735004009654574,0.9140645646042929,-5.062044013208975,-1.7517908380448999,536.0
537,5.077944153894643,-2.17229630465366,-1.873500401957552,0.9140645556383964,-5.0620440035443215,-1.7810767151589426,537.0
538,5.077944147480597,-2.1722962981512937,-1.8735004026108848,0.9140645497340084,-5.062043997179776,-1.8003625922729964,538.0
539,5.078180548588137,-2.171792353381583,-1.8745087312634916,0.9145690247809646,-5.062279691450091,-1.810427675621235,539.0
540,5.079516674439568,-2.1689441432052603,-1.8802076685875426,0.9174202671028863,-5.063611822325071,-1.8123244016695275,540.0
541,5.08021432973443,-2.16745696459794,-1.8831833444968509,0.9189090300098139,-5.064307393332991,-1.8050587284339863,541.0
542,5.080214335367842,-2.1674569681032843,-1.883183345592772,0.9189090271102561,-5.064307402669562,-1.7895767167054042,542.0
543,5.080214344639935,-2.1674569738727687,-1.8831833473965602,0.9189090223378424,-5.0643074180367265,-1.76409470497682,543.0
544,5.080214357550711,-2.167456981906393,-1.883183349908216,0.9189090156925727,-5.064307439434484,-1.7286126932482337,544.0
545,5.0802143741001675,-2.167456992204158,-1.8831833531277389,0.9189090071744469,-5.064307466862835,-1.6831306815196452,545.0
546,5.08021439376066,-2.167457004206123,-1.883183357653842,0.9189089946705302,-5.06430749557153,-1.6276486810648847,546.0
547,5.080214416771387,-2.1674570181661257,-1.8831833632151123,0.9189089791386729,-5.064307527713988,-1.5621666843678197,547.0
548,5.080214445437745,-2.1674570352305635,-1.883183363812968,0.9189089779381896,-5.064307560482607,-1.4866846960316753,548.0
549,5.080214479996595,-2.1674570555070027,-1.883183358804521,0.9189089929164788,-5.064307593403748,-1.401202715320435,549.0
550,5.080214518585601,-2.1674570782302345,-1.883183353139669,0.9189090099699004,-5.0643076300611565,-1.3057207452622337,550.0
551,5.080214562923193,-2.1674570984522514,-1.8831833459082918,0.9189090232161903,-5.06430767305486,-1.200238782060162,551.0
552,5.080214614368395,-2.167457112272596,-1.8831833363667465,0.9189090280909874,-5.064307724413369,-1.0847568272464774,552.0
553,5.08021467027038,-2.1674571272907306,-1.8831833259977384,0.9189090333913214,-5.064307780236869,-0.959274881129441,553.0
554,5.080214731016781,-2.16745712639175,-1.8831833128277438,0.9189090199649532,-5.064307841050697,-0.8237929413988727,554.0
555,5.080214796257318,-2.1674571249690224,-1.8831832986330705,0.9189090050352166,-5.0643079063677705,-0.6783110022163205,555.0
556,5.080214861054833,-2.1674571044880877,-1.8831832824003827,0.9189089690407213,-5.064307971399554,-0.5228290694998633,556.0
557,5.08021492780839,-2.1674570784545066,-1.8831832651253222,0.9189089264822745,-5.064308038436056,-0.35760856187170964,557.0
558,5.080214984276451,-2.16745703698905,-1.8831832483356075,0.9189088688985738,-5.064308095308329,-0.19536032915232104,558.0
559,5.080215031925288,-2.1674569926631846,-1.8831832331230225,0.9189088099443721,-5.0643081433774055,-0.04311209643293637,559.0
560,5.0802150678889895,-2.167456942569543,-1.88318321977869,0.9189087469788182,-5.064308179799351,0.09913613628638841,560.0
561,5.080215096121666,-2.167456892936843,-1.8831832081491586,0.9189086861069378,-5.064308208479158,0.23138436900570256,561.0
562,5.080215112885535,-2.167456841566268,-1.8831831987924352,0.9189086256528165,-5.064308225694197,0.35363260172500544,562.0
563,5.080215128278107,-2.167456794397849,-1.883183190201093,0.9189085701438868,-5.064308241501033,0.46588083444426776,563.0
564,5.0802151301116805,-2.1674567481622016,-1.8831831846311746,0.9189085184449787,-5.064308243728318,0.5681290671635293,564.0
565,5.0802151310642785,-2.1674567062602383,-1.8831831797358785,0.918908471736932,-5.064308245037063,0.6603772998827475,565.0
566,5.080215131913612,-2.167456668900582,-1.8831831753712456,0.9189084300921838,-5.064308246203938,0.7426255326019802,566.0
567,5.0802151253510575,-2.167456636242637,-1.883183173127462,0.9189083951832617,-5.064308239912148,0.8148737653211926,567.0
568,5.080215118048506,-2.167456608140884,-1.8831831715528824,0.9189083654833516,-5.064308232841044,0.877121998040427,568.0
569,5.080215111919089,-2.167456584553599,-1.883183170231252,0.9189083405546457,-5.064308226905892,0.929370230759676,569.0
570,5.080215106962805,-2.16745656548078,-1.8831831691625722,0.9189083203971442,-5.064308222106692,0.9716184634789259,570.0
571,5.080215103179655,-2.1674565509224264,-1.8831831683468447,0.9189083050108489,-5.064308218443445,1.0038666961981801,571.0
572,5.080215100569639,-2.1674565408785385,-1.8831831677840702,0.9189082943957592,-5.06430821591615,1.0261149289174316,572.0
573,5.080245155005977,-2.1673934760439573,-1.8833092970131038,0.9189713711468452,-5.064338183406719,1.0384791521873729,573.0
574,5.081389289733442,-2.1649930018511423,-1.8881106611010778,0.9213727315968325,-5.065479006643695,1.0432321375990172,574.0
575,5.0824956703577815,-2.162671744588819,-1.892753585865878,0.9236948514091481,-5.066582185527289,1.0382370355108612,575.0
576,5.082514889724992,-2.162631428635491,-1.892834234910329,0.9237351855604745,-5.066601350507696,1.0256215229415842,576.0
577,5.082514892653465,-2.1626314359975147,-1.8928342381981067,0.9237351839833736,-5.066601355643879,1.0030819090436744,577.0
578,5.082514896881193,-2.1626314466257988,-1.8928342429445508,0.9237351817065709,-5.066601363058799,0.9705422951457603,578.0
579,5.082514902408176,-2.1626314605203425,-1.892834249149661,0.9237351787300663,-5.066601372752457,0.9280026812478422,579.0
580,5.082514909573037,-2.1626314778763422,-1.8928342565880403,0.9237351757148671,-5.06660138775951,0.8754630709795175,580.0
581,5.082514918545991,-2.1626314987919177,-1.8928342651463876,0.923735172993241,-5.066601409605392,0.8129234651023989,581.0
582,5.082514926335476,-2.1626315252035404,-1.8928342735972148,0.9237351794919785,-5.06660142901454,0.7403838628610822,582.0
583,5.082514925663337,-2.162631563092431,-1.8928342778375709,0.923735222051548,-5.066601429503134,0.6578442728590593,583.0
584,5.08251492490114,-2.1626316056186194,-1.892834282547751,0.9237352699702258,-5.066601429973089,0.5653046897011066,584.0
585,5.082514922844132,-2.1626316524447358,-1.8928342879675795,0.9237353230637335,-5.066601429060306,0.4627651138058897,585.0
586,5.082514907316496,-2.162631700083675,-1.8928342965925151,0.9237353791489088,-5.066601413085505,0.3502255485625496,586.0
587,5.082514890407448,-2.1626317519538363,-1.8928343059858048,0.9237354402106026,-5.06660139567631,0.2276859914728734,587.0
588,5.082514861497428,-2.1626318017903383,-1.8928343177397804,0.9237355014265041,-5.066601366301289,0.09514644059318977,588.0
589,5.082514825248016,-2.162631852343557,-1.892834331154683,0.923735564916202,-5.066601329590386,-0.047393107911403776,589.0
590,5.082514776803883,-2.1626318966453453,-1.8928343464881001,0.9237356239585133,-5.066601280727984,-0.19993265193733112,590.0
591,5.08251471990274,-2.1626319384901675,-1.8928343633614872,0.9237356820008487,-5.0666012234224445,-0.36247218970380013,591.0
592,5.082514652514205,-2.1626319641177085,-1.8928343806760086,0.9237357241881748,-5.066601155756204,-0.5274855504110905,592.0
593,5.082514587311752,-2.162631984151122,-1.8928343968976644,0.92373575972208,-5.066601090325111,-0.6826743800283991,593.0
594,5.082514521822107,-2.1626319856026877,-1.8928344111085982,0.9237357746958054,-5.066601024762895,-0.8278632096456672,594.0
595,5.082514460864135,-2.162631986029449,-1.8928344242330817,0.9237357876076986,-5.066600963745149,-0.963052039262905,595.0
596,5.082514404766235,-2.162631970984169,-1.8928344345894546,0.9237357823598257,-5.066600907722128,-1.0882408688801435,596.0
597,5.082514353149396,-2.1626319571407002,-1.8928344441185598,0.9237357775311461,-5.066600856174186,-1.203429698497354,597.0
598,5.082514308646962,-2.1626319364208837,-1.8928344513545787,0.9237357636206585,-5.066600811805062,-1.3086185281145404,598.0
599,5.082514269729566,-2.162631913516283,-1.8928344571488211,0.9237357461462755,-5.066600773044502,-1.4038073577317303,599.0
600,5.082514234900609,-2.1626318930179123,-1.8928344623343478,0.9237357305076495,-5.066600738355908,-1.4889961873488857,600.0
601,5.082514206841019,-2.162631871186917,-1.8928344659190717,0.9237357120090441,-5.0666007104541295,-1.5641850169660418,601.0
602,5.082514184907601,-2.1626318489203036,-1.892834468141011,0.9237356917770375,-5.066600688687834,-1.6293738465832122,602.0
603,5.082514166338781,-2.162631830069401,-1.8928344700221025,0.9237356746486305,-5.0666006702605,-1.6845626762003933,603.0
604,5.082514151134557,-2.1626318146342087,-1.892834471562345,0.9237356606238224,-5.066600655172126,-1.7297515058176007,604.0
605,5.082514139294932,-2.1626318026147264,-1.8928344727617419,0.923735649702615,-5.0666006434227135,-1.764940335434798,605.0
606,5.082514130819904,-2.1626317940109536,-1.8928344736202927,0.9237356418850082,-5.066600635012261,-1.7901291650519922,606.0
607,5.082514125709475,-2.1626317888228908,-1.8928344741379977,0.9237356371710022,-5.06660062994077,-1.8053179946691835,607.0
608,5.083268529289083,-2.161073989979702,-1.8959492214077527,0.9252929152843159,-5.067352920482975,-1.8123420758271562,608.0
609,5.084631093784408,-2.158260390080212,-1.9015748945972732,0.9281055828005225,-5.068711669117502,-1.8101254069224664,609.0
610,5.08484418750511,-2.157820376387089,-1.9024546885224112,0.9285454511010601,-5.068924168432856,-1.7998099418875688,610.0
611,5.084844194723238,-2.157820380881158,-1.9024546899179435,0.9285454473629532,-5.06892418031099,-1.7801918785494881,611.0
612,5.084844205620696,-2.1578203876660087,-1.9024546920248269,0.9285454417194052,-5.068924198243818,-1.750573815211413,612.0
613,5.084844220197481,-2.157820396741641,-1.902454694843061,0.928545434170416,-5.068924222231337,-1.7109557518733283,613.0
614,5.084844238344355,-2.157820407994906,-1.902454698492828,0.9285454242902547,-5.06892425130013,-1.6613376896542469,614.0
615,5.084844259520056,-2.157820420865166,-1.902454703569616,0.9285454099694757,-5.068924280627019,-1.6017196331445835,615.0
616,5.08484428424765,-2.157820435894212,-1.902454709497957,0.9285453932466092,-5.068924314873037,-1.5321015766349038,616.0
617,5.084844316543512,-2.157820454900834,-1.9024547055199985,0.9285454053272143,-5.06892434640856,-1.4524835352089487,617.0
618,5.08484435319468,-2.157820476452306,-1.9024547002131242,0.9285454213639271,-5.068924381299551,-1.3628654978109516,618.0
619,5.0848443939233805,-2.157820500481686,-1.9024546942458804,0.9285454395054595,-5.0689244199745485,-1.263247470384712,619.0
620,5.084844442420127,-2.1578205163615642,-1.9024546856362632,0.9285454472490117,-5.068924467955927,-1.1536294522858557,620.0
621,5.0848444963353945,-2.1578205308398823,-1.9024546756889729,0.9285454524027341,-5.0689245217889916,-1.0340114418098194,621.0
622,5.084844554912773,-2.157820539767239,-1.9024546641348534,0.9285454504290708,-5.068924580344815,-0.9043934384778243,622.0
623,5.0848446182604565,-2.1578205383409648,-1.9024546504244704,0.928545435957177,-5.0689246437655875,-0.764775439254906,623.0
624,5.0848446842821895,-2.1578205296286352,-1.902454635332515,0.9285454128591173,-5.068924709922578,-0.6151574426886773,624.0
625,5.0848447513120485,-2.15782050720714,-1.9024546185014906,0.9285453743498024,-5.06892477720067,-0.45553945274056956,625.0
626,5.08484481467843,-2.157820472495683,-1.9024546010884937,0.928545322953966,-5.068924840914551,-0.2892298251811602,626.0
627,5.084844870356657,-2.1578204314898817,-1.9024545846207546,0.928545266140876,-5.068924896985834,-0.13111550608847325,627.0
628,5.084844911328927,-2.157820381714798,-1.90245457032459,0.9285452025932734,-5.068924938410976,0.016998813004181015,628.0
629,5.084844946660025,-2.157820332379602,-1.9024545572841045,0.9285451406814573,-5.068924974186133,0.15511313209680647,629.0
630,5.084844968109651,-2.1578202799489463,-1.9024545468692917,0.9285450781607689,-5.068924996093018,0.28322745118939296,630.0
631,5.084844984498918,-2.157820229616953,-1.9024545377702329,0.928545018997598,-5.068925012917417,0.40134177028196,631.0
632,5.084844994706787,-2.15782018226082,-1.9024545303242286,0.9285449643930466,-5.068925023529941,0.5094560893745167,632.0
633,5.084844995733401,-2.1578201370761505,-1.902454525083653,0.9285449140652952,-5.068925024934718,0.6075704084670526,633.0
634,5.084844996655381,-2.1578200964967933,-1.902454520377201,0.928544868867042,-5.068925026196318,0.6956847275595788,634.0
635,5.084844995392404,-2.1578200605695925,-1.902454516655125,0.9285448292735613,-5.068925025232132,0.773799046652095,635.0
636,5.0848449873087,-2.1578200293989456,-1.9024545149207515,0.9285447963439424,-5.068925017401296,0.8419133657446087,636.0
637,5.084844980411782,-2.1578200028045247,-1.9024545134410045,0.9285447682487871,-5.06892501072012,0.9000276848371338,637.0
638,5.084844974701648,-2.1578199807863303,-1.9024545122158807,0.9285447449880933,-5.068925005188605,0.9481420039296866,638.0
639,5.084844970178299,-2.157819963344361,-1.9024545112453843,0.9285447265618632,-5.068925000806752,0.9862563230222419,639.0
640,5.084844966841735,-2.1578199504786166,-1.902454510529516,0.9285447129700971,-5.068924997574559,1.0143706421147942,640.0
641,5.084844964691955,-2.157819942189097,-1.9024545100682753,0.9285447042127949,-5.068924995492027,1.032484961207344,641.0
642,5.0852253394200515,-2.1570469135260226,-1.9039995726102854,0.929316914243905,-5.069304339493074,1.0416824535885179,642.0
643,5.086651770209221,-2.1541480276128087,-1.9097936456001627,0.9322127614020893,-5.070726904963966,1.0423869440046338,643.0
644,5.087205789589549,-2.153022118300994,-1.912044034509116,0.933337493097569,-5.0712794238126495,1.0342377251621209,644.0
645,5.0872057917801,-2.1530221238348908,-1.9120440369567937,0.9333374919164226,-5.071279427589927,1.0175247868476172,645.0
646,5.08720579528134,-2.1530221326799337,-1.912044040869012,0.9333374900285506,-5.071279433627295,0.9908118485331023,646.0
647,5.0872058000932725,-2.153022144836122,-1.9120440462457708,0.933337487433953,-5.071279441924754,0.9540989102185693,647.0
648,5.087205806215897,-2.1530221603034563,-1.9120440530870704,0.9333374841326296,-5.071279452482305,0.9073859719040394,648.0
649,5.087205814338978,-2.1530221794662054,-1.9120440609501936,0.9333374814152555,-5.071279471417769,0.8506730467054604,649.0
650,5.087205824005991,-2.15302220207004,-1.9120440701281547,0.9333374784275911,-5.071279494682037,0.7839601234660978,650.0
651,5.087205827391542,-2.153022234452348,-1.912044076349578,0.9333375036171201,-5.071279504133253,0.7072472105705288,651.0
652,5.087205826677606,-2.1530222748094494,-1.9120440808372716,0.9333375489042777,-5.071279504654509,0.6205343033417137,652.0
653,5.087205825865483,-2.1530223199082155,-1.912044085761376,0.933337599792367,-5.0712795050943695,0.5238214083609473,653.0
654,5.087205817749013,-2.1530223676365274,-1.912044092635501,0.9333376547807151,-5.071279497424849,0.4171085200737086,654.0
655,5.08720580145295,-2.1530224177410573,-1.912044101640647,0.9333377137000223,-5.071279480662292,0.3003956399494395,655.0
656,5.087205782247247,-2.1530224712439634,-1.9120441116448676,0.9333377769718324,-5.071279460948641,0.17368276795215523,656.0
657,5.087205747066718,-2.153022520429752,-1.9120441245971036,0.9333378386461378,-5.071279425326077,0.0369699018669051,657.0
658,5.087205708278986,-2.153022572161961,-1.9120441386010256,0.9333379038754136,-5.0712793860723675,-0.10974296333450001,658.0
659,5.087205652767379,-2.1530226131054233,-1.9120441549778049,0.9333379605378183,-5.071279330171703,-0.2664558215964707,659.0
660,5.087205590748641,-2.153022650742676,-1.9120441723767811,0.9333380148548447,-5.071279267785432,-0.4323577990021096,660.0
661,5.087205522730921,-2.153022673540302,-1.9120441894125264,0.9333380539353013,-5.071279199517625,-0.5933754749555183,661.0
662,5.087205456419065,-2.153022685201093,-1.912044204851217,0.9333380803211996,-5.071279133049474,-0.744393150909032,662.0
663,5.087205392058538,-2.153022686672531,-1.9120442187453945,0.9333380950132846,-5.071279068618813,-0.8854108268627099,663.0
664,5.087205332443595,-2.1530226800464503,-1.9120442307305217,0.933338099763927,-5.071279009005087,-1.01642850281652,664.0
665,5.087205277573952,-2.153022665335404,-1.912044240808052,0.9333380945871049,-5.071278954207908,-1.1374461787704635,665.0
666,5.087205227516114,-2.1530226509859487,-1.9120442498990189,0.9333380888347531,-5.0712789042238695,-1.2484638547245248,666.0
667,5.087205185728007,-2.1530226263670844,-1.9120442560885909,0.9333380700176508,-5.071278862602079,-1.3494815306786918,667.0
668,5.087205148076611,-2.153022604185307,-1.9120442616654367,0.9333380530633002,-5.071278825100535,-1.4404992066329263,668.0
669,5.087205114561927,-2.1530225844406146,-1.9120442666295592,0.933338037971702,-5.071278791719238,-1.5215168825872651,669.0
670,5.087205089978688,-2.1530225604294237,-1.9120442692157729,0.933338016337025,-5.07127876731277,-1.5925345585416426,670.0
671,5.0872050692066075,-2.153022539310478,-1.9120442713091186,0.9333379971358416,-5.071278746696934,-1.653552234496082,671.0
672,5.087205051838801,-2.1530225216526526,-1.9120442730593894,0.9333379810814795,-5.071278729459764,-1.7045699104505225,672.0
673,5.087205037875265,-2.1530225074559466,-1.9120442744665878,0.93333796817394,-5.0712787156012595,-1.7455875864049988,673.0
674,5.087205027316003,-2.1530224967203595,-1.9120442755307148,0.9333379584132242,-5.07127870512142,-1.776605262359479,674.0
675,5.087205020161012,-2.1530224894458914,-1.9120442762517706,0.9333379517993322,-5.071278698020249,-1.7976229383139208,675.0
676,5.087301811777832,-2.1528288878390867,-1.9124310813408274,0.9335312026238649,-5.071375235966459,-1.8089762045690077,676.0
677,5.088612855603406,-2.150206705574308,-1.9176701522827049,0.9361487329120421,-5.072682843592304,-1.8125542627578184,677.0
678,5.089597306208108,-2.148237741954364,-1.9216041096262932,0.9381142054746562,-5.073664715386312,-1.8065396730607357,678.0
679,5.08959731135381,-2.1482377451597476,-1.9216041106152435,0.9381142027926499,-5.073664723795,-1.792710664294453,679.0
680,5.089597320220459,-2.1482377506830006,-1.9216041123193208,0.9381141981712376,-5.07366473828416,-1.7688816555281757,680.0
681,5.089597332808056,-2.1482377585241226,-1.9216041147385252,0.9381141916104193,-5.07366475885379,-1.7350526467618677,681.0
682,5.0895973491166,-2.1482377686831144,-1.9216041178728571,0.9381141831101949,-5.073664785503893,-1.691223637995579,682.0
683,5.089597368723246,-2.1482377807323725,-1.9216041221735138,0.9381141710668179,-5.073664814505287,-1.6373946302405786,683.0
684,5.089597391641699,-2.1482377946857563,-1.9216041276258724,0.9381141555322668,-5.07366484597884,-1.5735656232174993,684.0
685,5.089597419646135,-2.1482378115018057,-1.9216041299781117,0.9381141491416655,-5.073664879687141,-1.4997366219863628,685.0
686,5.089597454337907,-2.148237831905079,-1.9216041249956728,0.9381141642932058,-5.073664912742952,-1.415907631180731,686.0
687,5.089597493158109,-2.1482378548031305,-1.9216041193626707,0.9381141815144934,-5.073664949653537,-1.322078648805415,687.0
688,5.0895975370929225,-2.1482378773489312,-1.9216041125556034,0.9381141974495213,-5.0736649918950265,-1.2182496734737078,688.0
689,5.089597589007228,-2.1482378912861866,-1.9216041030260524,0.9381142024515935,-5.073665043722595,-1.1044207073019097,689.0
690,5.089597645484445,-2.1482379064489185,-1.921604092658052,0.9381142078965669,-5.073665100122584,-0.9805917505042151,690.0
691,5.08959770685251,-2.148237908318603,-1.92160407980132,0.9381141975626821,-5.073665161532206,-0.8467627994224485,691.0
692,5.089597772886595,-2.148237906786448,-1.9216040655812014,0.9381141824996028,-5.073665227641278,-0.702933849837774,692.0
693,5.089597839371705,-2.1482378891513854,-1.9216040494884505,0.9381141494970608,-5.073665294331322,-0.549104905521077,693.0
694,5.089597908988537,-2.148237865770988,-1.9216040320953973,0.9381141094926874,-5.073665364202241,-0.38527596735884856,694.0
695,5.089597967437594,-2.148237822706776,-1.9216040149068923,0.938114049931529,-5.073665423057255,-0.22137063357316245,695.0
696,5.089598019202276,-2.1482377790664833,-1.921603999077157,0.9381139910847061,-5.07366547522668,-0.06746515328782492,696.0
697,5.089598056454222,-2.148237726917503,-1.9216039853967493,0.9381139257442718,-5.073665512940391,0.07644032699764994,697.0
698,5.08959808830091,-2.1482376767321067,-1.9216039730831427,0.9381138636742083,-5.073665545227894,0.2103458072832352,698.0
699,5.089598105699978,-2.1482376231802656,-1.9216039634723647,0.9381138007969223,-5.073665563082596,0.3342512875690091,699.0
700,5.089598121694825,-2.148237573950421,-1.9216039546372319,0.9381137429942505,-5.073665579496303,0.44815676785488906,700.0
701,5.089598125913371,-2.148237526262051,-1.9216039484780103,0.9381136892835497,-5.073665584110559,0.5520622481408777,701.0
702,5.089598126909146,-2.1482374824081605,-1.9216039434276155,0.9381136404751765,-5.073665585467662,0.6459677284269515,702.0
703,5.089598127798881,-2.1482374432242763,-1.921603938915033,0.9381135968644082,-5.073665586680246,0.7298732087130863,703.0
704,5.089598122569664,-2.148237408849931,-1.9216039362351292,0.9381135598228709,-5.073665581728903,0.8037786889993106,704.0
705,5.089598114896332,-2.148237379199847,-1.92160393459654,0.9381135285122865,-5.073665574292441,0.8676841692855753,705.0
706,5.089598108423731,-2.1482373541894413,-1.9216039332143573,0.9381135021012159,-5.073665568019645,0.9215896495718818,706.0
707,5.089598103151861,-2.148237333818714,-1.9216039320885814,0.9381134805896596,-5.073665562910513,0.965495129858198,707.0
708,5.089598099080723,-2.1482373180876646,-1.9216039312192144,0.9381134639776183,-5.073665558965049,0.9994006101445327,708.0
709,5.089598096210317,-2.1482373069962923,-1.9216039306062562,0.938113452265092,-5.073665556183249,1.0233060904308364,709.0
710,5.089598094540642,-2.148237300544598,-1.9216039302497072,0.938113445452081,-5.073665554565116,1.0372115707171445,710.0
711,5.090585221308179,-2.1462943099967875,-1.9254845126108828,0.9400515467039104,-5.074650179677057,1.0432747822932151,711.0
712,5.091920122444889,-2.1436667927885003,-1.9307322569519443,0.9426724607400604,-5.075981698108994,1.0397609261391887,712.0
713,5.092022372416375,-2.1434655383532144,-1.9311342164676673,0.9428732123196818,-5.076083689992303,1.0284504939644117,713.0
714,5.092022375188376,-2.143465545389833,-1.9311342195512944,0.9428732108218535,-5.0760836946919135,1.007488471331442,714.0
715,5.092022379282769,-2.143465555783293,-1.9311342241059757,0.9428732086094813,-5.076083701633486,0.9765264486984397,715.0
716,5.092022384699554,-2.1434655695335945,-1.9311342301317111,0.9428732056825655,-5.0760837108170245,0.9355644260654407,716.0
717,5.092022391664825,-2.143465586762461,-1.9311342374885394,0.9428732024463606,-5.076083724226978,0.8846024090693396,717.0
718,5.0920224005878545,-2.143465607690237,-1.9311342459231056,0.9428731996344537,-5.07608374545557,0.8236404055433191,718.0
719,5.092022410181955,-2.1434656327101833,-1.9311342552995594,0.9428731993086399,-5.0760837684134685,0.7526784031574312,719.0
720,5.092022409507926,-2.14346567092067,-1.931134259522084,0.9428732421456563,-5.076083768907885,0.6717164157618905,720.0
721,5.092022408744684,-2.1434657138841464,-1.9311342642355007,0.9428732904179304,-5.076083769410766,0.5807544331089759,721.0
722,5.092022407886581,-2.1434657616323047,-1.931134269410752,0.9428733442622138,-5.076083769872246,0.47979245867961307,722.0
723,5.092022393215199,-2.1434658102356456,-1.9311342778314446,0.942873401185877,-5.0760837548912265,0.3688304951512298,723.0
724,5.092022376121353,-2.1434658629075733,-1.9311342872313184,0.9428734630535147,-5.076083737308094,0.24786853899474193,724.0
725,5.092022349313039,-2.1434659150253865,-1.931134298642152,0.9428735262381798,-5.076083710024369,0.11690658953073754,725.0
726,5.092022312603891,-2.1434659664791296,-1.931134312091047,0.9428735906567437,-5.076083672860493,-0.024055356652577513,726.0
727,5.092022265837029,-2.1434660139932413,-1.9311343272412134,0.9428736527412231,-5.076083625663678,-0.17501729934791638,727.0
728,5.0920222081375535,-2.14346605667695,-1.9311343441802666,0.9428737116816682,-5.076083567565494,-0.3359792355766557,728.0
729,5.09202214056279,-2.143466086444645,-1.9311343617951229,0.9428737583049973,-5.076083499688597,-0.501906413603079,729.0
730,5.092022073547041,-2.1434661089964333,-1.9311343784979416,0.9428737968204051,-5.076083432430016,-0.6586771448100641,730.0
731,5.092022006156464,-2.143466112123984,-1.931134393144665,0.9428738138897893,-5.076083364954669,-0.805447876017211,731.0
732,5.092021942988369,-2.1434661136108026,-1.9311344067148104,0.9428738282888727,-5.076083301718897,-0.9422186072244703,732.0
733,5.092021884782813,-2.1434660998368784,-1.9311344175538323,0.9428738247775561,-5.076083243574471,-1.0689893384318765,733.0
734,5.092021831206672,-2.1434660854751337,-1.9311344273456799,0.9428738196804003,-5.076083190068325,-1.1857600696394173,734.0
735,5.092021784274722,-2.1434660660080285,-1.9311344351660535,0.9428738075853416,-5.076083143253847,-1.2925308008470546,735.0
736,5.0920217437660025,-2.14346604211642,-1.9311344411367113,0.9428737892913648,-5.076083102904326,-1.3893015320548092,736.0
737,5.0920217074433305,-2.143466020693702,-1.9311344464903724,0.9428737728878298,-5.076083066724403,-1.4760722632626178,737.0
738,5.092021677222429,-2.143465999054649,-1.9311344505252221,0.9428737550128395,-5.07608303665338,-1.5528429944705093,738.0
739,5.092021654221092,-2.1434659756324743,-1.9311344528317587,0.9428737337047761,-5.076083013822809,-1.619613725678461,739.0
740,5.092021634664579,-2.1434659557181504,-1.9311344547928535,0.9428737155879404,-5.076082994411488,-1.6763844568864383,740.0
741,5.092021618552887,-2.143465939311678,-1.931134456408504,0.9428737006623312,-5.076082978419413,-1.7231551880944553,741.0
742,5.0920216058860195,-2.1434659264130564,-1.9311344576787142,0.9428736889279505,-5.076082965846586,-1.7599259193024768,742.0
743,5.092021596663975,-2.143465917022285,-1.9311344586034838,0.9428736803847984,-5.076082956693009,-1.7866966505104742,743.0
744,5.0920215908867545,-2.143465911139364,-1.9311344591828128,0.9428736750328748,-5.076082950958679,-1.8034673817184756,744.0
745,5.092592737893734,-2.1423595718451938,-1.933343212018918,0.9439763986933024,-5.0766526988082665,-1.8116453137673953,745.0
746,5.094081086545302,-2.139476591033356,-1.9390989580645646,0.9468499713124907,-5.078137401744877,-1.8109692498149352,746.0
747,5.09447858987299,-2.1387066225695768,-1.940636171578076,0.9476174275817435,-5.0785339334475825,-1.801778874599917,747.0
748,5.094478596691299,-2.13870662681877,-1.9406361728809547,0.9476174240043671,-5.078533944513025,-1.7836622323216431,748.0
749,5.09447860727317,-2.1387066334134284,-1.9406361749029948,0.9476174184523551,-5.078533961686357,-1.7555455900433388,749.0
750,5.0944786216186015,-2.13870664235355,-1.9406361776441963,0.9476174109257078,-5.078533984967576,-1.7174289477650393,750.0
751,5.094478639721608,-2.1387066536332253,-1.9406361811107558,0.9476174014023314,-5.078534014304441,-1.6693123055574113,751.0
752,5.094478660819096,-2.1387066664988588,-1.94063618609266,0.947617387065711,-5.07853404303699,-1.6111956712010023,752.0
753,5.094478685546782,-2.1387066815782543,-1.9406361919317894,0.9476173702622203,-5.0785340767134866,-1.543079036844626,753.0
754,5.09447871736152,-2.1387067004369995,-1.9406361896000626,0.9476173776695482,-5.078534109424235,-1.4649624153021934,754.0
755,5.094478754261541,-2.1387067221763107,-1.9406361843156883,0.9476173938797244,-5.078534144579099,-1.3768457982970828,755.0
756,5.094478795334795,-2.1387067464722103,-1.9406361783498358,0.9476174123146812,-5.0785341835971485,-1.2787291931243059,756.0
757,5.09447884363139,-2.1387067644910047,-1.9406361701122912,0.9476174225077671,-5.07853423105731,-1.17061259552186,757.0
758,5.094478898148496,-2.1387067791258385,-1.9406361601523598,0.9476174278049245,-5.078534285491507,-1.0524960058102013,758.0
759,5.0944789573787785,-2.1387067907640107,-1.9406361488697694,0.9476174288234965,-5.07853434467881,-0.9243794237085995,759.0
760,5.094479021551799,-2.1387067892325144,-1.9406361351160952,0.9476174142053787,-5.0785344089234865,-0.786262846582005,760.0
761,5.094479089263885,-2.1387067833026854,-1.9406361201313997,0.9476173940026179,-5.078534476745366,-0.6381462711281907,761.0
762,5.094479157261038,-2.1387067603749643,-1.9406361032238453,0.9476173549159527,-5.078534544987095,-0.4800297024906517,762.0
763,5.094479223879658,-2.1387067275928624,-1.9406360855283673,0.9476173051923251,-5.078534611928807,-0.31367576521702084,763.0
764,5.094479281478301,-2.138706684920006,-1.9406360686587156,0.9476172463301776,-5.078534669922733,-0.15395593182955436,764.0
765,5.094479326127313,-2.138706635396802,-1.9406360537799854,0.9476171824882434,-5.078534715011193,-0.00423609844201394,765.0
766,5.094479362731937,-2.1387065840223,-1.9406360404014495,0.9476171182156706,-5.078534752063248,0.13548373494573382,766.0
767,5.094479387299803,-2.1387065307675175,-1.9406360293651463,0.9476170542842787,-5.078534777083297,0.2652035683335561,767.0
768,5.094479404314881,-2.1387064782786056,-1.9406360200117285,0.9476169927220037,-5.0785347945378,0.38492340172156414,768.0
769,5.09447941696533,-2.1387064293850293,-1.940636011976268,0.9476169360207499,-5.078534807594792,0.49464323510983194,769.0
770,5.094479418037149,-2.1387063821530665,-1.9406360065741417,0.9476168834913882,-5.078534809049649,0.5943630684982266,770.0
771,5.094479419001485,-2.138706339657573,-1.9406360017137407,0.947616836229719,-5.078534810358612,0.6840829018866629,771.0
772,5.094479419069639,-2.138706301917372,-1.9406359975641048,0.9476167944154106,-5.078534810732143,0.7638027352750676,772.0
773,5.094479410598799,-2.1387062691149,-1.9406359957632584,0.9476167597895102,-5.078534802519311,0.8335225686635117,773.0
774,5.094479403342941,-2.138706241017326,-1.9406359942207099,0.9476167301300448,-5.078534795484455,0.8932424020519248,774.0
775,5.094479397302067,-2.138706217624652,-1.9406359929364552,0.9476167054370122,-5.078534789627575,0.9429622354403044,775.0
776,5.094479392476174,-2.1387061989368763,-1.9406359919104985,0.9476166857104147,-5.078534784948673,0.9826820688286697,776.0
777,5.094479388865265,-2.138706184953998,-1.9406359911428401,0.9476166709502521,-5.078534781447747,1.0124019022170605,777.0
778,5.094479386469338,-2.1387061756760177,-1.9406359906334802,0.9476166611565248,-5.078534779124796,1.0321217356054346,778.0
779,5.094479385288396,-2.1387061711029354,-1.9406359903824184,0.9476166563292326,-5.078534777979823,1.0418415689938063,779.0
780,5.094483808818742,-2.1406230747240964,-1.9408450802245898,0.9497388951140896,-5.0785236977109305,1.0425764851760588,780.0
781,5.094484023949774,-2.140715967558512,-1.940855120357881,0.9498416461940206,-5.078523162258299,1.0344245276536652,781.0
782,5.094484025905797,-2.1407160833932406,-1.940854927351793,0.9498415689366093,-5.078523164898746,1.0163600488018434,782.0
783,5.094484028944622,-2.140716263350898,-1.940854627502829,0.9498414489116147,-5.0785231690008725,0.988295569950032,783.0
784,5.094484033066248,-2.1407165074314833,-1.9408542208109885,0.9498412861190364,-5.078523174564678,0.9502310910982162,784.0
785,5.094484038270676,-2.140716815634997,-1.940853707276272,0.9498410805588744,-5.078523181590162,0.9021666122464109,785.0
786,5.094484044598628,-2.140717188091571,-1.9408530867720193,0.9498408327616594,-5.078523190432255,0.8441021562214908,786.0
787,5.094484052017676,-2.140717624697602,-1.940852359399051,0.9498405423048941,-5.078523200808314,0.7760377008050963,787.0
788,5.094484053362914,-2.1407177697985276,-1.9408521681670718,0.9498404962930147,-5.078523202763552,0.6979732570689833,788.0
789,5.094484052425445,-2.140717811616905,-1.940852172775629,0.9498405427742282,-5.078523201559376,0.6099088171295513,789.0
790,5.094484051377499,-2.1407178581874353,-1.940852177904651,0.9498405945504267,-5.078523200183268,0.5118443783504432,790.0
791,5.094484041222675,-2.140717907065704,-1.9408521852305458,0.9498406506271984,-5.078523189640968,0.40377994529243466,791.0
792,5.094484024442005,-2.1407179589245455,-1.9408521942920163,0.9498407112738818,-5.078523172420444,0.2857155181654069,792.0
793,5.094484002764435,-2.1407180131224055,-1.9408522046376682,0.9498407754872369,-5.0785231502807875,0.15765109612419698,793.0
794,5.094483966593862,-2.1407180639907257,-1.940852217693148,0.9498408389363577,-5.078523113668714,0.019586677057762167,794.0
795,5.094483924891005,-2.140718115571592,-1.9408522319938093,0.9498409042846769,-5.078523071513892,-0.12847773820114194,795.0
796,5.0944838678900535,-2.140718157900055,-1.9408522485441893,0.9498409624908681,-5.078523014122385,-0.2865421455918823,796.0
797,5.094483803158964,-2.140718194085527,-1.940852266075296,0.9498410154670912,-5.078522949043592,-0.452887265429868,797.0
798,5.094483734451044,-2.1407182173243546,-1.9408522830702184,0.9498410549450198,-5.07852288008892,-0.6126588208814809,798.0
799,5.094483666852399,-2.140718226731528,-1.9408522983597325,0.9498410789247151,-5.078522812356016,-0.7624303763331066,799.0
800,5.094483601911855,-2.140718228314383,-1.9408523122552914,0.9498410937290817,-5.078522747346601,-0.9022019317847934,800.0
801,5.09448354185076,-2.1407182194905516,-1.940852324012726,0.94984109605964,-5.078522687304767,-1.0319734872365336,801.0
802,5.094483486569125,-2.1407182046725772,-1.9408523341224235,0.9498410908095569,-5.078522632094854,-1.1517450426883302,802.0
