Miguel-LA/TFM_MiguelLerinAlonso/workspace/ros_ur_driver/src/trayectories/data/20240424_logViewer_j5.csv
timestamp,actual_execution_time,target_execution_time,speed_scaling,robot_mode,safety_mode,runtime_state,payload,payload_cog_0,payload_cog_1,payload_cog_2,payload_inertia_0,payload_inertia_1,payload_inertia_2,payload_inertia_3,payload_inertia_4,payload_inertia_5,script_control_line,wrench_calc_from_currents_0,wrench_calc_from_currents_1,wrench_calc_from_currents_2,wrench_calc_from_currents_3,wrench_calc_from_currents_4,wrench_calc_from_currents_5,motor_command,joint_position_deviation_ratio,target_q_0,target_q_1,target_q_2,target_q_3,target_q_4,target_q_5,actual_q_0,actual_q_1,actual_q_2,actual_q_3,actual_q_4,actual_q_5,target_qd_0,target_qd_1,target_qd_2,target_qd_3,target_qd_4,target_qd_5,actual_qd_0,actual_qd_1,actual_qd_2,actual_qd_3,actual_qd_4,actual_qd_5,target_TCP_pose_0,target_TCP_pose_1,target_TCP_pose_2,target_TCP_pose_3,target_TCP_pose_4,target_TCP_pose_5,actual_TCP_pose_0,actual_TCP_pose_1,actual_TCP_pose_2,actual_TCP_pose_3,actual_TCP_pose_4,actual_TCP_pose_5,target_TCP_speed_0,target_TCP_speed_1,target_TCP_speed_2,target_TCP_speed_3,target_TCP_speed_4,target_TCP_speed_5,actual_TCP_speed_0,actual_TCP_speed_1,actual_TCP_speed_2,actual_TCP_speed_3,actual_TCP_speed_4,actual_TCP_speed_5
2796.296,0.339228,8,0,7,1,1,0.1,0,0,0,0,0,0,0,0,0,0,7.62399588870087,-9.78204787720994,16.9833932631945,3.36822012985988,-0.488716057596254,-0.931323978934397,11,0,-1.72769624391665,-2.01136953035464,-1.85741502443422,-0.666605297719139,-4.7213160435306,-3.24603444734682,-1.72769624391665,-2.01132184663881,-1.85742694536318,-0.666593376790182,-4.72130412260164,-3.24608236948122,0,0,0,0,0,0,0,0,0,0,0,0,-0.286914821023607,-0.782655550814712,0.230663646928533,2.96658629960679,-0.0812102690499988,-0.0348738152905294,-0.286912285375818,-0.782646406927779,0.230697570258993,2.96654005587541,-0.0811364129170655,-0.0348712548357179,0,0,0,0,0,0,0,0,0,0,0,0
2796.304,0.350857,8,0,7,1,1,0.1,0,0,0,0,0,0,0,0,0,0,7.30161617842547,-9.03264536401287,17.6020869601574,3.36195727562503,-0.551368400002083,-0.891476017505818,11,0,-1.72769624391665,-2.01136953035464,-1.85741502443422,-0.666605297719139,-4.7213160435306,-3.24603444734682,-1.72767240205874,-2.01133376756777,-1.85747558275332,-0.666593376790182,-4.72132808366884,-3.24604636827578,0,0,0,0,0,0,0,0,0,0,0,0,-0.286914821023607,-0.782655550814712,0.230663646928533,2.96658629960679,-0.0812102690499988,-0.0348738152905294,-0.286892597513247,-0.782632426491953,0.230660788153652,2.96660178585613,-0.0811590783779631,-0.034888099726189,0,0,0,0,0,0,0,0,0,0,0,0
2796.312,0.370272,8,0,7,1,1,0.1,0,0,0,0,0,0,0,0,0,0,6.85549761788084,-9.60762466456277,17.0336748867786,3.3478111773147,-0.456768915827742,-0.850018594176596,11,0,-1.72769624391665,-2.01136953035464,-1.85741502443422,-0.666605297719139,-4.7213160435306,-3.24603444734682,-1.72767240205874,-2.01132184663881,-1.85742694536318,-0.66661769548525,-4.7213160435306,-3.24607021013369,0,0,0,0,0,0,0,0,0,0,0,0,-0.286914821023607,-0.782655550814712,0.230663646928533,2.96658629960679,-0.0812102690499988,-0.0348738152905294,-0.286894412809908,-0.782651388691858,0.230694405739006,2.96656563551727,-0.0811210333722526,-0.0348796107427272,0,0,0,0,0,0,0,0,0,0,0,0
2796.32,0.344508,8,0,7,1,1,0.1,0,0,0,0,0,0,0,0,0,0,7.83508696034876,-8.77536219220779,18.0378851942466,3.39533749755535,-0.550703653761769,-0.950097840428359,11,0,-1.72769624391665,-2.01136953035464,-1.85741502443422,-0.666605297719139,-4.7213160435306,-3.24603444734682,-1.72766048112978,-2.01132184663881,-1.85743886629214,-0.666581455861227,-4.72132808366884,-3.24603444734682,0,0,0,0,0,0,0,0,0,0,0,0,-0.286914821023607,-0.782655550814712,0.230663646928533,2.96658629960679,-0.0812102690499988,-0.0348738152905294,-0.286885791861514,-0.782651829496887,0.230692493726939,2.96654136245034,-0.0811577809099011,-0.0348958362639801,0,0,0,0,0,0,0,0,0,0,0,0
2796.328,0.3402,8,0,7,1,1,0.1,0,0,0,0,0,0,0,0,0,0,7.35918375217564,-8.88470287808572,17.8760032517279,3.37606538991135,-0.623094880996734,-0.96573972418518,11,0,-1.72769624391665,-2.01136953035464,-1.85741502443422,-0.666605297719139,-4.7213160435306,-3.24603444734682,-1.7277081648456,-2.01132184663881,-1.85742694536318,-0.666593376790182,-4.7213400045978,-3.24610621133913,0,0,0,0,0,0,0,0,0,0,0,0,-0.286914821023607,-0.782655550814712,0.230663646928533,2.96658629960679,-0.0812102690499988,-0.0348738152905294,-0.28692488492985,-0.782642461998499,0.230697567440935,2.9665448719202,-0.0811236206883753,-0.0349287011143335,0,0,0,0,0,0,0,0,0,0,0,0
2796.336,0.35388,8,0,7,1,1,0.1,0,0,0,0,0,0,0,0,0,0,6.90715743231666,-11.4028158817766,15.7904517581523,3.36564248480258,-0.467599625352403,-0.906191819555701,11,0,-1.72769624391665,-2.01136953035464,-1.85741502443422,-0.666605297719139,-4.7213160435306,-3.24603444734682,-1.72764856020083,-2.01126176515688,-1.85743886629214,-0.666581455861227,-4.7213160435306,-3.24603444734682,0,0,0,0,0,0,0,0,0,0,0,0,-0.286914821023607,-0.782655550814712,0.230663646928533,2.96658629960679,-0.0812102690499988,-0.0348738152905294,-0.286874404526819,-0.782649336551484,0.23074163010648,2.96648070844359,-0.0811368668149289,-0.0348874731514845,0,0,0,0,0,0,0,0,0,0,0,0
2796.344,0.343585,8,0,7,1,1,0.1,0,0,0,0,0,0,0,0,0,0,8.31380096760979,-7.46594657734534,19.1943076492533,3.48839600237564,-0.494012858879214,-1.02028226624694,11,0,-1.72769624391665,-2.01136953035464,-1.85741502443422,-0.666605297719139,-4.7213160435306,-3.24603444734682,-1.72766048112978,-2.01132184663881,-1.8574631849872,-0.666629616414205,-4.72135204473604,-3.24604636827578,0,0,0,0,0,0,0,0,0,0,0,0,-0.286914821023607,-0.782655550814712,0.230663646928533,2.96658629960679,-0.0812102690499988,-0.0348738152905294,-0.28688568228848,-0.782637304523686,0.230672711233769,2.96661662739673,-0.08114456423348,-0.0349194093344717,0,0,0,0,0,0,0,0,0,0,0,0
2796.352,0.339504,8,0,7,1,1,0.1,0,0,0,0,0,0,0,0,0,0,7.48145855976719,-9.87966477700811,17.0143647642955,3.38221206152601,-0.483982166353825,-0.990210084335412,11,0,-1.72769624391665,-2.01136953035464,-1.85741502443422,-0.666605297719139,-4.7213160435306,-3.24603444734682,-1.72768432298769,-2.01132184663881,-1.85745078722109,-0.66661769548525,-4.7213400045978,-3.24605828920473,0,0,0,0,0,0,0,0,0,0,0,0,-0.286914821023607,-0.782655550814712,0.230663646928533,2.96658629960679,-0.0812102690499988,-0.0348738152905294,-0.286904258427532,-0.782636991963291,0.230681153150295,2.96659101484849,-0.0811601811904492,-0.0349107050452311,0,0,0,0,0,0,0,0,0,0,0,0
2796.36,0.419508,8,0,7,1,1,0.1,0,0,0,0,0,0,0,0,0,0,7.25987300244046,-7.75621874652214,18.9955782647076,3.48266179257271,-0.56959932093597,-0.920524301198105,11,0,-1.72769624391665,-2.01136953035464,-1.85741502443422,-0.666605297719139,-4.7213160435306,-3.24603444734682,-1.72769624391665,-2.01130992570986,-1.85745078722109,-0.666605297719137,-4.72132808366884,-3.24605828920473,0,0,0,0,0,0,0,0,0,0,0,0,-0.286914821023607,-0.782655550814712,0.230663646928533,2.96658629960679,-0.0812102690499988,-0.0348738152905294,-0.286912463834554,-0.7826333969809,0.230692515887576,2.96656517833713,-0.0811757579455608,-0.0348991741680705,0,0,0,0,0,0,0,0,0,0,0,0
2796.368,0.409716,8,0,7,1,1,0.1,0,0,0,0,0,0,0,0,0,0,6.46841181203715,-10.2131133387011,16.5116195446862,3.34115508985609,-0.544320144768802,-0.863295100741202,11,0,-1.72769624391665,-2.01136953035464,-1.85741502443422,-0.666605297719139,-4.7213160435306,-3.24603444734682,-1.72767240205874,-2.01134568849672,-1.85745078722109,-0.66661769548525,-4.7213160435306,-3.24604636827578,0,0,0,0,0,0,0,0,0,0,0,0,-0.286914821023607,-0.782655550814712,0.230663646928533,2.96658629960679,-0.0812102690499988,-0.0348738152905294,-0.286893126141495,-0.782643177426615,0.230661656917079,2.96661180748182,-0.0811575484150499,-0.034868021793358,0,0,0,0,0,0,0,0,0,0,0,0
2796.376,0.345636,8,0,7,1,1,0.1,0,0,0,0,0,0,0,0,0,0,7.50554876826273,-9.5199790029475,17.1314309198202,3.37352265946594,-0.470470315564623,-0.905921480223288,11,0,-1.72769624391665,-2.01136953035464,-1.85741502443422,-0.666605297719139,-4.7213160435306,-3.24603444734682,-1.72769624391665,-2.01132184663881,-1.85745078722109,-0.666605297719137,-4.7213160435306,-3.24604636827578,0,0,0,0,0,0,0,0,0,0,0,0,-0.286914821023607,-0.782655550814712,0.230663646928533,2.96658629960679,-0.0812102690499988,-0.0348738152905294,-0.286911557213355,-0.782634780740722,0.230682767793625,2.9665750840721,-0.0811921154746344,-0.0348777446030703,0,0,0,0,0,0,0,0,0,0,0,0
2796.384,0.370621,8,0,7,1,1,0.1,0,0,0,0,0,0,0,0,0,0,7.25800741972201,-9.53244155357862,17.29157437949,3.43443376138645,-0.431869696994066,-1.00080002720616,11,0,-1.72769624391665,-2.01136953035464,-1.85741502443422,-0.666605297719139,-4.7213160435306,-3.24603444734682,-1.72768432298769,-2.01133376756777,-1.85747558275332,-0.666605297719137,-4.7213400045978,-3.24603444734682,0,0,0,0,0,0,0,0,0,0,0,0,-0.286914821023607,-0.782655550814712,0.230663646928533,2.96658629960679,-0.0812102690499988,-0.0348738152905294,-0.286902866877938,-0.782628006431753,0.230659236506352,2.9666139768184,-0.0811962293151684,-0.034903425405199,0,0,0,0,0,0,0,0,0,0,0,0
2796.392,0.3426,8,0,7,1,1,0.1,0,0,0,0,0,0,0,0,0,0,6.87478535349268,-9.84376366396921,16.7568436617654,3.38170725003563,-0.475524433156157,-0.790147849308769,11,0,-1.72769624391665,-2.01136953035464,-1.85741502443422,-0.666605297719139,-4.7213160435306,-3.24603444734682,-1.72767240205874,-2.01132184663881,-1.8574631849872,-0.666605297719137,-4.7213160435306,-3.24605828920473,0,0,0,0,0,0,0,0,0,0,0,0,-0.286914821023607,-0.782655550814712,0.230663646928533,2.96658629960679,-0.0812102690499988,-0.0348738152905294,-0.28689203049825,-0.782636095205518,0.230675877509668,2.96658873669993,-0.0811393389979914,-0.0348740302208149,0,0,0,0,0,0,0,0,0,0,0,0
2796.4,0.340596,8,0,7,1,1,0.1,0,0,0,0,0,0,0,0,0,0,6.46977101904879,-10.7372107496943,16.1850039779109,3.30204011110926,-0.573914635006915,-0.943120734580073,11,0,-1.72769624391665,-2.01136953035464,-1.85741502443422,-0.666605297719139,-4.7213160435306,-3.24603444734682,-1.72763616243471,-2.01130992570986,-1.85745078722109,-0.666593376790182,-4.72125608125796,-3.24607021013369,0,0,0,0,0,0,0,0,0,0,0,0,-0.286914821023607,-0.782655550814712,0.230663646928533,2.96658629960679,-0.0812102690499988,-0.0348738152905294,-0.286859026883999,-0.782652511542805,0.230694072502848,2.96654780637619,-0.08105898822907,-0.0347891759584116,0,0,0,0,0,0,0,0,0,0,0,0
2796.408,0.354336,8,0,7,1,1,0.1,0,0,0,0,0,0,0,0,0,0,6.97314918657875,-9.45107420376454,17.0533480484994,3.30127876842902,-0.508267935612815,-0.897258808126772,11,0,-1.72769624391665,-2.01136953035464,-1.85741502443422,-0.666605297719139,-4.7213160435306,-3.24603444734682,-1.72769624391665,-2.01130992570986,-1.85743886629214,-0.66661769548525,-4.7213160435306,-3.24607021013369,0,0,0,0,0,0,0,0,0,0,0,0,-0.286914821023607,-0.782655550814712,0.230663646928533,2.96658629960679,-0.0812102690499988,-0.0348738152905294,-0.286912048139249,-0.782638027447047,0.230697529439978,2.96656491910536,-0.0811563513551871,-0.0348827689580951,0,0,0,0,0,0,0,0,0,0,0,0
2796.416,0.34356,8,0,7,1,1,0.1,0,0,0,0,0,0,0,0,0,0,7.26096362438612,-7.86247595440102,18.5623385946822,3.40869967071289,-0.535669338818278,-0.809122060025589,11,0,-1.72769624391665,-2.01136953035464,-1.85741502443422,-0.666605297719139,-4.7213160435306,-3.24603444734682,-1.72764856020083,-2.01133376756777,-1.85743886629214,-0.666629616414205,-4.72130412260164,-3.24607021013369,0,0,0,0,0,0,0,0,0,0,0,0,-0.286914821023607,-0.782655550814712,0.230663646928533,2.96658629960679,-0.0812102690499988,-0.0348738152905294,-0.286873876793726,-0.782653471615807,0.230676481453457,2.9666005738244,-0.0810847854135202,-0.0348525026515378,0,0,0,0,0,0,0,0,0,0,0,0
2796.424,0.340824,8,0,7,1,1,0.1,0,0,0,0,0,0,0,0,0,0,8.00119697808474,-7.65453268023156,18.649107144035,3.40026209812163,-0.337219996445925,-0.901142262579607,11,0,-1.72769624391665,-2.01136953035464,-1.85741502443422,-0.666605297719139,-4.7213160435306,-3.24603444734682,-1.72767240205874,-2.01134568849672,-1.85745078722109,-0.666581455861227,-4.72130412260164,-3.24603444734682,0,0,0,0,0,0,0,0,0,0,0,0,-0.286914821023607,-0.782655550814712,0.230663646928533,2.96658629960679,-0.0812102690499988,-0.0348738152905294,-0.286892485493105,-0.782645861787186,0.23066637210048,2.96657388668224,-0.0811731027275413,-0.0348556899498059,0,0,0,0,0,0,0,0,0,0,0,0
2796.432,0.352549,8,0,7,1,1,0.1,0,0,0,0,0,0,0,0,0,0,6.95838259670827,-11.146241495962,15.8916308365125,3.34105885321355,-0.410518570906891,-0.944163413595043,11,0,-1.72769624391665,-2.01136953035464,-1.85741502443422,-0.666605297719139,-4.7213160435306,-3.24603444734682,-1.72768432298769,-2.01130992570986,-1.85745078722109,-0.66661769548525,-4.7212920824634,-3.24604636827578,0,0,0,0,0,0,0,0,0,0,0,0,-0.286914821023607,-0.782655550814712,0.230663646928533,2.96658629960679,-0.0812102690499988,-0.0348738152905294,-0.286899701059015,-0.782636484775516,0.230690905968567,2.96657327038073,-0.081171028470165,-0.0348407819240648,0,0,0,0,0,0,0,0,0,0,0,0
2796.44,0.340188,8,0,7,1,1,0.1,0,0,0,0,0,0,0,0,0,0,7.35867338369417,-9.11994639954882,17.6007387335056,3.44745386679378,-0.410469164934791,-0.889706048471166,11,0,-1.72769624391665,-2.01136953035464,-1.85741502443422,-0.666605297719139,-4.7213160435306,-3.24603444734682,-1.72764856020083,-2.01132184663881,-1.85748750368227,-0.666581455861227,-4.7213160435306,-3.24607021013369,0,0,0,0,0,0,0,0,0,0,0,0,-0.286914821023607,-0.782655550814712,0.230663646928533,2.96658629960679,-0.0812102690499988,-0.0348738152905294,-0.286871963305462,-0.78263374704979,0.230665463612931,2.96659055496301,-0.0810864939221521,-0.0348726733229523,0,0,0,0,0,0,0,0,0,0,0,0
2796.448,0.3402,8,0,7,1,1,0.1,0,0,0,0,0,0,0,0,0,0,7.69887982390736,-8.90068490720271,17.6358523372516,3.42364354344945,-0.46478282565911,-0.87947155943485,11,0,-1.72769624391665,-2.01136953035464,-1.85741502443422,-0.666605297719139,-4.7213160435306,-3.24603444734682,-1.72766048112978,-2.01132184663881,-1.85742694536318,-0.666581455861227,-4.7212920824634,-3.24608236948122,0,0,0,0,0,0,0,0,0,0,0,0,-0.286914821023607,-0.782655550814712,0.230663646928533,2.96658629960679,-0.0812102690499988,-0.0348738152905294,-0.286883344991385,-0.782657668790966,0.230699122015967,2.96652796833886,-0.0810815540907492,-0.0348511284449628,0,0,0,0,0,0,0,0,0,0,0,0
2796.456,0.34812,8,0,7,1,1,0.1,0,0,0,0,0,0,0,0,0,0,7.12561436769404,-10.5451313801639,16.4421011224076,3.41277818314041,-0.496295682668517,-0.902462408301695,11,0,-1.72769624391665,-2.01136953035464,-1.85741502443422,-0.666605297719139,-4.7213160435306,-3.24603444734682,-1.72766048112978,-2.01134568849672,-1.8574631849872,-0.666569534932272,-4.72130412260164,-3.24604636827578,0,0,0,0,0,0,0,0,0,0,0,0,-0.286914821023607,-0.782655550814712,0.230663646928533,2.96658629960679,-0.0812102690499988,-0.0348738152905294,-0.286882435065431,-0.782644581483161,0.230661032673805,2.9665753360002,-0.0811378461736376,-0.0348557405225924,0,0,0,0,0,0,0,0,0,0,0,0
2796.464,0.410748,8,0,7,1,1,0.1,0,0,0,0,0,0,0,0,0,0,7.8841149295224,-7.45941713755847,19.2090927109518,3.49905714756272,-0.467653046985985,-0.967628625437712,11,0,-1.72769624391665,-2.01136953035464,-1.85741502443422,-0.666605297719139,-4.7213160435306,-3.24603444734682,-1.72767240205874,-2.01134568849672,-1.85740310350527,-0.666569534932272,-4.7213400045978,-3.24604636827578,0,0,0,0,0,0,0,0,0,0,0,0,-0.286914821023607,-0.782655550814712,0.230663646928533,2.96658629960679,-0.0812102690499988,-0.0348738152905294,-0.28689923700092,-0.782667415709778,0.230694421383061,2.9665192191551,-0.0811590863688328,-0.0349206311074758,0,0,0,0,0,0,0,0,0,0,0,0
2796.472,0.344737,8,0,7,1,1,0.1,0,0,0,0,0,0,0,0,0,0,8.27156012797272,-8.6282466256146,18.0247667370131,3.43206982777961,-0.389419636037592,-0.892953520764207,11,0,-1.72769624391665,-2.01136953035464,-1.85741502443422,-0.666605297719139,-4.7213160435306,-3.24603444734682,-1.72766048112978,-2.01132184663881,-1.85745078722109,-0.66661769548525,-4.7213160435306,-3.24608236948122,0,0,0,0,0,0,0,0,0,0,0,0,-0.286914821023607,-0.782655550814712,0.230663646928533,2.96658629960679,-0.0812102690499988,-0.0348738152905294,-0.286883415387205,-0.782644182291845,0.230681155018819,2.96659031292263,-0.0810858408540009,-0.0348754631566009,0,0,0,0,0,0,0,0,0,0,0,0
2796.48,0.3531,8,0,7,1,1,0.1,0,0,0,0,0,0,0,0,0,0,7.63318236581995,-9.04276999992103,17.8404695269586,3.42266080351122,-0.525773650670621,-0.86882844200452,11,0,-1.72769624391665,-2.01136953035464,-1.85741502443422,-0.666605297719139,-4.7213160435306,-3.24603444734682,-1.72768432298769,-2.01132184663881,-1.85745078722109,-0.666605297719137,-4.72130412260164,-3.24604636827578,0,0,0,0,0,0,0,0,0,0,0,0,-0.286914821023607,-0.782655550814712,0.230663646928533,2.96658629960679,-0.0812102690499988,-0.0348738152905294,-0.286901141175012,-0.782638375198995,0.230682768742662,2.96657412849503,-0.0811728090853189,-0.0348586543671226,0,0,0,0,0,0,0,0,0,0,0,0
2796.488,0.358368,8,0,7,1,1,0.1,0,0,0,0,0,0,0,0,0,0,5.98239019750019,-9.56155615324003,16.9546812013733,3.32118973628378,-0.609972989281026,-0.937623879930383,11,0,-1.72769624391665,-2.01136953035464,-1.85741502443422,-0.666605297719139,-4.7213160435306,-3.24603444734682,-1.72766048112978,-2.01130992570986,-1.85742694536318,-0.666593376790182,-4.72132808366884,-3.24609429041018,0,0,0,0,0,0,0,0,0,0,0,0,-0.286914821023607,-0.782655550814712,0.230663646928533,2.96658629960679,-0.0812102690499988,-0.0348738152905294,-0.286886288507279,-0.782655109072519,0.230707317541786,2.96653255176801,-0.0810686215243368,-0.0349056067272729,0,0,0,0,0,0,0,0,0,0,0,0
2796.496,0.341448,8,0,7,1,1,0.1,0,0,0,0,0,0,0,0,0,0,6.79462337882835,-10.0480473317259,16.7710766397016,3.36694399641048,-0.502816057846919,-0.928860984235218,11,0,-1.72769624391665,-2.01136953035464,-1.85741502443422,-0.666605297719139,-4.7213160435306,-3.24603444734682,-1.72769624391665,-2.01130992570986,-1.85742694536318,-0.66661769548525,-4.7213160435306,-3.24607021013369,0,0,0,0,0,0,0,0,0,0,0,0,-0.286914821023607,-0.782655550814712,0.230663646928533,2.96658629960679,-0.0812102690499988,-0.0348738152905294,-0.286912882046374,-0.782643340496328,0.230704154896241,2.96655306988609,-0.0811560884300061,-0.0348848583422048,0,0,0,0,0,0,0,0,0,0,0,0
2796.504,0.36024,8,0,7,1,1,0.1,0,0,0,0,0,0,0,0,0,0,6.52295224608489,-10.9344907928739,15.8135219644279,3.26596391955603,-0.56912436907451,-0.828039690460866,11,0,-1.72769624391665,-2.01136953035464,-1.85741502443422,-0.666605297719139,-4.7213160435306,-3.24603444734682,-1.72773248354067,-2.01130992570986,-1.85747558275332,-0.66661769548525,-4.72130412260164,-3.24605828920473,0,0,0,0,0,0,0,0,0,0,0,0,-0.286914821023607,-0.782655550814712,0.230663646928533,2.96658629960679,-0.0812102690499988,-0.0348738152905294,-0.286936755081458,-0.782611439072762,0.230677124386411,2.9665983904539,-0.0812269838242452,-0.0348619295692774,0,0,0,0,0,0,0,0,0,0,0,0
2796.512,0.344028,8,0,7,1,1,0.1,0,0,0,0,0,0,0,0,0,0,6.93995579658539,-10.1401835443463,16.642281409865,3.32465275909105,-0.510024589218866,-0.926346627656087,11,0,-1.72769624391665,-2.01136953035464,-1.85741502443422,-0.666605297719139,-4.7213160435306,-3.24603444734682,-1.72768432298769,-2.01132184663881,-1.85743886629214,-0.666605297719137,-4.72130412260164,-3.24607021013369,0,0,0,0,0,0,0,0,0,0,0,0,-0.286914821023607,-0.782655550814712,0.230663646928533,2.96658629960679,-0.0812102690499988,-0.0348738152905294,-0.286901975040069,-0.782643688395335,0.230689394081181,2.96656349047801,-0.0811371884736973,-0.0348638271612092,0,0,0,0,0,0,0,0,0,0,0,0
2796.52,0.338988,8,0,7,1,1,0.1,0,0,0,0,0,0,0,0,0,0,6.71790595914684,-10.7850405769704,15.7693272385365,3.24348904529749,-0.598675918852481,-0.937380808487383,11,0,-1.72769624391665,-2.01136953035464,-1.85741502443422,-0.666605297719139,-4.7213160435306,-3.24603444734682,-1.72766048112978,-2.01134568849672,-1.8574631849872,-0.666581455861227,-4.72132808366884,-3.24604636827578,0,0,0,0,0,0,0,0,0,0,0,0,-0.286914821023607,-0.782655550814712,0.230663646928533,2.96658629960679,-0.0812102690499988,-0.0348738152905294,-0.286884471926122,-0.782643405588098,0.230659480034865,2.96658982530228,-0.0811412696083729,-0.0348887901658515,0,0,0,0,0,0,0,0,0,0,0,0
2796.528,0.339528,8,0,7,1,1,0.1,0,0,0,0,0,0,0,0,0,0,6.59703658362785,-11.1543971584841,15.6982981357004,3.31255760836324,-0.457213893679962,-0.877716110726359,11,0,-1.72769624391665,-2.01136953035464,-1.85741502443422,-0.666605297719139,-4.7213160435306,-3.24603444734682,-1.72768432298769,-2.01136953035464,-1.85743886629214,-0.666581455861227,-4.7213160435306,-3.24602228799929,0,0,0,0,0,0,0,0,0,0,0,0,-0.286914821023607,-0.782655550814712,0.230663646928533,2.96658629960679,-0.0812102690499988,-0.0348738152905294,-0.286904116434274,-0.782649995671127,0.230653498032671,2.96658605944721,-0.0812108104578943,-0.0348709695129029,0,0,0,0,0,0,0,0,0,0,0,0
2796.536,0.347928,8,0,7,1,1,0.1,0,0,0,0,0,0,0,0,0,0,7.79266234713736,-10.1323223656731,16.5650288869701,3.29704733483722,-0.371108370159128,-0.94990633527848,11,0,-1.72769624391665,-2.01136953035464,-1.85741502443422,-0.666605297719139,-4.7213160435306,-3.24603444734682,-1.7277081648456,-2.0112980047809,-1.85745078722109,-0.666593376790182,-4.7213160435306,-3.24609429041018,0,0,0,0,0,0,0,0,0,0,0,0,-0.286914821023607,-0.782655550814712,0.230663646928533,2.96658629960679,-0.0812102690499988,-0.0348738152905294,-0.286920652441951,-0.782629770458108,0.230703816633045,2.96654163147124,-0.0811379349617463,-0.0348920363513401,0,0,0,0,0,0,0,0,0,0,0,0
2796.544,0.3402,8,0,7,1,1,0.1,0,0,0,0,0,0,0,0,0,0,7.68637017244235,-7.68094145743693,18.6461725236493,3.43905430501864,-0.486198938276163,-0.876297101771541,11,0,-1.72769624391665,-2.01136953035464,-1.85741502443422,-0.666605297719139,-4.7213160435306,-3.24603444734682,-1.72768432298769,-2.01134568849672,-1.85743886629214,-0.666593376790182,-4.72132808366884,-3.24605828920473,0,0,0,0,0,0,0,0,0,0,0,0,-0.286914821023607,-0.782655550814712,0.230663646928533,2.96658629960679,-0.0812102690499988,-0.0348738152905294,-0.286904686058101,-0.782646579097949,0.230671444681054,2.96657737644617,-0.0811585912849384,-0.0348954535076104,0,0,0,0,0,0,0,0,0,0,0,0
2796.552,0.339684,8,0,7,1,1,0.1,0,0,0,0,0,0,0,0,0,0,8.14587456086077,-8.47448369413714,18.3459175940954,3.47951887787737,-0.483158338453242,-0.964421896372861,11,0,-1.72769624391665,-2.01136953035464,-1.85741502443422,-0.666605297719139,-4.7213160435306,-3.24603444734682,-1.72766048112978,-2.01134568849672,-1.85745078722109,-0.666593376790182,-4.721363965665,-3.24601036707033,0,0,0,0,0,0,0,0,0,0,0,0,-0.286914821023607,-0.782655550814712,0.230663646928533,2.96658629960679,-0.0812102690499988,-0.0348738152905294,-0.286888462192845,-0.782647581391838,0.230664816721696,2.96659147799152,-0.0811994307023639,-0.0349369055818203,0,0,0,0,0,0,0,0,0,0,0,0
2796.56,0.370513,8,0,7,1,1,0.1,0,0,0,0,0,0,0,0,0,0,6.8431465371262,-9.92714522817845,16.8842629860683,3.41638672177605,-0.407021189747858,-0.86062669475763,11,0,-1.72769624391665,-2.01136953035464,-1.85741502443422,-0.666605297719139,-4.7213160435306,-3.24603444734682,-1.72767240205874,-2.01130992570986,-1.85745078722109,-0.666605297719137,-4.72130412260164,-3.24603444734682,0,0,0,0,0,0,0,0,0,0,0,0,-0.286914821023607,-0.782655550814712,0.230663646928533,2.96658629960679,-0.0812102690499988,-0.0348738152905294,-0.286891620883427,-0.782640587526723,0.230692517782094,2.96656204247366,-0.0811724864195196,-0.0348577345321693,0,0,0,0,0,0,0,0,0,0,0,0
2796.568,0.409776,8,0,7,1,1,0.1,0,0,0,0,0,0,0,0,0,0,7.19745874125787,-8.98013057547323,17.6355245804096,3.40795110977012,-0.459601379384079,-0.937564146962048,11,0,-1.72769624391665,-2.01136953035464,-1.85741502443422,-0.666605297719139,-4.7213160435306,-3.24603444734682,-1.72767240205874,-2.01133376756777,-1.85745078722109,-0.666593376790182,-4.7213160435306,-3.24605828920473,0,0,0,0,0,0,0,0,0,0,0,0,-0.286914821023607,-0.782655550814712,0.230663646928533,2.96658629960679,-0.0812102690499988,-0.0348738152905294,-0.286893234729644,-0.78264365432886,0.230674569484852,2.96657641445232,-0.0811392157864688,-0.0348762624066689,0,0,0,0,0,0,0,0,0,0,0,0
2796.576,0.343488,8,0,7,1,1,0.1,0,0,0,0,0,0,0,0,0,0,7.34950097945776,-9.80829938987008,16.8548510767516,3.32147120222022,-0.524177358995974,-0.86625554151709,11,0,-1.72769624391665,-2.01136953035464,-1.85741502443422,-0.666605297719139,-4.7213160435306,-3.24603444734682,-1.72767240205874,-2.01133376756777,-1.85748750368227,-0.666593376790182,-4.7213160435306,-3.24608236948122,0,0,0,0,0,0,0,0,0,0,0,0,-0.286914821023607,-0.782655550814712,0.230663646928533,2.96658629960679,-0.0812102690499988,-0.0348738152905294,-0.286890666516662,-0.782627288978957,0.23065416401202,2.9666141330943,-0.0811043136687188,-0.0348729414998135,0,0,0,0,0,0,0,0,0,0,0,0
2796.584,0.376164,8,0,7,1,1,0.1,0,0,0,0,0,0,0,0,0,0,7.24222152521443,-8.22345312840998,18.1758250726487,3.4279515309618,-0.446181747812666,-0.969294361484727,11,0,-1.72769624391665,-2.01136953035464,-1.85741502443422,-0.666605297719139,-4.7213160435306,-3.24603444734682,-1.72766048112978,-2.01132184663881,-1.8574631849872,-0.666581455861227,-4.72132808366884,-3.24609429041018,0,0,0,0,0,0,0,0,0,0,0,0,-0.286914821023607,-0.782655550814712,0.230663646928533,2.96658629960679,-0.0812102690499988,-0.0348738152905294,-0.286884091034035,-0.782640990527628,0.230678978063957,2.9665685744533,-0.0810695695867498,-0.034899315068396,0,0,0,0,0,0,0,0,0,0,0,0
2796.592,0.342324,8,0,7,1,1,0.1,0,0,0,0,0,0,0,0,0,0,6.92328138537236,-9.80187106491451,17.1420197012279,3.32831509579885,-0.569214705475181,-0.88744201863388,11,0,-1.72769624391665,-2.01136953035464,-1.85741502443422,-0.666605297719139,-4.7213160435306,-3.24603444734682,-1.72767240205874,-2.01132184663881,-1.85745078722109,-0.666605297719137,-4.7213400045978,-3.24605828920473,0,0,0,0,0,0,0,0,0,0,0,0,-0.286914821023607,-0.782655550814712,0.230663646928533,2.96658629960679,-0.0812102690499988,-0.0348738152905294,-0.286895081099194,-0.78264127077619,0.230682765925113,2.96657906147553,-0.0811423235759549,-0.034911475500642,0,0,0,0,0,0,0,0,0,0,0,0
2796.6,0.345769,8,0,7,1,1,0.1,0,0,0,0,0,0,0,0,0,0,7.42701091409626,-10.9551689085894,15.9922654207004,3.33158144954512,-0.254723231351634,-0.971089174358125,11,0,-1.72769624391665,-2.01136953035464,-1.85741502443422,-0.666605297719139,-4.7213160435306,-3.24603444734682,-1.72767240205874,-2.01134568849672,-1.85740310350527,-0.666605297719137,-4.72128016153444,-3.24605828920473,0,0,0,0,0,0,0,0,0,0,0,0,-0.286914821023607,-0.782655550814712,0.230663646928533,2.96658629960679,-0.0812102690499988,-0.0348738152905294,-0.286893344111058,-0.782665813630456,0.230689773793123,2.96654873508476,-0.0811337663059794,-0.0348274112161399,0,0,0,0,0,0,0,0,0,0,0,0
2796.608,0.35442,8,0,7,1,1,0.1,0,0,0,0,0,0,0,0,0,0,6.62958817698443,-9.57066545829749,17.5752821431508,3.48716968244745,-0.577769807796759,-0.948015991904283,11,0,-1.72769624391665,-2.01136953035464,-1.85741502443422,-0.666605297719139,-4.7213160435306,-3.24603444734682,-1.72772008577456,-2.01132184663881,-1.85743886629214,-0.666605297719137,-4.72132808366884,-3.24604636827578,0,0,0,0,0,0,0,0,0,0,0,0,-0.286914821023607,-0.782655550814712,0.230663646928533,2.96658629960679,-0.0812102690499988,-0.0348738152905294,-0.28693214779464,-0.782633077134412,0.230689392186544,2.96656384139802,-0.081228860494188,-0.0349006413309683,0,0,0,0,0,0,0,0,0,0,0,0
2796.616,0.342624,8,0,7,1,1,0.1,0,0,0,0,0,0,0,0,0,0,7.51465379344142,-8.51016296487895,18.2977772517565,3.42844939763512,-0.464556663325107,-0.908536853375012,11,0,-1.72769624391665,-2.01136953035464,-1.85741502443422,-0.666605297719139,-4.7213160435306,-3.24603444734682,-1.72769624391665,-2.0112980047809,-1.85743886629214,-0.666569534932272,-4.7213160435306,-3.24607021013369,0,0,0,0,0,0,0,0,0,0,0,0,-0.286914821023607,-0.782655550814712,0.230663646928533,2.96658629960679,-0.0812102690499988,-0.0348738152905294,-0.286912449833542,-0.782640154919414,0.230713543710042,2.96650523788653,-0.081155366218605,-0.0348939157772645,0,0,0,0,0,0,0,0,0,0,0,0
2796.624,0.340548,8,0,7,1,1,0.1,0,0,0,0,0,0,0,0,0,0,7.05278720458833,-8.43185740771228,18.2332103394713,3.42349095492726,-0.621290115278879,-0.881070109234539,11,0,-1.72769624391665,-2.01136953035464,-1.85741502443422,-0.666605297719139,-4.7213160435306,-3.24603444734682,-1.7277081648456,-2.01133376756777,-1.85745078722109,-0.66664153734316,-4.7213400045978,-3.24601036707033,0,0,0,0,0,0,0,0,0,0,0,0,-0.286914821023607,-0.782655550814712,0.230663646928533,2.96658629960679,-0.0812102690499988,-0.0348738152905294,-0.286922815132234,-0.782629707580527,0.230668302667112,2.96662337926444,-0.0812672694271945,-0.034900981452213,0,0,0,0,0,0,0,0,0,0,0,0
2796.632,0.350748,8,0,7,1,1,0.1,0,0,0,0,0,0,0,0,0,0,7.03564551547086,-8.79928193148672,17.3687037173304,3.27231236280371,-0.478764188987804,-0.901617772636406,11,0,-1.72769624391665,-2.01136953035464,-1.85741502443422,-0.666605297719139,-4.7213160435306,-3.24603444734682,-1.72768432298769,-2.01132184663881,-1.8574631849872,-0.66661769548525,-4.72132808366884,-3.24604636827578,0,0,0,0,0,0,0,0,0,0,0,0,-0.286914821023607,-0.782655550814712,0.230663646928533,2.96658629960679,-0.0812102690499988,-0.0348738152905294,-0.286902304908692,-0.782631640402611,0.230674263800334,2.96660141486057,-0.0811765127395774,-0.0348894422083615,0,0,0,0,0,0,0,0,0,0,0,0
2796.64,0.341052,8,0,7,1,1,0.1,0,0,0,0,0,0,0,0,0,0,6.8999106002678,-9.62918913843866,16.6843411680109,3.27429160762323,-0.460790367875441,-0.962246359363817,11,0,-1.72769624391665,-2.01136953035464,-1.85741502443422,-0.666605297719139,-4.7213160435306,-3.24603444734682,-1.72767240205874,-2.01135760942568,-1.85743886629214,-0.666581455861227,-4.7212920824634,-3.24609429041018,0,0,0,0,0,0,0,0,0,0,0,0,-0.286914821023607,-0.782655550814712,0.230663646928533,2.96658629960679,-0.0812102690499988,-0.0348738152905294,-0.28689241262271,-0.782652558616947,0.230663249135121,2.96657558799162,-0.08108277082133,-0.0348456307592186,0,0,0,0,0,0,0,0,0,0,0,0
2796.648,0.340777,8,0,7,1,1,0.1,0,0,0,0,0,0,0,0,0,0,8.11834897667403,-9.73833923254247,16.8916727941592,3.25125735190422,-0.368284334451456,-0.948944754795458,11,0,-1.72769624391665,-2.01136953035464,-1.85741502443422,-0.666605297719139,-4.7213160435306,-3.24603444734682,-1.72767240205874,-2.01133376756777,-1.8574631849872,-0.666581455861227,-4.72128016153444,-3.24605828920473,0,0,0,0,0,0,0,0,0,0,0,0,-0.286914821023607,-0.782655550814712,0.230663646928533,2.96658629960679,-0.0812102690499988,-0.0348738152905294,-0.286889244418836,-0.782639478608235,0.23066923289725,2.96657293018982,-0.0811344447409373,-0.0348234919216757,0,0,0,0,0,0,0,0,0,0,0,0
2796.656,0.348468,8,0,7,1,1,0.1,0,0,0,0,0,0,0,0,0,0,7.57470769802361,-9.71902841495597,16.760893633609,3.33616521635183,-0.478863258658208,-0.874577798011184,11,0,-1.72769624391665,-2.01136953035464,-1.85741502443422,-0.666605297719139,-4.7213160435306,-3.24603444734682,-1.7277081648456,-2.01132184663881,-1.8574631849872,-0.666605297719137,-4.72130412260164,-3.24603444734682,0,0,0,0,0,0,0,0,0,0,0,0,-0.286914821023607,-0.782655550814712,0.230663646928533,2.96658629960679,-0.0812102690499988,-0.0348738152905294,-0.28691893328246,-0.782626008933961,0.230675878458614,2.96658512158697,-0.0812261327265845,-0.0348580232243229,0,0,0,0,0,0,0,0,0,0,0,0
2796.664,0.412524,8,0,7,1,1,0.1,0,0,0,0,0,0,0,0,0,0,6.91015290030596,-9.73912762806019,16.8553422129099,3.31565858558278,-0.564248758952318,-0.859168410589462,11,0,-1.72769624391665,-2.01136953035464,-1.85741502443422,-0.666605297719139,-4.7213160435306,-3.24603444734682,-1.72766048112978,-2.01133376756777,-1.85743886629214,-0.666581455861227,-4.7213400045978,-3.24605828920473,0,0,0,0,0,0,0,0,0,0,0,0,-0.286914821023607,-0.782655550814712,0.230663646928533,2.96658629960679,-0.0812102690499988,-0.0348738152905294,-0.286887068629536,-0.782652863003141,0.230682743665751,2.96655573332103,-0.0811243602912441,-0.0349143051615812,0,0,0,0,0,0,0,0,0,0,0,0
2796.672,0.345348,8,0,7,1,1,0.1,0,0,0,0,0,0,0,0,0,0,7.59765832739159,-7.9557233398624,18.5930902891975,3.51668962556981,-0.445510743512518,-0.885622974057607,11,0,-1.72769624391665,-2.01136953035464,-1.85741502443422,-0.666605297719139,-4.7213160435306,-3.24603444734682,-1.72767240205874,-2.01130992570986,-1.85743886629214,-0.666593376790182,-4.72132808366884,-3.24608236948122,0,0,0,0,0,0,0,0,0,0,0,0,-0.286914821023607,-0.782655550814712,0.230663646928533,2.96658629960679,-0.0812102690499988,-0.0348738152905294,-0.28689478468807,-0.782646376033992,0.230700692065226,2.96654343439259,-0.0811042479538609,-0.0349035175443612,0,0,0,0,0,0,0,0,0,0,0,0
2796.68,0.352608,8,0,7,1,1,0.1,0,0,0,0,0,0,0,0,0,0,6.97173985806242,-9.66981178268042,17.1270319370257,3.40136410185275,-0.578455962750039,-0.887683018023758,11,0,-1.72769624391665,-2.01136953035464,-1.85741502443422,-0.666605297719139,-4.7213160435306,-3.24603444734682,-1.7277081648456,-2.01132184663881,-1.85743886629214,-0.666581455861227,-4.7212681213962,-3.24607021013369,0,0,0,0,0,0,0,0,0,0,0,0,-0.286914821023607,-0.782655550814712,0.230663646928533,2.96658629960679,-0.0812102690499988,-0.0348738152905294,-0.286917647291848,-0.78263902548224,0.230692498566242,2.96653510407665,-0.0811673316437205,-0.0348183624096279,0,0,0,0,0,0,0,0,0,0,0,0
2796.688,0.357829,8,0,7,1,1,0.1,0,0,0,0,0,0,0,0,0,0,6.81219276564414,-9.0158031096459,17.3477718004511,3.37261905860089,-0.488564569061255,-0.931559141852545,11,0,-1.72769624391665,-2.01136953035464,-1.85741502443422,-0.666605297719139,-4.7213160435306,-3.24603444734682,-1.72769624391665,-2.01130992570986,-1.85745078722109,-0.666581455861227,-4.72132808366884,-3.24605828920473,0,0,0,0,0,0,0,0,0,0,0,0,-0.286914821023607,-0.782655550814712,0.230663646928533,2.96658629960679,-0.0812102690499988,-0.0348738152905294,-0.286912757036489,-0.782635048234426,0.230695617427972,2.96654149565587,-0.0811754266639528,-0.0349036208319886,0,0,0,0,0,0,0,0,0,0,0,0
2796.696,0.347136,8,0,7,1,1,0.1,0,0,0,0,0,0,0,0,0,0,7.22476974953572,-10.1607186238683,16.8645237389403,3.44860650114623,-0.446411960002671,-0.940970588876034,11,0,-1.72769624391665,-2.01136953035464,-1.85741502443422,-0.666605297719139,-4.7213160435306,-3.24603444734682,-1.72764856020083,-2.01132184663881,-1.8574631849872,-0.666593376790182,-4.72130412260164,-3.24607021013369,0,0,0,0,0,0,0,0,0,0,0,0,-0.286914821023607,-0.782655550814712,0.230663646928533,2.96658629960679,-0.0812102690499988,-0.0348738152905294,-0.286872431196398,-0.782643934925185,0.230677429203416,2.96657690632082,-0.0810845026828502,-0.0348571632190951,0,0,0,0,0,0,0,0,0,0,0,0
2796.704,0.35346,8,0,7,1,1,0.1,0,0,0,0,0,0,0,0,0,0,6.81330293990572,-11.2664767136575,15.9695622899017,3.39523049207759,-0.383679646334445,-1.00802532799821,11,0,-1.72769624391665,-2.01136953035464,-1.85741502443422,-0.666605297719139,-4.7213160435306,-3.24603444734682,-1.7277081648456,-2.01130992570986,-1.85741502443422,-0.666593376790182,-4.72130412260164,-3.24601036707033,0,0,0,0,0,0,0,0,0,0,0,0,-0.286914821023607,-0.782655550814712,0.230663646928533,2.96658629960679,-0.0812102690499988,-0.0348738152905294,-0.286922258615133,-0.782647091622931,0.230713944977492,2.96651234277184,-0.0812602971874452,-0.0348677357504724,0,0,0,0,0,0,0,0,0,0,0,0
2796.712,0.343224,8,0,7,1,1,0.1,0,0,0,0,0,0,0,0,0,0,7.07045887075037,-9.95028961858854,16.6929674322882,3.33383973256068,-0.396303713346261,-0.831329675966988,11,0,-1.72769624391665,-2.01136953035464,-1.85741502443422,-0.666605297719139,-4.7213160435306,-3.24603444734682,-1.72767240205874,-2.01134568849672,-1.85745078722109,-0.666581455861227,-4.7212920824634,-3.24608236948122,0,0,0,0,0,0,0,0,0,0,0,0,-0.286914821023607,-0.782655550814712,0.230663646928533,2.96658629960679,-0.0812102690499988,-0.0348738152905294,-0.286891388343503,-0.782646037776227,0.230666373072042,2.96657498976853,-0.0811003967537212,-0.0348441636588003,0,0,0,0,0,0,0,0,0,0,0,0
2796.72,0.341196,8,0,7,1,1,0.1,0,0,0,0,0,0,0,0,0,0,6.36249440475318,-10.8728617515291,16.1186852577478,3.30226166191701,-0.586986848811548,-0.969805821102991,11,0,-1.72769624391665,-2.01136953035464,-1.85741502443422,-0.666605297719139,-4.7213160435306,-3.24603444734682,-1.72767240205874,-2.01133376756777,-1.85741502443422,-0.666581455861227,-4.72130412260164,-3.24602228799929,0,0,0,0,0,0,0,0,0,0,0,0,-0.286914821023607,-0.782655550814712,0.230663646928533,2.96658629960679,-0.0812102690499988,-0.0348738152905294,-0.286894796418939,-0.782660593744402,0.230695997264564,2.96652587880097,-0.0811900295552341,-0.034862547400851,0,0,0,0,0,0,0,0,0,0,0,0
2796.728,0.341016,8,0,7,1,1,0.1,0,0,0,0,0,0,0,0,0,0,8.66999351646042,-7.79683431980413,18.9473913759041,3.46496380107475,-0.547272412058212,-0.895008809286735,11,0,-1.72769624391665,-2.01136953035464,-1.85741502443422,-0.666605297719139,-4.7213160435306,-3.24603444734682,-1.72768432298769,-2.01132184663881,-1.8574631849872,-0.666593376790182,-4.7212920824634,-3.24602228799929,0,0,0,0,0,0,0,0,0,0,0,0,-0.286914821023607,-0.782655550814712,0.230663646928533,2.96658629960679,-0.0812102690499988,-0.0348738152905294,-0.286899323393645,-0.782633851069052,0.23067743017495,2.96657205598616,-0.0812069909820419,-0.0348378666422659,0,0,0,0,0,0,0,0,0,0,0,0
2796.736,0.348888,8,0,7,1,1,0.1,0,0,0,0,0,0,0,0,0,0,7.97003198639079,-9.7348408150827,17.2083046450098,3.43114614804005,-0.415852177156029,-0.974623705466074,11,0,-1.72769624391665,-2.01136953035464,-1.85741502443422,-0.666605297719139,-4.7213160435306,-3.24603444734682,-1.72768432298769,-2.0112980047809,-1.85742694536318,-0.66661769548525,-4.72130412260164,-3.24603444734682,0,0,0,0,0,0,0,0,0,0,0,0,-0.286914821023607,-0.782655550814712,0.230663646928533,2.96658629960679,-0.0812102690499988,-0.0348738152905294,-0.286902275357027,-0.782645726975985,0.230713904988173,2.96653845470298,-0.0811895019864885,-0.0348633060118652,0,0,0,0,0,0,0,0,0,0,0,0
2796.744,0.341952,8,0,7,1,1,0.1,0,0,0,0,0,0,0,0,0,0,7.25337075297034,-9.98665224981924,16.5493518032538,3.27160412019995,-0.488795048754708,-0.842340428006609,11,0,-1.72769624391665,-2.01136953035464,-1.85741502443422,-0.666605297719139,-4.7213160435306,-3.24603444734682,-1.72768432298769,-2.0112980047809,-1.8574631849872,-0.666593376790182,-4.7213400045978,-3.24603444734682,0,0,0,0,0,0,0,0,0,0,0,0,-0.286914821023607,-0.782655550814712,0.230663646928533,2.96658629960679,-0.0812102690499988,-0.0348738152905294,-0.286903309239399,-0.782630735058542,0.230696924336907,2.96655428521613,-0.0811948430239276,-0.0349143113512237,0,0,0,0,0,0,0,0,0,0,0,0
2796.752,0.341016,8,0,7,1,1,0.1,0,0,0,0,0,0,0,0,0,0,6.85550770014963,-8.80739195525311,17.8795039386682,3.40054817682198,-0.483718696295027,-1.04827314848478,11,0,-1.72769624391665,-2.01136953035464,-1.85741502443422,-0.666605297719139,-4.7213160435306,-3.24603444734682,-1.72769624391665,-2.0112980047809,-1.85743886629214,-0.666581455861227,-4.7213160435306,-3.24608236948122,0,0,0,0,0,0,0,0,0,0,0,0,-0.286914821023607,-0.782655550814712,0.230663646928533,2.96658629960679,-0.0812102690499988,-0.0348738152905294,-0.286912303242502,-0.782639329356484,0.230711992904872,2.96651769697948,-0.0811374998367749,-0.0348932653734191,0,0,0,0,0,0,0,0,0,0,0,0
2796.76,0.359772,8,0,7,1,1,0.1,0,0,0,0,0,0,0,0,0,0,7.70588968761161,-8.53972100271096,18.0269203193686,3.4226123789142,-0.460802995501501,-0.995240896078268,11,0,-1.72769624391665,-2.01136953035464,-1.85741502443422,-0.666605297719139,-4.7213160435306,-3.24603444734682,-1.72767240205874,-2.01133376756777,-1.85745078722109,-0.666593376790182,-4.7212920824634,-3.24604636827578,0,0,0,0,0,0,0,0,0,0,0,0,-0.286914821023607,-0.782655550814712,0.230663646928533,2.96658629960679,-0.0812102690499988,-0.0348738152905294,-0.286891051293627,-0.782644004566542,0.230674571405453,2.96657316060519,-0.0811536366598004,-0.0348394481418338,0,0,0,0,0,0,0,0,0,0,0,0
2796.768,0.414432,8,0,7,1,1,0.1,0,0,0,0,0,0,0,0,0,0,8.54061978379724,-7.49834453551076,19.3999956102245,3.52888667443841,-0.40198244201752,-0.922191701342086,11,0,-1.72769624391665,-2.01136953035464,-1.85741502443422,-0.666605297719139,-4.7213160435306,-3.24603444734682,-1.72769624391665,-2.01133376756777,-1.85742694536318,-0.666605297719137,-4.72128016153444,-3.24603444734682,0,0,0,0,0,0,0,0,0,0,0,0,-0.286914821023607,-0.782655550814712,0.230663646928533,2.96658629960679,-0.0812102690499988,-0.0348738152905294,-0.286910145877709,-0.782647139376484,0.230686272248491,2.9665586559953,-0.08120470484909,-0.0348253965441603,0,0,0,0,0,0,0,0,0,0,0,0
2796.776,0.344293,8,0,7,1,1,0.1,0,0,0,0,0,0,0,0,0,0,6.91305960902333,-9.30049355372041,17.3095799849388,3.35071307515616,-0.710688695279779,-0.949620222177017,11,0,-1.72769624391665,-2.01136953035464,-1.85741502443422,-0.666605297719139,-4.7213160435306,-3.24603444734682,-1.7277081648456,-2.0112980047809,-1.85745078722109,-0.66661769548525,-4.7213160435306,-3.24602228799929,0,0,0,0,0,0,0,0,0,0,0,0,-0.286914821023607,-0.782655550814712,0.230663646928533,2.96658629960679,-0.0812102690499988,-0.0348738152905294,-0.286920353355826,-0.782628086182106,0.23070065306226,2.96656212812381,-0.0812450524985042,-0.034878187358731,0,0,0,0,0,0,0,0,0,0,0,0
2796.784,0.380136,8,0,7,1,1,0.1,0,0,0,0,0,0,0,0,0,0,7.49096966417068,-7.86640659830105,18.661130093927,3.42792350609921,-0.49110451676244,-0.990274912387839,11,0,-1.72769624391665,-2.01136953035464,-1.85741502443422,-0.666605297719139,-4.7213160435306,-3.24603444734682,-1.72767240205874,-2.01128608385195,-1.8574631849872,-0.666581455861227,-4.7213400045978,-3.24602228799929,0,0,0,0,0,0,0,0,0,0,0,0,-0.286914821023607,-0.782655550814712,0.230663646928533,2.96658629960679,-0.0812102690499988,-0.0348738152905294,-0.286893935589483,-0.78263377284895,0.230708224075213,2.96653034523975,-0.0811947085320978,-0.0349155827542856,0,0,0,0,0,0,0,0,0,0,0,0
2796.792,0.347604,8,0,7,1,1,0.1,0,0,0,0,0,0,0,0,0,0,7.51258383146676,-7.98888863069464,18.6897294616846,3.42217420111739,-0.600693607913743,-0.970888663033297,11,0,-1.72769624391665,-2.01136953035464,-1.85741502443422,-0.666605297719139,-4.7213160435306,-3.24603444734682,-1.72766048112978,-2.01132184663881,-1.85748750368227,-0.666629616414205,-4.72132808366884,-3.24603444734682,0,0,0,0,0,0,0,0,0,0,0,0,-0.286914821023607,-0.782655550814712,0.230663646928533,2.96658629960679,-0.0812102690499988,-0.0348738152905294,-0.286881797950754,-0.782626815303623,0.230659197762116,2.96663754661868,-0.0811595221330223,-0.0348783336791621,0,0,0,0,0,0,0,0,0,0,0,0
2796.8,0.341904,8,0,7,1,1,0.1,0,0,0,0,0,0,0,0,0,0,7.3493343051,-8.43422667535402,18.6831967026807,3.54882470835764,-0.377013480222668,-1.04230258681129,11,0,-1.72769624391665,-2.01136953035464,-1.85741502443422,-0.666605297719139,-4.7213160435306,-3.24603444734682,-1.72767240205874,-2.0112980047809,-1.8574631849872,-0.666605297719137,-4.72130412260164,-3.24603444734682,0,0,0,0,0,0,0,0,0,0,0,0,-0.286914821023607,-0.782655550814712,0.230663646928533,2.96658629960679,-0.0812102690499988,-0.0348738152905294,-0.286890563229871,-0.782633854012043,0.230695376389547,2.96656252338453,-0.081172444042563,-0.0348577255985407,0,0,0,0,0,0,0,0,0,0,0,0
2796.808,0.353532,8,0,7,1,1,0.1,0,0,0,0,0,0,0,0,0,0,8.31700834562398,-7.30394424450564,19.0701698368676,3.43023889623786,-0.318600257668174,-0.905329597231387,11,0,-1.72769624391665,-2.01136953035464,-1.85741502443422,-0.666605297719139,-4.7213160435306,-3.24603444734682,-1.72772008577456,-2.01132184663881,-1.85743886629214,-0.666593376790182,-4.7213160435306,-3.24602228799929,0,0,0,0,0,0,0,0,0,0,0,0,-0.286914821023607,-0.782655550814712,0.230663646928533,2.96658629960679,-0.0812102690499988,-0.0348738152905294,-0.28693119727632,-0.782634078812684,0.23069094389725,2.96654944478353,-0.0812627682448374,-0.0348820262760794,0,0,0,0,0,0,0,0,0,0,0,0
2796.816,0.342661,8,0,7,1,1,0.1,0,0,0,0,0,0,0,0,0,0,7.37154444663874,-9.6131620335013,17.0968269337302,3.39891568084418,-0.513972871277817,-0.899075359174119,11,0,-1.72769624391665,-2.01136953035464,-1.85741502443422,-0.666605297719139,-4.7213160435306,-3.24603444734682,-1.72768432298769,-2.01133376756777,-1.85743886629214,-0.666605297719137,-4.72132808366884,-3.24603444734682,0,0,0,0,0,0,0,0,0,0,0,0,-0.286914821023607,-0.782655550814712,0.230663646928533,2.96658629960679,-0.0812102690499988,-0.0348738152905294,-0.286904348974523,-0.782644545832883,0.230679643068481,2.96657616380659,-0.0811937988024994,-0.0348923106210523,0,0,0,0,0,0,0,0,0,0,0,0
2796.824,0.340944,8,0,7,1,1,0.1,0,0,0,0,0,0,0,0,0,0,7.17649584706518,-9.60498809700623,16.6017915067837,3.25663006242407,-0.6418680613732,-0.815145687983324,11,0,-1.72769624391665,-2.01136953035464,-1.85741502443422,-0.666605297719139,-4.7213160435306,-3.24603444734682,-1.72767240205874,-2.01135760942568,-1.85748750368227,-0.666605297719137,-4.7213400045978,-3.24603444734682,0,0,0,0,0,0,0,0,0,0,0,0,-0.286914821023607,-0.782655550814712,0.230663646928533,2.96658629960679,-0.0812102690499988,-0.0348738152905294,-0.286893084176929,-0.782628527435124,0.230633113673089,2.96664987264466,-0.0811794377599865,-0.0348954682539322,0,0,0,0,0,0,0,0,0,0,0,0
2796.832,0.349068,8,0,7,1,1,0.1,0,0,0,0,0,0,0,0,0,0,6.37472462641473,-11.1258432180109,15.8262993460596,3.40395492679033,-0.541322162684283,-0.980612644987567,11,0,-1.72769624391665,-2.01136953035464,-1.85741502443422,-0.666605297719139,-4.7213160435306,-3.24603444734682,-1.72769624391665,-2.01130992570986,-1.8574631849872,-0.666581455861227,-4.72128016153444,-3.24605828920473,0,0,0,0,0,0,0,0,0,0,0,0,-0.286914821023607,-0.782655550814712,0.230663646928533,2.96658629960679,-0.0812102690499988,-0.0348738152905294,-0.286907522901748,-0.782630223136683,0.230688730897426,2.96654852181376,-0.0811691833112692,-0.0348309036306175,0,0,0,0,0,0,0,0,0,0,0,0
2796.84,0.339792,8,0,7,1,1,0.1,0,0,0,0,0,0,0,0,0,0,8.03167292819449,-8.66149945575486,17.8994986481785,3.39995289967915,-0.350293540436403,-1.07159121467377,11,0,-1.72769624391665,-2.01136953035464,-1.85741502443422,-0.666605297719139,-4.7213160435306,-3.24603444734682,-1.72772008577456,-2.01132184663881,-1.85742694536318,-0.666593376790182,-4.7213160435306,-3.24604636827578,0,0,0,0,0,0,0,0,0,0,0,0,-0.286914821023607,-0.782655550814712,0.230663646928533,2.96658629960679,-0.0812102690499988,-0.0348738152905294,-0.286932031316783,-0.782639391882808,0.230697569309787,2.96653882011849,-0.0812267941118645,-0.0348872302782379,0,0,0,0,0,0,0,0,0,0,0,0
2796.848,0.338136,8,0,7,1,1,0.1,0,0,0,0,0,0,0,0,0,0,6.92425285699396,-10.5664134814428,16.3325205690332,3.32346596087026,-0.452918498605434,-0.965109379382811,11,0,-1.72769624391665,-2.01136953035464,-1.85741502443422,-0.666605297719139,-4.7213160435306,-3.24603444734682,-1.72768432298769,-2.01133376756777,-1.85742694536318,-0.66661769548525,-4.7213160435306,-3.24603444734682,0,0,0,0,0,0,0,0,0,0,0,0,-0.286914821023607,-0.782655550814712,0.230663646928533,2.96658629960679,-0.0812102690499988,-0.0348738152905294,-0.28690393323376,-0.782649176353078,0.230684656567195,2.96657529902423,-0.0811920710797285,-0.0348743635205958,0,0,0,0,0,0,0,0,0,0,0,0
2796.856,0.348852,8,0,7,1,1,0.1,0,0,0,0,0,0,0,0,0,0,7.05195649632988,-9.27457437114958,17.9639559373943,3.49925452000601,-0.478131326486219,-0.908151388367441,11,0,-1.72769624391665,-2.01136953035464,-1.85741502443422,-0.666605297719139,-4.7213160435306,-3.24603444734682,-1.72767240205874,-2.01132184663881,-1.85745078722109,-0.666593376790182,-4.7213160435306,-3.24605828920473,0,0,0,0,0,0,0,0,0,0,0,0,-0.286914821023607,-0.782655550814712,0.230663646928533,2.96658629960679,-0.0812102690499988,-0.0348738152905294,-0.286893044250185,-0.782642446680619,0.230684318548825,2.96656457215345,-0.0811389000305963,-0.0348784261299959,0,0,0,0,0,0,0,0,0,0,0,0
2796.864,0.410065,8,0,7,1,1,0.1,0,0,0,0,0,0,0,0,0,0,7.57640177563064,-8.58726558382992,17.8964518360772,3.35477816309763,-0.622532460896154,-0.907561431656225,11,0,-1.72769624391665,-2.01136953035464,-1.85741502443422,-0.666605297719139,-4.7213160435306,-3.24603444734682,-1.72766048112978,-2.01135760942568,-1.85743886629214,-0.666605297719137,-4.7213160435306,-3.24605828920473,0,0,0,0,0,0,0,0,0,0,0,0,-0.286914821023607,-0.782655550814712,0.230663646928533,2.96658629960679,-0.0812102690499988,-0.0348738152905294,-0.28688497293647,-0.782653976999715,0.230660145734057,2.96660045280825,-0.0811220643955639,-0.0348702592765727,0,0,0,0,0,0,0,0,0,0,0,0
2796.872,0.343848,8,0,7,1,1,0.1,0,0,0,0,0,0,0,0,0,0,7.01342342570259,-10.8094426349986,16.2631875863449,3.38353771142536,-0.479597500781708,-0.962207488339491,11,0,-1.72769624391665,-2.01136953035464,-1.85741502443422,-0.666605297719139,-4.7213160435306,-3.24603444734682,-1.7277081648456,-2.01134568849672,-1.85742694536318,-0.666629616414205,-4.72132808366884,-3.24602228799929,0,0,0,0,0,0,0,0,0,0,0,0,-0.286914821023607,-0.782655550814712,0.230663646928533,2.96658629960679,-0.0812102690499988,-0.0348738152905294,-0.286923734007425,-0.782642541730956,0.230673355700447,2.96659897074277,-0.0812475936061627,-0.0348892115619267,0,0,0,0,0,0,0,0,0,0,0,0
2796.88,0.344664,8,0,7,1,1,0.1,0,0,0,0,0,0,0,0,0,0,7.35828299946637,-8.66410451060269,18.0707483440701,3.43337907842673,-0.505846305866513,-0.901509576314472,11,0,-1.72769624391665,-2.01136953035464,-1.85741502443422,-0.666605297719139,-4.7213160435306,-3.24603444734682,-1.72766048112978,-2.01132184663881,-1.85742694536318,-0.666605297719137,-4.7213400045978,-3.24605828920473,0,0,0,0,0,0,0,0,0,0,0,0,-0.286914821023607,-0.782655550814712,0.230663646928533,2.96658629960679,-0.0812102690499988,-0.0348738152905294,-0.286887418732741,-0.782655317130665,0.230696016665736,2.96655572446048,-0.0811241128806418,-0.0349141115286154,0,0,0,0,0,0,0,0,0,0,0,0
2796.888,0.371808,8,0,7,1,1,0.1,0,0,0,0,0,0,0,0,0,0,7.87910273102133,-7.78018452158245,18.5167706631815,3.39327915996741,-0.512180695733005,-0.841809440191937,11,0,-1.72769624391665,-2.01136953035464,-1.85741502443422,-0.666605297719139,-4.7213160435306,-3.24603444734682,-1.72769624391665,-2.01134568849672,-1.85743886629214,-0.666581455861227,-4.721363965665,-3.24607021013369,0,0,0,0,0,0,0,0,0,0,0,0,-0.286914821023607,-0.782655550814712,0.230663646928533,2.96658629960679,-0.0812102690499988,-0.0348738152905294,-0.286917432223667,-0.782643459938264,0.230672992696763,2.96656974454333,-0.0811633115385081,-0.0349535812511212,0,0,0,0,0,0,0,0,0,0,0,0
2796.896,0.341892,8,0,7,1,1,0.1,0,0,0,0,0,0,0,0,0,0,7.25482856711263,-10.3479180319379,16.6383248190738,3.31253094212531,-0.466436083567161,-0.876197868830522,11,0,-1.72769624391665,-2.01136953035464,-1.85741502443422,-0.666605297719139,-4.7213160435306,-3.24603444734682,-1.72772008577456,-2.01136953035464,-1.85743886629214,-0.66661769548525,-4.7213400045978,-3.24603444734682,0,0,0,0,0,0,0,0,0,0,0,0,-0.286914821023607,-0.782655550814712,0.230663646928533,2.96658629960679,-0.0812102690499988,-0.0348738152905294,-0.286933843646925,-0.782636874183259,0.230648781960159,2.96662423678282,-0.0812495966377907,-0.0349056804931214,0,0,0,0,0,0,0,0,0,0,0,0
2796.904,0.354121,8,0,7,1,1,0.1,0,0,0,0,0,0,0,0,0,0,6.11559813471388,-10.9681993209181,15.5250102309645,3.24004604237304,-0.539123218468078,-0.803847461554433,11,0,-1.72769624391665,-2.01136953035464,-1.85741502443422,-0.666605297719139,-4.7213160435306,-3.24603444734682,-1.72767240205874,-2.01138192812075,-1.85745078722109,-0.66661769548525,-4.7213400045978,-3.24609429041018,0,0,0,0,0,0,0,0,0,0,0,0,-0.286914821023607,-0.782655550814712,0.230663646928533,2.96658629960679,-0.0812102690499988,-0.0348738152905294,-0.286895888449097,-0.782646497263596,0.230632017822575,2.96665289047421,-0.0810906945401699,-0.0349029127080502,0,0,0,0,0,0,0,0,0,0,0,0
2796.912,0.348324,8,0,7,1,1,0.1,0,0,0,0,0,0,0,0,0,0,7.27460865806227,-9.27513039426696,17.5157274229865,3.48530748447467,-0.536493825622431,-0.868821584243878,11,0,-1.72769624391665,-2.01136953035464,-1.85741502443422,-0.666605297719139,-4.7213160435306,-3.24603444734682,-1.72768432298769,-2.01134568849672,-1.85743886629214,-0.666605297719137,-4.72132808366884,-3.24604636827578,0,0,0,0,0,0,0,0,0,0,0,0,-0.286914821023607,-0.782655550814712,0.230663646928533,2.96658629960679,-0.0812102690499988,-0.0348738152905294,-0.286904539459668,-0.782645753423803,0.230669893935843,2.96658861200576,-0.0811764357641705,-0.0348916886415766,0,0,0,0,0,0,0,0,0,0,0,0
2796.92,0.348804,8,0,7,1,1,0.1,0,0,0,0,0,0,0,0,0,0,7.49872143345169,-9.00934556948359,17.3809382453348,3.36008662514796,-0.35678915797643,-0.896548168482925,11,0,-1.72769624391665,-2.01136953035464,-1.85741502443422,-0.666605297719139,-4.7213160435306,-3.24603444734682,-1.72767240205874,-2.0112980047809,-1.85743886629214,-0.666605297719137,-4.7212920824634,-3.24603444734682,0,0,0,0,0,0,0,0,0,0,0,0,-0.286914821023607,-0.782655550814712,0.230663646928533,2.96658629960679,-0.0812102690499988,-0.0348738152905294,-0.286891166997954,-0.782644868706221,0.230708893245473,2.96653702030301,-0.0811702699318446,-0.0348442632315613,0,0,0,0,0,0,0,0,0,0,0,0
2796.928,0.341376,8,0,7,1,1,0.1,0,0,0,0,0,0,0,0,0,0,7.85546035220036,-9.81093158565246,16.5868570133521,3.27675955420438,-0.371728256535142,-0.977956520127488,11,0,-1.72769624391665,-2.01136953035464,-1.85741502443422,-0.666605297719139,-4.7213160435306,-3.24603444734682,-1.72767240205874,-2.01133376756777,-1.85745078722109,-0.66661769548525,-4.7213160435306,-3.24608236948122,0,0,0,0,0,0,0,0,0,0,0,0,-0.286914821023607,-0.782655550814712,0.230663646928533,2.96658629960679,-0.0812102690499988,-0.0348738152905294,-0.286892935686082,-0.782641969930414,0.230671405975235,2.96660179377796,-0.0811038420546031,-0.0348748407949334,0,0,0,0,0,0,0,0,0,0,0,0
2796.936,0.350352,8,0,7,1,1,0.1,0,0,0,0,0,0,0,0,0,0,6.76612185649839,-11.9603116593295,15.1421317193111,3.34389146591815,-0.507525431952031,-0.956027553512907,11,0,-1.72769624391665,-2.01136953035464,-1.85741502443422,-0.666605297719139,-4.7213160435306,-3.24603444734682,-1.72767240205874,-2.01132184663881,-1.85741502443422,-0.666581455861227,-4.72128016153444,-3.24607021013369,0,0,0,0,0,0,0,0,0,0,0,0,-0.286914821023607,-0.782655550814712,0.230663646928533,2.96658629960679,-0.0812102690499988,-0.0348738152905294,-0.286892422462907,-0.782659736077275,0.230705748478022,2.96651382249711,-0.0811153870763195,-0.0348356387318316,0,0,0,0,0,0,0,0,0,0,0,0
2796.944,0.341544,8,0,7,1,1,0.1,0,0,0,0,0,0,0,0,0,0,7.6169955056074,-9.06752219546346,17.6815137696517,3.43997753463728,-0.482604323164764,-0.934502088112708,11,0,-1.72769624391665,-2.01136953035464,-1.85741502443422,-0.666605297719139,-4.7213160435306,-3.24603444734682,-1.72768432298769,-2.01130992570986,-1.8574631849872,-0.66661769548525,-4.72132808366884,-3.24605828920473,0,0,0,0,0,0,0,0,0,0,0,0,-0.286914821023607,-0.782655550814712,0.230663646928533,2.96658629960679,-0.0812102690499988,-0.0348738152905294,-0.2869021144154,-0.782630432760241,0.230684012762635,2.96659017833648,-0.0811585180283523,-0.0348931474797562,0,0,0,0,0,0,0,0,0,0,0,0
2796.952,0.338748,8,0,7,1,1,0.1,0,0,0,0,0,0,0,0,0,0,7.71923489864195,-10.313036095827,16.7994434336391,3.39140710278397,-0.418795370740198,-0.944160390829334,11,0,-1.72769624391665,-2.01136953035464,-1.85741502443422,-0.666605297719139,-4.7213160435306,-3.24603444734682,-1.72769624391665,-2.01130992570986,-1.8574631849872,-0.666593376790182,-4.7212920824634,-3.24607021013369,0,0,0,0,0,0,0,0,0,0,0,0,-0.286914821023607,-0.782655550814712,0.230663646928533,2.96658629960679,-0.0812102690499988,-0.0348738152905294,-0.28690846258221,-0.78262922322961,0.230687179157728,2.96656228652283,-0.081153291586413,-0.0348477702437711,0,0,0,0,0,0,0,0,0,0,0,0
2796.96,0.348216,8,0,7,1,1,0.1,0,0,0,0,0,0,0,0,0,0,6.89679686309443,-10.8585328720643,16.1339190288998,3.32508019797667,-0.584348482734403,-0.884623907834658,11,0,-1.72769624391665,-2.01136953035464,-1.85741502443422,-0.666605297719139,-4.7213160435306,-3.24603444734682,-1.72767240205874,-2.01130992570986,-1.8574631849872,-0.666593376790182,-4.7213160435306,-3.24610621133913,0,0,0,0,0,0,0,0,0,0,0,0,-0.286914821023607,-0.782655550814712,0.230663646928533,2.96658629960679,-0.0812102690499988,-0.0348738152905294,-0.286891986601965,-0.78263571320038,0.230687177237195,2.96656748662055,-0.0810677889517941,-0.0348846152080202,0,0,0,0,0,0,0,0,0,0,0,0
2796.968,0.4122,8,0,7,1,1,0.1,0,0,0,0,0,0,0,0,0,0,6.85358033206739,-9.25531302770652,17.3421443379537,3.40397019392375,-0.567040150853523,-0.88990355768396,11,0,-1.72769624391665,-2.01136953035464,-1.85741502443422,-0.666605297719139,-4.7213160435306,-3.24603444734682,-1.72768432298769,-2.0112980047809,-1.85747558275332,-0.666593376790182,-4.7213160435306,-3.24608236948122,0,0,0,0,0,0,0,0,0,0,0,0,-0.286914821023607,-0.782655550814712,0.230663646928533,2.96658629960679,-0.0812102690499988,-0.0348738152905294,-0.286900258592539,-0.78262555962116,0.230690035846977,2.96656639549427,-0.0811207895746317,-0.0348830644633153,0,0,0,0,0,0,0,0,0,0,0,0
2796.976,0.344652,8,0,7,1,1,0.1,0,0,0,0,0,0,0,0,0,0,7.09738846063949,-9.57461389867075,16.8895157197447,3.37514467419506,-0.491800540984063,-0.815853909228901,11,0,-1.72769624391665,-2.01136953035464,-1.85741502443422,-0.666605297719139,-4.7213160435306,-3.24603444734682,-1.72767240205874,-2.01132184663881,-1.8574631849872,-0.666593376790182,-4.72130412260164,-3.24607021013369,0,0,0,0,0,0,0,0,0,0,0,0,-0.286914821023607,-0.782655550814712,0.230663646928533,2.96658629960679,-0.0812102690499988,-0.0348738152905294,-0.28689109080035,-0.782637095131002,0.230677429203416,2.96657618324689,-0.0811198736945887,-0.0348602466387323,0,0,0,0,0,0,0,0,0,0,0,0
2796.984,0.381408,8,0,7,1,1,0.1,0,0,0,0,0,0,0,0,0,0,7.91709372106087,-8.86703942528933,18.0361825493123,3.48674932209853,-0.369795781290564,-0.897964309447258,11,0,-1.72769624391665,-2.01136953035464,-1.85741502443422,-0.666605297719139,-4.7213160435306,-3.24603444734682,-1.72767240205874,-2.0112980047809,-1.85745078722109,-0.666593376790182,-4.7213160435306,-3.24607021013369,0,0,0,0,0,0,0,0,0,0,0,0,-0.286914821023607,-0.782655550814712,0.230663646928533,2.96658629960679,-0.0812102690499988,-0.0348738152905294,-0.286892663236796,-0.782640031039764,0.230703816633045,2.96654149307481,-0.0811205898904034,-0.0348842955284288,0,0,0,0,0,0,0,0,0,0,0,0
2796.992,0.342589,8,0,7,1,1,0.1,0,0,0,0,0,0,0,0,0,0,6.72817178498589,-9.81665421058875,16.9658594832138,3.41372182932404,-0.452334341037098,-0.881486021309883,11,0,-1.72769624391665,-2.01136953035464,-1.85741502443422,-0.666605297719139,-4.7213160435306,-3.24603444734682,-1.72766048112978,-2.01130992570986,-1.85745078722109,-0.666593376790182,-4.72132808366884,-3.24603444734682,0,0,0,0,0,0,0,0,0,0,0,0,-0.286914821023607,-0.782655550814712,0.230663646928533,2.96658629960679,-0.0812102690499988,-0.0348738152905294,-0.28688462107258,-0.782644482910845,0.230694066652777,2.96655321076765,-0.0811578935793603,-0.0348936880602696,0,0,0,0,0,0,0,0,0,0,0,0
2797,0.340656,8,0,7,1,1,0.1,0,0,0,0,0,0,0,0,0,0,7.39629808066266,-8.85494360141961,17.9089769317999,3.42448157569317,-0.513325086408232,-0.986127576145626,11,0,-1.72769624391665,-2.01136953035464,-1.85741502443422,-0.666605297719139,-4.7213160435306,-3.24603444734682,-1.7277081648456,-2.01134568849672,-1.85745078722109,-0.66661769548525,-4.7212920824634,-3.24605828920473,0,0,0,0,0,0,0,0,0,0,0,0,-0.286914821023607,-0.782655550814712,0.230663646928533,2.96658629960679,-0.0812102690499988,-0.0348738152905294,-0.286918932035619,-0.782633267143773,0.230661658837645,2.96660867867031,-0.0811896691245733,-0.0348389144980539,0,0,0,0,0,0,0,0,0,0,0,0
2797.008,0.355584,8,0,7,1,1,0.1,0,0,0,0,0,0,0,0,0,0,7.43862560447455,-9.43089227676711,17.4039094105669,3.46619549725412,-0.445613794799042,-0.970535867745735,11,0,-1.72769624391665,-2.01136953035464,-1.85741502443422,-0.666605297719139,-4.7213160435306,-3.24603444734682,-1.72767240205874,-2.01133376756777,-1.85743886629214,-0.666581455861227,-4.7213400045978,-3.24608236948122,0,0,0,0,0,0,0,0,0,0,0,0,-0.286914821023607,-0.782655550814712,0.230663646928533,2.96658629960679,-0.0812102690499988,-0.0348738152905294,-0.286896398558328,-0.782649442987167,0.230682743665751,2.96655659513063,-0.0811063346777804,-0.0349189616295889,0,0,0,0,0,0,0,0,0,0,0,0
2797.016,0.341904,8,0,7,1,1,0.1,0,0,0,0,0,0,0,0,0,0,7.57185679254584,-9.18149376830512,17.1687962309831,3.29605792025416,-0.465359742099707,-0.789508525662157,11,0,-1.72769624391665,-2.01136953035464,-1.85741502443422,-0.666605297719139,-4.7213160435306,-3.24603444734682,-1.7277081648456,-2.01132184663881,-1.85743886629214,-0.66661769548525,-4.7213160435306,-3.24604636827578,0,0,0,0,0,0,0,0,0,0,0,0,-0.286914821023607,-0.782655550814712,0.230663646928533,2.96658629960679,-0.0812102690499988,-0.0348738152905294,-0.286921568438443,-0.782635814930276,0.230687780346856,2.96657518776922,-0.0812097103564157,-0.0348790632381447,0,0,0,0,0,0,0,0,0,0,0,0
2797.024,0.339552,8,0,7,1,1,0.1,0,0,0,0,0,0,0,0,0,0,6.73127298532838,-10.80392541549,15.7517453423144,3.29987251230903,-0.596008660376455,-0.881728752633386,11,0,-1.72769624391665,-2.01136953035464,-1.85741502443422,-0.666605297719139,-4.7213160435306,-3.24603444734682,-1.72764856020083,-2.01132184663881,-1.85748750368227,-0.666593376790182,-4.72128016153444,-3.24602228799929,0,0,0,0,0,0,0,0,0,0,0,0,-0.286914821023607,-0.782655550814712,0.230663646928533,2.96658629960679,-0.0812102690499988,-0.0348738152905294,-0.286868546998153,-0.782633445754164,0.230663915773346,2.96659599722491,-0.0811528506437453,-0.0348114316811792,0,0,0,0,0,0,0,0,0,0,0,0
2797.032,0.347605,8,0,7,1,1,0.1,0,0,0,0,0,0,0,0,0,0,8.29734820057701,-9.45134809491526,17.4366853778276,3.44062703813343,-0.396762147836394,-1.00699659094969,11,0,-1.72769624391665,-2.01136953035464,-1.85741502443422,-0.666605297719139,-4.7213160435306,-3.24603444734682,-1.72768432298769,-2.01135760942568,-1.85741502443422,-0.666605297719137,-4.72130412260164,-3.24607021013369,0,0,0,0,0,0,0,0,0,0,0,0,-0.286914821023607,-0.782655550814712,0.230663646928533,2.96658629960679,-0.0812102690499988,-0.0348738152905294,-0.286904214264183,-0.782657937794626,0.230673397167789,2.96657531886372,-0.0811376101366506,-0.034861513922741,0,0,0,0,0,0,0,0,0,0,0,0
2797.04,0.341076,8,0,7,1,1,0.1,0,0,0,0,0,0,0,0,0,0,7.97222665456115,-9.12482506991858,17.4716413378669,3.38220551036322,-0.663919869444657,-0.872256757947894,11,0,-1.72769624391665,-2.01136953035464,-1.85741502443422,-0.666605297719139,-4.7213160435306,-3.24603444734682,-1.72767240205874,-2.0112980047809,-1.85749942461123,-0.666605297719137,-4.7212920824634,-3.24603444734682,0,0,0,0,0,0,0,0,0,0,0,0,-0.286914821023607,-0.782655550814712,0.230663646928533,2.96658629960679,-0.0812102690499988,-0.0348738152905294,-0.286886931288022,-0.782617877601524,0.230675236538377,2.96659721433914,-0.0811716069684916,-0.034833650907168,0,0,0,0,0,0,0,0,0,0,0,0
2797.048,0.338988,8,0,7,1,1,0.1,0,0,0,0,0,0,0,0,0,0,7.61549280261592,-10.5126449327175,16.2689032930948,3.37030199965075,-0.388300759243334,-0.920252816982527,11,0,-1.72769624391665,-2.01136953035464,-1.85741502443422,-0.666605297719139,-4.7213160435306,-3.24603444734682,-1.72767240205874,-2.01134568849672,-1.85743886629214,-0.66661769548525,-4.7213400045978,-3.24607021013369,0,0,0,0,0,0,0,0,0,0,0,0,-0.286914821023607,-0.782655550814712,0.230663646928533,2.96658629960679,-0.0812102690499988,-0.0348738152905294,-0.286896143405412,-0.782648140561352,0.230668280248304,2.9666038175247,-0.0811251850513328,-0.0349084667020169,0,0,0,0,0,0,0,0,0,0,0,0
2797.056,0.346716,8,0,7,1,1,0.1,0,0,0,0,0,0,0,0,0,0,7.6571459190681,-9.34268451339992,17.3121279875391,3.33636888002195,-0.406215122029667,-0.97372899898708,11,0,-1.72769624391665,-2.01136953035464,-1.85741502443422,-0.666605297719139,-4.7213160435306,-3.24603444734682,-1.72767240205874,-2.01130992570986,-1.85741502443422,-0.666605297719137,-4.7213400045978,-3.24608236948122,0,0,0,0,0,0,0,0,0,0,0,0,-0.286914821023607,-0.782655550814712,0.230663646928533,2.96658629960679,-0.0812102690499988,-0.0348738152905294,-0.286897391937128,-0.782656002181754,0.230712391363897,2.9665328946804,-0.0811055093406311,-0.0349230208654449,0,0,0,0,0,0,0,0,0,0,0,0
2797.064,0.420336,8,0,7,1,1,0.1,0,0,0,0,0,0,0,0,0,0,7.13427664752129,-9.79327532300043,16.8407240528249,3.38903969378053,-0.470810750948798,-1.0502644412504,11,0,-1.72769624391665,-2.01136953035464,-1.85741502443422,-0.666605297719139,-4.7213160435306,-3.24603444734682,-1.72769624391665,-2.01134568849672,-1.85745078722109,-0.666605297719137,-4.7213400045978,-3.24601036707033,0,0,0,0,0,0,0,0,0,0,0,0,-0.286914821023607,-0.782655550814712,0.230663646928533,2.96658629960679,-0.0812102690499988,-0.0348738152905294,-0.286914121632187,-0.782636845578041,0.230663267802699,2.96659958613915,-0.0812493955115423,-0.034904034490822,0,0,0,0,0,0,0,0,0,0,0,0
2797.072,0.40188,8,0,7,1,1,0.1,0,0,0,0,0,0,0,0,0,0,7.97132098874195,-8.61296053544929,17.9293996322695,3.41243341760167,-0.45250038715836,-0.938851928271945,11,0,-1.72769624391665,-2.01136953035464,-1.85741502443422,-0.666605297719139,-4.7213160435306,-3.24603444734682,-1.72767240205874,-2.01132184663881,-1.85743886629214,-0.666605297719137,-4.7212920824634,-3.24607021013369,0,0,0,0,0,0,0,0,0,0,0,0,-0.286914821023607,-0.782655550814712,0.230663646928533,2.96658629960679,-0.0812102690499988,-0.0348738152905294,-0.286891548030245,-0.782647284466622,0.230689395052901,2.9665625212713,-0.0811178658684275,-0.0348445614269146,0,0,0,0,0,0,0,0,0,0,0,0
2797.08,0.359209,8,0,7,1,1,0.1,0,0,0,0,0,0,0,0,0,0,7.17968002740758,-9.12596872870633,17.7763979959152,3.43573895325295,-0.468591666954953,-0.965557763052098,11,0,-1.72769624391665,-2.01136953035464,-1.85741502443422,-0.666605297719139,-4.7213160435306,-3.24603444734682,-1.72769624391665,-2.01138192812075,-1.85747558275332,-0.666593376790182,-4.7213160435306,-3.24607021013369,0,0,0,0,0,0,0,0,0,0,0,0,-0.286914821023607,-0.782655550814712,0.230663646928533,2.96658629960679,-0.0812102690499988,-0.0348738152905294,-0.286910929062903,-0.782630639293012,0.230621403270842,2.9666487857281,-0.0811587307744549,-0.0348677985663963,0,0,0,0,0,0,0,0,0,0,0,0
2797.088,0.361092,8,0,7,1,1,0.1,0,0,0,0,0,0,0,0,0,0,6.92724834885547,-8.99287629980854,17.8571617222839,3.43327389316587,-0.506551808872238,-0.872457445959413,11,0,-1.72769624391665,-2.01136953035464,-1.85741502443422,-0.666605297719139,-4.7213160435306,-3.24603444734682,-1.72769624391665,-2.01132184663881,-1.85743886629214,-0.666605297719137,-4.7212920824634,-3.24605828920473,0,0,0,0,0,0,0,0,0,0,0,0,-0.286914821023607,-0.782655550814712,0.230663646928533,2.96658629960679,-0.0812102690499988,-0.0348738152905294,-0.286910207714051,-0.782640444216658,0.230689395052901,2.96656119211869,-0.0811709154603333,-0.034846103250491,0,0,0,0,0,0,0,0,0,0,0,0
2797.096,0.342792,8,0,7,1,1,0.1,0,0,0,0,0,0,0,0,0,0,7.03797882590407,-9.81527581832535,17.077096945375,3.35490682233619,-0.524055618208334,-0.838409369021573,11,0,-1.72769624391665,-2.01136953035464,-1.85741502443422,-0.666605297719139,-4.7213160435306,-3.24603444734682,-1.72766048112978,-2.01134568849672,-1.85745078722109,-0.666581455861227,-4.72130412260164,-3.24604636827578,0,0,0,0,0,0,0,0,0,0,0,0,-0.286914821023607,-0.782655550814712,0.230663646928533,2.96658629960679,-0.0812102690499988,-0.0348738152905294,-0.286883155607006,-0.782649281756513,0.23066637210048,2.96657485413024,-0.0811377384052311,-0.0348556899498064,0,0,0,0,0,0,0,0,0,0,0,0
2797.104,0.353436,8,0,7,1,1,0.1,0,0,0,0,0,0,0,0,0,0,7.45433913360624,-9.5489293911994,17.1008097932131,3.34125823447056,-0.489712581295337,-1.01670555979036,11,0,-1.72769624391665,-2.01136953035464,-1.85741502443422,-0.666605297719139,-4.7213160435306,-3.24603444734682,-1.72768432298769,-2.01130992570986,-1.85743886629214,-0.666593376790182,-4.72130412260164,-3.24604636827578,0,0,0,0,0,0,0,0,0,0,0,0,-0.286914821023607,-0.782655550814712,0.230663646928533,2.96658629960679,-0.0812102690499988,-0.0348738152905294,-0.286901931108411,-0.782643306194384,0.230700693959909,2.96653859566797,-0.0811720641525858,-0.0348651305786038,0,0,0,0,0,0,0,0,0,0,0,0
2797.112,0.341352,8,0,7,1,1,0.1,0,0,0,0,0,0,0,0,0,0,7.58795777754976,-8.2237924249933,18.2225584294525,3.41450736149542,-0.353629538505827,-0.812344733100602,11,0,-1.72769624391665,-2.01136953035464,-1.85741502443422,-0.666605297719139,-4.7213160435306,-3.24603444734682,-1.72767240205874,-2.01133376756777,-1.85743886629214,-0.66661769548525,-4.72130412260164,-3.24601036707033,0,0,0,0,0,0,0,0,0,0,0,0,-0.286914821023607,-0.782655550814712,0.230663646928533,2.96658629960679,-0.0812102690499988,-0.0348738152905294,-0.286892683216598,-0.782647457482258,0.230678032188261,2.96658496913541,-0.0812087391561436,-0.034850070212091,0,0,0,0,0,0,0,0,0,0,0,0
2797.12,0.340489,8,0,7,1,1,0.1,0,0,0,0,0,0,0,0,0,0,6.74353084597239,-8.95030987935225,17.3969919124391,3.34613005266415,-0.491340344346872,-0.93017630103797,11,0,-1.72769624391665,-2.01136953035464,-1.85741502443422,-0.666605297719139,-4.7213160435306,-3.24603444734682,-1.72766048112978,-2.01132184663881,-1.85743886629214,-0.666569534932272,-4.7212920824634,-3.24603444734682,0,0,0,0,0,0,0,0,0,0,0,0,-0.286914821023607,-0.782655550814712,0.230663646928533,2.96658629960679,-0.0812102690499988,-0.0348738152905294,-0.286882657837703,-0.782653181294267,0.230694047378433,2.96652554283132,-0.0811527190978749,-0.0348450632330772,0,0,0,0,0,0,0,0,0,0,0,0
2797.128,0.338808,8,0,7,1,1,0.1,0,0,0,0,0,0,0,0,0,0,7.74949179106392,-8.63729683717498,17.9451260971429,3.4100378022583,-0.510702499856036,-0.986177262658803,11,0,-1.72769624391665,-2.01136953035464,-1.85741502443422,-0.666605297719139,-4.7213160435306,-3.24603444734682,-1.72768432298769,-2.0112980047809,-1.85742694536318,-0.666605297719137,-4.7212920824634,-3.24607021013369,0,0,0,0,0,0,0,0,0,0,0,0,-0.286914821023607,-0.782655550814712,0.230663646928533,2.96658629960679,-0.0812102690499988,-0.0348738152905294,-0.286901330660015,-0.782646761603637,0.230715518776415,2.96652662582807,-0.0811346563213933,-0.0348525207181022,0,0,0,0,0,0,0,0,0,0,0,0
2797.136,0.34638,8,0,7,1,1,0.1,0,0,0,0,0,0,0,0,0,0,7.68879085042142,-9.56332244078702,16.781258111607,3.31302920786275,-0.386219674677449,-0.91898163577582,11,0,-1.72769624391665,-2.01136953035464,-1.85741502443422,-0.666605297719139,-4.7213160435306,-3.24603444734682,-1.72766048112978,-2.01133376756777,-1.8574631849872,-0.666593376790182,-4.7213400045978,-3.24608236948122,0,0,0,0,0,0,0,0,0,0,0,0,-0.286914821023607,-0.782655550814712,0.230663646928533,2.96658629960679,-0.0812102690499988,-0.0348738152905294,-0.286885221198238,-0.782641198196491,0.230667677388922,2.96659297030389,-0.0810893498475732,-0.0349109348768105,0,0,0,0,0,0,0,0,0,0,0,0
2797.144,0.341088,8,0,7,1,1,0.1,0,0,0,0,0,0,0,0,0,0,7.33511440516015,-8.6439163164565,17.8179609783665,3.38893172830176,-0.391634102135034,-0.948816197573423,11,0,-1.72769624391665,-2.01136953035464,-1.85741502443422,-0.666605297719139,-4.7213160435306,-3.24603444734682,-1.72766048112978,-2.01133376756777,-1.85743886629214,-0.666593376790182,-4.7212920824634,-3.24604636827578,0,0,0,0,0,0,0,0,0,0,0,0,-0.286914821023607,-0.782655550814712,0.230663646928533,2.96658629960679,-0.0812102690499988,-0.0348738152905294,-0.286882555177605,-0.782652737794749,0.230681196689939,2.96656167324345,-0.0811356881194978,-0.0348399954548778,0,0,0,0,0,0,0,0,0,0,0,0
2797.152,0.338388,8,0,7,1,1,0.1,0,0,0,0,0,0,0,0,0,0,6.97895470235109,-10.3670097872008,16.1760264430351,3.27582330164438,-0.528961814704867,-0.950483558422581,11,0,-1.72769624391665,-2.01136953035464,-1.85741502443422,-0.666605297719139,-4.7213160435306,-3.24603444734682,-1.72767240205874,-2.01135760942568,-1.85747558275332,-0.66661769548525,-4.72132808366884,-3.24603444734682,0,0,0,0,0,0,0,0,0,0,0,0,-0.286914821023607,-0.782655550814712,0.230663646928533,2.96658629960679,-0.0812102690499988,-0.0348738152905294,-0.286892679299279,-0.782633156569244,0.230638126822332,2.96664902109495,-0.0811777268583261,-0.0348776961870487,0,0,0,0,0,0,0,0,0,0,0,0
2797.16,0.349237,8,0,7,1,1,0.1,0,0,0,0,0,0,0,0,0,0,7.25514244705397,-10.1678296242377,16.3240402548682,3.3056416302324,-0.353464218107314,-0.89570060769369,11,0,-1.72769624391665,-2.01136953035464,-1.85741502443422,-0.666605297719139,-4.7213160435306,-3.24603444734682,-1.72769624391665,-2.01132184663881,-1.85748750368227,-0.666581455861227,-4.72132808366884,-3.24608236948122,0,0,0,0,0,0,0,0,0,0,0,0,-0.286914821023607,-0.782655550814712,0.230663646928533,2.96658629960679,-0.0812102690499988,-0.0348738152905294,-0.286910379009197,-0.782619891019131,0.230665462667792,2.96659105721809,-0.0811408407548236,-0.0348981361829733,0,0,0,0,0,0,0,0,0,0,0,0
2797.168,0.410965,8,0,7,1,1,0.1,0,0,0,0,0,0,0,0,0,0,7.23777367291418,-8.10155017030933,17.8740078961495,3.40008721309502,-0.496150422113173,-0.930968702737851,11,0,-1.72769624391665,-2.01136953035464,-1.85741502443422,-0.666605297719139,-4.7213160435306,-3.24603444734682,-1.72769624391665,-2.01130992570986,-1.8574631849872,-0.666593376790182,-4.7213160435306,-3.24604636827578,0,0,0,0,0,0,0,0,0,0,0,0,-0.286914821023607,-0.782655550814712,0.230663646928533,2.96658629960679,-0.0812102690499988,-0.0348738152905294,-0.286910646009891,-0.782628872939962,0.230687177237195,2.96656372365431,-0.0811919072842342,-0.0348799589875561,0,0,0,0,0,0,0,0,0,0,0,0
2797.176,0.354276,8,0,7,1,1,0.1,0,0,0,0,0,0,0,0,0,0,6.39187512283871,-11.0648873953817,16.5594153255704,3.42073053075019,-0.647581986928416,-0.905104609391619,11,0,-1.72769624391665,-2.01136953035464,-1.85741502443422,-0.666605297719139,-4.7213160435306,-3.24603444734682,-1.72766048112978,-2.01133376756777,-1.85745078722109,-0.666605297719137,-4.72132808366884,-3.24608236948122,0,0,0,0,0,0,0,0,0,0,0,0,-0.286914821023607,-0.782655550814712,0.230663646928533,2.96658629960679,-0.0812102690499988,-0.0348738152905294,-0.286884855442217,-0.782646072648981,0.230673017794252,2.96659117096896,-0.0810876213505824,-0.0348933356880398,0,0,0,0,0,0,0,0,0,0,0,0
2797.184,0.378648,8,0,7,1,1,0.1,0,0,0,0,0,0,0,0,0,0,7.03357161605161,-9.21622756098321,17.2014626078875,3.29821906533963,-0.544392648783757,-0.948405226734001,11,0,-1.72769624391665,-2.01136953035464,-1.85741502443422,-0.666605297719139,-4.7213160435306,-3.24603444734682,-1.72768432298769,-2.01130992570986,-1.85743886629214,-0.666605297719137,-4.7213160435306,-3.24604636827578,0,0,0,0,0,0,0,0,0,0,0,0,-0.286914821023607,-0.782655550814712,0.230663646928533,2.96658629960679,-0.0812102690499988,-0.0348738152905294,-0.286902870802943,-0.782642306313206,0.230699142235572,2.96655175449575,-0.0811738510785424,-0.0348804557099649,0,0,0,0,0,0,0,0,0,0,0,0
2797.192,0.343116,8,0,7,1,1,0.1,0,0,0,0,0,0,0,0,0,0,8.11341409028661,-7.99732057969437,18.5630396755105,3.42704922633683,-0.422328187318495,-0.944665860073406,11,0,-1.72769624391665,-2.01136953035464,-1.85741502443422,-0.666605297719139,-4.7213160435306,-3.24603444734682,-1.72768432298769,-2.01133376756777,-1.85747558275332,-0.666593376790182,-4.72132808366884,-3.24609429041018,0,0,0,0,0,0,0,0,0,0,0,0,-0.286914821023607,-0.782655550814712,0.230663646928533,2.96658629960679,-0.0812102690499988,-0.0348738152905294,-0.286901927198416,-0.782629006410071,0.230660788153652,2.96660385866559,-0.0811056944867839,-0.0348958379653094,0,0,0,0,0,0,0,0,0,0,0,0
2797.2,0.340596,8,0,7,1,1,0.1,0,0,0,0,0,0,0,0,0,0,7.63094633368889,-8.54609143777697,18.2805344528721,3.48463707135169,-0.467485444419042,-0.938461630978227,11,0,-1.72769624391665,-2.01136953035464,-1.85741502443422,-0.666605297719139,-4.7213160435306,-3.24603444734682,-1.72767240205874,-2.01133376756777,-1.85745078722109,-0.666569534932272,-4.7213400045978,-3.24608236948122,0,0,0,0,0,0,0,0,0,0,0,0,-0.286914821023607,-0.782655550814712,0.230663646928533,2.96658629960679,-0.0812102690499988,-0.0348738152905294,-0.286895711332612,-0.782644955378776,0.230677669136829,2.96655660303247,-0.0811064319291332,-0.0349190957591745,0,0,0,0,0,0,0,0,0,0,0,0
2797.208,0.353245,8,0,7,1,1,0.1,0,0,0,0,0,0,0,0,0,0,7.04461864727902,-9.53774458153155,17.050208459921,3.34467093563701,-0.626920504181609,-0.906591638815024,11,0,-1.72769624391665,-2.01136953035464,-1.85741502443422,-0.666605297719139,-4.7213160435306,-3.24603444734682,-1.72766048112978,-2.01130992570986,-1.85743886629214,-0.66661769548525,-4.7213400045978,-3.24603444734682,0,0,0,0,0,0,0,0,0,0,0,0,-0.286914821023607,-0.782655550814712,0.230663646928533,2.96658629960679,-0.0812102690499988,-0.0348738152905294,-0.286886242077636,-0.782647937500527,0.230697527571221,2.9665668350474,-0.0811595894829763,-0.0349087907081328,0,0,0,0,0,0,0,0,0,0,0,0
2797.216,0.34116,8,0,7,1,1,0.1,0,0,0,0,0,0,0,0,0,0,7.19524693984869,-8.87931420468142,17.8591352060807,3.46885767941846,-0.393632728935201,-0.835688209847372,11,0,-1.72769624391665,-2.01136953035464,-1.85741502443422,-0.666605297719139,-4.7213160435306,-3.24603444734682,-1.72769624391665,-2.01134568849672,-1.8574631849872,-0.666593376790182,-4.72130412260164,-3.24604636827578,0,0,0,0,0,0,0,0,0,0,0,0,-0.286914821023607,-0.782655550814712,0.230663646928533,2.96658629960679,-0.0812102690499988,-0.0348738152905294,-0.286910131213915,-0.782632669902311,0.230657931194198,2.96659793289235,-0.0811912344917156,-0.0348559188054012,0,0,0,0,0,0,0,0,0,0,0,0
2797.224,0.339468,8,0,7,1,1,0.1,0,0,0,0,0,0,0,0,0,0,7.74471823106636,-8.00800288252502,18.4342937437282,3.37442680404813,-0.494299258564287,-0.872989065788213,11,0,-1.72769624391665,-2.01136953035464,-1.85741502443422,-0.666605297719139,-4.7213160435306,-3.24603444734682,-1.72767240205874,-2.01132184663881,-1.85747558275332,-0.666593376790182,-4.7213160435306,-3.24607021013369,0,0,0,0,0,0,0,0,0,0,0,0,-0.286914821023607,-0.782655550814712,0.230663646928533,2.96658629960679,-0.0812102690499988,-0.0348738152905294,-0.286891309910536,-0.782631394999481,0.23067053802947,2.96658982407334,-0.0811217678482522,-0.0348756223805592,0,0,0,0,0,0,0,0,0,0,0,0
2797.232,0.348732,8,0,7,1,1,0.1,0,0,0,0,0,0,0,0,0,0,7.31436760550266,-9.49905232142078,16.9880282486048,3.31606838005467,-0.536140327921454,-0.892840634776293,11,0,-1.72769624391665,-2.01136953035464,-1.85741502443422,-0.666605297719139,-4.7213160435306,-3.24603444734682,-1.72768432298769,-2.01133376756777,-1.85745078722109,-0.666593376790182,-4.72132808366884,-3.24603444734682,0,0,0,0,0,0,0,0,0,0,0,0,-0.286914821023607,-0.782655550814712,0.230663646928533,2.96658629960679,-0.0812102690499988,-0.0348738152905294,-0.286903661695462,-0.782640058232743,0.230674568539464,2.96657617170463,-0.0811938960562865,-0.0348924447506253,0,0,0,0,0,0,0,0,0,0,0,0
2797.24,0.339528,8,0,7,1,1,0.1,0,0,0,0,0,0,0,0,0,0,7.69703944026611,-8.34965617833729,18.396003429117,3.45311438146168,-0.487857128224168,-0.933886477516888,11,0,-1.72769624391665,-2.01136953035464,-1.85741502443422,-0.666605297719139,-4.7213160435306,-3.24603444734682,-1.72769624391665,-2.01132184663881,-1.85745078722109,-0.666593376790182,-4.72130412260164,-3.24607021013369,0,0,0,0,0,0,0,0,0,0,0,0,-0.286914821023607,-0.782655550814712,0.230663646928533,2.96658629960679,-0.0812102690499988,-0.0348738152905294,-0.286910617536409,-0.782635780669626,0.230684319497857,2.96656313660143,-0.0811549711571908,-0.0348655030999784,0,0,0,0,0,0,0,0,0,0,0,0
2797.248,0.338809,8,0,7,1,1,0.1,0,0,0,0,0,0,0,0,0,0,7.14271525371404,-9.51364716045478,17.28998016058,3.42526035578003,-0.483154550094053,-0.905198284180026,11,0,-1.72769624391665,-2.01136953035464,-1.85741502443422,-0.666605297719139,-4.7213160435306,-3.24603444734682,-1.72766048112978,-2.01134568849672,-1.85743886629214,-0.666593376790182,-4.72132808366884,-3.24603444734682,0,0,0,0,0,0,0,0,0,0,0,0,-0.286914821023607,-0.782655550814712,0.230663646928533,2.96658629960679,-0.0812102690499988,-0.0348738152905294,-0.286886026228025,-0.782653419216266,0.230671444681054,2.96657688849614,-0.0811585779357717,-0.0348892867420227,0,0,0,0,0,0,0,0,0,0,0,0
2797.256,0.347256,8,0,7,1,1,0.1,0,0,0,0,0,0,0,0,0,0,6.98572103744093,-9.53492069253969,17.1142884639181,3.33465073052051,-0.563277598086739,-0.859680811816092,11,0,-1.72769624391665,-2.01136953035464,-1.85741502443422,-0.666605297719139,-4.7213160435306,-3.24603444734682,-1.72768432298769,-2.01132184663881,-1.8574631849872,-0.666629616414205,-4.72128016153444,-3.24602228799929,0,0,0,0,0,0,0,0,0,0,0,0,-0.286914821023607,-0.782655550814712,0.230663646928533,2.96658629960679,-0.0812102690499988,-0.0348738152905294,-0.286897791440649,-0.782631515216515,0.230672716916673,2.96660673594971,-0.081205875280361,-0.0348135593693746,0,0,0,0,0,0,0,0,0,0,0,0
2797.264,0.425592,8,0,7,1,1,0.1,0,0,0,0,0,0,0,0,0,0,7.62009937534088,-8.4948221018408,18.3939608882677,3.4445106856247,-0.42905271005053,-0.915213119936654,11,0,-1.72769624391665,-2.01136953035464,-1.85741502443422,-0.666605297719139,-4.7213160435306,-3.24603444734682,-1.72766048112978,-2.01130992570986,-1.85743886629214,-0.666593376790182,-4.72132808366884,-3.24610621133913,0,0,0,0,0,0,0,0,0,0,0,0,-0.286914821023607,-0.782655550814712,0.230663646928533,2.96658629960679,-0.0812102690499988,-0.0348738152905294,-0.28688545479584,-0.782649796030728,0.230700692065226,2.96654500620257,-0.0810512053446111,-0.0349050595302133,0,0,0,0,0,0,0,0,0,0,0,0
2797.272,0.350568,8,0,7,1,1,0.1,0,0,0,0,0,0,0,0,0,0,8.0460265596337,-7.52300788559228,19.1787006460284,3.48439972017188,-0.373901311961371,-1.04110539425009,11,0,-1.72769624391665,-2.01136953035464,-1.85741502443422,-0.666605297719139,-4.7213160435306,-3.24603444734682,-1.72768432298769,-2.01132184663881,-1.85745078722109,-0.666593376790182,-4.72132808366884,-3.24605828920473,0,0,0,0,0,0,0,0,0,0,0,0,-0.286914821023607,-0.782655550814712,0.230663646928533,2.96658629960679,-0.0812102690499988,-0.0348738152905294,-0.286903471201607,-0.782638850586783,0.230684317603408,2.96656554108106,-0.0811582226558894,-0.0348976918839769,0,0,0,0,0,0,0,0,0,0,0,0
2797.28,0.342084,8,0,7,1,1,0.1,0,0,0,0,0,0,0,0,0,0,7.14167265889641,-9.30211853885355,17.6123345873791,3.42016015223299,-0.504214074283922,-0.843941011388017,11,0,-1.72769624391665,-2.01136953035464,-1.85741502443422,-0.666605297719139,-4.7213160435306,-3.24603444734682,-1.7277081648456,-2.01130992570986,-1.85743886629214,-0.666581455861227,-4.72135204473604,-3.24605828920473,0,0,0,0,0,0,0,0,0,0,0,0,-0.286914821023607,-0.782655550814712,0.230663646928533,2.96658629960679,-0.0812102690499988,-0.0348738152905294,-0.286925104148044,-0.782636590644238,0.230702241007902,2.96653193252546,-0.081196107803723,-0.034942524098739,0,0,0,0,0,0,0,0,0,0,0,0
2797.288,0.37542,8,0,7,1,1,0.1,0,0,0,0,0,0,0,0,0,0,7.30890587399097,-9.99733664770694,16.6106297296339,3.38249547814997,-0.568727333300986,-0.889078461328012,11,0,-1.72769624391665,-2.01136953035464,-1.85741502443422,-0.666605297719139,-4.7213160435306,-3.24603444734682,-1.72767240205874,-2.01133376756777,-1.85740310350527,-0.666581455861227,-4.7213400045978,-3.24603444734682,0,0,0,0,0,0,0,0,0,0,0,0,-0.286914821023607,-0.782655550814712,0.230663646928533,2.96658629960679,-0.0812102690499988,-0.0348738152905294,-0.286898899912858,-0.782665382261617,0.230702619932812,2.96651861231833,-0.0811766147016521,-0.034919029424464,0,0,0,0,0,0,0,0,0,0,0,0
2797.296,0.343669,8,0,7,1,1,0.1,0,0,0,0,0,0,0,0,0,0,5.73201543770645,-10.9106637773646,15.5893538550592,3.19258696023321,-0.710383141720113,-0.772515834166678,11,0,-1.72769624391665,-2.01136953035464,-1.85741502443422,-0.666605297719139,-4.7213160435306,-3.24603444734682,-1.72772008577456,-2.0112980047809,-1.8574631849872,-0.666593376790182,-4.7213160435306,-3.24609429041018,0,0,0,0,0,0,0,0,0,0,0,0,-0.286914821023607,-0.782655550814712,0.230663646928533,2.96658629960679,-0.0812102690499988,-0.0348738152905294,-0.286929114694195,-0.782620824447065,0.230696926205339,2.96655359294796,-0.0811558937032456,-0.0348914049888163,0,0,0,0,0,0,0,0,0,0,0,0
2797.304,0.351012,8,0,7,1,1,0.1,0,0,0,0,0,0,0,0,0,0,7.19972363203578,-10.005682252001,16.6594000935852,3.26778180472156,-0.617110214092785,-0.87714091269635,11,0,-1.72769624391665,-2.01136953035464,-1.85741502443422,-0.666605297719139,-4.7213160435306,-3.24603444734682,-1.72767240205874,-2.01136953035464,-1.85743886629214,-0.666605297719137,-4.72128016153444,-3.24604636827578,0,0,0,0,0,0,0,0,0,0,0,0,-0.286914821023607,-0.782655550814712,0.230663646928533,2.96658629960679,-0.0812102690499988,-0.0348738152905294,-0.286891223589828,-0.78265228885405,0.230650399467821,2.96660736178632,-0.0811528669069018,-0.0348152739002604,0,0,0,0,0,0,0,0,0,0,0,0
2797.312,0.342624,8,0,7,1,1,0.1,0,0,0,0,0,0,0,0,0,0,6.17570225033506,-11.3865294979048,15.5022566998784,3.3303927939434,-0.499972186254542,-0.899508588584662,11,0,-1.72769624391665,-2.01136953035464,-1.85741502443422,-0.666605297719139,-4.7213160435306,-3.24603444734682,-1.72766048112978,-2.01136953035464,-1.85745078722109,-0.666593376790182,-4.7213160435306,-3.24608236948122,0,0,0,0,0,0,0,0,0,0,0,0,-0.286914821023607,-0.782655550814712,0.230663646928533,2.96658629960679,-0.0812102690499988,-0.0348738152905294,-0.286884476156119,-0.782650696569907,0.230645322205497,2.96661352578275,-0.0810867656362882,-0.0348713433722488,0,0,0,0,0,0,0,0,0,0,0,0
2797.32,0.338256,8,0,7,1,1,0.1,0,0,0,0,0,0,0,0,0,0,8.00736237119213,-10.8682487373517,16.2802174617719,3.42817632551785,-0.348339825359961,-1.04379906334655,11,0,-1.72769624391665,-2.01136953035464,-1.85741502443422,-0.666605297719139,-4.7213160435306,-3.24603444734682,-1.72768432298769,-2.01132184663881,-1.85743886629214,-0.66661769548525,-4.72128016153444,-3.24605828920473,0,0,0,0,0,0,0,0,0,0,0,0,-0.286914821023607,-0.782655550814712,0.230663646928533,2.96658629960679,-0.0812102690499988,-0.0348738152905294,-0.28689963914803,-0.782643179971342,0.230687783242794,2.96657255120843,-0.0811517816693876,-0.0348247005255424,0,0,0,0,0,0,0,0,0,0,0,0
2797.328,0.337896,8,0,7,1,1,0.1,0,0,0,0,0,0,0,0,0,0,7.99963602361108,-6.80745849588732,19.6682269186501,3.54051153161043,-0.291342456551675,-0.942039095981178,11,0,-1.72769624391665,-2.01136953035464,-1.85741502443422,-0.666605297719139,-4.7213160435306,-3.24603444734682,-1.72762424150576,-2.01134568849672,-1.85742694536318,-0.666581455861227,-4.7213400045978,-3.24608236948122,0,0,0,0,0,0,0,0,0,0,0,0,-0.286914821023607,-0.782655550814712,0.230663646928533,2.96658629960679,-0.0812102690499988,-0.0348738152905294,-0.28685972936713,-0.782669780095319,0.230679619807281,2.96655804724008,-0.0810349385843007,-0.0349126578223305,0,0,0,0,0,0,0,0,0,0,0,0
2797.336,0.348517,8,0,7,1,1,0.1,0,0,0,0,0,0,0,0,0,0,6.98583210858458,-8.89153518373686,17.6821199593986,3.36428489277654,-0.557272547282847,-0.746600428884029,11,0,-1.72769624391665,-2.01136953035464,-1.85741502443422,-0.666605297719139,-4.7213160435306,-3.24603444734682,-1.72769624391665,-2.01134568849672,-1.8574631849872,-0.666593376790182,-4.7213160435306,-3.24605828920473,0,0,0,0,0,0,0,0,0,0,0,0,-0.286914821023607,-0.782655550814712,0.230663646928533,2.96658629960679,-0.0812102690499988,-0.0348738152905294,-0.286911217496159,-0.782632495627671,0.230657930245315,2.96659985632866,-0.0811751762096395,-0.0348750089671079,0,0,0,0,0,0,0,0,0,0,0,0
2797.344,0.3423,8,0,7,1,1,0.1,0,0,0,0,0,0,0,0,0,0,7.97664604445881,-7.64861729661744,18.9185874334153,3.54104686058977,-0.40077986773961,-0.951497973731095,11,0,-1.72769624391665,-2.01136953035464,-1.85741502443422,-0.666605297719139,-4.7213160435306,-3.24603444734682,-1.72768432298769,-2.01135760942568,-1.8574631849872,-0.666605297719137,-4.72128016153444,-3.24609429041018,0,0,0,0,0,0,0,0,0,0,0,0,-0.286914821023607,-0.782655550814712,0.230663646928533,2.96658629960679,-0.0812102690499988,-0.0348738152905294,-0.286898661890174,-0.782636821946283,0.23064663339918,2.96662176328254,-0.0810997035027462,-0.0348209131776741,0,0,0,0,0,0,0,0,0,0,0,0
2797.352,0.33972,8,0,7,1,1,0.1,0,0,0,0,0,0,0,0,0,0,7.85673354645629,-8.74326760373351,18.0697561521086,3.44504876562158,-0.427528560006248,-0.886592218877762,11,0,-1.72769624391665,-2.01136953035464,-1.85741502443422,-0.666605297719139,-4.7213160435306,-3.24603444734682,-1.72767240205874,-2.01134568849672,-1.85743886629214,-0.666581455861227,-4.7212920824634,-3.24602228799929,0,0,0,0,0,0,0,0,0,0,0,0,-0.286914821023607,-0.782655550814712,0.230663646928533,2.96658629960679,-0.0812102690499988,-0.0348738152905294,-0.286892222164337,-0.782651351101997,0.230672998302408,2.96656008899122,-0.0811892347602696,-0.0348384822973881,0,0,0,0,0,0,0,0,0,0,0,0
2797.36,0.346668,8,0,7,1,1,0.1,0,0,0,0,0,0,0,0,0,0,7.20606728760236,-10.1383460380491,17.1512891875026,3.53428482420344,-0.501058957084721,-0.991486383291873,11,0,-1.72769624391665,-2.01136953035464,-1.85741502443422,-0.666605297719139,-4.7213160435306,-3.24603444734682,-1.72769624391665,-2.01130992570986,-1.8574631849872,-0.666593376790182,-4.7213160435306,-3.24607021013369,0,0,0,0,0,0,0,0,0,0,0,0,-0.286914821023607,-0.782655550814712,0.230663646928533,2.96658629960679,-0.0812102690499988,-0.0348738152905294,-0.286910646009891,-0.782628872939962,0.230687177237195,2.96656493522407,-0.0811565497554011,-0.0348830425783377,0,0,0,0,0,0,0,0,0,0,0,0
2797.368,0.41544,8,0,7,1,1,0.1,0,0,0,0,0,0,0,0,0,0,7.71622022615021,-10.1507809702038,17.0090576515926,3.42982715528828,-0.461356361476398,-0.966688067466107,11,0,-1.72769624391665,-2.01136953035464,-1.85741502443422,-0.666605297719139,-4.7213160435306,-3.24603444734682,-1.7277081648456,-2.01130992570986,-1.85745078722109,-0.666581455861227,-4.7213160435306,-3.24605828920473,0,0,0,0,0,0,0,0,0,0,0,0,-0.286914821023607,-0.782655550814712,0.230663646928533,2.96658629960679,-0.0812102690499988,-0.0348738152905294,-0.286920989610322,-0.782631803945103,0.230695618373413,2.96653980304888,-0.0811914745589945,-0.0348874390284112,0,0,0,0,0,0,0,0,0,0,0,0
2797.376,0.346981,8,0,7,1,1,0.1,0,0,0,0,0,0,0,0,0,0,7.42425240479926,-9.93677710886389,16.8209277489671,3.38778626802393,-0.310819026377808,-0.819190947744766,11,0,-1.72769624391665,-2.01136953035464,-1.85741502443422,-0.666605297719139,-4.7213160435306,-3.24603444734682,-1.72767240205874,-2.01133376756777,-1.85745078722109,-0.666605297719137,-4.7213400045978,-3.24604636827578,0,0,0,0,0,0,0,0,0,0,0,0,-0.286914821023607,-0.782655550814712,0.230663646928533,2.96658629960679,-0.0812102690499988,-0.0348738152905294,-0.286895271575761,-0.782642478406151,0.230673016871193,2.96659029805867,-0.0811603180508335,-0.0349077703196872,0,0,0,0,0,0,0,0,0,0,0,0
2797.384,0.371532,8,0,7,1,1,0.1,0,0,0,0,0,0,0,0,0,0,7.63117697524548,-9.02899651038387,17.3801886732008,3.34248082163261,-0.466102206449348,-0.934472371841423,11,0,-1.72769624391665,-2.01136953035464,-1.85741502443422,-0.666605297719139,-4.7213160435306,-3.24603444734682,-1.72764856020083,-2.01132184663881,-1.85743886629214,-0.666593376790182,-4.7212920824634,-3.24605828920473,0,0,0,0,0,0,0,0,0,0,0,0,-0.286914821023607,-0.782655550814712,0.230663646928533,2.96658629960679,-0.0812102690499988,-0.0348738152905294,-0.286873034746538,-0.782654949914882,0.230690945818084,2.96655079795878,-0.0811000081269069,-0.0348421591026134,0,0,0,0,0,0,0,0,0,0,0,0
2797.392,0.409596,8,0,7,1,1,0.1,0,0,0,0,0,0,0,0,0,0,6.97471827714999,-10.7619799108818,15.962777613826,3.28485076856042,-0.472888474132527,-0.989206829499667,11,0,-1.72769624391665,-2.01136953035464,-1.85741502443422,-0.666605297719139,-4.7213160435306,-3.24603444734682,-1.72766048112978,-2.01132184663881,-1.85743886629214,-0.666593376790182,-4.7212920824634,-3.24609429041018,0,0,0,0,0,0,0,0,0,0,0,0,-0.286914821023607,-0.782655550814712,0.230663646928533,2.96658629960679,-0.0812102690499988,-0.0348738152905294,-0.286882364700206,-0.782651530066205,0.230690945818084,2.96655226392071,-0.081064303821495,-0.0348483576390104,0,0,0,0,0,0,0,0,0,0,0,0
2797.4,0.342444,8,0,7,1,1,0.1,0,0,0,0,0,0,0,0,0,0,7.30954886827514,-9.61641940784038,17.2279774400404,3.39486584410983,-0.300035203907936,-0.993847252585141,11,0,-1.72769624391665,-2.01136953035464,-1.85741502443422,-0.666605297719139,-4.7213160435306,-3.24603444734682,-1.72766048112978,-2.01133376756777,-1.8574631849872,-0.666593376790182,-4.7213160435306,-3.24607021013369,0,0,0,0,0,0,0,0,0,0,0,0,-0.286914821023607,-0.782655550814712,0.230663646928533,2.96658629960679,-0.0812102690499988,-0.0348738152905294,-0.286883037759471,-0.782641548417313,0.230667679257181,2.96658970470727,-0.0811041246539394,-0.0348740897265451,0,0,0,0,0,0,0,0,0,0,0,0
2797.408,0.383424,8,0,7,1,1,0.1,0,0,0,0,0,0,0,0,0,0,6.28561063147782,-9.37988843122669,17.0225770520328,3.25760546997599,-0.598449679334269,-0.909024708196685,11,0,-1.72769624391665,-2.01136953035464,-1.85741502443422,-0.666605297719139,-4.7213160435306,-3.24603444734682,-1.72768432298769,-2.0112980047809,-1.85743886629214,-0.666581455861227,-4.7213160435306,-3.24604636827578,0,0,0,0,0,0,0,0,0,0,0,0,-0.286914821023607,-0.782655550814712,0.230663646928533,2.96658629960679,-0.0812102690499988,-0.0348738152905294,-0.286902973434272,-0.782642749562057,0.230711992904872,2.96651622951295,-0.0811732036966958,-0.0348870657417381,0,0,0,0,0,0,0,0,0,0,0,0
2797.416,0.343812,8,0,7,1,1,0.1,0,0,0,0,0,0,0,0,0,0,7.0880522383342,-9.4460517628272,17.5455285043409,3.42165852952454,-0.507102255180221,-0.843302986345974,11,0,-1.72769624391665,-2.01136953035464,-1.85741502443422,-0.666605297719139,-4.7213160435306,-3.24603444734682,-1.72769624391665,-2.01134568849672,-1.85741502443422,-0.666569534932272,-4.72130412260164,-3.24602228799929,0,0,0,0,0,0,0,0,0,0,0,0,-0.286914821023607,-0.782655550814712,0.230663646928533,2.96658629960679,-0.0812102690499988,-0.0348738152905294,-0.286913793547105,-0.782655786797714,0.230687798768829,2.96652515545599,-0.0812255501249305,-0.0348656911344467,0,0,0,0,0,0,0,0,0,0,0,0
2797.424,0.341077,8,0,7,1,1,0.1,0,0,0,0,0,0,0,0,0,0,7.22311277446151,-9.31567173439397,17.0714852415181,3.2631208742688,-0.499866469462389,-0.840079876653072,11,0,-1.72769624391665,-2.01136953035464,-1.85741502443422,-0.666605297719139,-4.7213160435306,-3.24603444734682,-1.72767240205874,-2.01132184663881,-1.85743886629214,-0.666569534932272,-4.7213160435306,-3.24610621133913,0,0,0,0,0,0,0,0,0,0,0,0,-0.286914821023607,-0.782655550814712,0.230663646928533,2.96658629960679,-0.0812102690499988,-0.0348738152905294,-0.286894171206238,-0.782649411092754,0.230694045457622,2.96653147385417,-0.0810672381477381,-0.0348911608205852,0,0,0,0,0,0,0,0,0,0,0,0
2797.432,0.365844,8,0,7,1,1,0.1,0,0,0,0,0,0,0,0,0,0,7.62579225399696,-8.54966854915122,18.3447449249187,3.4498027545101,-0.563249792352627,-1.00690199123367,11,0,-1.72769624391665,-2.01136953035464,-1.85741502443422,-0.666605297719139,-4.7213160435306,-3.24603444734682,-1.72769624391665,-2.01133376756777,-1.85742694536318,-0.666593376790182,-4.7212920824634,-3.24602228799929,0,0,0,0,0,0,0,0,0,0,0,0,-0.286914821023607,-0.782655550814712,0.230663646928533,2.96658629960679,-0.0812102690499988,-0.0348738152905294,-0.286911378763329,-0.782647790742643,0.230687822038539,2.96654751437146,-0.0812241920120729,-0.0348435955672835,0,0,0,0,0,0,0,0,0,0,0,0
2797.44,0.341196,8,0,7,1,1,0.1,0,0,0,0,0,0,0,0,0,0,7.18834817086978,-8.62288287978993,17.6085093292621,3.33014853018465,-0.580936615424289,-0.827758481503897,11,0,-1.72769624391665,-2.01136953035464,-1.85741502443422,-0.666605297719139,-4.7213160435306,-3.24603444734682,-1.72766048112978,-2.01132184663881,-1.85747558275332,-0.66661769548525,-4.72130412260164,-3.24604636827578,0,0,0,0,0,0,0,0,0,0,0,0,-0.286914821023607,-0.782655550814712,0.230663646928533,2.96658629960679,-0.0812102690499988,-0.0348738152905294,-0.28688059487899,-0.782633304748021,0.230667375490732,2.96661181360785,-0.0811381573631862,-0.0348489137523414,0,0,0,0,0,0,0,0,0,0,0,0
2797.448,0.42174,8,0,7,1,1,0.1,0,0,0,0,0,0,0,0,0,0,6.30979799667008,-10.4265646891764,16.2989368089603,3.35319260706886,-0.576162891870334,-0.800572281406591,11,0,-1.72769624391665,-2.01136953035464,-1.85741502443422,-0.666605297719139,-4.7213160435306,-3.24603444734682,-1.72768432298769,-2.01134568849672,-1.85742694536318,-0.666605297719137,-4.72132808366884,-3.24603444734682,0,0,0,0,0,0,0,0,0,0,0,0,-0.286914821023607,-0.782655550814712,0.230663646928533,2.96658629960679,-0.0812102690499988,-0.0348738152905294,-0.286905373337567,-0.782651066698026,0.230676519210072,2.96657615686582,-0.0811938517057406,-0.034892235997344,0,0,0,0,0,0,0,0,0,0,0,0
2797.456,0.42222,8,0,7,1,1,0.1,0,0,0,0,0,0,0,0,0,0,7.75352510095465,-8.15272577481182,18.5120850415779,3.44032408596983,-0.392601799698866,-0.921459201380278,11,0,-1.72769624391665,-2.01136953035464,-1.85741502443422,-0.666605297719139,-4.7213160435306,-3.24603444734682,-1.72766048112978,-2.01132184663881,-1.85745078722109,-0.666593376790182,-4.72132808366884,-3.24604636827578,0,0,0,0,0,0,0,0,0,0,0,0,-0.286914821023607,-0.782655550814712,0.230663646928533,2.96658629960679,-0.0812102690499988,-0.0348738152905294,-0.286884811555797,-0.782645690676137,0.230684317603408,2.96656565877695,-0.081140530535424,-0.0348930665133496,0,0,0,0,0,0,0,0,0,0,0,0
2797.464,0.440293,8,0,7,1,1,0.1,0,0,0,0,0,0,0,0,0,0,7.28655100852301,-9.74410097184176,16.9044646881317,3.29959396864081,-0.498811813009373,-0.870087917776751,11,0,-1.72769624391665,-2.01136953035464,-1.85741502443422,-0.666605297719139,-4.7213160435306,-3.24603444734682,-1.72769624391665,-2.01132184663881,-1.8574631849872,-0.666581455861227,-4.7213160435306,-3.24604636827578,0,0,0,0,0,0,0,0,0,0,0,0,-0.286914821023607,-0.782655550814712,0.230663646928533,2.96658629960679,-0.0812102690499988,-0.0348738152905294,-0.286910983128813,-0.782630906272322,0.230678979009277,2.96656372461181,-0.0811920574385139,-0.0348800184928372,0,0,0,0,0,0,0,0,0,0,0,0
2797.472,0.435612,8,0,7,1,1,0.1,0,0,0,0,0,0,0,0,0,0,7.9330925846535,-7.90921860921338,18.5484726159528,3.41290460696258,-0.476488609972277,-0.992360395696488,11,0,-1.72769624391665,-2.01136953035464,-1.85741502443422,-0.666605297719139,-4.7213160435306,-3.24603444734682,-1.72769624391665,-2.01135760942568,-1.85743886629214,-0.666593376790182,-4.72132808366884,-3.24608236948122,0,0,0,0,0,0,0,0,0,0,0,0,-0.286914821023607,-0.782655550814712,0.230663646928533,2.96658629960679,-0.0812102690499988,-0.0348738152905294,-0.28691420639625,-0.782644366364076,0.230661695523848,2.96659008055402,-0.0811408811924323,-0.0348979453356785,0,0,0,0,0,0,0,0,0,0,0,0
2797.48,0.453492,8,0,7,1,1,0.1,0,0,0,0,0,0,0,0,0,0,7.60452701074059,-8.27586300780939,18.6529797940596,3.44698697093907,-0.535057480305471,-0.982978857765534,11,0,-1.72769624391665,-2.01136953035464,-1.85741502443422,-0.666605297719139,-4.7213160435306,-3.24603444734682,-1.7277081648456,-2.01132184663881,-1.85743886629214,-0.666605297719137,-4.7212920824634,-3.24603444734682,0,0,0,0,0,0,0,0,0,0,0,0,-0.286914821023607,-0.782655550814712,0.230663646928533,2.96658629960679,-0.0812102690499988,-0.0348738152905294,-0.2869195374948,-0.782637023924846,0.230689395052901,2.96655961837327,-0.0812239583597017,-0.034844561426915,0,0,0,0,0,0,0,0,0,0,0,0
2797.488,0.448212,8,0,7,1,2,0.1,0,0,0,0,0,0,0,0,0,0,7.6680816483303,-8.98404209210173,17.7616878201632,3.44560136731339,-0.469927754596949,-0.879314414366238,11,0,-1.72769624391665,-2.01136953035464,-1.85741502443422,-0.666605297719139,-4.7213160435306,-3.24603444734682,-1.72767240205874,-2.01134568849672,-1.85743886629214,-0.66661769548525,-4.72132808366884,-3.24607021013369,0,0,0,0,0,0,0,0,0,0,0,0,-0.286914821023607,-0.782655550814712,0.230663646928533,2.96658629960679,-0.0812102690499988,-0.0348738152905294,-0.286895057119701,-0.782648314814518,0.230668281171427,2.96660250006668,-0.0811235643927384,-0.0348909180080903,0,0,0,0,0,0,0,0,0,0,0,0
2797.496,0.423924,8,1,7,1,2,0.1,0,0,0,0,0,0,0,0,0,0,7.64634322084871,-9.41607023071676,17.5175253715759,3.4483478263381,-0.26585150463954,-0.914965509120848,11,0,-1.72769624391665,-2.01136953035464,-1.85741502443422,-0.666605297719139,-4.7213160435306,-3.24603444734682,-1.7277081648456,-2.01132184663881,-1.85747558275332,-0.666581455861227,-4.7212920824634,-3.24603444734682,0,0,0,0,0,0,0,0,0,0,0,0,-0.286914821023607,-0.782655550814712,0.230663646928533,2.96658629960679,-0.0812102690499988,-0.0348738152905294,-0.286917262001437,-0.782622310454347,0.23067209069416,2.96657243130241,-0.0812244373451766,-0.0348425731998611,0,0,0,0,0,0,0,0,0,0,0,0
