Miguel-LA/TFM_MiguelLerinAlonso/workspace/ros_ur_driver/src/trayectories/data/20240424_logViewer_j1.csv
timestamp,actual_execution_time,target_execution_time,speed_scaling,robot_mode,safety_mode,runtime_state,payload,payload_cog_0,payload_cog_1,payload_cog_2,payload_inertia_0,payload_inertia_1,payload_inertia_2,payload_inertia_3,payload_inertia_4,payload_inertia_5,script_control_line,wrench_calc_from_currents_0,wrench_calc_from_currents_1,wrench_calc_from_currents_2,wrench_calc_from_currents_3,wrench_calc_from_currents_4,wrench_calc_from_currents_5,motor_command,joint_position_deviation_ratio,target_q_0,target_q_1,target_q_2,target_q_3,target_q_4,target_q_5,actual_q_0,actual_q_1,actual_q_2,actual_q_3,actual_q_4,actual_q_5,target_qd_0,target_qd_1,target_qd_2,target_qd_3,target_qd_4,target_qd_5,actual_qd_0,actual_qd_1,actual_qd_2,actual_qd_3,actual_qd_4,actual_qd_5,target_TCP_pose_0,target_TCP_pose_1,target_TCP_pose_2,target_TCP_pose_3,target_TCP_pose_4,target_TCP_pose_5,actual_TCP_pose_0,actual_TCP_pose_1,actual_TCP_pose_2,actual_TCP_pose_3,actual_TCP_pose_4,actual_TCP_pose_5,target_TCP_speed_0,target_TCP_speed_1,target_TCP_speed_2,target_TCP_speed_3,target_TCP_speed_4,target_TCP_speed_5,actual_TCP_speed_0,actual_TCP_speed_1,actual_TCP_speed_2,actual_TCP_speed_3,actual_TCP_speed_4,actual_TCP_speed_5
2029.952,0.341892,8,0,7,1,1,0.1,0,0,0,0,0,0,0,0,0,0,4.40263133093842,-9.6269138033194,13.8522684589972,2.05005660667386,-0.913737661937739,-0.646770363724622,11,0,-1.72769624391665,-2.01136953035464,-1.85741502443422,-0.666605297719139,-4.7213160435306,-3.24603444734682,-1.72766048112978,-2.01130992570986,-1.85741502443422,-0.666593376790182,-4.7212920824634,-3.24601036707033,0,0,0,0,0,0,0,0,-1.27831735881045E-05,0,0,0,-0.286914821023607,-0.782655550814712,0.230663646928533,2.96658629960679,-0.0812102690499988,-0.0348738152905294,-0.286883841615736,-0.782660948228498,0.230713945949412,2.96651246136616,-0.0811879190568567,-0.0348438431805674,0,0,0,0,0,0,8.93995058385655E-07,5.69721027826522E-06,-7.1048028194234E-06,1.26350211428186E-05,-1.9402607064794E-06,3.40013974982008E-08
2029.96,0.34074,8,0,7,1,1,0.1,0,0,0,0,0,0,0,0,0,0,4.19144613569646,-10.5903967552519,13.0365620198862,2.05436584295283,-1.01555960638608,-0.6866739206274,11,0,-1.72769624391665,-2.01136953035464,-1.85741502443422,-0.666605297719139,-4.7213160435306,-3.24603444734682,-1.72767240205874,-2.01134568849672,-1.85742694536318,-0.666593376790182,-4.7212920824634,-3.24602228799929,0,0,0,0,0,0,0,0,-1.27831735881045E-05,0,0,0,-0.286914821023607,-0.782655550814712,0.230663646928533,2.96658629960679,-0.0812102690499988,-0.0348738152905294,-0.28689290939034,-0.782655838710018,0.230678072831706,2.96656008109278,-0.0811891375077678,-0.0348383481676736,0,0,0,0,0,0,8.94115331567265E-07,5.69753432624658E-06,-7.10452782366103E-06,1.26349978259248E-05,-1.94041250466146E-06,3.40034445761573E-08
2029.968,0.352788,8,0,7,1,1,0.1,0,0,0,0,0,0,0,0,0,0,4.60418635510897,-9.12860645243463,14.3861001338841,2.09778546769671,-1.00119858174845,-0.66166381340518,11,0,-1.72769624391665,-2.01136953035464,-1.85741502443422,-0.666605297719139,-4.7213160435306,-3.24603444734682,-1.72767240205874,-2.01134568849672,-1.85741502443422,-0.666593376790182,-4.72130412260164,-3.24596244493593,0,0,0,0,0,0,0,0,-1.27831735881045E-05,0,0,0,-0.286914821023607,-0.782655550814712,0.230663646928533,2.96658629960679,-0.0812102690499988,-0.0348738152905294,-0.286894840339921,-0.782660975908876,0.230684697208472,2.96654652007589,-0.0812792584511264,-0.0348504205603976,0,0,0,0,0,0,8.94102652226209E-07,5.69745056160161E-06,-7.10459647899614E-06,1.26349978259248E-05,-1.94041250466146E-06,3.40034445761573E-08
2029.976,0.348492,8,0,7,1,1,0.1,0,0,0,0,0,0,0,0,0,0,4.11903034386843,-10.0248644423847,13.1908095800049,1.96054068323987,-0.942893202585717,-0.610363723270271,11,0,-1.72769624391665,-2.01136953035464,-1.85741502443422,-0.666605297719139,-4.7213160435306,-3.24603444734682,-1.72767240205874,-2.01136953035464,-1.85741502443422,-0.666605297719137,-4.72128016153444,-3.24603444734682,0,0,0,0,0,0,0,0,-1.27831735881045E-05,0,0,0,-0.286914821023607,-0.782655550814712,0.230663646928533,2.96658629960679,-0.0812102690499988,-0.0348738152905294,-0.2868928912565,-0.782662915656512,0.230663649824634,2.96658305790583,-0.0811700193468338,-0.0348179107615684,0,0,0,0,0,0,8.94132095369246E-07,5.69763751652708E-06,-7.10444844836231E-06,1.26349977017277E-05,-1.94041328945533E-06,3.40048092711159E-08
2029.984,0.374845,8,0,7,1,1,0.1,0,0,0,0,0,0,0,0,0,0,5.55531532249006,-8.33581570242293,15.1531207584344,2.13140078969463,-0.827223462373635,-0.750524335232435,11,0,-1.72769624391665,-2.01136953035464,-1.85741502443422,-0.666605297719139,-4.7213160435306,-3.24603444734682,-1.72763616243471,-2.0112980047809,-1.85745078722109,-0.66661769548525,-4.72128016153444,-3.24599844614138,0,0,0,0,0,0,0,0,-1.27831735881045E-05,0,0,0,-0.286914821023607,-0.782655550814712,0.230663646928533,2.96658629960679,-0.0812102690499988,-0.0348738152905294,-0.286860731760845,-0.782649267473189,0.230700655958108,2.96655913892791,-0.0811687109024607,-0.0348129701446365,0,0,0,0,0,0,8.9388738657828E-07,5.69743959416256E-06,-7.1046435574985E-06,1.26350683857695E-05,-1.93995304631632E-06,3.40007151294107E-08
2029.992,0.422484,8,0,7,1,1,0.1,0,0,0,0,0,0,0,0,0,0,5.52152092727233,-8.45205467696726,14.9109609143081,2.1561966171946,-0.703099825647395,-0.686634216107012,11,0,-1.72769624391665,-2.01136953035464,-1.85741502443422,-0.666605297719139,-4.7213160435306,-3.24603444734682,-1.7277081648456,-2.01135760942568,-1.85741502443422,-0.666629616414205,-4.72128016153444,-3.24601036707033,0,0,0,0,0,0,0,0,-1.27831735881045E-05,0,0,0,-0.286914821023607,-0.782655550814712,0.230663646928533,2.96658629960679,-0.0812102690499988,-0.0348738152905294,-0.286920391673296,-0.782649763165545,0.230670235605187,2.96659306113019,-0.081258810175579,-0.0348170497563397,0,0,0,0,0,0,8.94328710952855E-07,5.69756186480206E-06,-7.10449533755757E-06,1.26349283611741E-05,-1.94086475854548E-06,3.40041269260046E-08
2030,0.354192,8,0,7,1,1,0.1,0,0,0,0,0,0,0,0,0,0,5.15940945983148,-9.51104452822085,14.395946289681,2.17460309136885,-0.83296334218039,-0.635662172197204,11,0,-1.72769624391665,-2.01136953035464,-1.85741502443422,-0.666605297719139,-4.7213160435306,-3.24603444734682,-1.72769624391665,-2.01132184663881,-1.85742694536318,-0.666605297719137,-4.72128016153444,-3.24602228799929,0,0,0,0,0,0,0,0,-1.27831735881045E-05,0,0,0,-0.286914821023607,-0.782655550814712,0.230663646928533,2.96658629960679,-0.0812102690499988,-0.0348738152905294,-0.286909955347666,-0.78264593159499,0.230696021430782,2.96654619580682,-0.0812224207451162,-0.0348259876853949,0,0,0,0,0,0,8.94227698439691E-07,5.69736532320428E-06,-7.10465470142191E-06,1.26349516835052E-05,-1.94071296117403E-06,3.40020798622553E-08
2030.008,0.351648,8,0,7,1,1,0.1,0,0,0,0,0,0,0,0,0,0,4.91660430897847,-8.78716667421032,14.6641321850411,2.08196740245788,-0.975218634402681,-0.665710967362003,11,0,-1.72769624391665,-2.01136953035464,-1.85741502443422,-0.666605297719139,-4.7213160435306,-3.24603444734682,-1.72769624391665,-2.01133376756777,-1.85742694536318,-0.666593376790182,-4.72128016153444,-3.24603444734682,0,0,0,0,0,0,0,0,-1.27831735881045E-05,0,0,0,-0.286914821023607,-0.782655550814712,0.230663646928533,2.96658629960679,-0.0812102690499988,-0.0348738152905294,-0.286910292480382,-0.782647965012757,0.230687823013667,2.96654681470511,-0.0812045386673935,-0.0348276199654423,0,0,0,0,0,0,8.94237946090712E-07,5.69742937846666E-06,-7.10459666798736E-06,1.26349516214005E-05,-1.9407133535494E-06,3.40027622215742E-08
2030.016,0.349944,8,0,7,1,1,0.1,0,0,0,0,0,0,0,0,0,0,4.95362425383329,-8.29556706114684,15.1014686867197,2.13376456973541,-0.967086615184675,-0.55357404943025,11,0,-1.72769624391665,-2.01136953035464,-1.85741502443422,-0.666605297719139,-4.7213160435306,-3.24603444734682,-1.72768432298769,-2.01133376756777,-1.85742694536318,-0.66664153734316,-4.72130412260164,-3.24599844614138,0,0,0,0,0,0,0,0,-1.27831735881045E-05,0,0,0,-0.286914821023607,-0.782655550814712,0.230663646928533,2.96658629960679,-0.0812102690499988,-0.0348738152905294,-0.286902553749343,-0.782647699246196,0.230681556036784,2.96659583428814,-0.0812441724638211,-0.034847713151179,0,0,0,0,0,0,8.94182063505695E-07,5.69751916719904E-06,-7.10455318391024E-06,1.26349747556087E-05,-1.94056273305088E-06,3.40027622215742E-08
2030.024,0.350449,8,0,7,1,1,0.1,0,0,0,0,0,0,0,0,0,0,5.64171268123588,-10.8836521028323,12.9026043810755,1.97928283955263,-1.20568641697285,-0.622569375120755,11,0,-1.72769624391665,-2.01136953035464,-1.85741502443422,-0.666605297719139,-4.7213160435306,-3.24603444734682,-1.72767240205874,-2.01134568849672,-1.85743886629214,-0.666605297719137,-4.72130412260164,-3.24601036707033,0,0,0,0,0,0,0,0,-1.27831735881045E-05,0,0,0,-0.286914821023607,-0.782655550814712,0.230663646928533,2.96658629960679,-0.0812102690499988,-0.0348738152905294,-0.286893026139538,-0.782649523779001,0.230669895830364,2.96658449643693,-0.0812088826745954,-0.034850218634471,0,0,0,0,0,0,8.94130983593513E-07,5.69763763867088E-06,-7.10444826106296E-06,1.26349978259248E-05,-1.94041250466146E-06,3.40034445761573E-08
2030.032,0.425593,8,0,7,1,1,0.1,0,0,0,0,0,0,0,0,0,0,4.0930362465864,-8.41720740844374,14.5439661920582,2.12259050757981,-0.703552535505211,-0.628045065626278,11,0,-1.72769624391665,-2.01136953035464,-1.85741502443422,-0.666605297719139,-4.7213160435306,-3.24603444734682,-1.72772008577456,-2.01133376756777,-1.85742694536318,-0.66661769548525,-4.72128016153444,-3.24596244493593,0,0,0,0,0,0,0,0,-1.27831735881045E-05,0,0,0,-0.286914821023607,-0.782655550814712,0.230663646928533,2.96658629960679,-0.0812102690499988,-0.0348738152905294,-0.286928653067777,-0.782639440005646,0.23068465946331,2.96656658421314,-0.0813470285104093,-0.0348168555563562,0,0,0,0,0,0,8.94379866364445E-07,5.69744803788328E-06,-7.10457480630487E-06,1.26349053475974E-05,-1.94101459371904E-06,3.40027622215742E-08
2030.04,0.392844,8,0,7,1,1,0.1,0,0,0,0,0,0,0,0,0,0,3.82454813162192,-11.0884923317562,12.6122171646545,1.98300895029898,-1.17824430512521,-0.684941905299653,11,0,-1.72769624391665,-2.01136953035464,-1.85741502443422,-0.666605297719139,-4.7213160435306,-3.24603444734682,-1.72766048112978,-2.01135760942568,-1.85740310350527,-0.666629616414205,-4.7212681213962,-3.24602228799929,0,0,0,0,0,0,0,0,-1.27831735881045E-05,0,0,0,-0.286914821023607,-0.782655550814712,0.230663646928533,2.96658629960679,-0.0812102690499988,-0.0348738152905294,-0.286882808291358,-0.782668932930516,0.230676861921612,2.96658193637018,-0.0811684885022443,-0.0347967899942735,0,0,0,0,0,0,8.94044358879888E-07,5.69752078855121E-06,-7.10456418294322E-06,1.26350208944534E-05,-1.94026227600582E-06,3.40041269260046E-08
2030.048,0.358092,8,0,7,1,1,0.1,0,0,0,0,0,0,0,0,0,0,5.71181688834263,-8.34109221471123,15.1067391737404,2.13084506979564,-0.602550756690595,-0.73224946981645,11,0,-1.72769624391665,-2.01136953035464,-1.85741502443422,-0.666605297719139,-4.7213160435306,-3.24603444734682,-1.72768432298769,-2.01133376756777,-1.85743886629214,-0.666593376790182,-4.72128016153444,-3.24603444734682,0,0,0,0,0,0,0,0,-1.27831735881045E-05,0,0,0,-0.286914821023607,-0.782655550814712,0.230663646928533,2.96658629960679,-0.0812102690499988,-0.0348738152905294,-0.286900128706407,-0.782646072016331,0.230681197664979,2.96655902611047,-0.0811871167022937,-0.0348239888350569,0,0,0,0,0,0,8.94182703618354E-07,5.69752377767591E-06,-7.10452791795402E-06,1.26349747556087E-05,-1.94056273305088E-06,3.40027622215742E-08
2030.056,0.3507,8,0,7,1,1,0.1,0,0,0,0,0,0,0,0,0,0,4.75733826813753,-9.92487098319909,13.4313077971347,2.0333656275855,-0.950270846642073,-0.582368675139888,11,0,-1.72769624391665,-2.01136953035464,-1.85741502443422,-0.666605297719139,-4.7213160435306,-3.24603444734682,-1.72772008577456,-2.0112980047809,-1.85745078722109,-0.666605297719137,-4.72128016153444,-3.24602228799929,0,0,0,0,0,0,0,0,-1.27831735881045E-05,0,0,0,-0.286914821023607,-0.782655550814712,0.230663646928533,2.96658629960679,-0.0812102690499988,-0.0348738152905294,-0.28692656577807,-0.7826260490649,0.230702268753685,2.96654548475736,-0.081257685593663,-0.0348292208052601,0,0,0,0,0,0,8.94362430326288E-07,5.6973441733794E-06,-7.10465470254708E-06,1.26349055339357E-05,-1.94101341662149E-06,3.40007151294107E-08
2030.064,0.351468,8,0,7,1,1,0.1,0,0,0,0,0,0,0,0,0,0,5.49366622228409,-7.30779583848378,16.192628173487,2.26147034817339,-0.606207367034976,-0.764120345549468,11,0,-1.72769624391665,-2.01136953035464,-1.85741502443422,-0.666605297719139,-4.7213160435306,-3.24603444734682,-1.72767240205874,-2.01130992570986,-1.85741502443422,-0.666593376790182,-4.7212920824634,-3.24602228799929,0,0,0,0,0,0,0,0,-1.27831735881045E-05,0,0,0,-0.286914821023607,-0.782655550814712,0.230663646928533,2.96658629960679,-0.0812102690499988,-0.0348738152905294,-0.286893171640911,-0.782657528250992,0.230713945949412,2.96651270500523,-0.0811879257248042,-0.0348469276344443,0,0,0,0,0,0,8.94062974361101E-07,5.69719962060883E-06,-7.10480281942338E-06,1.26349980122108E-05,-1.94041132753092E-06,3.40013974982008E-08
2030.072,0.349417,8,0,7,1,1,0.1,0,0,0,0,0,0,0,0,0,0,4.6533581437339,-8.54748530032569,14.907009423916,2.16541722824019,-0.9301089732535,-0.675895102975907,11,0,-1.72769624391665,-2.01136953035464,-1.85741502443422,-0.666605297719139,-4.7213160435306,-3.24603444734682,-1.72766048112978,-2.01132184663881,-1.85741502443422,-0.666605297719137,-4.72125608125796,-3.24596244493593,0,0,0,0,0,0,0,0,-1.27831735881045E-05,0,0,0,-0.286914821023607,-0.782655550814712,0.230663646928533,2.96658629960679,-0.0812102690499988,-0.0348738152905294,-0.286880604974053,-0.782661856794173,0.230702648907082,2.96652973131824,-0.0812545731200601,-0.0347802619669343,0,0,0,0,0,0,8.94011277793476E-07,5.69731360759561E-06,-7.10472363891672E-06,1.26350210807292E-05,-1.94026109884895E-06,3.40020798622553E-08
2030.08,0.355896,8,0,7,1,1,0.1,0,0,0,0,0,0,0,0,0,0,5.81144050312931,-9.33475516578649,14.0373792357495,2.08132304466887,-0.643492544410829,-0.810011314089439,11,0,-1.72769624391665,-2.01136953035464,-1.85741502443422,-0.666605297719139,-4.7213160435306,-3.24603444734682,-1.72767240205874,-2.01132184663881,-1.85745078722109,-0.666605297719137,-4.72128016153444,-3.24599844614138,0,0,0,0,0,0,0,0,-1.27831735881045E-05,0,0,0,-0.286914821023607,-0.782655550814712,0.230663646928533,2.96658629960679,-0.0812102690499988,-0.0348738152905294,-0.286889627941392,-0.782642145504376,0.230682770689281,2.96656940727672,-0.0812229344307635,-0.0348156423233599,0,0,0,0,0,0,8.94117212987681E-07,5.69755412142801E-06,-7.10451720189217E-06,1.26349979501167E-05,-1.94041171989974E-06,3.40020798622553E-08
2030.088,0.420864,8,0,7,1,1,0.1,0,0,0,0,0,0,0,0,0,0,4.470961431721,-10.7503818837091,13.2728568275052,2.11242945007481,-0.891103414020535,-0.594963122637417,11,0,-1.72769624391665,-2.01136953035464,-1.85741502443422,-0.666605297719139,-4.7213160435306,-3.24603444734682,-1.72769624391665,-2.01130992570986,-1.85743886629214,-0.666629616414205,-4.72128016153444,-3.24602228799929,0,0,0,0,0,0,0,0,-1.27831735881045E-05,0,0,0,-0.286914821023607,-0.782655550814712,0.230663646928533,2.96658629960679,-0.0812102690499988,-0.0348738152905294,-0.286908631823037,-0.782637726350938,0.23069598158122,2.9665703589939,-0.0812227069988519,-0.0348215267212486,0,0,0,0,0,0,8.9423322889306E-07,5.69740539058827E-06,-7.104632840302E-06,1.26349517456086E-05,-1.9407125688067E-06,3.40013974982008E-08
2030.096,0.41964,8,0,7,1,1,0.1,0,0,0,0,0,0,0,0,0,0,4.2306597714498,-11.2808116636467,11.8950193236976,1.86863773605062,-0.813965850519817,-0.630280337114636,11,0,-1.72769624391665,-2.01136953035464,-1.85741502443422,-0.666605297719139,-4.7213160435306,-3.24603444734682,-1.72767240205874,-2.01134568849672,-1.85741502443422,-0.66661769548525,-4.72128016153444,-3.24602228799929,0,0,0,0,0,0,0,0,-1.27831735881045E-05,0,0,0,-0.286914821023607,-0.782655550814712,0.230663646928533,2.96658629960679,-0.0812102690499988,-0.0348738152905294,-0.286892357870678,-0.782659641817664,0.230681535605137,2.96657107063533,-0.0811875920189667,-0.0348183535049977,0,0,0,0,0,0,8.94108741677159E-07,5.69749059286537E-06,-7.10457480574222E-06,1.26349978259248E-05,-1.94041250466146E-06,3.40034445761573E-08
2030.104,0.358212,8,0,7,1,1,0.1,0,0,0,0,0,0,0,0,0,0,3.87946305036667,-10.9579196056121,12.5363464633109,1.97907154350108,-0.896858725252347,-0.61898018271495,11,0,-1.72769624391665,-2.01136953035464,-1.85741502443422,-0.666605297719139,-4.7213160435306,-3.24603444734682,-1.72763616243471,-2.01136953035464,-1.85742694536318,-0.666605297719137,-4.72130412260164,-3.24599844614138,0,0,0,0,0,0,0,0,-1.27831735881045E-05,0,0,0,-0.286914821023607,-0.782655550814712,0.230663646928533,2.96658629960679,-0.0812102690499988,-0.0348738152905294,-0.286865877472876,-0.782667648486762,0.23065702266743,2.96659682686461,-0.0811731663706425,-0.0348417528378374,0,0,0,0,0,0,8.93938278342331E-07,5.69775360447847E-06,-7.10437950764937E-06,1.26350680132789E-05,-1.939955400615E-06,3.40048092711159E-08
2030.112,0.351061,8,0,7,1,1,0.1,0,0,0,0,0,0,0,0,0,0,4.79031685097112,-10.2733885503123,13.2672584846418,2.03109357602975,-0.803782749665103,-0.636724162661567,11,0,-1.72769624391665,-2.01136953035464,-1.85741502443422,-0.666605297719139,-4.7213160435306,-3.24603444734682,-1.72768432298769,-2.01135760942568,-1.85743886629214,-0.66661769548525,-4.7212920824634,-3.24601036707033,0,0,0,0,0,0,0,0,-1.27831735881045E-05,0,0,0,-0.286914821023607,-0.782655550814712,0.230663646928533,2.96658629960679,-0.0812102690499988,-0.0348738152905294,-0.286901296879536,-0.782646628430305,0.230658534900727,2.96660696082485,-0.0812254203268073,-0.0348295605031352,0,0,0,0,0,0,8.94215236999558E-07,5.69773103853277E-06,-7.10436845687743E-06,1.26349746314048E-05,-1.94056351782719E-06,3.40041269260046E-08
2030.12,0.348672,8,0,7,1,1,0.1,0,0,0,0,0,0,0,0,0,0,3.19708935632325,-10.828478205327,12.8222748667942,2.01931842358421,-1.23481127091017,-0.61847803930569,11,0,-1.72769624391665,-2.01136953035464,-1.85741502443422,-0.666605297719139,-4.7213160435306,-3.24603444734682,-1.72768432298769,-2.01134568849672,-1.85740310350527,-0.666593376790182,-4.72125608125796,-3.24601036707033,0,0,0,0,0,0,0,0,-1.27831735881045E-05,0,0,0,-0.286914821023607,-0.782655550814712,0.230663646928533,2.96658629960679,-0.0812102690499988,-0.0348738152905294,-0.286900626487578,-0.782663571152025,0.230691326577722,2.96653143551595,-0.0812190787910952,-0.0347895300852237,0,0,0,0,0,0,8.94157910899218E-07,5.69735626125393E-06,-7.10466560569485E-06,1.26349746935074E-05,-1.94056312543502E-06,3.40034445761573E-08
2030.128,0.349896,8,0,7,1,1,0.1,0,0,0,0,0,0,0,0,0,0,5.13493680613115,-8.15757172050694,15.4595300780311,2.29121145401232,-0.579075800113676,-0.798489471320553,11,0,-1.72769624391665,-2.01136953035464,-1.85741502443422,-0.666605297719139,-4.7213160435306,-3.24603444734682,-1.72767240205874,-2.01133376756777,-1.85740310350527,-0.666605297719137,-4.7212920824634,-3.24601036707033,0,0,0,0,0,0,0,0,-1.27831735881045E-05,0,0,0,-0.286914821023607,-0.782655550814712,0.230663646928533,2.96658629960679,-0.0812102690499988,-0.0348738152905294,-0.286894239890409,-0.782664431559029,0.230699522142907,2.96653577590132,-0.0812061394124905,-0.0348409244676489,0,0,0,0,0,0,8.94079734723387E-07,5.69730279001367E-06,-7.10472335537976E-06,1.26349978880214E-05,-1.94041211227658E-06,3.40027622215742E-08
2030.136,0.422736,8,0,7,1,1,0.1,0,0,0,0,0,0,0,0,0,0,5.20172179092478,-8.61055519364438,14.5866582480308,2.12654989359961,-0.891561508140009,-0.624013705055822,11,0,-1.72769624391665,-2.01136953035464,-1.85741502443422,-0.666605297719139,-4.7213160435306,-3.24603444734682,-1.72764856020083,-2.01136953035464,-1.85743886629214,-0.666629616414205,-4.72125608125796,-3.24599844614138,0,0,0,0,0,0,0,0,-1.27831735881045E-05,0,0,0,-0.286914821023607,-0.782655550814712,0.230663646928533,2.96658629960679,-0.0812102690499988,-0.0348738152905294,-0.286870070292801,-0.7826577960469,0.230647238028235,2.96662714675721,-0.0811856309038689,-0.0347660110602801,0,0,0,0,0,0,8.94027686896242E-07,5.69786633793237E-06,-7.1042892679175E-06,1.26350439611946E-05,-1.94011204708396E-06,3.40048092711159E-08
2030.144,0.356664,8,0,7,1,1,0.1,0,0,0,0,0,0,0,0,0,0,4.78438077432925,-9.32247432079852,13.9692062881128,2.02466727559612,-1.00890986250232,-0.715716926564616,11,0,-1.72769624391665,-2.01136953035464,-1.85741502443422,-0.666605297719139,-4.7213160435306,-3.24603444734682,-1.72766048112978,-2.01135760942568,-1.85737926164736,-0.66664153734316,-4.7212681213962,-3.24603444734682,0,0,0,0,0,0,0,0,-1.27831735881045E-05,0,0,0,-0.286914821023607,-0.782655550814712,0.230663646928533,2.96658629960679,-0.0812102690499988,-0.0348738152905294,-0.286884329170634,-0.782678733542345,0.230688561995964,2.9665706967866,-0.0811500954614167,-0.0348003174517676,0,0,0,0,0,0,8.94021990928243E-07,5.69737290615113E-06,-7.10469096478315E-06,1.26350208944534E-05,-1.94026227600582E-06,3.40041269260046E-08
2030.152,0.354444,8,0,7,1,1,0.1,0,0,0,0,0,0,0,0,0,0,3.52672785307167,-11.6130268280559,11.5682284915101,1.87588286219136,-1.06108343182182,-0.673576278053523,11,0,-1.72769624391665,-2.01136953035464,-1.85741502443422,-0.666605297719139,-4.7213160435306,-3.24603444734682,-1.72766048112978,-2.01132184663881,-1.85741502443422,-0.66661769548525,-4.7212681213962,-3.24601036707033,0,0,0,0,0,0,0,0,-1.27831735881045E-05,0,0,0,-0.286914821023607,-0.782655550814712,0.230663646928533,2.96658629960679,-0.0812102690499988,-0.0348738152905294,-0.286881549693641,-0.782660822176667,0.230701035089845,2.96654581196824,-0.0811853155191216,-0.0348018729884392,0,0,0,0,0,0,8.94014373841136E-07,5.697333966088E-06,-7.10471239950538E-06,1.26350210807292E-05,-1.94026109884895E-06,3.40020798622553E-08
2030.16,0.354084,8,0,7,1,1,0.1,0,0,0,0,0,0,0,0,0,0,3.83954963646255,-11.6687425158678,11.8434398383047,1.96426486606626,-0.564703349259892,-0.791637113739626,11,0,-1.72769624391665,-2.01136953035464,-1.85741502443422,-0.666605297719139,-4.7213160435306,-3.24603444734682,-1.72763616243471,-2.01134568849672,-1.85741502443422,-0.666593376790182,-4.7212681213962,-3.24603444734682,0,0,0,0,0,0,0,0,-1.27831735881045E-05,0,0,0,-0.286914821023607,-0.782655550814712,0.230663646928533,2.96658629960679,-0.0812102690499988,-0.0348738152905294,-0.286863196205934,-0.782671898454828,0.230684700153534,2.96654730157443,-0.081113820225413,-0.0348020500777202,0,0,0,0,0,0,8.93896190348776E-07,5.69748303414514E-06,-7.10459676206268E-06,1.26350681374476E-05,-1.93995461581663E-06,3.40034445761573E-08
2030.168,0.348708,8,0,7,1,1,0.1,0,0,0,0,0,0,0,0,0,0,5.13722227996743,-7.93542005251172,15.7126504491794,2.21349522459317,-1.16523246536812,-0.665060325575793,11,0,-1.72769624391665,-2.01136953035464,-1.85741502443422,-0.666605297719139,-4.7213160435306,-3.24603444734682,-1.72764856020083,-2.01136953035464,-1.85743886629214,-0.666605297719137,-4.7212920824634,-3.24599844614138,0,0,0,0,0,0,0,0,-1.27831735881045E-05,0,0,0,-0.286914821023607,-0.782655550814712,0.230663646928533,2.96658629960679,-0.0812102690499988,-0.0348738152905294,-0.286873649914899,-0.782658954433171,0.230650398492861,2.96660696916263,-0.0811901857985048,-0.0348235432043683,0,0,0,0,0,0,8.94021594631451E-07,5.69782628359852E-06,-7.10431084904692E-06,1.26350439611946E-05,-1.94011204708396E-06,3.40048092711159E-08
2030.176,0.348816,8,0,7,1,1,0.1,0,0,0,0,0,0,0,0,0,0,4.74783473524654,-8.98285358623998,14.1991860497748,2.05897751113414,-0.835806956270315,-0.660626582917251,11,0,-1.72769624391665,-2.01136953035464,-1.85741502443422,-0.666605297719139,-4.7213160435306,-3.24603444734682,-1.72763616243471,-2.01135760942568,-1.8574631849872,-0.666593376790182,-4.7212681213962,-3.24601036707033,0,0,0,0,0,0,0,0,-1.27831735881045E-05,0,0,0,-0.286914821023607,-0.782655550814712,0.230663646928533,2.96658629960679,-0.0812102690499988,-0.0348738152905294,-0.286860018745911,-0.782651639918537,0.23064818511164,2.96660579211964,-0.0811509111887816,-0.0347883336926003,0,0,0,0,0,0,8.93960608806329E-07,5.69790499002337E-06,-7.10425025105203E-06,1.26350680753639E-05,-1.9399550082118E-06,3.40041269260046E-08
2030.184,0.374196,8,0,7,1,1,0.1,0,0,0,0,0,0,0,0,0,0,5.71698645607342,-8.76995678084772,14.585848003241,2.04044368774113,-0.919606431489957,-0.645486540091667,11,0,-1.72769624391665,-2.01136953035464,-1.85741502443422,-0.666605297719139,-4.7213160435306,-3.24603444734682,-1.72769624391665,-2.01130992570986,-1.85743886629214,-0.666629616414205,-4.72128016153444,-3.24601036707033,0,0,0,0,0,0,0,0,-1.27831735881045E-05,0,0,0,-0.286914821023607,-0.782655550814712,0.230663646928533,2.96658629960679,-0.0812102690499988,-0.0348738152905294,-0.286908631823037,-0.782637726350938,0.23069598158122,2.96656975307941,-0.0812403858008575,-0.0348199849860636,0,0,0,0,0,0,8.9423322889306E-07,5.69740539058827E-06,-7.104632840302E-06,1.26349517456086E-05,-1.9407125688067E-06,3.40013974982008E-08
2030.192,0.419832,8,0,7,1,1,0.1,0,0,0,0,0,0,0,0,0,0,4.3506893827955,-12.5749765340913,11.1085495617176,1.90387041793757,-0.69071202571888,-0.739227497001928,11,0,-1.72769624391665,-2.01136953035464,-1.85741502443422,-0.666605297719139,-4.7213160435306,-3.24603444734682,-1.72768432298769,-2.01134568849672,-1.85740310350527,-0.666605297719137,-4.7213160435306,-3.24604636827578,0,0,0,0,0,0,0,0,-1.27831735881045E-05,0,0,0,-0.286914821023607,-0.782655550814712,0.230663646928533,2.96658629960679,-0.0812102690499988,-0.0348738152905294,-0.286905943911104,-0.782661869018838,0.230689770896586,2.96655173367202,-0.0811740097871699,-0.0348802318408339,0,0,0,0,0,0,8.94160871918274E-07,5.697375736435E-06,-7.10465441808113E-06,1.26349746935074E-05,-1.94056312543502E-06,3.40034445761573E-08
2030.2,0.355177,8,0,7,1,1,0.1,0,0,0,0,0,0,0,0,0,0,4.96877947146564,-9.42787531430903,14.2375064149514,2.0820324371654,-1.08061913716949,-0.676134000109053,11,0,-1.72769624391665,-2.01136953035464,-1.85741502443422,-0.666605297719139,-4.7213160435306,-3.24603444734682,-1.72766048112978,-2.01130992570986,-1.85747558275332,-0.66661769548525,-4.72130412260164,-3.24599844614138,0,0,0,0,0,0,0,0,-1.27831735881045E-05,0,0,0,-0.286914821023607,-0.782655550814712,0.230663646928533,2.96658629960679,-0.0812102690499988,-0.0348738152905294,-0.286880404427312,-0.782632097182218,0.230677124386411,2.96659753654391,-0.0812089109801238,-0.0348448805388913,0,0,0,0,0,0,8.94065520841605E-07,5.69767563636146E-06,-7.10443161680202E-06,1.26350211428186E-05,-1.9402607064794E-06,3.40013974982008E-08
2030.208,0.355644,8,0,7,1,1,0.1,0,0,0,0,0,0,0,0,0,0,5.05693201157296,-9.18811000657931,14.2564398210212,2.12378180792718,-1.0828323095464,-0.676839970941338,11,0,-1.72769624391665,-2.01136953035464,-1.85741502443422,-0.666605297719139,-4.7213160435306,-3.24603444734682,-1.72772008577456,-2.01134568849672,-1.85741502443422,-0.666629616414205,-4.72125608125796,-3.24602228799929,0,0,0,0,0,0,0,0,-1.27831735881045E-05,0,0,0,-0.286914821023607,-0.782655550814712,0.230663646928533,2.96658629960679,-0.0812102690499988,-0.0348738152905294,-0.286927336751839,-0.782645487234629,0.230679986869642,2.96657880018509,-0.081255226219854,-0.0347868488364549,0,0,0,0,0,0,8.94383408197679E-07,5.69746759968633E-06,-7.10456427810973E-06,1.2634905285482E-05,-1.94101498610096E-06,3.40034445761573E-08
2030.216,0.348912,8,0,7,1,1,0.1,0,0,0,0,0,0,0,0,0,0,5.4168323400605,-8.3342194830029,14.8658834204105,2.04464678750897,-0.777109831027859,-0.641757421215578,11,0,-1.72769624391665,-2.01136953035464,-1.85741502443422,-0.666605297719139,-4.7213160435306,-3.24603444734682,-1.72764856020083,-2.01132184663881,-1.85745078722109,-0.66664153734316,-4.7212920824634,-3.24598628679384,0,0,0,0,0,0,0,0,-1.27831735881045E-05,0,0,0,-0.286914821023607,-0.782655550814712,0.230663646928533,2.96658629960679,-0.0812102690499988,-0.0348738152905294,-0.286871608930298,-0.78264630092253,0.230678055479897,2.96660682904966,-0.0812077216661571,-0.0348217781429746,0,0,0,0,0,0,8.93990429211718E-07,5.69763499231765E-06,-7.10448452817758E-06,1.26350442095462E-05,-1.94011047752244E-06,3.40020798622553E-08
2030.224,0.351912,8,0,7,1,1,0.1,0,0,0,0,0,0,0,0,0,0,4.68620203520057,-8.43951826072913,14.9423556162538,2.14225205474604,-0.877887998056761,-0.74201437340225,11,0,-1.72769624391665,-2.01136953035464,-1.85741502443422,-0.666605297719139,-4.7213160435306,-3.24603444734682,-1.72768432298769,-2.01135760942568,-1.85743886629214,-0.66661769548525,-4.72128016153444,-3.24599844614138,0,0,0,0,0,0,0,0,-1.27831735881045E-05,0,0,0,-0.286914821023607,-0.782655550814712,0.230663646928533,2.96658629960679,-0.0812102690499988,-0.0348738152905294,-0.286900210594478,-0.78264680268726,0.230658535875721,2.96660503737064,-0.0812414787356877,-0.0348104703139486,0,0,0,0,0,0,8.94215241032976E-07,5.69773106315191E-06,-7.10436855060449E-06,1.26349746314048E-05,-1.94056351782719E-06,3.40041269260046E-08
2030.232,0.439992,8,0,7,1,1,0.1,0,0,0,0,0,0,0,0,0,0,4.42198404476826,-10.3249539942794,13.1705088142849,2.08050603254107,-0.831031906375671,-0.719736581062308,11,0,-1.72769624391665,-2.01136953035464,-1.85741502443422,-0.666605297719139,-4.7213160435306,-3.24603444734682,-1.72767240205874,-2.01135760942568,-1.85740310350527,-0.666629616414205,-4.7213160435306,-3.24605828920473,0,0,0,0,0,0,0,0,-1.27831735881045E-05,0,0,0,-0.286914821023607,-0.782655550814712,0.230663646928533,2.96658629960679,-0.0812102690499988,-0.0348738152905294,-0.28689650528531,-0.782664812499973,0.230676858027006,2.96658869976015,-0.0811392993057379,-0.034873532725722,0,0,0,0,0,0,8.9411226229533E-07,5.6975100310237E-06,-7.10456380610287E-06,1.26349977638269E-05,-1.94041289705438E-06,3.40041269260046E-08
2030.24,0.395365,8,0,7,1,1,0.1,0,0,0,0,0,0,0,0,0,0,4.18162652054256,-10.4602522199878,12.8191464663031,2.01140574765921,-0.691740289321049,-0.71324076611487,11,0,-1.72769624391665,-2.01136953035464,-1.85741502443422,-0.666605297719139,-4.7213160435306,-3.24603444734682,-1.7277081648456,-2.01135760942568,-1.85740310350527,-0.666593376790182,-4.7212681213962,-3.24601036707033,0,0,0,0,0,0,0,0,-1.27831735881045E-05,0,0,0,-0.286914821023607,-0.782655550814712,0.230663646928533,2.96658629960679,-0.0812102690499988,-0.0348738152905294,-0.286920574239767,-0.782657762388232,0.230681576216731,2.96654388354547,-0.081256403353,-0.0348081741005382,0,0,0,0,0,0,8.94306972366153E-07,5.69741857077962E-06,-7.10459676149999E-06,1.26349283611741E-05,-1.94086475854548E-06,3.40041269260046E-08
2030.248,0.354192,8,0,7,1,1,0.1,0,0,0,0,0,0,0,0,0,0,4.91359419938418,-10.8169261814039,12.9407472347351,1.9930517947941,-0.827340354848606,-0.746505926923424,11,0,-1.72769624391665,-2.01136953035464,-1.85741502443422,-0.666605297719139,-4.7213160435306,-3.24603444734682,-1.72767240205874,-2.01132184663881,-1.85740310350527,-0.66664153734316,-4.721244160329,-3.24603444734682,0,0,0,0,0,0,0,0,-1.27831735881045E-05,0,0,0,-0.286914821023607,-0.782655550814712,0.230663646928533,2.96658629960679,-0.0812102690499988,-0.0348738152905294,-0.286889236883896,-0.782661414173234,0.230704561096763,2.96655585748508,-0.0811641006446546,-0.0347688999230586,0,0,0,0,0,0,8.94075585800439E-07,5.69727881297091E-06,-7.10475990267114E-06,1.26349979501167E-05,-1.94041171989974E-06,3.40020798622553E-08
2030.256,0.35214,8,0,7,1,1,0.1,0,0,0,0,0,0,0,0,0,0,4.87093693446079,-9.16165071649236,13.7168309321408,1.98669227185518,-0.958625945347181,-0.665987478770267,11,0,-1.72769624391665,-2.01136953035464,-1.85741502443422,-0.666605297719139,-4.7213160435306,-3.24603444734682,-1.72767240205874,-2.01138192812075,-1.85743886629214,-0.66661769548525,-4.72130412260164,-3.24602228799929,0,0,0,0,0,0,0,0,-1.27831735881045E-05,0,0,0,-0.286914821023607,-0.782655550814712,0.230663646928533,2.96658629960679,-0.0812102690499988,-0.0348738152905294,-0.286893452594813,-0.782652335377201,0.230638645644685,2.96663341783056,-0.0811923371841928,-0.034842871078169,0,0,0,0,0,0,8.94174292799552E-07,5.69791232022411E-06,-7.10422810273541E-06,1.26349976371433E-05,-1.94041369756084E-06,3.40055189050077E-08
2030.264,0.351156,8,0,7,1,1,0.1,0,0,0,0,0,0,0,0,0,0,5.40845817553759,-8.83932035090835,14.8236667224264,2.09842368313907,-0.807777902837169,-0.637848048216964,11,0,-1.72769624391665,-2.01136953035464,-1.85741502443422,-0.666605297719139,-4.7213160435306,-3.24603444734682,-1.72768432298769,-2.01136953035464,-1.85741502443422,-0.666593376790182,-4.72125608125796,-3.24597436586489,0,0,0,0,0,0,0,0,-1.27831735881045E-05,0,0,0,-0.286914821023607,-0.782655550814712,0.230663646928533,2.96658629960679,-0.0812102690499988,-0.0348738152905294,-0.286900173607032,-0.782660673238274,0.230665202578958,2.96656513944957,-0.0812733656474052,-0.0347784573072608,0,0,0,0,0,0,8.94197043265102E-07,5.69760730785723E-06,-7.10445935446774E-06,1.2634974569301E-05,-1.9405639102274E-06,3.40048092711159E-08
2030.272,0.347796,8,0,7,1,1,0.1,0,0,0,0,0,0,0,0,0,0,4.78256044644648,-9.93620031870857,13.7676767230264,2.02874948677965,-0.904914769306819,-0.67649965239625,11,0,-1.72769624391665,-2.01136953035464,-1.85741502443422,-0.666605297719139,-4.7213160435306,-3.24603444734682,-1.72768432298769,-2.01135760942568,-1.85743886629214,-0.666593376790182,-4.72128016153444,-3.24597436586489,0,0,0,0,0,0,0,0,-1.27831735881045E-05,0,0,0,-0.286914821023607,-0.782655550814712,0.230663646928533,2.96658629960679,-0.0812102690499988,-0.0348738152905294,-0.28690050966433,-0.782648487119982,0.230661699364911,2.96657965686849,-0.0812768507369411,-0.0348118912799544,0,0,0,0,0,0,8.9420915935893E-07,5.69769108237665E-06,-7.10439041373325E-06,1.26349746314048E-05,-1.94056351782719E-06,3.40041269260046E-08
2030.28,0.359772,8,0,7,1,1,0.1,0,0,0,0,0,0,0,0,0,0,4.77309343052666,-9.14651139426225,14.5297711229305,2.16461057827898,-0.876846973008016,-0.65649072631246,11,0,-1.72769624391665,-2.01136953035464,-1.85741502443422,-0.666605297719139,-4.7213160435306,-3.24603444734682,-1.72768432298769,-2.01132184663881,-1.85740310350527,-0.666593376790182,-4.7212920824634,-3.24602228799929,0,0,0,0,0,0,0,0,-1.27831735881045E-05,0,0,0,-0.286914821023607,-0.782655550814712,0.230663646928533,2.96658629960679,-0.0812102690499988,-0.0348738152905294,-0.286903526001159,-0.782660629100893,0.230710822248555,2.96651233591998,-0.0812056637545142,-0.0348483952379635,0,0,0,0,0,0,8.94131442031942E-07,5.69718887624008E-06,-7.10480281886075E-06,1.26349748177087E-05,-1.94056234067477E-06,3.40020798622553E-08
2030.288,0.426721,8,0,7,1,1,0.1,0,0,0,0,0,0,0,0,0,0,5.91052411963133,-7.41844671556135,15.9527916259171,2.24523838470049,-0.343539120600746,-0.694389003694043,11,0,-1.72769624391665,-2.01136953035464,-1.85741502443422,-0.666605297719139,-4.7213160435306,-3.24603444734682,-1.72768432298769,-2.01136953035464,-1.85742694536318,-0.66661769548525,-4.72125608125796,-3.24602228799929,0,0,0,0,0,0,0,0,-1.27831735881045E-05,0,0,0,-0.286914821023607,-0.782655550814712,0.230663646928533,2.96658629960679,-0.0812102690499988,-0.0348738152905294,-0.2868990406489,-0.782653675471152,0.23065541386916,2.96660358018119,-0.0812028999970364,-0.0347780301615896,0,0,0,0,0,0,8.94215800924328E-07,5.69773102648262E-06,-7.10436873928045E-06,1.2634974569301E-05,-1.9405639102274E-06,3.40048092711159E-08
2030.296,0.419316,8,0,7,1,1,0.1,0,0,0,0,0,0,0,0,0,0,5.01698471770451,-10.5416371830591,13.2029701379764,2.14440349671612,-0.518200594212898,-0.891321929869184,11,0,-1.72769624391665,-2.01136953035464,-1.85741502443422,-0.666605297719139,-4.7213160435306,-3.24603444734682,-1.72769624391665,-2.01136953035464,-1.85739118257631,-0.666629616414205,-4.72130412260164,-3.24597436586489,0,0,0,0,0,0,0,0,-1.27831735881045E-05,0,0,0,-0.286914821023607,-0.782655550814712,0.230663646928533,2.96658629960679,-0.0812102690499988,-0.0348738152905294,-0.286915103535217,-0.782664667185499,0.230673734960653,2.96658238492129,-0.0812975619341974,-0.034848139764912,0,0,0,0,0,0,8.94248657172075E-07,5.69748865114089E-06,-7.1045638993261E-06,1.26349514350787E-05,-1.9407145307237E-06,3.40048092711159E-08
2030.304,0.353184,8,0,7,1,1,0.1,0,0,0,0,0,0,0,0,0,0,4.29089217168131,-10.5262481995605,13.2461908740907,2.03492181871352,-0.913474755201293,-0.675202943227022,11,0,-1.72769624391665,-2.01136953035464,-1.85741502443422,-0.666605297719139,-4.7213160435306,-3.24603444734682,-1.72773248354067,-2.01136953035464,-1.85743886629214,-0.666593376790182,-4.72128016153444,-3.24599844614138,0,0,0,0,0,0,0,0,-1.27831735881045E-05,0,0,0,-0.286914821023607,-0.782655550814712,0.230663646928533,2.96658629960679,-0.0812102690499988,-0.0348738152905294,-0.286938392625388,-0.782635876295604,0.230651950193018,2.96659125793816,-0.0813129057445954,-0.0348190696599252,0,0,0,0,0,0,8.94496793981829E-07,5.69773166066029E-06,-7.10432166010845E-06,1.2634881096017E-05,-1.94117241533878E-06,3.40048092711159E-08
2030.312,0.34878,8,0,7,1,1,0.1,0,0,0,0,0,0,0,0,0,0,3.35525136873874,-12.1997227449582,11.6367938196209,2.04179633228925,-0.894439642800624,-0.707522710435105,11,0,-1.72769624391665,-2.01136953035464,-1.85741502443422,-0.666605297719139,-4.7213160435306,-3.24603444734682,-1.72764856020083,-2.01138192812075,-1.8574631849872,-0.66661769548525,-4.7212920824634,-3.24603444734682,0,0,0,0,0,0,0,0,-1.27831735881045E-05,0,0,0,-0.286914821023607,-0.782655550814712,0.230663646928533,2.96658629960679,-0.0812102690499988,-0.0348738152905294,-0.286871994631333,-0.782648511285234,0.230625131673944,2.96665760124378,-0.0811378327777856,-0.0348193748286283,0,0,0,0,0,0,8.9406429971956E-07,5.69810448214195E-06,-7.10408793492716E-06,1.26350438966198E-05,-1.94011245519101E-06,3.40055189050077E-08
2030.32,0.349284,8,0,7,1,1,0.1,0,0,0,0,0,0,0,0,0,0,4.3533669609758,-8.30611151089617,14.8816589272376,2.11488160949282,-0.786228442896733,-0.728454395957006,11,0,-1.72769624391665,-2.01136953035464,-1.85741502443422,-0.666605297719139,-4.7213160435306,-3.24603444734682,-1.72767240205874,-2.01135760942568,-1.85740310350527,-0.666593376790182,-4.72128016153444,-3.24602228799929,0,0,0,0,0,0,0,0,-1.27831735881045E-05,0,0,0,-0.286914821023607,-0.782655550814712,0.230663646928533,2.96658629960679,-0.0812102690499988,-0.0348738152905294,-0.286893681183865,-0.782667846982663,0.230681575218629,2.96654690741686,-0.0811873060544554,-0.0348228140693434,0,0,0,0,0,0,8.94103212180802E-07,5.6974505253492E-06,-7.104596666862E-06,1.26349977638269E-05,-1.94041289705438E-06,3.40041269260046E-08
2030.328,0.354889,8,0,7,1,1,0.1,0,0,0,0,0,0,0,0,0,0,4.94363548265714,-9.00234895455016,14.3400899286647,2.08026666542761,-0.987854347175373,-0.605965902224841,11,0,-1.72769624391665,-2.01136953035464,-1.85741502443422,-0.666605297719139,-4.7213160435306,-3.24603444734682,-1.72769624391665,-2.01135760942568,-1.85745078722109,-0.66661769548525,-4.7212920824634,-3.24603444734682,0,0,0,0,0,0,0,0,-1.27831735881045E-05,0,0,0,-0.286914821023607,-0.782655550814712,0.230663646928533,2.96658629960679,-0.0812102690499988,-0.0348738152905294,-0.286909792765701,-0.782637894805259,0.230651909764859,2.96661967156041,-0.0812076577244199,-0.0348321263024866,0,0,0,0,0,0,8.94295835998911E-07,5.69780411488032E-06,-7.10429970333352E-06,1.26349514971872E-05,-1.94071413832423E-06,3.40041269260046E-08
2030.336,0.420948,8,0,7,1,1,0.1,0,0,0,0,0,0,0,0,0,0,4.9853311193384,-9.67333569965883,14.0281801326727,2.14984088512728,-0.776819455875994,-0.75989390862377,11,0,-1.72769624391665,-2.01136953035464,-1.85741502443422,-0.666605297719139,-4.7213160435306,-3.24603444734682,-1.72769624391665,-2.01134568849672,-1.85741502443422,-0.66664153734316,-4.72128016153444,-3.24605828920473,0,0,0,0,0,0,0,0,-1.27831735881045E-05,0,0,0,-0.286914821023607,-0.782655550814712,0.230663646928533,2.96658629960679,-0.0812102690499988,-0.0348738152905294,-0.28691072462907,-0.782651150183082,0.230678434125562,2.9665958578671,-0.0811699050288849,-0.0348216456862143,0,0,0,0,0,0,8.94250543116121E-07,5.69750847104717E-06,-7.10455337176541E-06,1.26349515592945E-05,-1.9407137459328E-06,3.40034445761573E-08
2030.344,0.355944,8,0,7,1,1,0.1,0,0,0,0,0,0,0,0,0,0,3.99091538602141,-11.6555688060101,11.604598133546,1.82159567587717,-0.699936840277803,-0.764034240682613,11,0,-1.72769624391665,-2.01136953035464,-1.85741502443422,-0.666605297719139,-4.7213160435306,-3.24603444734682,-1.72767240205874,-2.01135760942568,-1.85742694536318,-0.66661769548525,-4.72130412260164,-3.24602228799929,0,0,0,0,0,0,0,0,0,0,0,0,-0.286914821023607,-0.782655550814712,0.230663646928533,2.96658629960679,-0.0812102690499988,-0.0348738152905294,-0.286893897963736,-0.782655185897138,0.230665159128982,2.96659741032084,-0.0811914292378101,-0.0348493736750401,0,0,0,0,0,0,0,0,0,0,0,0
2030.352,0.353112,8,0,7,1,1,0.1,0,0,0,0,0,0,0,0,0,0,4.48816700059982,-9.52349505249715,13.6130585267192,1.98050124417934,-1.09652110666248,-0.612842329696782,11,0,-1.72769624391665,-2.01136953035464,-1.85741502443422,-0.666605297719139,-4.7213160435306,-3.24603444734682,-1.72768432298769,-2.01135760942568,-1.85743886629214,-0.666605297719137,-4.7212681213962,-3.24601036707033,0,0,0,0,0,0,0,0,0,0,0,0,-0.286914821023607,-0.782655550814712,0.230663646928533,2.96658629960679,-0.0812102690499988,-0.0348738152905294,-0.286899265914692,-0.782647837424482,0.230660149627561,2.96659199748,-0.0812219899035782,-0.0347965997196519,0,0,0,0,0,0,0,0,0,0,0,0
2030.36,0.348456,8,0,7,1,1,0.1,0,0,0,0,0,0,0,0,0,0,3.63464223332566,-10.6670979733542,12.8284104031987,2.03710875731519,-0.846797781796759,-0.629275719990451,11,0,-1.72769624391665,-2.01136953035464,-1.85741502443422,-0.666605297719139,-4.7213160435306,-3.24603444734682,-1.72766048112978,-2.01136953035464,-1.85741502443422,-0.666593376790182,-4.72125608125796,-3.24598628679384,0,0,0,0,0,0,0,0,0,0,0,0,-0.286914821023607,-0.782655550814712,0.230663646928533,2.96658629960679,-0.0812102690499988,-0.0348738152905294,-0.286881513440929,-0.782667513249001,0.230665202578958,2.96656647067036,-0.0812203159871641,-0.0347769155392227,0,0,0,0,0,0,0,0,0,0,0,0
2030.368,0.349009,8,0,7,1,1,0.1,0,0,0,0,0,0,0,0,0,0,4.57176821368262,-9.60918164701446,13.7583275724639,1.99058309461908,-0.826774383033373,-0.631456060433949,11,0,-1.72769624391665,-2.01136953035464,-1.85741502443422,-0.666605297719139,-4.7213160435306,-3.24603444734682,-1.72766048112978,-2.01130992570986,-1.85741502443422,-0.666593376790182,-4.7212681213962,-3.24604636827578,0,0,0,0,0,0,0,0,0,0,0,0,-0.286914821023607,-0.782655550814712,0.230663646928533,2.96658629960679,-0.0812102690499988,-0.0348738152905294,-0.286881658174127,-0.782661298431028,0.230713947922813,2.96651164184021,-0.0811312711443961,-0.0348132288758225,0,0,0,0,0,0,0,0,0,0,0,0
2030.376,0.359292,8,0,7,1,1,0.1,0,0,0,0,0,0,0,0,0,0,5.11264617713834,-10.6360480502414,12.929917986008,2.07300275244495,-0.404071168013836,-0.707789381120467,11,0,-1.72769624391665,-2.01136953035464,-1.85741502443422,-0.666605297719139,-4.7213160435306,-3.24603444734682,-1.72766048112978,-2.01134568849672,-1.85741502443422,-0.666605297719137,-4.72130412260164,-3.24603444734682,0,0,0,0,0,0,0,0,0,0,0,0,-0.286914821023607,-0.782655550814712,0.230663646928533,2.96658629960679,-0.0812102690499988,-0.0348738152905294,-0.286885363700426,-0.782663570264981,0.230683146443286,2.96656238356131,-0.0811549597045518,-0.0348559688453333,0,0,0,0,0,0,0,0,0,0,0,0
2030.384,0.378876,8,0,7,1,1,0.1,0,0,0,0,0,0,0,0,0,0,4.23038681279733,-12.2501786861484,11.2391483631441,1.87197804434853,-0.857615306747842,-0.622723588802435,11,0,-1.72769624391665,-2.01136953035464,-1.85741502443422,-0.666605297719139,-4.7213160435306,-3.24603444734682,-1.72764856020083,-2.01134568849672,-1.85743886629214,-0.66661769548525,-4.7212681213962,-3.24602228799929,0,0,0,0,0,0,0,0,0,0,0,0,-0.286914821023607,-0.782655550814712,0.230663646928533,2.96658629960679,-0.0812102690499988,-0.0348738152905294,-0.286870933204848,-0.782656031031816,0.23066828601053,2.96659416251841,-0.0811511106454291,-0.0347933681813882,0,0,0,0,0,0,0,0,0,0,0,0
2030.392,0.420456,8,0,7,1,1,0.1,0,0,0,0,0,0,0,0,0,0,4.06089327808351,-10.8417751620194,12.6687743193577,1.99186484449385,-0.683883844528688,-0.656540945386457,11,0,-1.72769624391665,-2.01136953035464,-1.85741502443422,-0.666605297719139,-4.7213160435306,-3.24603444734682,-1.72766048112978,-2.01133376756777,-1.85741502443422,-0.66661769548525,-4.7212920824634,-3.24603444734682,0,0,0,0,0,0,0,0,0,0,0,0,-0.286914821023607,-0.782655550814712,0.230663646928533,2.96658629960679,-0.0812102690499988,-0.0348738152905294,-0.286883923631491,-0.782661679821852,0.230691283880496,2.96656152563786,-0.0811531789966723,-0.0348380964486815,0,0,0,0,0,0,0,0,0,0,0,0
2030.4,0.356136,8,0,7,1,1,0.1,0,0,0,0,0,0,0,0,0,0,6.17646776485383,-9.46045394396281,14.1775391564724,2.20793779438661,-0.532910370492867,-0.775415073058991,11,0,-1.72769624391665,-2.01136953035464,-1.85741502443422,-0.666605297719139,-4.7213160435306,-3.24603444734682,-1.72767240205874,-2.01132184663881,-1.85741502443422,-0.666629616414205,-4.7212920824634,-3.24597436586489,0,0,0,0,0,0,0,0,0,0,0,0,-0.286914821023607,-0.782655550814712,0.230663646928533,2.96658629960679,-0.0812102690499988,-0.0348738152905294,-0.286892916571691,-0.782656226357927,0.230699482351696,2.96655810913685,-0.0812598150978891,-0.0348318079664521,0,0,0,0,0,0,0,0,0,0,0,0
2030.408,0.354396,8,0,7,1,1,0.1,0,0,0,0,0,0,0,0,0,0,4.97331224462641,-10.6589493672045,13.0842506459795,2.04417633122331,-0.908098339784568,-0.676379667534838,11,0,-1.72769624391665,-2.01136953035464,-1.85741502443422,-0.666605297719139,-4.7213160435306,-3.24603444734682,-1.72763616243471,-2.01136953035464,-1.85742694536318,-0.666629616414205,-4.72128016153444,-3.24601036707033,0,0,0,0,0,0,0,0,0,0,0,0,-0.286914821023607,-0.782655550814712,0.230663646928533,2.96658629960679,-0.0812102690499988,-0.0348738152905294,-0.286863395028689,-0.782666314156332,0.230653861145374,2.96661894102843,-0.0811525684364855,-0.0348034869040531,0,0,0,0,0,0,0,0,0,0,0,0
2030.416,0.350005,8,0,7,1,1,0.1,0,0,0,0,0,0,0,0,0,0,4.9509313123666,-11.0052627725558,12.5040075892304,1.96248374670731,-0.910597265215087,-0.616047337864555,11,0,-1.72769624391665,-2.01136953035464,-1.85741502443422,-0.666605297719139,-4.7213160435306,-3.24603444734682,-1.72769624391665,-2.01135760942568,-1.85742694536318,-0.666605297719137,-4.7212681213962,-3.24599844614138,0,0,0,0,0,0,0,0,0,0,0,0,-0.286914821023607,-0.782655550814712,0.230663646928533,2.96658629960679,-0.0812102690499988,-0.0348738152905294,-0.286909429737166,-0.782649730605514,0.230666774838114,2.96657917984204,-0.0812570906814074,-0.0347986888310903,0,0,0,0,0,0,0,0,0,0,0,0
2030.424,0.354828,8,0,7,1,1,0.1,0,0,0,0,0,0,0,0,0,0,4.06396815889386,-13.1258392068282,10.7137521057114,1.929037677568,-0.832140425033102,-0.743867473769739,11,0,-1.72769624391665,-2.01136953035464,-1.85741502443422,-0.666605297719139,-4.7213160435306,-3.24603444734682,-1.72766048112978,-2.01138192812075,-1.85740310350527,-0.66664153734316,-4.721244160329,-3.24602228799929,0,0,0,0,0,0,0,0,0,0,0,0,-0.286914821023607,-0.782655550814712,0.230663646928533,2.96658629960679,-0.0812102690499988,-0.0348738152905294,-0.286880866761398,-0.782670920694974,0.230655424576078,2.96661528709667,-0.0811660427335596,-0.034754879898171,0,0,0,0,0,0,0,0,0,0,0,0
2030.432,0.416964,8,0,7,1,1,0.1,0,0,0,0,0,0,0,0,0,0,4.32290858096305,-12.1685381674397,11.2578418659032,1.91440504202677,-0.747857232425188,-0.671853325650798,11,0,-1.72769624391665,-2.01136953035464,-1.85741502443422,-0.666605297719139,-4.7213160435306,-3.24603444734682,-1.72766048112978,-2.01132184663881,-1.85741502443422,-0.66661769548525,-4.72125608125796,-3.24601036707033,0,0,0,0,0,0,0,0,0,0,0,0,-0.286914821023607,-0.782655550814712,0.230663646928533,2.96658629960679,-0.0812102690499988,-0.0348738152905294,-0.286880452540818,-0.782660998145403,0.230701036101127,2.96654448120937,-0.081183678222917,-0.0347841491076437,0,0,0,0,0,0,0,0,0,0,0,0
2030.44,0.394248,8,0,7,1,1,0.1,0,0,0,0,0,0,0,0,0,0,4.83616277154877,-8.76123543143918,14.744440446767,2.17416987732857,-0.820998279405442,-0.666531960221492,11,0,-1.72769624391665,-2.01136953035464,-1.85741502443422,-0.666605297719139,-4.7213160435306,-3.24603444734682,-1.72767240205874,-2.01132184663881,-1.85740310350527,-0.66661769548525,-4.7212920824634,-3.24603444734682,0,0,0,0,0,0,0,0,0,0,0,0,-0.286914821023607,-0.782655550814712,0.230663646928533,2.96658629960679,-0.0812102690499988,-0.0348738152905294,-0.286893896923963,-0.782662364989356,0.230707658637026,2.9665374721731,-0.0811702851162879,-0.0348438909345834,0,0,0,0,0,0,0,0,0,0,0,0
2030.448,0.358452,8,0,7,1,1,0.1,0,0,0,0,0,0,0,0,0,0,5.64799774998831,-8.10465852626623,15.568366562372,2.27288375098644,-0.892018987815081,-0.685706603201996,11,0,-1.72769624391665,-2.01136953035464,-1.85741502443422,-0.666605297719139,-4.7213160435306,-3.24603444734682,-1.72768432298769,-2.01133376756777,-1.85745078722109,-0.666629616414205,-4.72128016153444,-3.24601036707033,0,0,0,0,0,0,0,0,0,0,0,0,-0.286914821023607,-0.782655550814712,0.230663646928533,2.96658629960679,-0.0812102690499988,-0.0348738152905294,-0.286898849163838,-0.782638248652865,0.230669858146026,2.96660564924962,-0.0812235966616249,-0.0348120268722736,0,0,0,0,0,0,0,0,0,0,0,0
2030.456,0.354637,8,0,7,1,1,0.1,0,0,0,0,0,0,0,0,0,0,4.92822966168124,-10.0193260136774,14.1122642401335,2.31000347846087,-0.891835906619012,-0.6004295825833,11,0,-1.72769624391665,-2.01136953035464,-1.85741502443422,-0.666605297719139,-4.7213160435306,-3.24603444734682,-1.72766048112978,-2.01135760942568,-1.85740310350527,-0.666593376790182,-4.72128016153444,-3.24602228799929,0,0,0,0,0,0,0,0,0,0,0,0,-0.286914821023607,-0.782655550814712,0.230663646928533,2.96658629960679,-0.0812102690499988,-0.0348738152905294,-0.28688435103568,-0.782671266966242,0.230681575218629,2.9665472695383,-0.0811696207245458,-0.0348212721293133,0,0,0,0,0,0,0,0,0,0,0,0
2030.464,0.348828,8,0,7,1,1,0.1,0,0,0,0,0,0,0,0,0,0,4.09193714666338,-11.146871465261,12.8637691311445,2.20824512736891,-1.05968603114513,-0.62577810998612,11,0,-1.72769624391665,-2.01136953035464,-1.85741502443422,-0.666605297719139,-4.7213160435306,-3.24603444734682,-1.72767240205874,-2.01134568849672,-1.85745078722109,-0.666605297719137,-4.72128016153444,-3.24602228799929,0,0,0,0,0,0,0,0,0,0,0,0,-0.286914821023607,-0.782655550814712,0.230663646928533,2.96658629960679,-0.0812102690499988,-0.0348738152905294,-0.28689000887639,-0.782644560649613,0.230663272566579,2.96659430329712,-0.0811882093622519,-0.0348143984931358,0,0,0,0,0,0,0,0,0,0,0,0
2030.472,0.349176,8,0,7,1,1,0.1,0,0,0,0,0,0,0,0,0,0,5.33520819228701,-9.58259036832052,14.2191768900613,2.23994023472415,-0.84156058830221,-0.722360048731329,11,0,-1.72769624391665,-2.01136953035464,-1.85741502443422,-0.666605297719139,-4.7213160435306,-3.24603444734682,-1.72768432298769,-2.01132184663881,-1.85743886629214,-0.66664153734316,-4.72128016153444,-3.24598628679384,0,0,0,0,0,0,0,0,0,0,0,0,-0.286914821023607,-0.782655550814712,0.230663646928533,2.96658629960679,-0.0812102690499988,-0.0348738152905294,-0.286899345948106,-0.782641528602473,0.230684681763214,2.96659257508734,-0.0812588944537232,-0.0348109425187587,0,0,0,0,0,0,0,0,0,0,0,0
2030.48,0.349812,8,0,7,1,1,0.1,0,0,0,0,0,0,0,0,0,0,5.06428155099024,-10.4823852418305,12.8504935786281,1.96376677508236,-0.775159703355711,-0.697330657629648,11,0,-1.72769624391665,-2.01136953035464,-1.85741502443422,-0.666605297719139,-4.7213160435306,-3.24603444734682,-1.72768432298769,-2.01136953035464,-1.85740310350527,-0.66661769548525,-4.72128016153444,-3.24598628679384,0,0,0,0,0,0,0,0,0,0,0,0,-0.286914821023607,-0.782655550814712,0.230663646928533,2.96658629960679,-0.0812102690499988,-0.0348738152905294,-0.286902902721283,-0.782663950143409,0.230668662324429,2.96658071389036,-0.0812590369286927,-0.0348130011221045,0,0,0,0,0,0,0,0,0,0,0,0
2030.488,0.382512,8,0,7,1,1,0.1,0,0,0,0,0,0,0,0,0,0,4.82140569448942,-11.0447784756803,12.7307554512468,2.0564303729471,-0.54643882501935,-0.739901787410409,11,0,-1.72769624391665,-2.01136953035464,-1.85741502443422,-0.666605297719139,-4.7213160435306,-3.24603444734682,-1.7277081648456,-2.01133376756777,-1.85743886629214,-0.666629616414205,-4.72125608125796,-3.24601036707033,0,0,0,0,0,0,0,0,0,0,0,0,-0.286914821023607,-0.782655550814712,0.230663646928533,2.96658629960679,-0.0812102690499988,-0.0348738152905294,-0.286916148353426,-0.782637073564785,0.230676485409213,2.96659041306144,-0.0812554305057493,-0.0347817507621747,0,0,0,0,0,0,0,0,0,0,0,0
2030.496,0.419856,8,0,7,1,1,0.1,0,0,0,0,0,0,0,0,0,0,5.62045874274311,-9.08121050529335,14.7709347705572,2.2524464553871,-0.796357577462152,-0.730606660565027,11,0,-1.72769624391665,-2.01136953035464,-1.85741502443422,-0.666605297719139,-4.7213160435306,-3.24603444734682,-1.72769624391665,-2.01133376756777,-1.85742694536318,-0.666593376790182,-4.72128016153444,-3.24597436586489,0,0,0,0,0,0,0,0,0,0,0,0,-0.286914821023607,-0.782655550814712,0.230663646928533,2.96658629960679,-0.0812102690499988,-0.0348738152905294,-0.286910292480382,-0.782647965012757,0.230687823013667,2.96654376032371,-0.0812936390804327,-0.0348198485934453,0,0,0,0,0,0,0,0,0,0,0,0
2030.504,0.360961,8,0,7,1,1,0.1,0,0,0,0,0,0,0,0,0,0,4.21464570535635,-11.2324207779554,12.3431302977925,1.95311687674418,-0.821320664608815,-0.746540382766764,11,0,-1.72769624391665,-2.01136953035464,-1.85741502443422,-0.666605297719139,-4.7213160435306,-3.24603444734682,-1.72767240205874,-2.01134568849672,-1.85739118257631,-0.666605297719137,-4.72130412260164,-3.24604636827578,0,0,0,0,0,0,0,0,0,0,0,0,-0.286914821023607,-0.782655550814712,0.230663646928533,2.96658629960679,-0.0812102690499988,-0.0348738152905294,-0.286896361326895,-0.782670776447294,0.230696397312657,2.96653892882774,-0.0811544403232392,-0.0348632305724226,0,0,0,0,0,0,0,0,0,0,0,0
2030.512,0.351588,8,0,7,1,1,0.1,0,0,0,0,0,0,0,0,0,0,4.60252492123235,-10.0703672269123,13.6792285554495,1.99204930730703,-1.48558982467638,-0.574008833690191,11,0,-1.72769624391665,-2.01136953035464,-1.85741502443422,-0.666605297719139,-4.7213160435306,-3.24603444734682,-1.72767240205874,-2.01135760942568,-1.85743886629214,-0.66661769548525,-4.7212920824634,-3.24599844614138,0,0,0,0,0,0,0,0,0,0,0,0,-0.286914821023607,-0.782655550814712,0.230663646928533,2.96658629960679,-0.0812102690499988,-0.0348738152905294,-0.286891966984294,-0.782650048504672,0.230658534900727,2.96660671729635,-0.08122541365902,-0.0348264776473506,0,0,0,0,0,0,0,0,0,0,0,0
2030.52,0.354828,8,0,7,1,1,0.1,0,0,0,0,0,0,0,0,0,0,4.03081661542736,-9.71546318903372,13.4505354097863,2.07014172422835,-0.882212941261028,-0.595319460810519,11,0,-1.72769624391665,-2.01136953035464,-1.85741502443422,-0.666605297719139,-4.7213160435306,-3.24603444734682,-1.72769624391665,-2.01133376756777,-1.85740310350527,-0.666593376790182,-4.7212920824634,-3.24604636827578,0,0,0,0,0,0,0,0,0,0,0,0,-0.286914821023607,-0.782655550814712,0.230663646928533,2.96658629960679,-0.0812102690499988,-0.0348738152905294,-0.286913046580133,-0.782658416844498,0.230701072928075,2.96652503978148,-0.0811879545663145,-0.0348508888546194,0,0,0,0,0,0,0,0,0,0,0,0
2030.528,0.351264,8,0,7,1,1,0.1,0,0,0,0,0,0,0,0,0,0,5.15986562987369,-9.60818155856694,13.5675607484709,1.99031146550219,-0.806995422251936,-0.663722758569842,11,0,-1.72769624391665,-2.01136953035464,-1.85741502443422,-0.666605297719139,-4.7213160435306,-3.24603444734682,-1.72767240205874,-2.0112980047809,-1.85742694536318,-0.66661769548525,-4.72128016153444,-3.24598628679384,0,0,0,0,0,0,0,0,0,0,0,0,-0.286914821023607,-0.782655550814712,0.230663646928533,2.96658629960679,-0.0812102690499988,-0.0348738152905294,-0.28689076203574,-0.782649497294722,0.230713906935271,2.96653372122669,-0.0812399796514134,-0.0348202620335106,0,0,0,0,0,0,0,0,0,0,0,0
2030.536,0.417252,8,0,7,1,1,0.1,0,0,0,0,0,0,0,0,0,0,4.78965155526455,-10.3817501415437,13.1693698513471,2.07109446319738,-0.886046357124102,-0.738496996218806,11,0,-1.72769624391665,-2.01136953035464,-1.85741502443422,-0.666605297719139,-4.7213160435306,-3.24603444734682,-1.72766048112978,-2.01136953035464,-1.85740310350527,-0.666629616414205,-4.72125608125796,-3.24601036707033,0,0,0,0,0,0,0,0,0,0,0,0,-0.286914821023607,-0.782655550814712,0.230663646928533,2.96658629960679,-0.0812102690499988,-0.0348738152905294,-0.286881901589692,-0.782670316461928,0.230667113598991,2.96659184230446,-0.0811848468557767,-0.0347753606442149,0,0,0,0,0,0,0,0,0,0,0,0
2030.544,0.355453,8,0,7,1,1,0.1,0,0,0,0,0,0,0,0,0,0,4.88013113471114,-8.59901968336154,14.8271869611767,2.11892944626904,-0.795303666240208,-0.583111838729248,11,0,-1.72769624391665,-2.01136953035464,-1.85741502443422,-0.666605297719139,-4.7213160435306,-3.24603444734682,-1.72768432298769,-2.01130992570986,-1.85741502443422,-0.666653458272116,-4.72128016153444,-3.24602228799929,0,0,0,0,0,0,0,0,0,0,0,0,-0.286914821023607,-0.782655550814712,0.230663646928533,2.96658629960679,-0.0812102690499988,-0.0348738152905294,-0.286900676526531,-0.782650121294011,0.23070613101884,2.96657070553268,-0.0812048270091243,-0.034819716735207,0,0,0,0,0,0,0,0,0,0,0,0
2030.552,0.349512,8,0,7,1,1,0.1,0,0,0,0,0,0,0,0,0,0,4.18321078332854,-9.45781420506633,13.9013974637764,2.08488800999165,-1.04259818458037,-0.711578930972908,11,0,-1.72769624391665,-2.01136953035464,-1.85741502443422,-0.666605297719139,-4.7213160435306,-3.24603444734682,-1.72763616243471,-2.0113938490497,-1.85741502443422,-0.666605297719137,-4.72128016153444,-3.24601036707033,0,0,0,0,0,0,0,0,0,0,0,0,-0.286914821023607,-0.782655550814712,0.230663646928533,2.96658629960679,-0.0812102690499988,-0.0348738152905294,-0.286864916049349,-0.782675775031332,0.23064376122759,2.9666070937476,-0.0811526115407826,-0.0348056969747262,0,0,0,0,0,0,0,0,0,0,0,0
2030.56,0.349212,8,0,7,1,1,0.1,0,0,0,0,0,0,0,0,0,0,4.54971835424433,-9.72142284713798,13.7246100101147,2.03578637979826,-0.748626415844039,-0.646499848145839,11,0,-1.72769624391665,-2.01136953035464,-1.85741502443422,-0.666605297719139,-4.7213160435306,-3.24603444734682,-1.72767240205874,-2.01132184663881,-1.85741502443422,-0.66661769548525,-4.72130412260164,-3.24605828920473,0,0,0,0,0,0,0,0,0,0,0,0,-0.286914821023607,-0.782655550814712,0.230663646928533,2.96658629960679,-0.0812102690499988,-0.0348738152905294,-0.286894160304454,-0.782656876009545,0.230701032144574,2.96655186324129,-0.0811368282244702,-0.034862609633645,0,0,0,0,0,0,0,0,0,0,0,0
2030.568,0.34956,8,0,7,1,1,0.1,0,0,0,0,0,0,0,0,0,0,4.98299130718947,-10.1128567167688,13.6366569670376,2.04386035844794,-0.943829904127778,-0.670113875770345,11,0,-1.72769624391665,-2.01136953035464,-1.85741502443422,-0.666605297719139,-4.7213160435306,-3.24603444734682,-1.72767240205874,-2.01130992570986,-1.85742694536318,-0.666581455861227,-4.7212920824634,-3.24598628679384,0,0,0,0,0,0,0,0,0,0,0,0,-0.286914821023607,-0.782655550814712,0.230663646928533,2.96658629960679,-0.0812102690499988,-0.0348738152905294,-0.28689248445229,-0.782653040882043,0.230708871203642,2.9665108831012,-0.0812414119077814,-0.0348424042333373,0,0,0,0,0,0,0,0,0,0,0,0
2030.576,0.349836,8,0,7,1,1,0.1,0,0,0,0,0,0,0,0,0,0,5.72485125655096,-9.43877062508874,14.0632205542592,2.05834316166199,-0.849737343169473,-0.629495153062518,11,0,-1.72769624391665,-2.01136953035464,-1.85741502443422,-0.666605297719139,-4.7213160435306,-3.24603444734682,-1.72766048112978,-2.01135760942568,-1.85743886629214,-0.66664153734316,-4.72130412260164,-3.24602228799929,0,0,0,0,0,0,0,0,0,0,0,0,-0.286914821023607,-0.782655550814712,0.230663646928533,2.96658629960679,-0.0812102690499988,-0.0348738152905294,-0.286883441022221,-0.782651641007131,0.230655432509457,2.96663330430028,-0.0811743383775696,-0.0348412973905652,0,0,0,0,0,0,0,0,0,0,0,0
2030.584,0.41988,8,0,7,1,1,0.1,0,0,0,0,0,0,0,0,0,0,5.20907954760107,-10.5134756721026,13.2478301243536,2.07857267676432,-0.746245745835528,-0.676826944897139,11,0,-1.72769624391665,-2.01136953035464,-1.85741502443422,-0.666605297719139,-4.7213160435306,-3.24603444734682,-1.72768432298769,-2.01133376756777,-1.85743886629214,-0.66664153734316,-4.72125608125796,-3.24603444734682,0,0,0,0,0,0,0,0,0,0,0,0,-0.286914821023607,-0.782655550814712,0.230663646928533,2.96658629960679,-0.0812102690499988,-0.0348738152905294,-0.286897342145666,-0.782643088244354,0.230674934684428,2.96660420286968,-0.0811845141858269,-0.0347795580650403,0,0,0,0,0,0,0,0,0,0,0,0
2030.592,0.422389,8,0,7,1,1,0.1,0,0,0,0,0,0,0,0,0,0,4.27864917552689,-10.0261999059624,13.4753561940303,1.99709669289712,-1.29781075311974,-0.664491421435835,11,0,-1.72769624391665,-2.01136953035464,-1.85741502443422,-0.666605297719139,-4.7213160435306,-3.24603444734682,-1.72768432298769,-2.01133376756777,-1.85740310350527,-0.666605297719137,-4.72130412260164,-3.24602228799929,0,0,0,0,0,0,0,0,0,0,0,0,-0.286914821023607,-0.782655550814712,0.230663646928533,2.96658629960679,-0.0812102690499988,-0.0348738152905294,-0.286904667104631,-0.782660835455571,0.23069952117095,2.96653735014196,-0.0812077834917129,-0.0348617323401268,0,0,0,0,0,0,0,0,0,0,0,0
2030.6,0.354432,8,0,7,1,1,0.1,0,0,0,0,0,0,0,0,0,0,5.56873987579594,-7.57561144768622,15.6910459874457,2.15401676595892,-0.78687005252437,-0.61442347605567,11,0,-1.72769624391665,-2.01136953035464,-1.85741502443422,-0.666605297719139,-4.7213160435306,-3.24603444734682,-1.72767240205874,-2.01134568849672,-1.8574631849872,-0.666605297719137,-4.72130412260164,-3.24601036707033,0,0,0,0,0,0,0,0,0,0,0,0,-0.286914821023607,-0.782655550814712,0.230663646928533,2.96658629960679,-0.0812102690499988,-0.0348738152905294,-0.286891325121165,-0.782638684437071,0.230656380469387,2.96660866888913,-0.0812094196769513,-0.0348459574621102,0,0,0,0,0,0,0,0,0,0,0,0
2030.608,0.35448,8,0,7,1,1,0.1,0,0,0,0,0,0,0,0,0,0,5.58253129794584,-9.68678301790917,13.7563965451107,2.06814628536979,-0.837176931710846,-0.660690979714816,11,0,-1.72769624391665,-2.01136953035464,-1.85741502443422,-0.666605297719139,-4.7213160435306,-3.24603444734682,-1.72768432298769,-2.0112980047809,-1.85742694536318,-0.66661769548525,-4.7212920824634,-3.24597436586489,0,0,0,0,0,0,0,0,0,0,0,0,-0.286914821023607,-0.782655550814712,0.230663646928533,2.96658629960679,-0.0812102690499988,-0.0348738152905294,-0.286901178209474,-0.782645902977795,0.230713905960046,2.96653406981711,-0.0812769647033643,-0.0348378104032809,0,0,0,0,0,0,0,0,0,0,0,0
2030.616,0.353652,8,0,7,1,1,0.1,0,0,0,0,0,0,0,0,0,0,3.86745514744593,-9.35055449018419,14.1592309492899,2.1058963510808,-0.918057379951954,-0.647632310170769,11,0,-1.72769624391665,-2.01136953035464,-1.85741502443422,-0.666605297719139,-4.7213160435306,-3.24603444734682,-1.72767240205874,-2.01134568849672,-1.8574631849872,-0.66661769548525,-4.72128016153444,-3.24601036707033,0,0,0,0,0,0,0,0,0,0,0,0,-0.286914821023607,-0.782655550814712,0.230663646928533,2.96658629960679,-0.0812102690499988,-0.0348738152905294,-0.286888989223275,-0.782638175908426,0.23065476967252,2.96661833575417,-0.0812063351126967,-0.0348083724051686,0,0,0,0,0,0,0,0,0,0,0,0
2030.624,0.350988,8,0,7,1,1,0.1,0,0,0,0,0,0,0,0,0,0,4.67025868636642,-8.12565446589964,14.9488316685014,2.04793693229222,-0.791349499806405,-0.639337589416297,11,0,-1.72769624391665,-2.01136953035464,-1.85741502443422,-0.666605297719139,-4.7213160435306,-3.24603444734682,-1.72764856020083,-2.01132184663881,-1.85742694536318,-0.666593376790182,-4.7212920824634,-3.24601036707033,0,0,0,0,0,0,0,0,0,0,0,0,-0.286914821023607,-0.782655550814712,0.230663646928533,2.96658629960679,-0.0812102690499988,-0.0348738152905294,-0.286873868406987,-0.782660263044694,0.230697571230797,2.96653651498137,-0.0811708132309281,-0.034838049158338,0,0,0,0,0,0,0,0,0,0,0,0
2030.632,0.379813,8,0,7,1,1,0.1,0,0,0,0,0,0,0,0,0,0,4.71161256173433,-9.62672047852894,13.7558728054664,2.11750797794749,-0.930137952179699,-0.674561719107879,11,0,-1.72769624391665,-2.01136953035464,-1.85741502443422,-0.666605297719139,-4.7213160435306,-3.24603444734682,-1.72764856020083,-2.01128608385195,-1.85741502443422,-0.666605297719137,-4.72128016153444,-3.24598628679384,0,0,0,0,0,0,0,0,0,0,0,0,-0.286914821023607,-0.782655550814712,0.230663646928533,2.96658629960679,-0.0812102690499988,-0.0348738152905294,-0.286872897643451,-0.782661300413486,0.230731894549441,2.96649843945807,-0.0812038565233044,-0.0348237409471748,0,0,0,0,0,0,0,0,0,0,0,0
2030.64,0.414912,8,0,7,1,1,0.1,0,0,0,0,0,0,0,0,0,0,5.15266564177548,-10.9980352544655,12.8071637605511,2.16331775797713,-0.791672424608776,-0.70014041917162,11,0,-1.72769624391665,-2.01136953035464,-1.85741502443422,-0.666605297719139,-4.7213160435306,-3.24603444734682,-1.72763616243471,-2.01130992570986,-1.85742694536318,-0.666605297719137,-4.72130412260164,-3.24605828920473,0,0,0,0,0,0,0,0,0,0,0,0,-0.286914821023607,-0.782655550814712,0.230663646928533,2.96658629960679,-0.0812102690499988,-0.0348738152905294,-0.286864925276269,-0.782661610096142,0.230705768651469,2.96654065437615,-0.0810828397163951,-0.0348603087306034,0,0,0,0,0,0,0,0,0,0,0,0
2030.648,0.364128,8,0,7,1,1,0.1,0,0,0,0,0,0,0,0,0,0,3.56086075855456,-11.0366725904485,13.0262174300581,2.19539730960261,-1.08911727782727,-0.677885577268493,11,0,-1.72769624391665,-2.01136953035464,-1.85741502443422,-0.666605297719139,-4.7213160435306,-3.24603444734682,-1.7277081648456,-2.01130992570986,-1.85743886629214,-0.666593376790182,-4.7213160435306,-3.24603444734682,0,0,0,0,0,0,0,0,0,0,0,0,-0.286914821023607,-0.782655550814712,0.230663646928533,2.96658629960679,-0.0812102690499988,-0.0348738152905294,-0.286921676977533,-0.782636291409262,0.230700693010761,2.96653858313696,-0.081226734530868,-0.0348842209047445,0,0,0,0,0,0,0,0,0,0,0,0
2030.656,0.352692,8,0,7,1,1,0.1,0,0,0,0,0,0,0,0,0,0,4.56277234762464,-10.1000027169288,13.585476773417,2.21858362348472,-0.914315308248211,-0.622753934447629,11,0,-1.72769624391665,-2.01136953035464,-1.85741502443422,-0.666605297719139,-4.7213160435306,-3.24603444734682,-1.72767240205874,-2.01134568849672,-1.85741502443422,-0.666629616414205,-4.72130412260164,-3.24598628679384,0,0,0,0,0,0,0,0,0,0,0,0,-0.286914821023607,-0.782655550814712,0.230663646928533,2.96658629960679,-0.0812102690499988,-0.0348738152905294,-0.286894394718573,-0.782658465908016,0.230679982913297,2.96658373021356,-0.081244406149634,-0.0348467473950125,0,0,0,0,0,0,0,0,0,0,0,0
2030.664,0.359772,8,0,7,1,1,0.1,0,0,0,0,0,0,0,0,0,0,4.61505104072605,-9.49097267690799,14.5371676449218,2.43169848190867,-0.81971931613657,-0.702872166180912,11,0,-1.72769624391665,-2.01136953035464,-1.85741502443422,-0.666605297719139,-4.7213160435306,-3.24603444734682,-1.72769624391665,-2.0112980047809,-1.85743886629214,-0.666605297719137,-4.7212920824634,-3.24601036707033,0,0,0,0,0,0,0,0,0,0,0,0,-0.286914821023607,-0.782655550814712,0.230663646928533,2.96658629960679,-0.0812102690499988,-0.0348738152905294,-0.286909826624168,-0.782638028465341,0.230708893245473,2.96653507208878,-0.0812413512347088,-0.0348442323910409,0,0,0,0,0,0,0,0,0,0,0,0
2030.672,0.348373,8,0,7,1,1,0.1,0,0,0,0,0,0,0,0,0,0,5.00957227488856,-10.1660823445966,13.792204944664,2.25533695707003,-0.850013465997739,-0.634967965363546,11,0,-1.72769624391665,-2.01136953035464,-1.85741502443422,-0.666605297719139,-4.7213160435306,-3.24603444734682,-1.72767240205874,-2.01134568849672,-1.85740310350527,-0.666605297719137,-4.72128016153444,-3.24602228799929,0,0,0,0,0,0,0,0,0,0,0,0,-0.286914821023607,-0.782655550814712,0.230663646928533,2.96658629960679,-0.0812102690499988,-0.0348738152905294,-0.286893344111058,-0.782665813630456,0.230689773793123,2.96654690646083,-0.0811871558953817,-0.0348227545634749,0,0,0,0,0,0,0,0,0,0,0,0
2030.68,0.34716,8,0,7,1,1,0.1,0,0,0,0,0,0,0,0,0,0,5.45998590263415,-10.6398461498249,13.3729115134575,2.27055791243976,-0.590945026644152,-0.767037015338834,11,0,-1.72769624391665,-2.01136953035464,-1.85741502443422,-0.666605297719139,-4.7213160435306,-3.24603444734682,-1.72769624391665,-2.01135760942568,-1.85742694536318,-0.66661769548525,-4.72128016153444,-3.24604636827578,0,0,0,0,0,0,0,0,0,0,0,0,-0.286914821023607,-0.782655550814712,0.230663646928533,2.96658629960679,-0.0812102690499988,-0.0348738152905294,-0.286910374407505,-0.782648695876014,0.230665161075792,2.9665952611232,-0.0811878314020841,-0.0348202977858374,0,0,0,0,0,0,0,0,0,0,0,0
2030.688,0.3756,8,0,7,1,1,0.1,0,0,0,0,0,0,0,0,0,0,3.96038108694097,-10.4769561081976,13.5795861293898,2.33950427998939,-0.730502798808499,-0.687038521775716,11,0,-1.72769624391665,-2.01136953035464,-1.85741502443422,-0.666605297719139,-4.7213160435306,-3.24603444734682,-1.72766048112978,-2.01135760942568,-1.85743886629214,-0.666605297719137,-4.72128016153444,-3.24601036707033,0,0,0,0,0,0,0,0,0,0,0,0,-0.286914821023607,-0.782655550814712,0.230663646928533,2.96658629960679,-0.0812102690499988,-0.0348738152905294,-0.286881703207064,-0.782654501442414,0.230660148629718,2.96659405293377,-0.0811882556039142,-0.0348112407834075,0,0,0,0,0,0,0,0,0,0,0,0
2030.696,0.425316,8,0,7,1,1,0.1,0,0,0,0,0,0,0,0,0,0,3.26118470910594,-10.9472035142512,13.2039463806162,2.33304726226525,-0.718901797191116,-0.631290810093003,11,0,-1.72769624391665,-2.01136953035464,-1.85741502443422,-0.666605297719139,-4.7213160435306,-3.24603444734682,-1.72767240205874,-2.01132184663881,-1.85741502443422,-0.666605297719137,-4.7212681213962,-3.24602228799929,0,0,0,0,0,0,0,0,0,0,0,0,-0.286914821023607,-0.782655550814712,0.230663646928533,2.96658629960679,-0.0812102690499988,-0.0348738152905294,-0.286891032160767,-0.782658260873329,0.230702647895807,2.96653374036712,-0.0811851493175054,-0.0348072689867386,0,0,0,0,0,0,0,0,0,0,0,0
2030.704,0.355104,8,0,7,1,1,0.1,0,0,0,0,0,0,0,0,0,0,4.90406605133374,-9.24854870483748,14.5908622496808,2.37505417435653,-0.730589654411097,-0.716808036040682,11,0,-1.72769624391665,-2.01136953035464,-1.85741502443422,-0.666605297719139,-4.7213160435306,-3.24603444734682,-1.72767240205874,-2.01133376756777,-1.85743886629214,-0.666593376790182,-4.72128016153444,-3.24599844614138,0,0,0,0,0,0,0,0,0,0,0,0,-0.286914821023607,-0.782655550814712,0.230663646928533,2.96658629960679,-0.0812102690499988,-0.0348738152905294,-0.2868907988178,-0.782649492076771,0.230681197664979,2.96655755901057,-0.0812228210781995,-0.0348177906383705,0,0,0,0,0,0,0,0,0,0,0,0
2030.712,0.354648,8,0,7,1,1,0.1,0,0,0,0,0,0,0,0,0,0,4.43739870156254,-9.9950860364324,13.6728509051517,2.13553676883764,-0.575667575021407,-0.708382251928001,11,0,-1.72769624391665,-2.01136953035464,-1.85741502443422,-0.666605297719139,-4.7213160435306,-3.24603444734682,-1.72767240205874,-2.01133376756777,-1.85742694536318,-0.66661769548525,-4.7213160435306,-3.24601036707033,0,0,0,0,0,0,0,0,0,0,0,0,-0.286914821023607,-0.782655550814712,0.230663646928533,2.96658629960679,-0.0812102690499988,-0.0348738152905294,-0.286894603308148,-0.782652596458872,0.230684656567195,2.9665744371609,-0.0812100968091119,-0.034869707583664,0,0,0,0,0,0,0,0,0,0,0,0
2030.72,0.354289,8,0,7,1,1,0.1,0,0,0,0,0,0,0,0,0,0,5.69682742144442,-9.37581896606978,14.0505427259082,2.06858199124607,-0.755685028126954,-0.732492031194131,11,0,-1.72769624391665,-2.01136953035464,-1.85741502443422,-0.666605297719139,-4.7213160435306,-3.24603444734682,-1.72772008577456,-2.01133376756777,-1.85741502443422,-0.666593376790182,-4.72128016153444,-3.24602228799929,0,0,0,0,0,0,0,0,0,0,0,0,-0.286914821023607,-0.782655550814712,0.230663646928533,2.96658629960679,-0.0812102690499988,-0.0348738152905294,-0.286929786221401,-0.782646437386003,0.230694448426466,2.96653362264065,-0.0812576779039932,-0.0348312204374646,0,0,0,0,0,0,0,0,0,0,0,0
2030.728,0.349476,8,0,7,1,1,0.1,0,0,0,0,0,0,0,0,0,0,4.6797364249391,-8.69976366452724,14.7770075185726,2.20626723645021,-0.812667457805782,-0.668957509175321,11,0,-1.72769624391665,-2.01136953035464,-1.85741502443422,-0.666605297719139,-4.7213160435306,-3.24603444734682,-1.72766048112978,-2.01133376756777,-1.85742694536318,-0.666593376790182,-4.7213160435306,-3.24608236948122,0,0,0,0,0,0,0,0,0,0,0,0,-0.286914821023607,-0.782655550814712,0.230663646928533,2.96658629960679,-0.0812102690499988,-0.0348738152905294,-0.286885572353904,-0.782657700780887,0.230687820117587,2.9665543004227,-0.0810852937294761,-0.0348820133290786,0,0,0,0,0,0,0,0,0,0,0,0
2030.736,0.420108,8,0,7,1,1,0.1,0,0,0,0,0,0,0,0,0,0,5.06304280177268,-8.71396916838906,14.6822539332546,2.12565764675409,-0.855536555139736,-0.687913360385931,11,0,-1.72769624391665,-2.01136953035464,-1.85741502443422,-0.666605297719139,-4.7213160435306,-3.24603444734682,-1.72768432298769,-2.01132184663881,-1.85743886629214,-0.666629616414205,-4.7212920824634,-3.24602228799929,0,0,0,0,0,0,0,0,0,0,0,0,-0.286914821023607,-0.782655550814712,0.230663646928533,2.96658629960679,-0.0812102690499988,-0.0348738152905294,-0.286900578834573,-0.78264218003922,0.23068623152292,2.96658388119039,-0.0812069586646554,-0.0348353698350275,0,0,0,0,0,0,0,0,0,0,0,0
2030.744,0.356616,8,0,7,1,1,0.1,0,0,0,0,0,0,0,0,0,0,4.6428232802329,-9.71378670131687,13.7381339410983,2.09370499719176,-0.926219992596935,-0.645787241270325,11,0,-1.72769624391665,-2.01136953035464,-1.85741502443422,-0.666605297719139,-4.7213160435306,-3.24603444734682,-1.72766048112978,-2.01132184663881,-1.85741502443422,-0.666605297719137,-4.7212681213962,-3.24599844614138,0,0,0,0,0,0,0,0,0,0,0,0,-0.286914821023607,-0.782655550814712,0.230663646928533,2.96658629960679,-0.0812102690499988,-0.0348738152905294,-0.286881702126859,-0.78266168082533,0.230702647895807,2.96653289137511,-0.0812028212428661,-0.0348026428298831,0,0,0,0,0,0,0,0,0,0,0,0
2030.752,0.359736,8,0,7,1,1,0.1,0,0,0,0,0,0,0,0,0,0,4.05133919968497,-10.2955678461661,13.5530308021722,2.10482429053733,-0.825279086949427,-0.635105278030781,11,0,-1.72769624391665,-2.01136953035464,-1.85741502443422,-0.666605297719139,-4.7213160435306,-3.24603444734682,-1.72768432298769,-2.01133376756777,-1.85742694536318,-0.66661769548525,-4.7213160435306,-3.24597436586489,0,0,0,0,0,0,0,0,0,0,0,0,-0.286914821023607,-0.782655550814712,0.230663646928533,2.96658629960679,-0.0812102690499988,-0.0348738152905294,-0.28690393323376,-0.782649176353078,0.230684656567195,2.96657224418544,-0.0812811723284098,-0.0348665933423647,0,0,0,0,0,0,0,0,0,0,0,0
2030.76,0.351421,8,0,7,1,1,0.1,0,0,0,0,0,0,0,0,0,0,4.72209105988633,-8.35201343088762,14.961527171225,2.04156714732251,-0.758747570247383,-0.673664402619878,11,0,-1.72769624391665,-2.01136953035464,-1.85741502443422,-0.666605297719139,-4.7213160435306,-3.24603444734682,-1.72767240205874,-2.01136953035464,-1.85743886629214,-0.666605297719137,-4.7212920824634,-3.24602228799929,0,0,0,0,0,0,0,0,0,0,0,0,-0.286914821023607,-0.782655550814712,0.230663646928533,2.96658629960679,-0.0812102690499988,-0.0348738152905294,-0.286892309876945,-0.782652114609927,0.230650398492861,2.96660745620018,-0.0811901991277627,-0.0348297089358483,0,0,0,0,0,0,0,0,0,0,0,0
2030.768,0.351168,8,0,7,1,1,0.1,0,0,0,0,0,0,0,0,0,0,5.22174693262899,-10.077907888835,12.888181157671,1.9604993143835,-0.813325774363422,-0.63308761881431,11,0,-1.72769624391665,-2.01136953035464,-1.85741502443422,-0.666605297719139,-4.7213160435306,-3.24603444734682,-1.72768432298769,-2.01138192812075,-1.8574631849872,-0.666605297719137,-4.72130412260164,-3.24602228799929,0,0,0,0,0,0,0,0,0,0,0,0,-0.286914821023607,-0.782655550814712,0.230663646928533,2.96658629960679,-0.0812102690499988,-0.0348738152905294,-0.286901233767783,-0.78263893425813,0.23062674341414,2.96664491309156,-0.0812103874073941,-0.0348424627231985,0,0,0,0,0,0,0,0,0,0,0,0
2030.776,0.349752,8,0,7,1,1,0.1,0,0,0,0,0,0,0,0,0,0,5.07681116735524,-8.91722723558041,14.4412300641332,2.07615751791304,-0.695251169520512,-0.685726262817948,11,0,-1.72769624391665,-2.01136953035464,-1.85741502443422,-0.666605297719139,-4.7213160435306,-3.24603444734682,-1.72768432298769,-2.01135760942568,-1.85743886629214,-0.666629616414205,-4.72128016153444,-3.24599844614138,0,0,0,0,0,0,0,0,0,0,0,0,-0.286914821023607,-0.782655550814712,0.230663646928533,2.96658629960679,-0.0812102690499988,-0.0348738152905294,-0.286900063987278,-0.782645976957181,0.23065698516092,2.96661687867944,-0.0812416450579249,-0.0348082472078969,0,0,0,0,0,0,0,0,0,0,0,0
2030.784,0.377424,8,0,7,1,1,0.1,0,0,0,0,0,0,0,0,0,0,5.02926480314752,-9.39603941317556,14.1449279157314,2.05879665792879,-0.77061554457695,-0.643244561643349,11,0,-1.72769624391665,-2.01136953035464,-1.85741502443422,-0.666605297719139,-4.7213160435306,-3.24603444734682,-1.72768432298769,-2.01132184663881,-1.85745078722109,-0.666605297719137,-4.7212681213962,-3.24599844614138,0,0,0,0,0,0,0,0,0,0,0,0,-0.286914821023607,-0.782655550814712,0.230663646928533,2.96658629960679,-0.0812102690499988,-0.0348738152905294,-0.28689786059416,-0.782638901455153,0.230682771687123,2.96656771409896,-0.0812389827708609,-0.0347994600439076,0,0,0,0,0,0,0,0,0,0,0,0
2030.792,0.424284,8,0,7,1,1,0.1,0,0,0,0,0,0,0,0,0,0,4.0142548739976,-10.4488817217117,13.0720982199449,2.02895564013086,-0.977471965412671,-0.721419452964951,11,0,-1.72769624391665,-2.01136953035464,-1.85741502443422,-0.666605297719139,-4.7213160435306,-3.24603444734682,-1.72769624391665,-2.01134568849672,-1.85742694536318,-0.66664153734316,-4.7212920824634,-3.24601036707033,0,0,0,0,0,0,0,0,0,0,0,0,-0.286914821023607,-0.782655550814712,0.230663646928533,2.96658629960679,-0.0812102690499988,-0.0348738152905294,-0.286910976974195,-0.782645662671523,0.230671807842128,2.96660658955209,-0.0812428585995674,-0.0348309082945413,0,0,0,0,0,0,0,0,0,0,0,0
2030.8,0.355093,8,0,7,1,1,0.1,0,0,0,0,0,0,0,0,0,0,3.98344532994039,-10.4162559335701,13.2323537092211,2.0150898449176,-1.00208889535612,-0.687887778140766,11,0,-1.72769624391665,-2.01136953035464,-1.85741502443422,-0.666605297719139,-4.7213160435306,-3.24603444734682,-1.72769624391665,-2.0112980047809,-1.85743886629214,-0.66661769548525,-4.72128016153444,-3.24601036707033,0,0,0,0,0,0,0,0,0,0,0,0,-0.286914821023607,-0.782655550814712,0.230663646928533,2.96658629960679,-0.0812102690499988,-0.0348738152905294,-0.28690858787751,-0.782637344092159,0.230707281414634,2.96654606952251,-0.0812399029968043,-0.0348243719403573,0,0,0,0,0,0,0,0,0,0,0,0
2030.808,0.355128,8,0,7,1,1,0.1,0,0,0,0,0,0,0,0,0,0,3.89606572310395,-11.0106520597325,12.6948741298174,2.03068176284832,-0.907953837471168,-0.647300126556256,11,0,-1.72769624391665,-2.01136953035464,-1.85741502443422,-0.666605297719139,-4.7213160435306,-3.24603444734682,-1.72767240205874,-2.01134568849672,-1.85745078722109,-0.666605297719137,-4.72130412260164,-3.24604636827578,0,0,0,0,0,0,0,0,0,0,0,0,-0.286914821023607,-0.782655550814712,0.230663646928533,2.96658629960679,-0.0812102690499988,-0.0348738152905294,-0.286892192313149,-0.7826442104167,0.230663270620075,2.96659817497521,-0.0811557554420658,-0.0348527852161404,0,0,0,0,0,0,0,0,0,0,0,0
2030.816,0.355308,8,0,7,1,1,0.1,0,0,0,0,0,0,0,0,0,0,4.78015122689253,-10.4112258760001,13.3418412096131,2.04225744336561,-1.03334661133989,-0.596933126509445,11,0,-1.72769624391665,-2.01136953035464,-1.85741502443422,-0.666605297719139,-4.7213160435306,-3.24603444734682,-1.72766048112978,-2.01135760942568,-1.85741502443422,-0.666629616414205,-4.72130412260164,-3.24601036707033,0,0,0,0,0,0,0,0,0,0,0,0,-0.286914821023607,-0.782655550814712,0.230663646928533,2.96658629960679,-0.0812102690499988,-0.0348738152905294,-0.2868852551392,-0.782663093499563,0.23067023365819,2.96659715875779,-0.081191325313051,-0.0348461565144571,0,0,0,0,0,0,0,0,0,0,0,0
2030.824,0.34998,8,0,7,1,1,0.1,0,0,0,0,0,0,0,0,0,0,4.65031802895808,-10.1416830457531,13.4271283201799,2.07039181031341,-1.00145601658175,-0.631966373622323,11,0,-1.72769624391665,-2.01136953035464,-1.85741502443422,-0.666605297719139,-4.7213160435306,-3.24603444734682,-1.72768432298769,-2.0112980047809,-1.85741502443422,-0.666605297719137,-4.7212681213962,-3.24601036707033,0,0,0,0,0,0,0,0,0,0,0,0,-0.286914821023607,-0.782655550814712,0.230663646928533,2.96658629960679,-0.0812102690499988,-0.0348738152905294,-0.286899981043469,-0.782652424742151,0.230722146344938,2.96650908784836,-0.0812198801237271,-0.0348115962799209,0,0,0,0,0,0,0,0,0,0,0,0
2030.832,0.37032,8,0,7,1,1,0.1,0,0,0,0,0,0,0,0,0,0,4.47624956083322,-9.00744809609447,14.6112095256401,2.15500766852447,-0.96646379828518,-0.669282791195727,11,0,-1.72769624391665,-2.01136953035464,-1.85741502443422,-0.666605297719139,-4.7213160435306,-3.24603444734682,-1.72766048112978,-2.01134568849672,-1.85740310350527,-0.66661769548525,-4.7212681213962,-3.24599844614138,0,0,0,0,0,0,0,0,0,0,0,0,-0.286914821023607,-0.782655550814712,0.230663646928533,2.96658629960679,-0.0812102690499988,-0.0348738152905294,-0.286882764398343,-0.782668550913599,0.230688161995692,2.96655704167532,-0.0812033635240958,-0.0347980930253668,0,0,0,0,0,0,0,0,0,0,0,0
2030.84,0.419184,8,0,7,1,1,0.1,0,0,0,0,0,0,0,0,0,0,5.13499052413961,-9.26197904556756,14.2120867278197,2.07123591798592,-0.684166033948124,-0.687513513961129,11,0,-1.72769624391665,-2.01136953035464,-1.85741502443422,-0.666605297719139,-4.7213160435306,-3.24603444734682,-1.72767240205874,-2.01134568849672,-1.85743886629214,-0.66661769548525,-4.72128016153444,-3.24598628679384,0,0,0,0,0,0,0,0,0,0,0,0,-0.286914821023607,-0.782655550814712,0.230663646928533,2.96658629960679,-0.0812102690499988,-0.0348738152905294,-0.286890690247561,-0.782649015289226,0.230668285012652,2.96659293957968,-0.0812415091674712,-0.0348095199861188,0,0,0,0,0,0,0,0,0,0,0,0
2030.848,0.371305,8,0,7,1,1,0.1,0,0,0,0,0,0,0,0,0,0,4.73557416286373,-10.9925219351246,12.7607930437697,2.0629416451826,-0.689003097169797,-0.657696436057787,11,0,-1.72769624391665,-2.01136953035464,-1.85741502443422,-0.666605297719139,-4.7213160435306,-3.24603444734682,-1.72769624391665,-2.01135760942568,-1.85743886629214,-0.666629616414205,-4.7212920824634,-3.24599844614138,0,0,0,0,0,0,0,0,0,0,0,0,-0.286914821023607,-0.782655550814712,0.230663646928533,2.96658629960679,-0.0812102690499988,-0.0348738152905294,-0.286910480116976,-0.782642382516488,0.23065698418592,2.96661783364767,-0.0812609513248552,-0.0348273373670601,0,0,0,0,0,0,0,0,0,0,0,0
2030.856,0.353388,8,0,7,1,1,0.1,0,0,0,0,0,0,0,0,0,0,4.24958167010865,-10.1547963389907,13.0936024138909,2.02162023693812,-0.891822781613358,-0.678496437878781,11,0,-1.72769624391665,-2.01136953035464,-1.85741502443422,-0.666605297719139,-4.7213160435306,-3.24603444734682,-1.72768432298769,-2.01133376756777,-1.85743886629214,-0.666593376790182,-4.721244160329,-3.24601036707033,0,0,0,0,0,0,0,0,0,0,0,0,-0.286914821023607,-0.782655550814712,0.230663646928533,2.96658629960679,-0.0812102690499988,-0.0348738152905294,-0.286896848123471,-0.782646598259048,0.230681200687967,2.96655382301848,-0.0812179322966916,-0.0347678780314104,0,0,0,0,0,0,0,0,0,0,0,0
2030.864,0.35004,8,0,7,1,1,0.1,0,0,0,0,0,0,0,0,0,0,3.55372201495004,-11.4758242011849,12.0332485243551,2.0042500991168,-0.943213416747637,-0.726700542768052,11,0,-1.72769624391665,-2.01136953035464,-1.85741502443422,-0.666605297719139,-4.7213160435306,-3.24603444734682,-1.72767240205874,-2.01134568849672,-1.85743886629214,-0.66664153734316,-4.7212920824634,-3.24601036707033,0,0,0,0,0,0,0,0,0,0,0,0,-0.286914821023607,-0.782655550814712,0.230663646928533,2.96658629960679,-0.0812102690499988,-0.0348738152905294,-0.286891483342944,-0.782647189600033,0.230665182598019,2.96661916351735,-0.0812077505585657,-0.0348257365338688,0,0,0,0,0,0,0,0,0,0,0,0
2030.872,0.349044,8,0,7,1,1,0.1,0,0,0,0,0,0,0,0,0,0,6.38072335650295,-8.27617435010837,15.187434761087,2.06495105633609,-0.636408984058376,-0.666889895530466,11,0,-1.72769624391665,-2.01136953035464,-1.85741502443422,-0.666605297719139,-4.7213160435306,-3.24603444734682,-1.72769624391665,-2.01135760942568,-1.85742694536318,-0.666629616414205,-4.7212681213962,-3.24603444734682,0,0,0,0,0,0,0,0,0,0,0,0,-0.286914821023607,-0.782655550814712,0.230663646928533,2.96658629960679,-0.0812102690499988,-0.0348738152905294,-0.286909130647059,-0.782648046176168,0.230663611348939,2.9666051656654,-0.0812040397241239,-0.0347988085760114,0,0,0,0,0,0,0,0,0,0,0,0
2030.88,0.349788,8,0,7,1,1,0.1,0,0,0,0,0,0,0,0,0,0,4.46325525177215,-10.9776286945131,12.6632693831827,1.99780320989906,-1.02835346609529,-0.654063159739705,11,0,-1.72769624391665,-2.01136953035464,-1.85741502443422,-0.666605297719139,-4.7213160435306,-3.24603444734682,-1.72767240205874,-2.01132184663881,-1.85741502443422,-0.666605297719137,-4.72130412260164,-3.24602228799929,0,0,0,0,0,0,0,0,0,0,0,0,-0.286914821023607,-0.782655550814712,0.230663646928533,2.96658629960679,-0.0812102690499988,-0.0348738152905294,-0.286894312747857,-0.78265773465607,0.230702644950554,2.96653771919126,-0.0811900453111305,-0.0348602649477705,0,0,0,0,0,0,0,0,0,0,0,0
2030.888,0.374953,8,0,7,1,1,0.1,0,0,0,0,0,0,0,0,0,0,4.47359064124733,-10.5165105933763,12.9471385938489,1.98657448165187,-0.592917151938649,-0.672166374658175,11,0,-1.72769624391665,-2.01136953035464,-1.85741502443422,-0.666605297719139,-4.7213160435306,-3.24603444734682,-1.72764856020083,-2.01132184663881,-1.85742694536318,-0.66664153734316,-4.72123212019076,-3.24603444734682,0,0,0,0,0,0,0,0,0,0,0,0,-0.286914821023607,-0.782655550814712,0.230663646928533,2.96658629960679,-0.0812102690499988,-0.0348738152905294,-0.286867812236526,-0.782657803700799,0.230691311196464,2.96657894897953,-0.0811276198267927,-0.0347439138667313,0,0,0,0,0,0,0,0,0,0,0,0
2030.896,0.420156,8,0,7,1,1,0.1,0,0,0,0,0,0,0,0,0,0,4.91372794928348,-7.79067816055402,15.4810714979912,2.07280716691652,-0.91273552935139,-0.73399712365935,11,0,-1.72769624391665,-2.01136953035464,-1.85741502443422,-0.666605297719139,-4.7213160435306,-3.24603444734682,-1.72768432298769,-2.01134568849672,-1.85741502443422,-0.66664153734316,-4.72130412260164,-3.24603444734682,0,0,0,0,0,0,0,0,0,0,0,0,-0.286914821023607,-0.782655550814712,0.230663646928533,2.96658629960679,-0.0812102690499988,-0.0348738152905294,-0.286903578112587,-0.78265422011138,0.230678432178495,2.96659765726831,-0.0811908349106534,-0.0348522938988071,0,0,0,0,0,0,0,0,0,0,0,0
2030.904,0.361092,8,0,7,1,1,0.1,0,0,0,0,0,0,0,0,0,0,5.9730231843493,-9.11405992851735,14.3921219768315,2.14105526873268,-0.449686292230389,-0.730496962887698,11,0,-1.72769624391665,-2.01136953035464,-1.85741502443422,-0.666605297719139,-4.7213160435306,-3.24603444734682,-1.72764856020083,-2.01134568849672,-1.85743886629214,-0.666629616414205,-4.7212920824634,-3.24603444734682,0,0,0,0,0,0,0,0,0,0,0,0,-0.286914821023607,-0.782655550814712,0.230663646928533,2.96658629960679,-0.0812102690499988,-0.0348738152905294,-0.286872970075937,-0.782654855138799,0.230666733312826,2.96660926959523,-0.0811365014438763,-0.0348279903984742,0,0,0,0,0,0,0,0,0,0,0,0
2030.912,0.357084,8,0,7,1,1,0.1,0,0,0,0,0,0,0,0,0,0,4.68885487926227,-10.1538227095551,13.4914844209627,2.05551857393845,-0.971849165017574,-0.665602442475865,11,0,-1.72769624391665,-2.01136953035464,-1.85741502443422,-0.666605297719139,-4.7213160435306,-3.24603444734682,-1.72768432298769,-2.01133376756777,-1.85743886629214,-0.666593376790182,-4.72130412260164,-3.24603444734682,0,0,0,0,0,0,0,0,0,0,0,0,-0.286914821023607,-0.782655550814712,0.230663646928533,2.96658629960679,-0.0812102690499988,-0.0348738152905294,-0.286902312138954,-0.782645721757159,0.230681195718254,2.96656167447829,-0.0811903748994549,-0.0348592612277114,0,0,0,0,0,0,0,0,0,0,0,0
2030.92,0.349044,8,0,7,1,1,0.1,0,0,0,0,0,0,0,0,0,0,5.11468548608673,-11.5108014475968,11.813196277523,1.86511597381734,-0.807157482447216,-0.746542311556819,11,0,-1.72769624391665,-2.01136953035464,-1.85741502443422,-0.666605297719139,-4.7213160435306,-3.24603444734682,-1.72768432298769,-2.01133376756777,-1.85743886629214,-0.66664153734316,-4.72130412260164,-3.24603444734682,0,0,0,0,0,0,0,0,0,0,0,0,-0.286914821023607,-0.782655550814712,0.230663646928533,2.96658629960679,-0.0812102690499988,-0.0348738152905294,-0.286901719875317,-0.782642385994376,0.230674930728648,2.96660951343227,-0.0811910451733224,-0.0348502794025715,0,0,0,0,0,0,0,0,0,0,0,0
2030.928,0.349584,8,0,7,1,1,0.1,0,0,0,0,0,0,0,0,0,0,5.19675887366576,-9.9393449454277,13.4800731782573,2.01252213194106,-0.916823160318463,-0.645152472514323,11,0,-1.72769624391665,-2.01136953035464,-1.85741502443422,-0.666605297719139,-4.7213160435306,-3.24603444734682,-1.72767240205874,-2.01133376756777,-1.85739118257631,-0.66661769548525,-4.72128016153444,-3.24601036707033,0,0,0,0,0,0,0,0,0,0,0,0,-0.286914821023607,-0.782655550814712,0.230663646928533,2.96658629960679,-0.0812102690499988,-0.0348738152905294,-0.28689383492942,-0.782669060147445,0.230704535832883,2.96653492423586,-0.081204427607049,-0.0348231530792928,0,0,0,0,0,0,0,0,0,0,0,0
2030.936,0.417829,8,0,7,1,1,0.1,0,0,0,0,0,0,0,0,0,0,4.720352955179,-8.23343757206561,14.7232229402327,1.97085057667961,-0.94956749929891,-0.638271793858712,11,0,-1.72769624391665,-2.01136953035464,-1.85741502443422,-0.666605297719139,-4.7213160435306,-3.24603444734682,-1.72768432298769,-2.01132184663881,-1.85745078722109,-0.66661769548525,-4.72128016153444,-3.24603444734682,0,0,0,0,0,0,0,0,0,0,0,0,-0.286914821023607,-0.782655550814712,0.230663646928533,2.96658629960679,-0.0812102690499988,-0.0348738152905294,-0.286898805280074,-0.782637866755949,0.230681157914493,2.96658318929755,-0.0811874026662616,-0.0348195278317135,0,0,0,0,0,0,0,0,0,0,0,0
2030.944,0.354648,8,0,7,1,1,0.1,0,0,0,0,0,0,0,0,0,0,4.29461388206307,-10.6515820454679,12.5278390415128,1.86333881739604,-0.907354519451426,-0.642670775898237,11,0,-1.72769624391665,-2.01136953035464,-1.85741502443422,-0.666605297719139,-4.7213160435306,-3.24603444734682,-1.72772008577456,-2.01135760942568,-1.85745078722109,-0.66661769548525,-4.72130412260164,-3.24601036707033,0,0,0,0,0,0,0,0,0,0,0,0,-0.286914821023607,-0.782655550814712,0.230663646928533,2.96658629960679,-0.0812102690499988,-0.0348738152905294,-0.286929549366896,-0.782630878079255,0.230651908793308,2.96661905326308,-0.0812803777452657,-0.0348498197633749,0,0,0,0,0,0,0,0,0,0,0,0
2030.952,0.351408,8,0,7,1,1,0.1,0,0,0,0,0,0,0,0,0,0,4.45954453929115,-9.80484724032029,13.7685310745291,2.10306883226288,-0.948158654488307,-0.671092592338039,11,0,-1.72769624391665,-2.01136953035464,-1.85741502443422,-0.666605297719139,-4.7213160435306,-3.24603444734682,-1.72767240205874,-2.01132184663881,-1.85743886629214,-0.666605297719137,-4.72130412260164,-3.24601036707033,0,0,0,0,0,0,0,0,0,0,0,0,-0.286914821023607,-0.782655550814712,0.230663646928533,2.96658629960679,-0.0812102690499988,-0.0348738152905294,-0.28689264517988,-0.782647108477786,0.230689394081181,2.96656081183182,-0.081208250393912,-0.0348545454386641,0,0,0,0,0,0,0,0,0,0,0,0
2030.96,0.351456,8,0,7,1,1,0.1,0,0,0,0,0,0,0,0,0,0,3.81710151253627,-9.55301635418459,13.5641612599469,1.92488560890536,-1.1043576581618,-0.523616394296771,11,0,-1.72769624391665,-2.01136953035464,-1.85741502443422,-0.666605297719139,-4.7213160435306,-3.24603444734682,-1.72764856020083,-2.01135760942568,-1.85745078722109,-0.66661769548525,-4.7212920824634,-3.24602228799929,0,0,0,0,0,0,0,0,0,0,0,0,-0.286914821023607,-0.782655550814712,0.230663646928533,2.96658629960679,-0.0812102690499988,-0.0348738152905294,-0.286872473356573,-0.782651574840522,0.230651909764859,2.9666205022532,-0.0811549473449535,-0.0348243888415659,0,0,0,0,0,0,0,0,0,0,0,0
2030.968,0.347616,8,0,7,1,1,0.1,0,0,0,0,0,0,0,0,0,0,3.7097007988085,-10.3194528186309,13.0118057885779,1.99685695635458,-0.916084705341083,-0.731159704976805,11,0,-1.72769624391665,-2.01136953035464,-1.85741502443422,-0.666605297719139,-4.7213160435306,-3.24603444734682,-1.7277081648456,-2.01132184663881,-1.85742694536318,-0.666605297719137,-4.7212681213962,-3.24602228799929,0,0,0,0,0,0,0,0,0,0,0,0,-0.286914821023607,-0.782655550814712,0.230663646928533,2.96658629960679,-0.0812102690499988,-0.0348738152905294,-0.286918188049772,-0.78264268732965,0.2306960224288,2.96654450244887,-0.0812384687396236,-0.0348098057880704,0,0,0,0,0,0,0,0,0,0,0,0
2030.976,0.347365,8,0,7,1,1,0.1,0,0,0,0,0,0,0,0,0,0,5.17740469788003,-8.45065582464562,15.132623373978,2.15100570092278,-0.943952168213248,-0.702001218772916,11,0,-1.72769624391665,-2.01136953035464,-1.85741502443422,-0.666605297719139,-4.7213160435306,-3.24603444734682,-1.72768432298769,-2.01133376756777,-1.85740310350527,-0.666629616414205,-4.7213160435306,-3.24601036707033,0,0,0,0,0,0,0,0,0,0,0,0,-0.286914821023607,-0.782655550814712,0.230663646928533,2.96658629960679,-0.0812102690499988,-0.0348738152905294,-0.286905454342183,-0.782658976910869,0.230696356650815,2.9665622178218,-0.0812274218405089,-0.0348732039614851,0,0,0,0,0,0,0,0,0,0,0,0
2030.984,0.377448,8,0,7,1,1,0.1,0,0,0,0,0,0,0,0,0,0,4.77931607605254,-9.24572873793493,13.9731536500221,1.99183940577127,-0.82352822175007,-0.689648001387469,11,0,-1.72769624391665,-2.01136953035464,-1.85741502443422,-0.666605297719139,-4.7213160435306,-3.24603444734682,-1.72767240205874,-2.01128608385195,-1.85742694536318,-0.66661769548525,-4.72128016153444,-3.24601036707033,0,0,0,0,0,0,0,0,0,0,0,0,-0.286914821023607,-0.782655550814712,0.230663646928533,2.96658629960679,-0.0812102690499988,-0.0348738152905294,-0.286890571483027,-0.7826482891833,0.230723656063435,2.96652310278751,-0.0812039525596592,-0.0348255404353541,0,0,0,0,0,0,0,0,0,0,0,0
2030.992,0.435936,8,0,7,1,1,0.1,0,0,0,0,0,0,0,0,0,0,5.9205966636925,-8.50700955691813,14.8445172864849,2.14883380514111,-0.86508532804146,-0.658100013098472,11,0,-1.72769624391665,-2.01136953035464,-1.85741502443422,-0.666605297719139,-4.7213160435306,-3.24603444734682,-1.72768432298769,-2.01135760942568,-1.85743886629214,-0.666593376790182,-4.72128016153444,-3.24598628679384,0,0,0,0,0,0,0,0,0,0,0,0,-0.286914821023607,-0.782655550814712,0.230663646928533,2.96658629960679,-0.0812102690499988,-0.0348738152905294,-0.28690050966433,-0.782648487119982,0.230661699364911,2.96658026297262,-0.0812591718766299,-0.0348134329238081,0,0,0,0,0,0,0,0,0,0,0,0
2031,0.419412,8,0,7,1,1,0.1,0,0,0,0,0,0,0,0,0,0,4.602987798,-11.6129207113326,12.1893131517418,1.99741986724597,-0.905309165845006,-0.589179365849622,11,0,-1.72769624391665,-2.01136953035464,-1.85741502443422,-0.666605297719139,-4.7213160435306,-3.24603444734682,-1.72767240205874,-2.01135760942568,-1.85742694536318,-0.666605297719137,-4.7212681213962,-3.24599844614138,0,0,0,0,0,0,0,0,0,0,0,0,-0.286914821023607,-0.782655550814712,0.230663646928533,2.96658629960679,-0.0812102690499988,-0.0348738152905294,-0.286890769831952,-0.782656570836927,0.230666774838114,2.96657990498171,-0.0812217196344425,-0.0347956055227236,0,0,0,0,0,0,0,0,0,0,0,0
2031.008,0.355548,8,0,7,1,1,0.1,0,0,0,0,0,0,0,0,0,0,4.80632239076649,-8.99484679327051,14.2624741479777,2.00659565656764,-1.03738831997877,-0.710208392333928,11,0,-1.72769624391665,-2.01136953035464,-1.85741502443422,-0.666605297719139,-4.7213160435306,-3.24603444734682,-1.72768432298769,-2.01133376756777,-1.85741502443422,-0.666629616414205,-4.72125608125796,-3.24601036707033,0,0,0,0,0,0,0,0,0,0,0,0,-0.286914821023607,-0.782655550814712,0.230663646928533,2.96658629960679,-0.0812102690499988,-0.0348738152905294,-0.286899156480672,-0.782654540345568,0.230689736110291,2.96656743995013,-0.0812195319085425,-0.0347828459916723,0,0,0,0,0,0,0,0,0,0,0,0
2031.016,0.352381,8,0,7,1,1,0.1,0,0,0,0,0,0,0,0,0,0,5.08884136498047,-9.72217642983533,13.6026081308816,2.07299870719239,-0.387515756806167,-0.854537016081357,11,0,-1.72769624391665,-2.01136953035464,-1.85741502443422,-0.666605297719139,-4.7213160435306,-3.24603444734682,-1.72764856020083,-2.01132184663881,-1.85745078722109,-0.666593376790182,-4.7212920824634,-3.24598628679384,0,0,0,0,0,0,0,0,0,0,0,0,-0.286914821023607,-0.782655550814712,0.230663646928533,2.96658629960679,-0.0812102690499988,-0.0348738152905294,-0.286872201074271,-0.782649636706978,0.230684320469483,2.96655898996051,-0.0812070506825052,-0.0348307574232545,0,0,0,0,0,0,0,0,0,0,0,0
2031.024,0.35088,8,0,7,1,1,0.1,0,0,0,0,0,0,0,0,0,0,4.22530563880992,-9.98977704419461,13.5733286067875,2.06360380828782,-0.950228967868653,-0.611987467118216,11,0,-1.72769624391665,-2.01136953035464,-1.85741502443422,-0.666605297719139,-4.7213160435306,-3.24603444734682,-1.72766048112978,-2.01134568849672,-1.85745078722109,-0.666605297719137,-4.7212681213962,-3.24601036707033,0,0,0,0,0,0,0,0,0,0,0,0,-0.286914821023607,-0.782655550814712,0.230663646928533,2.96658629960679,-0.0812102690499988,-0.0348738152905294,-0.286879581853349,-0.782648156560541,0.230663273564362,2.96659272915739,-0.0811865658036405,-0.0347935912340232,0,0,0,0,0,0,0,0,0,0,0,0
2031.032,0.368736,8,0,7,1,1,0.1,0,0,0,0,0,0,0,0,0,0,5.56268958795016,-9.12222169194225,14.1185274416677,1.96056195117818,-1.02680687298899,-0.768366469327691,11,0,-1.72769624391665,-2.01136953035464,-1.85741502443422,-0.666605297719139,-4.7213160435306,-3.24603444734682,-1.72768432298769,-2.01130992570986,-1.85742694536318,-0.66661769548525,-4.7212920824634,-3.24605828920473,0,0,0,0,0,0,0,0,0,0,0,0,-0.286914821023607,-0.782655550814712,0.230663646928533,2.96658629960679,-0.0812102690499988,-0.0348738152905294,-0.286901368758429,-0.782647110972143,0.230704156817332,2.96655017755093,-0.0811528233954161,-0.034846502310186,0,0,0,0,0,0,0,0,0,0,0,0
2031.04,0.413652,8,0,7,1,1,0.1,0,0,0,0,0,0,0,0,0,0,4.93949798884258,-9.47008916451016,14.331376341773,2.18253208153356,-0.90695499271608,-0.594167622600669,11,0,-1.72769624391665,-2.01136953035464,-1.85741502443422,-0.666605297719139,-4.7213160435306,-3.24603444734682,-1.72764856020083,-2.01130992570986,-1.85740310350527,-0.666605297719137,-4.7212920824634,-3.24602228799929,0,0,0,0,0,0,0,0,0,0,0,0,-0.286914821023607,-0.782655550814712,0.230663646928533,2.96658629960679,-0.0812102690499988,-0.0348738152905294,-0.286875198622318,-0.782668855420306,0.2307190207493,2.96651342109283,-0.0811524582109475,-0.034843709055948,0,0,0,0,0,0,0,0,0,0,0,0
2031.048,0.366516,8,0,7,1,1,0.1,0,0,0,0,0,0,0,0,0,0,5.25207921647224,-9.43908711616057,13.7296430475075,1.99427488064202,-0.835415539934786,-0.687677432243399,11,0,-1.72769624391665,-2.01136953035464,-1.85741502443422,-0.666605297719139,-4.7213160435306,-3.24603444734682,-1.72769624391665,-2.01134568849672,-1.85739118257631,-0.666605297719137,-4.7212920824634,-3.24598628679384,0,0,0,0,0,0,0,0,0,0,0,0,-0.286914821023607,-0.782655550814712,0.230663646928533,2.96658629960679,-0.0812102690499988,-0.0348738152905294,-0.286913924425375,-0.782664112097674,0.230696398284673,2.9665338198846,-0.0812772735892402,-0.0348408190052599,0,0,0,0,0,0,0,0,0,0,0,0
2031.056,0.35292,8,0,7,1,1,0.1,0,0,0,0,0,0,0,0,0,0,4.71995040991357,-10.1933747674893,13.3967940430506,2.07797629858789,-0.771682861178966,-0.701170386248264,11,0,-1.72769624391665,-2.01136953035464,-1.85741502443422,-0.666605297719139,-4.7213160435306,-3.24603444734682,-1.72767240205874,-2.01135760942568,-1.85743886629214,-0.66664153734316,-4.7212681213962,-3.24598628679384,0,0,0,0,0,0,0,0,0,0,0,0,-0.286914821023607,-0.782655550814712,0.230663646928533,2.96658629960679,-0.0812102690499988,-0.0348738152905294,-0.286889490349197,-0.782648747250682,0.230655435453975,2.96662713382813,-0.081240521684279,-0.0347851863784905,0,0,0,0,0,0,0,0,0,0,0,0
2031.064,0.349597,8,0,7,1,1,0.1,0,0,0,0,0,0,0,0,0,0,4.61867180045586,-10.8682637512812,12.6524382772933,1.97414648078063,-0.749530599283292,-0.673311713314551,11,0,-1.72769624391665,-2.01136953035464,-1.85741502443422,-0.666605297719139,-4.7213160435306,-3.24603444734682,-1.7277081648456,-2.01132184663881,-1.85740310350527,-0.666581455861227,-4.72128016153444,-3.24604636827578,0,0,0,0,0,0,0,0,0,0,0,0,-0.286914821023607,-0.782655550814712,0.230663646928533,2.96658629960679,-0.0812102690499988,-0.0348738152905294,-0.286921246323479,-0.782654788409891,0.230712374029036,2.96649967635859,-0.0812035359382142,-0.0348392703930269,0,0,0,0,0,0,0,0,0,0,0,0
2031.072,0.351312,8,0,7,1,1,0.1,0,0,0,0,0,0,0,0,0,0,4.31611462378187,-10.5370253220909,13.0415816802554,2.05533783930365,-0.623169717414119,-0.697752727148951,11,0,-1.72769624391665,-2.01136953035464,-1.85741502443422,-0.666605297719139,-4.7213160435306,-3.24603444734682,-1.72769624391665,-2.01132184663881,-1.85743886629214,-0.66661769548525,-4.7212920824634,-3.24601036707033,0,0,0,0,0,0,0,0,0,0,0,0,-0.286914821023607,-0.782655550814712,0.230663646928533,2.96658629960679,-0.0812102690499988,-0.0348738152905294,-0.286910055244376,-0.782639585535644,0.230687782267714,2.96657107160244,-0.0812421568715652,-0.0348375930192034,0,0,0,0,0,0,0,0,0,0,0,0
