Miguel-LA/TFM_MiguelLerinAlonso/workspace/ros_ur_driver/src/trayectories/data/20240424_logViewer_j2.csv
timestamp,actual_execution_time,target_execution_time,speed_scaling,robot_mode,safety_mode,runtime_state,payload,payload_cog_0,payload_cog_1,payload_cog_2,payload_inertia_0,payload_inertia_1,payload_inertia_2,payload_inertia_3,payload_inertia_4,payload_inertia_5,script_control_line,wrench_calc_from_currents_0,wrench_calc_from_currents_1,wrench_calc_from_currents_2,wrench_calc_from_currents_3,wrench_calc_from_currents_4,wrench_calc_from_currents_5,motor_command,joint_position_deviation_ratio,target_q_0,target_q_1,target_q_2,target_q_3,target_q_4,target_q_5,actual_q_0,actual_q_1,actual_q_2,actual_q_3,actual_q_4,actual_q_5,target_qd_0,target_qd_1,target_qd_2,target_qd_3,target_qd_4,target_qd_5,actual_qd_0,actual_qd_1,actual_qd_2,actual_qd_3,actual_qd_4,actual_qd_5,target_TCP_pose_0,target_TCP_pose_1,target_TCP_pose_2,target_TCP_pose_3,target_TCP_pose_4,target_TCP_pose_5,actual_TCP_pose_0,actual_TCP_pose_1,actual_TCP_pose_2,actual_TCP_pose_3,actual_TCP_pose_4,actual_TCP_pose_5,target_TCP_speed_0,target_TCP_speed_1,target_TCP_speed_2,target_TCP_speed_3,target_TCP_speed_4,target_TCP_speed_5,actual_TCP_speed_0,actual_TCP_speed_1,actual_TCP_speed_2,actual_TCP_speed_3,actual_TCP_speed_4,actual_TCP_speed_5
2245.096,0.328884,8,0,7,1,1,0.1,0,0,0,0,0,0,0,0,0,0,2.99532937833092,-16.5296547439538,15.3501867533996,2.74224182464527,-1.1330467680294,-0.599642183820832,11,0,-1.72769624391665,-2.01136953035464,-1.85741502443422,-0.666605297719139,-4.7213160435306,-3.24603444734682,-1.72772008577456,-2.01130992570986,-1.85741502443422,-0.666629616414205,-4.72137600580324,-3.24599844614138,0,0,0,0,0,0,0,0,0,0,0,0,-0.286914821023607,-0.782655550814712,0.230663646928533,2.96658629960679,-0.0812102690499988,-0.0348738152905294,-0.286937693012157,-0.782640110309019,0.230709225062434,2.96655531376731,-0.0813059418455907,-0.0349667945255294,0,0,0,0,0,0,0,0,0,0,0,0
2245.104,0.39552,8,0,7,1,1,0.1,0,0,0,0,0,0,0,0,0,0,2.95240091263946,-17.1756240909753,14.6366757522066,2.64945077041662,-1.23216503891868,-0.608527618525627,11,0,-1.72769624391665,-2.01136953035464,-1.85741502443422,-0.666605297719139,-4.7213160435306,-3.24603444734682,-1.72768432298769,-2.01134568849672,-1.85737926164736,-0.666629616414205,-4.7214118877994,-3.24601036707033,0,0,0,0,0,0,0,0,0,0,0,0,-0.286914821023607,-0.782655550814712,0.230663646928533,2.96658629960679,-0.0812102690499988,-0.0348738152905294,-0.286916046256074,-0.78266940962927,0.230699851137898,2.96656094907397,-0.0812402451297373,-0.0350163080748332,0,0,0,0,0,0,0,0,0,0,0,0
2245.112,0.385945,8,0,7,1,1,0.1,0,0,0,0,0,0,0,0,0,0,3.55379521302848,-15.6455545555811,16.2733295859969,2.696605999397,-1.38891966206338,-0.639967477408581,11,0,-1.72769624391665,-2.01136953035464,-1.85741502443422,-0.666605297719139,-4.7213160435306,-3.24603444734682,-1.72767240205874,-2.01138192812075,-1.85741502443422,-0.66661769548525,-4.72137600580324,-3.24604636827578,0,0,0,0,0,0,0,0,0,0,0,0,-0.286914821023607,-0.782655550814712,0.230663646928533,2.96658629960679,-0.0812102690499988,-0.0348738152905294,-0.286901670594589,-0.782661911625837,0.230651890319346,2.96661888603904,-0.0811658712085309,-0.0349559818590363,0,0,0,0,0,0,0,0,0,0,0,0
2245.12,0.346344,8,0,7,1,1,0.1,0,0,0,0,0,0,0,0,0,0,3.16710417788112,-18.5843469652447,13.6237320345312,2.61483408513729,-1.21527021784528,-0.610523632190342,11,0,-1.72769624391665,-2.01136953035464,-1.85741502443422,-0.666605297719139,-4.7213160435306,-3.24603444734682,-1.72769624391665,-2.01132184663881,-1.85740310350527,-0.66661769548525,-4.72142392793764,-3.24604636827578,0,0,0,0,0,0,0,0,0,0,0,0,-0.286914821023607,-0.782655550814712,0.230663646928533,2.96658629960679,-0.0812102690499988,-0.0348738152905294,-0.286924571233337,-0.782653597105644,0.230707648710737,2.96655192141016,-0.081205907367891,-0.0350426020500993,0,0,0,0,0,0,0,0,0,0,0,0
2245.128,0.336096,8,0,7,1,1,0.1,0,0,0,0,0,0,0,0,0,0,4.64035530082888,-17.4509147133794,14.761346688348,2.62301987603365,-1.13266254982101,-0.653816438397364,11,0,-1.72769624391665,-2.01136953035464,-1.85741502443422,-0.666605297719139,-4.7213160435306,-3.24603444734682,-1.72767240205874,-2.01138192812075,-1.85740310350527,-0.666593376790182,-4.721363965665,-3.24601036707033,0,0,0,0,0,0,0,0,0,0,0,0,-0.286914821023607,-0.782655550814712,0.230663646928533,2.96658629960679,-0.0812102690499988,-0.0348738152905294,-0.286901706322952,-0.782669085411581,0.230661679918206,2.96657971966104,-0.0812170249123266,-0.0349402251885153,0,0,0,0,0,0,0,0,0,0,0,0
2245.136,0.333384,8,0,7,1,1,0.1,0,0,0,0,0,0,0,0,0,0,3.28215023447483,-15.8578114091941,15.9842081058466,2.67960903768274,-1.18739043170296,-0.559530592795329,11,0,-1.72769624391665,-2.01136953035464,-1.85741502443422,-0.666605297719139,-4.7213160435306,-3.24603444734682,-1.72767240205874,-2.01132184663881,-1.85741502443422,-0.666581455861227,-4.72137600580324,-3.24598628679384,0,0,0,0,0,0,0,0,0,0,0,0,-0.286914821023607,-0.782655550814712,0.230663646928533,2.96658629960679,-0.0812102690499988,-0.0348738152905294,-0.286901156201013,-0.782658335088273,0.230705741002477,2.9665201467834,-0.0812528794847333,-0.0349658695612711,0,0,0,0,0,0,0,0,0,0,0,0
2245.144,0.402744,8,0,7,1,1,0.1,0,0,0,0,0,0,0,0,0,0,3.35533137703045,-17.4393918268985,14.6675291623582,2.60070249011792,-1.11315696372118,-0.714208395880045,11,0,-1.72769624391665,-2.01136953035464,-1.85741502443422,-0.666605297719139,-4.7213160435306,-3.24603444734682,-1.72768432298769,-2.01133376756777,-1.85743886629214,-0.666593376790182,-4.7213879267322,-3.24607021013369,0,0,0,0,0,0,0,0,0,0,0,0,-0.286914821023607,-0.782655550814712,0.230663646928533,2.96658629960679,-0.0812102690499988,-0.0348738152905294,-0.286909948710166,-0.782644496648848,0.230681189319786,2.9665727525067,-0.0811487340474168,-0.0349872525265917,0,0,0,0,0,0,0,0,0,0,0,0
2245.152,0.335029,8,0,7,1,1,0.1,0,0,0,0,0,0,0,0,0,0,2.94634952658502,-16.2718249972527,15.7023371781707,2.73298362086318,-1.36855965344009,-0.55825493226684,11,0,-1.72769624391665,-2.01136953035464,-1.85741502443422,-0.666605297719139,-4.7213160435306,-3.24603444734682,-1.72768432298769,-2.01136953035464,-1.85741502443422,-0.666605297719137,-4.7213879267322,-3.24601036707033,0,0,0,0,0,0,0,0,0,0,0,0,-0.286914821023607,-0.782655550814712,0.230663646928533,2.96658629960679,-0.0812102690499988,-0.0348738152905294,-0.286912041308925,-0.78265792020387,0.230663641478588,2.96659337908593,-0.0812380682720346,-0.0349749782529723,0,0,0,0,0,0,0,0,0,0,0,0
2245.16,0.332412,8,0,7,1,1,0.1,0,0,0,0,0,0,0,0,0,0,3.76846773098081,-17.1857573855454,14.8775516685737,2.66898815496166,-1.07006519898496,-0.60854219674418,11,0,-1.72769624391665,-2.01136953035464,-1.85741502443422,-0.666605297719139,-4.7213160435306,-3.24603444734682,-1.72769624391665,-2.01133376756777,-1.85740310350527,-0.666605297719137,-4.72137600580324,-3.24602228799929,0,0,0,0,0,0,0,0,0,0,0,0,-0.286914821023607,-0.782655550814712,0.230663646928533,2.96658629960679,-0.0812102690499988,-0.0348738152905294,-0.286920547405003,-0.782656364319088,0.230699515642106,2.96654493034755,-0.081235244625458,-0.0349690910591892,0,0,0,0,0,0,0,0,0,0,0,0
2245.168,0.33282,8,0,7,1,1,0.1,0,0,0,0,0,0,0,0,0,0,3.15822608708738,-16.6304087187297,15.2839908887767,2.68170021518933,-1.12558317442053,-0.541812403744031,11,0,-1.72769624391665,-2.01136953035464,-1.85741502443422,-0.666605297719139,-4.7213160435306,-3.24603444734682,-1.72767240205874,-2.01136953035464,-1.85737926164736,-0.666605297719137,-4.7214358488666,-3.24599844614138,0,0,0,0,0,0,0,0,0,0,0,0,-0.286914821023607,-0.782655550814712,0.230663646928533,2.96658629960679,-0.0812102690499988,-0.0348738152905294,-0.286909579549396,-0.782676579465087,0.230683514118728,2.96656287811507,-0.0812437905321001,-0.0350487050332876,0,0,0,0,0,0,0,0,0,0,0,0
2245.176,0.348552,8,0,7,1,1,0.1,0,0,0,0,0,0,0,0,0,0,2.7500375670771,-17.3747713457428,14.5687179674758,2.55822717838012,-1.30360819137876,-0.507039506141699,11,0,-1.72769624391665,-2.01136953035464,-1.85741502443422,-0.666605297719139,-4.7213160435306,-3.24603444734682,-1.72767240205874,-2.01134568849672,-1.85740310350527,-0.66661769548525,-4.7213879267322,-3.24602228799929,0,0,0,0,0,0,0,0,0,0,0,0,-0.286914821023607,-0.782655550814712,0.230663646928533,2.96658629960679,-0.0812102690499988,-0.0348738152905294,-0.286903011687229,-0.782663379715489,0.230688152650138,2.9665711282588,-0.0812019823276348,-0.0349790812538202,0,0,0,0,0,0,0,0,0,0,0,0
2245.184,0.335496,8,0,7,1,1,0.1,0,0,0,0,0,0,0,0,0,0,3.50027171611119,-16.9799035000592,15.0862614713434,2.67594246484016,-1.30893396987851,-0.624651644610782,11,0,-1.72769624391665,-2.01136953035464,-1.85741502443422,-0.666605297719139,-4.7213160435306,-3.24603444734682,-1.72768432298769,-2.01134568849672,-1.85740310350527,-0.66661769548525,-4.7214118877994,-3.24602228799929,0,0,0,0,0,0,0,0,0,0,0,0,-0.286914821023607,-0.782655550814712,0.230663646928533,2.96658629960679,-0.0812102690499988,-0.0348738152905294,-0.28691452516752,-0.782659609209087,0.230688150937502,2.96657341293405,-0.0812229259952803,-0.0350158956774267,0,0,0,0,0,0,0,0,0,0,0,0
2245.192,0.332412,8,0,7,1,1,0.1,0,0,0,0,0,0,0,0,0,0,4.12595868451575,-16.5121009557894,15.383048547676,2.61720789970028,-1.30663539645321,-0.623344718883072,11,0,-1.72769624391665,-2.01136953035464,-1.85741502443422,-0.666605297719139,-4.7213160435306,-3.24603444734682,-1.72766048112978,-2.01132184663881,-1.85741502443422,-0.666605297719137,-4.7214118877994,-3.24599844614138,0,0,0,0,0,0,0,0,0,0,0,0,-0.286914821023607,-0.782655550814712,0.230663646928533,2.96658629960679,-0.0812102690499988,-0.0348738152905294,-0.286894802755177,-0.782659579472954,0.230702636838049,2.966548772613,-0.0812223727575333,-0.0350142769467885,0,0,0,0,0,0,0,0,0,0,0,0
2245.2,0.331441,8,0,7,1,1,0.1,0,0,0,0,0,0,0,0,0,0,4.38131931651456,-16.1987490245575,15.8979853976326,2.73715170727445,-1.18262639275936,-0.590791642660316,11,0,-1.72769624391665,-2.01136953035464,-1.85741502443422,-0.666605297719139,-4.7213160435306,-3.24603444734682,-1.72766048112978,-2.01134568849672,-1.85737926164736,-0.66661769548525,-4.72137600580324,-3.24604636827578,0,0,0,0,0,0,0,0,0,0,0,0,-0.286914821023607,-0.782655550814712,0.230663646928533,2.96658629960679,-0.0812102690499988,-0.0348738152905294,-0.286894262731408,-0.782677600139144,0.230701404497377,2.96654769871976,-0.0811464399952434,-0.0349672823011093,0,0,0,0,0,0,0,0,0,0,0,0
2245.208,0.401112,8,0,7,1,1,0.1,0,0,0,0,0,0,0,0,0,0,3.92489037881468,-16.612293191328,15.0004303387112,2.61595200066837,-1.06081358825397,-0.637565456918273,11,0,-1.72769624391665,-2.01136953035464,-1.85741502443422,-0.666605297719139,-4.7213160435306,-3.24603444734682,-1.72767240205874,-2.01133376756777,-1.85739118257631,-0.666593376790182,-4.7214358488666,-3.24601036707033,0,0,0,0,0,0,0,0,0,0,0,0,-0.286914821023607,-0.782655550814712,0.230663646928533,2.96658629960679,-0.0812102690499988,-0.0348738152905294,-0.286908320826159,-0.782668468550008,0.230707687722504,2.96652796530328,-0.0812252639176947,-0.035056868688046,0,0,0,0,0,0,0,0,0,0,0,0
2245.216,0.3372,8,0,7,1,1,0.1,0,0,0,0,0,0,0,0,0,0,3.67561490266009,-17.6080768005951,14.1524833347858,2.61065641311675,-1.02935274051557,-0.585318364631363,11,0,-1.72769624391665,-2.01136953035464,-1.85741502443422,-0.666605297719139,-4.7213160435306,-3.24603444734682,-1.72766048112978,-2.01134568849672,-1.85741502443422,-0.66661769548525,-4.7214118877994,-3.24599844614138,0,0,0,0,0,0,0,0,0,0,0,0,-0.286914821023607,-0.782655550814712,0.230663646928533,2.96658629960679,-0.0812102690499988,-0.0348738152905294,-0.286895031296336,-0.782661136405223,0.230681525546058,2.96658477269281,-0.0812231749277052,-0.0350076408991609,0,0,0,0,0,0,0,0,0,0,0,0
2245.224,0.333072,8,0,7,1,1,0.1,0,0,0,0,0,0,0,0,0,0,4.81696909858584,-16.8942039043662,15.3458937421019,2.66419561071106,-1.09768208598005,-0.632361837016952,11,0,-1.72769624391665,-2.01136953035464,-1.85741502443422,-0.666605297719139,-4.7213160435306,-3.24603444734682,-1.72768432298769,-2.01133376756777,-1.85742694536318,-0.666605297719137,-4.72137600580324,-3.24601036707033,0,0,0,0,0,0,0,0,0,0,0,0,-0.286914821023607,-0.782655550814712,0.230663646928533,2.96658629960679,-0.0812102690499988,-0.0348738152905294,-0.286909549698063,-0.782649158464979,0.23068626477379,2.96656838450752,-0.0812357633473731,-0.0349618303151355,0,0,0,0,0,0,0,0,0,0,0,0
2245.232,0.334692,8,0,7,1,1,0.1,0,0,0,0,0,0,0,0,0,0,4.04374593828356,-15.72959920666,16.3986510200313,2.80440487102329,-1.35557373453239,-0.62015755901856,11,0,-1.72769624391665,-2.01136953035464,-1.85741502443422,-0.666605297719139,-4.7213160435306,-3.24603444734682,-1.72769624391665,-2.01134568849672,-1.85739118257631,-0.666605297719137,-4.7214118877994,-3.24599844614138,0,0,0,0,0,0,0,0,0,0,0,0,-0.286914821023607,-0.782655550814712,0.230663646928533,2.96658629960679,-0.0812102690499988,-0.0348738152905294,-0.286924841549313,-0.782662360556538,0.23069638919909,2.96654767315613,-0.081275534639607,-0.0350187534337098,0,0,0,0,0,0,0,0,0,0,0,0
2245.24,0.343429,8,0,7,1,1,0.1,0,0,0,0,0,0,0,0,0,0,3.4072122419281,-16.3185982227965,15.3224640541878,2.58525295904072,-1.24512933409673,-0.575631894835973,11,0,-1.72769624391665,-2.01136953035464,-1.85741502443422,-0.666605297719139,-4.7213160435306,-3.24603444734682,-1.72764856020083,-2.01134568849672,-1.85737926164736,-0.666581455861227,-4.72142392793764,-3.24601036707033,0,0,0,0,0,0,0,0,0,0,0,0,-0.286914821023607,-0.782655550814712,0.230663646928533,2.96658629960679,-0.0812102690499988,-0.0348738152905294,-0.286889744871228,-0.782682829470958,0.23070611548853,2.96651552370514,-0.0811881601355481,-0.0350383834059354,0,0,0,0,0,0,0,0,0,0,0,0
2245.248,0.401232,8,0,7,1,1,0.1,0,0,0,0,0,0,0,0,0,0,4.07982785919701,-17.8322408941128,14.4838832718738,2.72900154877152,-0.99482945215934,-0.680930298469865,11,0,-1.72769624391665,-2.01136953035464,-1.85741502443422,-0.666605297719139,-4.7213160435306,-3.24603444734682,-1.72767240205874,-2.01134568849672,-1.85740310350527,-0.666629616414205,-4.721363965665,-3.24602228799929,0,0,0,0,0,0,0,0,0,0,0,0,-0.286914821023607,-0.782655550814712,0.230663646928533,2.96658629960679,-0.0812102690499988,-0.0348738152905294,-0.286900681669469,-0.782662904322597,0.230686603660112,2.96658032294721,-0.0811988895731077,-0.0349415859455359,0,0,0,0,0,0,0,0,0,0,0,0
2245.256,0.337884,8,0,7,1,1,0.1,0,0,0,0,0,0,0,0,0,0,3.97948018454165,-15.3203251586366,16.2803397621731,2.68096276819688,-1.3138586033289,-0.595003863592629,11,0,-1.72769624391665,-2.01136953035464,-1.85741502443422,-0.666605297719139,-4.7213160435306,-3.24603444734682,-1.72769624391665,-2.01130992570986,-1.8573673407184,-0.66661769548525,-4.72137600580324,-3.24601036707033,0,0,0,0,0,0,0,0,0,0,0,0,-0.286914821023607,-0.782655550814712,0.230663646928533,2.96658629960679,-0.0812102690499988,-0.0348738152905294,-0.286922515399003,-0.782669027935533,0.230737278558071,2.96649740618757,-0.0812516756939654,-0.034975829259062,0,0,0,0,0,0,0,0,0,0,0,0
2245.264,0.336972,8,0,7,1,1,0.1,0,0,0,0,0,0,0,0,0,0,3.45228918161099,-16.62754731788,15.1891007061451,2.57194047936459,-1.34887172369587,-0.557203012826731,11,0,-1.72769624391665,-2.01136953035464,-1.85741502443422,-0.666605297719139,-4.7213160435306,-3.24603444734682,-1.72768432298769,-2.0112980047809,-1.85743886629214,-0.66661769548525,-4.7214358488666,-3.24605828920473,0,0,0,0,0,0,0,0,0,0,0,0,-0.286914821023607,-0.782655550814712,0.230663646928533,2.96658629960679,-0.0812102690499988,-0.0348738152905294,-0.286913444947954,-0.782638488278612,0.230707269696034,2.96656606907359,-0.0811723205907727,-0.0350582112946251,0,0,0,0,0,0,0,0,0,0,0,0
2245.272,0.340092,8,0,7,1,1,0.1,0,0,0,0,0,0,0,0,0,0,3.86746798929847,-17.9013977404148,14.2613821566395,2.68922031449465,-0.931113475411623,-0.748627982986153,11,0,-1.72769624391665,-2.01136953035464,-1.85741502443422,-0.666605297719139,-4.7213160435306,-3.24603444734682,-1.72768432298769,-2.01133376756777,-1.85741502443422,-0.666629616414205,-4.7214118877994,-3.24598628679384,0,0,0,0,0,0,0,0,0,0,0,0,-0.286914821023607,-0.782655550814712,0.230663646928533,2.96658629960679,-0.0812102690499988,-0.0348738152905294,-0.286913354207915,-0.782652262688452,0.230689724041482,2.96658342913808,-0.0812764283539111,-0.0350090921736852,0,0,0,0,0,0,0,0,0,0,0,0
2245.28,0.333852,8,0,7,1,1,0.1,0,0,0,0,0,0,0,0,0,0,2.31004639905769,-17.4293619656213,14.3934550736755,2.53176765065307,-1.3874262424747,-0.606719141083835,11,0,-1.72769624391665,-2.01136953035464,-1.85741502443422,-0.666605297719139,-4.7213160435306,-3.24603444734682,-1.72772008577456,-2.01132184663881,-1.85737926164736,-0.666653458272116,-4.72137600580324,-3.24602228799929,0,0,0,0,0,0,0,0,0,0,0,0,-0.286914821023607,-0.782655550814712,0.230663646928533,2.96658629960679,-0.0812102690499988,-0.0348738152905294,-0.286940092399259,-0.78265560570481,0.230716251013755,2.96655650457466,-0.0812704428234203,-0.0349695353309513,0,0,0,0,0,0,0,0,0,0,0,0
2245.288,0.336096,8,0,7,1,1,0.1,0,0,0,0,0,0,0,0,0,0,3.43645069073509,-17.1124871468721,14.8332404342033,2.65086429288274,-0.965495582917446,-0.68395970683222,11,0,-1.72769624391665,-2.01136953035464,-1.85741502443422,-0.666605297719139,-4.7213160435306,-3.24603444734682,-1.72768432298769,-2.01132184663881,-1.85742694536318,-0.666605297719137,-4.7214118877994,-3.24598628679384,0,0,0,0,0,0,0,0,0,0,0,0,-0.286914821023607,-0.782655550814712,0.230663646928533,2.96658629960679,-0.0812102690499988,-0.0348738152905294,-0.28691262889074,-0.782647426105446,0.230696011372098,2.96655927943143,-0.081276038249461,-0.0350137000103697,0,0,0,0,0,0,0,0,0,0,0,0
2245.296,0.331812,8,0,7,1,1,0.1,0,0,0,0,0,0,0,0,0,0,2.89605400376564,-18.255631611778,13.7992460833555,2.57531370750975,-1.6522824440819,-0.446633894526748,11,0,-1.72769624391665,-2.01136953035464,-1.85741502443422,-0.666605297719139,-4.7213160435306,-3.24603444734682,-1.72769624391665,-2.01132184663881,-1.85740310350527,-0.66661769548525,-4.7214118877994,-3.24603444734682,0,0,0,0,0,0,0,0,0,0,0,0,-0.286914821023607,-0.782655550814712,0.230663646928533,2.96658629960679,-0.0812102690499988,-0.0348738152905294,-0.2869234740915,-0.782653773143764,0.230707649551684,2.96654998507858,-0.0812219486424864,-0.0350233362111031,0,0,0,0,0,0,0,0,0,0,0,0
2245.304,0.39948,8,0,7,1,1,0.1,0,0,0,0,0,0,0,0,0,0,3.36422194244696,-16.8107871732353,15.2169756496559,2.64333006550034,-1.37568999608232,-0.611930340257766,11,0,-1.72769624391665,-2.01136953035464,-1.85741502443422,-0.666605297719139,-4.7213160435306,-3.24603444734682,-1.72766048112978,-2.01132184663881,-1.85739118257631,-0.666605297719137,-4.7213879267322,-3.24599844614138,0,0,0,0,0,0,0,0,0,0,0,0,-0.286914821023607,-0.782655550814712,0.230663646928533,2.96658629960679,-0.0812102690499988,-0.0348738152905294,-0.286894286714685,-0.782670555606854,0.230715889675198,2.96652242799968,-0.0812185891040021,-0.0349831805010582,0,0,0,0,0,0,0,0,0,0,0,0
2245.312,0.377808,8,0,7,1,1,0.1,0,0,0,0,0,0,0,0,0,0,3.85647490424159,-17.560349828906,14.4872787537001,2.64995177710207,-1.20673927903732,-0.641844211224966,11,0,-1.72769624391665,-2.01136953035464,-1.85741502443422,-0.666605297719139,-4.7213160435306,-3.24603444734682,-1.72766048112978,-2.01133376756777,-1.85743886629214,-0.66661769548525,-4.7214358488666,-3.24604636827578,0,0,0,0,0,0,0,0,0,0,0,0,-0.286914821023607,-0.782655550814712,0.230663646928533,2.96658629960679,-0.0812102690499988,-0.0348738152905294,-0.286895356779715,-0.782648952023663,0.23067802241754,2.96660171257445,-0.0811555726878567,-0.0350470974612334,0,0,0,0,0,0,0,0,0,0,0,0
2245.32,0.345984,8,0,7,1,1,0.1,0,0,0,0,0,0,0,0,0,0,3.73634402115766,-16.5155088426346,15.1901478918002,2.5934336003831,-1.32300408118017,-0.533411646571699,11,0,-1.72769624391665,-2.01136953035464,-1.85741502443422,-0.666605297719139,-4.7213160435306,-3.24603444734682,-1.72767240205874,-2.01133376756777,-1.85740310350527,-0.666605297719137,-4.7213879267322,-3.24603444734682,0,0,0,0,0,0,0,0,0,0,0,0,-0.286914821023607,-0.782655550814712,0.230663646928533,2.96658629960679,-0.0812102690499988,-0.0348738152905294,-0.286902973625881,-0.782663030553059,0.230699514770596,2.96654758911656,-0.0811834629107565,-0.0349851283945989,0,0,0,0,0,0,0,0,0,0,0,0
2245.328,0.337369,8,0,7,1,1,0.1,0,0,0,0,0,0,0,0,0,0,3.50181731454595,-16.2702332726632,15.034399055876,2.53633457759479,-1.46328082815728,-0.56482918696996,11,0,-1.72769624391665,-2.01136953035464,-1.85741502443422,-0.666605297719139,-4.7213160435306,-3.24603444734682,-1.72768432298769,-2.01134568849672,-1.85739118257631,-0.66661769548525,-4.7213879267322,-3.24601036707033,0,0,0,0,0,0,0,0,0,0,0,0,-0.286914821023607,-0.782655550814712,0.230663646928533,2.96658629960679,-0.0812102690499988,-0.0348738152905294,-0.286913175586698,-0.782665272568295,0.230694778105871,2.9665583107025,-0.0812370839965461,-0.0349811696227429,0,0,0,0,0,0,0,0,0,0,0,0
2245.336,0.33324,8,0,7,1,1,0.1,0,0,0,0,0,0,0,0,0,0,3.63487954658925,-16.4756858188623,15.4125757601551,2.7127919400819,-1.28969406613487,-0.513866153051742,11,0,-1.72769624391665,-2.01136953035464,-1.85741502443422,-0.666605297719139,-4.7213160435306,-3.24603444734682,-1.72767240205874,-2.01133376756777,-1.85740310350527,-0.666605297719137,-4.7213879267322,-3.24603444734682,0,0,0,0,0,0,0,0,0,0,0,0,-0.286914821023607,-0.782655550814712,0.230663646928533,2.96658629960679,-0.0812102690499988,-0.0348738152905294,-0.286902973625881,-0.782663030553059,0.230699514770596,2.96654758911656,-0.0811834629107565,-0.0349851283945989,0,0,0,0,0,0,0,0,0,0,0,0
2245.344,0.399912,8,0,7,1,1,0.1,0,0,0,0,0,0,0,0,0,0,3.38994351755777,-16.7420398169339,15.012031938463,2.5561139521933,-1.36032092617079,-0.612151341135562,11,0,-1.72769624391665,-2.01136953035464,-1.85741502443422,-0.666605297719139,-4.7213160435306,-3.24603444734682,-1.72764856020083,-2.01132184663881,-1.85740310350527,-0.666629616414205,-4.7213879267322,-3.24601036707033,0,0,0,0,0,0,0,0,0,0,0,0,-0.286914821023607,-0.782655550814712,0.230663646928533,2.96658629960679,-0.0812102690499988,-0.0348738152905294,-0.28688382392603,-0.782666978428849,0.230706100489616,2.96655940197223,-0.0811838246822987,-0.0349765592500116,0,0,0,0,0,0,0,0,0,0,0,0
2245.352,0.333264,8,0,7,1,1,0.1,0,0,0,0,0,0,0,0,0,0,4.04663986855566,-16.0941861465898,16.2223334368007,2.7394335548537,-1.06358929160014,-0.726879350495383,11,0,-1.72769624391665,-2.01136953035464,-1.85741502443422,-0.666605297719139,-4.7213160435306,-3.24603444734682,-1.72768432298769,-2.01132184663881,-1.85739118257631,-0.666605297719137,-4.7214118877994,-3.24602228799929,0,0,0,0,0,0,0,0,0,0,0,0,-0.286914821023607,-0.782655550814712,0.230663646928533,2.96658629960679,-0.0812102690499988,-0.0348738152905294,-0.286915130379417,-0.782663364990988,0.230715887962281,2.96652556356245,-0.0812218614864878,-0.0350246211637606,0,0,0,0,0,0,0,0,0,0,0,0
2245.36,0.333804,8,0,7,1,1,0.1,0,0,0,0,0,0,0,0,0,0,4.64219384620683,-16.2204883065589,15.6431837573875,2.65871745795855,-1.2756092806763,-0.65866053437954,11,0,-1.72769624391665,-2.01136953035464,-1.85741502443422,-0.666605297719139,-4.7213160435306,-3.24603444734682,-1.72767240205874,-2.01135760942568,-1.85741502443422,-0.666605297719137,-4.72137600580324,-3.24597436586489,0,0,0,0,0,0,0,0,0,0,0,0,-0.286914821023607,-0.782655550814712,0.230663646928533,2.96658629960679,-0.0812102690499988,-0.0348738152905294,-0.286901434535721,-0.782660307149244,0.23067339163982,2.96657875035627,-0.0812718364335183,-0.034953395188025,0,0,0,0,0,0,0,0,0,0,0,0
2245.368,0.338365,8,0,7,1,1,0.1,0,0,0,0,0,0,0,0,0,0,3.46682960669565,-16.6125652311003,15.4759812631122,2.67028439383193,-1.33147825928925,-0.70682297220383,11,0,-1.72769624391665,-2.01136953035464,-1.85741502443422,-0.666605297719139,-4.7213160435306,-3.24603444734682,-1.72767240205874,-2.0113938490497,-1.85740310350527,-0.666593376790182,-4.7213879267322,-3.24602228799929,0,0,0,0,0,0,0,0,0,0,0,0,-0.286914821023607,-0.782655550814712,0.230663646928533,2.96658629960679,-0.0812102690499988,-0.0348738152905294,-0.2869040801919,-0.782669942527639,0.230651928759907,2.9665948150253,-0.0812029193983008,-0.0349748766174198,0,0,0,0,0,0,0,0,0,0,0,0
2245.376,0.333468,8,0,7,1,1,0.1,0,0,0,0,0,0,0,0,0,0,3.35307811693669,-16.7966899174528,15.0255948388164,2.56327098437735,-1.34885000222263,-0.527985209172317,11,0,-1.72769624391665,-2.01136953035464,-1.85741502443422,-0.666605297719139,-4.7213160435306,-3.24603444734682,-1.72767240205874,-2.01134568849672,-1.85739118257631,-0.666629616414205,-4.721363965665,-3.24599844614138,0,0,0,0,0,0,0,0,0,0,0,0,-0.286914821023607,-0.782655550814712,0.230663646928533,2.96658629960679,-0.0812102690499988,-0.0348738152905294,-0.286901515454229,-0.7826682174097,0.230693229106028,2.96656726113731,-0.0812339844611778,-0.0349405909603087,0,0,0,0,0,0,0,0,0,0,0,0
2245.384,0.333408,8,0,7,1,1,0.1,0,0,0,0,0,0,0,0,0,0,3.40765424140189,-17.4807826774769,14.9018197324265,2.68746241165136,-1.31184672235779,-0.624352330659831,11,0,-1.72769624391665,-2.01136953035464,-1.85741502443422,-0.666605297719139,-4.7213160435306,-3.24603444734682,-1.72767240205874,-2.01134568849672,-1.85741502443422,-0.666593376790182,-4.72137600580324,-3.24601036707033,0,0,0,0,0,0,0,0,0,0,0,0,-0.286914821023607,-0.782655550814712,0.230663646928533,2.96658629960679,-0.0812102690499988,-0.0348738152905294,-0.28690139064143,-0.782659925153791,0.230684691680364,2.96655689805071,-0.0812179653949873,-0.0349624364101434,0,0,0,0,0,0,0,0,0,0,0,0
2245.392,0.335988,8,0,7,1,1,0.1,0,0,0,0,0,0,0,0,0,0,3.08170295633048,-17.7789005272975,14.8627862673566,2.76406474039697,-1.31574797449544,-0.597111943871697,11,0,-1.72769624391665,-2.01136953035464,-1.85741502443422,-0.666605297719139,-4.7213160435306,-3.24603444734682,-1.72764856020083,-2.01136953035464,-1.85740310350527,-0.666593376790182,-4.7213879267322,-3.24604636827578,0,0,0,0,0,0,0,0,0,0,0,0,-0.286914821023607,-0.782655550814712,0.230663646928533,2.96658629960679,-0.0812102690499988,-0.0348738152905294,-0.286885031352216,-0.782674319441871,0.230671817507606,2.96657260380328,-0.0811311938844373,-0.0349793199998135,0,0,0,0,0,0,0,0,0,0,0,0
2245.4,0.331332,8,0,7,1,1,0.1,0,0,0,0,0,0,0,0,0,0,2.8334805909001,-17.5064294923679,14.3273954512808,2.55352234215757,-1.37085761265143,-0.610373174800231,11,0,-1.72769624391665,-2.01136953035464,-1.85741502443422,-0.666605297719139,-4.7213160435306,-3.24603444734682,-1.72768432298769,-2.01136953035464,-1.85739118257631,-0.66661769548525,-4.72142392793764,-3.24599844614138,0,0,0,0,0,0,0,0,0,0,0,0,-0.286914821023607,-0.782655550814712,0.230663646928533,2.96658629960679,-0.0812102690499988,-0.0348738152905294,-0.286916837165223,-0.782667161666204,0.230675276751431,2.96658536466985,-0.0812602889872659,-0.0350282990770657,0,0,0,0,0,0,0,0,0,0,0,0
2245.408,0.40212,8,0,7,1,1,0.1,0,0,0,0,0,0,0,0,0,0,3.99633328658971,-16.5985878266388,15.4929539572652,2.71639205071078,-1.18510823867786,-0.618725361560451,11,0,-1.72769624391665,-2.01136953035464,-1.85741502443422,-0.666605297719139,-4.7213160435306,-3.24603444734682,-1.7277081648456,-2.01132184663881,-1.8573673407184,-0.666629616414205,-4.7214358488666,-3.24602228799929,0,0,0,0,0,0,0,0,0,0,0,0,-0.286914821023607,-0.782655550814712,0.230663646928533,2.96658629960679,-0.0812102690499988,-0.0348738152905294,-0.286937342652565,-0.782665115185604,0.230725974029402,2.96652794401483,-0.0812603030334349,-0.0350626203762374,0,0,0,0,0,0,0,0,0,0,0,0
2245.416,0.336505,8,0,7,1,1,0.1,0,0,0,0,0,0,0,0,0,0,3.41336546436605,-19.1692834084391,12.798582170289,2.42644135748343,-1.40646699277343,-0.542884269065858,11,0,-1.72769624391665,-2.01136953035464,-1.85741502443422,-0.666605297719139,-4.7213160435306,-3.24603444734682,-1.72767240205874,-2.01136953035464,-1.85743886629214,-0.666593376790182,-4.7213879267322,-3.24601036707033,0,0,0,0,0,0,0,0,0,0,0,0,-0.286914821023607,-0.782655550814712,0.230663646928533,2.96658629960679,-0.0812102690499988,-0.0348738152905294,-0.286901190206754,-0.782651539316178,0.230651941848605,2.9666055982158,-0.0812207424376326,-0.0349714825337549,0,0,0,0,0,0,0,0,0,0,0,0
2245.424,0.332148,8,0,7,1,1,0.1,0,0,0,0,0,0,0,0,0,0,4.69841585039778,-16.041423538296,16.0143918875761,2.7125046425679,-1.16221727925112,-0.65112576193092,11,0,-1.72769624391665,-2.01136953035464,-1.85741502443422,-0.666605297719139,-4.7213160435306,-3.24603444734682,-1.72766048112978,-2.01130992570986,-1.85740310350527,-0.666605297719137,-4.72135204473604,-3.24599844614138,0,0,0,0,0,0,0,0,0,0,0,0,-0.286914821023607,-0.782655550814712,0.230663646928533,2.96658629960679,-0.0812102690499988,-0.0348738152905294,-0.286889992771004,-0.782664559128344,0.230719016039,2.96651847204807,-0.0812136558383923,-0.0349304346409335,0,0,0,0,0,0,0,0,0,0,0,0
2245.432,0.334104,8,0,7,1,1,0.1,0,0,0,0,0,0,0,0,0,0,3.98175587333642,-17.411101696126,14.5691431906389,2.59116753695245,-1.20147400070776,-0.554625526398818,11,0,-1.72769624391665,-2.01136953035464,-1.85741502443422,-0.666605297719139,-4.7213160435306,-3.24603444734682,-1.72767240205874,-2.01135760942568,-1.85742694536318,-0.666605297719137,-4.7213879267322,-3.24599844614138,0,0,0,0,0,0,0,0,0,0,0,0,-0.286914821023607,-0.782655550814712,0.230663646928533,2.96658629960679,-0.0812102690499988,-0.0348738152905294,-0.28690168700492,-0.782654819602779,0.230666765494667,2.96659314147937,-0.0812380086704891,-0.0349719698036322,0,0,0,0,0,0,0,0,0,0,0,0
2245.44,0.336084,8,0,7,1,1,0.1,0,0,0,0,0,0,0,0,0,0,2.79981824136504,-18.1051072132965,13.9990719815819,2.60933138291869,-1.19741088390035,-0.613277961491701,11,0,-1.72769624391665,-2.01136953035464,-1.85741502443422,-0.666605297719139,-4.7213160435306,-3.24603444734682,-1.72769624391665,-2.01134568849672,-1.85737926164736,-0.666605297719137,-4.72135204473604,-3.24598628679384,0,0,0,0,0,0,0,0,0,0,0,0,-0.286914821023607,-0.782655550814712,0.230663646928533,2.96658629960679,-0.0812102690499988,-0.0348738152905294,-0.28692022231718,-0.782668548436371,0.230703019104867,2.96652859551713,-0.0812851652228599,-0.0349311758421947,0,0,0,0,0,0,0,0,0,0,0,0
2245.448,0.40338,8,0,7,1,1,0.1,0,0,0,0,0,0,0,0,0,0,4.40043884669154,-16.2466216754443,15.4506963020293,2.64198400168415,-1.24571197085696,-0.548233183047211,11,0,-1.72769624391665,-2.01136953035464,-1.85741502443422,-0.666605297719139,-4.7213160435306,-3.24603444734682,-1.72767240205874,-2.01132184663881,-1.85740310350527,-0.666605297719137,-4.721363965665,-3.24601036707033,0,0,0,0,0,0,0,0,0,0,0,0,-0.286914821023607,-0.782655550814712,0.230663646928533,2.96658629960679,-0.0812102690499988,-0.0348738152905294,-0.28690059966826,-0.782662172876393,0.230709265845749,2.96653187547631,-0.0812155995557208,-0.034948904291822,0,0,0,0,0,0,0,0,0,0,0,0
2245.456,0.402181,8,0,7,1,1,0.1,0,0,0,0,0,0,0,0,0,0,3.75690143797451,-17.2619654661264,14.6060440555995,2.5691490102343,-1.14493229528283,-0.62146492216343,11,0,-1.72769624391665,-2.01136953035464,-1.85741502443422,-0.666605297719139,-4.7213160435306,-3.24603444734682,-1.72769624391665,-2.01132184663881,-1.85737926164736,-0.66661769548525,-4.7214118877994,-3.24601036707033,0,0,0,0,0,0,0,0,0,0,0,0,-0.286914821023607,-0.782655550814712,0.230663646928533,2.96658629960679,-0.0812102690499988,-0.0348738152905294,-0.286925141847605,-0.782664398851313,0.23072090078335,2.96652506087901,-0.0812571345719987,-0.0350243981441828,0,0,0,0,0,0,0,0,0,0,0,0
2245.464,0.380388,8,0,7,1,1,0.1,0,0,0,0,0,0,0,0,0,0,3.37890491443003,-17.8983641097546,14.2561450180455,2.70024671004899,-1.2431904120929,-0.579197821497295,11,0,-1.72769624391665,-2.01136953035464,-1.85741502443422,-0.666605297719139,-4.7213160435306,-3.24603444734682,-1.72768432298769,-2.01132184663881,-1.85742694536318,-0.666593376790182,-4.7213879267322,-3.24598628679384,0,0,0,0,0,0,0,0,0,0,0,0,-0.286914821023607,-0.782655550814712,0.230663646928533,2.96658629960679,-0.0812102690499988,-0.0348738152905294,-0.286910592054414,-0.782648602024732,0.230697563859707,2.96654479199781,-0.0812726143282113,-0.0349806496669085,0,0,0,0,0,0,0,0,0,0,0,0
2245.472,0.334968,8,0,7,1,1,0.1,0,0,0,0,0,0,0,0,0,0,2.60505275194392,-19.4803705999072,12.8893725624686,2.71596432124555,-1.14158296908251,-0.712496342286655,11,0,-1.72769624391665,-2.01136953035464,-1.85741502443422,-0.666605297719139,-4.7213160435306,-3.24603444734682,-1.72767240205874,-2.01136953035464,-1.85740310350527,-0.666605297719137,-4.72137600580324,-3.24604636827578,0,0,0,0,0,0,0,0,0,0,0,0,-0.286914821023607,-0.782655550814712,0.230663646928533,2.96658629960679,-0.0812102690499988,-0.0348738152905294,-0.286902458810396,-0.782666827952737,0.230670267623799,2.96658240557358,-0.0811651090718867,-0.0349626321168615,0,0,0,0,0,0,0,0,0,0,0,0
2245.48,0.332472,8,0,7,1,1,0.1,0,0,0,0,0,0,0,0,0,0,3.18763198690089,-17.9999677455331,14.1438636425558,2.68714015616869,-1.11392293189448,-0.601345612560688,11,0,-1.72769624391665,-2.01136953035464,-1.85741502443422,-0.666605297719139,-4.7213160435306,-3.24603444734682,-1.72768432298769,-2.01135760942568,-1.85737926164736,-0.666593376790182,-4.721363965665,-3.24601036707033,0,0,0,0,0,0,0,0,0,0,0,0,-0.286914821023607,-0.782655550814712,0.230663646928533,2.96658629960679,-0.0812102690499988,-0.0348738152905294,-0.286912315559548,-0.782673827932284,0.230694819524774,2.96653150060392,-0.0812335407768085,-0.034950356608576,0,0,0,0,0,0,0,0,0,0,0,0
2245.488,0.331272,8,0,7,1,1,0.1,0,0,0,0,0,0,0,0,0,0,3.01807672587182,-18.3148029338509,14.0406463334525,2.7562104660577,-1.28909434745046,-0.630437505205136,11,0,-1.72769624391665,-2.01136953035464,-1.85741502443422,-0.666605297719139,-4.7213160435306,-3.24603444734682,-1.72769624391665,-2.01133376756777,-1.85740310350527,-0.666605297719137,-4.72142392793764,-3.24602228799929,0,0,0,0,0,0,0,0,0,0,0,0,-0.286914821023607,-0.782655550814712,0.230663646928533,2.96658629960679,-0.0812102690499988,-0.0348738152905294,-0.286924914248847,-0.782655663665847,0.230699512217002,2.96655022330003,-0.0812417618387687,-0.0350396358316562,0,0,0,0,0,0,0,0,0,0,0,0
2245.496,0.330109,8,0,7,1,1,0.1,0,0,0,0,0,0,0,0,0,0,4.00855101151426,-16.3779702383768,15.6878360330464,2.74429189736649,-1.25387660544381,-0.636053193845528,11,0,-1.72769624391665,-2.01136953035464,-1.85741502443422,-0.666605297719139,-4.7213160435306,-3.24603444734682,-1.72769624391665,-2.0112980047809,-1.8573673407184,-0.666593376790182,-4.72137600580324,-3.24604636827578,0,0,0,0,0,0,0,0,0,0,0,0,-0.286914821023607,-0.782655550814712,0.230663646928533,2.96658629960679,-0.0812102690499988,-0.0348738152905294,-0.286922623800147,-0.782669503570968,0.230750191734663,2.96646323871131,-0.0811976343432937,-0.0349871850677342,0,0,0,0,0,0,0,0,0,0,0,0
2245.504,0.332136,8,0,7,1,1,0.1,0,0,0,0,0,0,0,0,0,0,3.98077784805091,-15.6913415646088,15.9562730467331,2.69732393097793,-1.11064540981825,-0.630952149683893,11,0,-1.72769624391665,-2.01136953035464,-1.85741502443422,-0.666605297719139,-4.7213160435306,-3.24603444734682,-1.72768432298769,-2.01134568849672,-1.85740310350527,-0.666581455861227,-4.72135204473604,-3.24602228799929,0,0,0,0,0,0,0,0,0,0,0,0,-0.286914821023607,-0.782655550814712,0.230663646928533,2.96658629960679,-0.0812102690499988,-0.0348738152905294,-0.286909517664861,-0.782662993954586,0.230692869668377,2.96653080483036,-0.081214285272108,-0.0349345590715846,0,0,0,0,0,0,0,0,0,0,0,0
2245.512,0.398424,8,0,7,1,1,0.1,0,0,0,0,0,0,0,0,0,0,3.36860323678259,-17.5134187099016,14.5996097382764,2.68370090091836,-1.10392997855189,-0.603003083968872,11,0,-1.72769624391665,-2.01136953035464,-1.85741502443422,-0.666605297719139,-4.7213160435306,-3.24603444734682,-1.72766048112978,-2.01134568849672,-1.85740310350527,-0.66661769548525,-4.721363965665,-3.24601036707033,0,0,0,0,0,0,0,0,0,0,0,0,-0.286914821023607,-0.782655550814712,0.230663646928533,2.96658629960679,-0.0812102690499988,-0.0348738152905294,-0.286891498156376,-0.782667150049394,0.230688154414932,2.96656823720546,-0.0811987174754046,-0.0349407250870653,0,0,0,0,0,0,0,0,0,0,0,0
2245.52,0.344904,8,0,7,1,1,0.1,0,0,0,0,0,0,0,0,0,0,3.25770413865591,-16.363887993397,15.5251179413898,2.79601562916606,-1.38775932972406,-0.614209819328118,11,0,-1.72769624391665,-2.01136953035464,-1.85741502443422,-0.666605297719139,-4.7213160435306,-3.24603444734682,-1.72766048112978,-2.01134568849672,-1.85740310350527,-0.666605297719137,-4.7213879267322,-3.24599844614138,0,0,0,0,0,0,0,0,0,0,0,0,-0.286914821023607,-0.782655550814712,0.230663646928533,2.96658629960679,-0.0812102690499988,-0.0348738152905294,-0.286893834028459,-0.78266765847686,0.230689765445764,2.9665579622275,-0.081219482530681,-0.0349767671432172,0,0,0,0,0,0,0,0,0,0,0,0
2245.528,0.333648,8,0,7,1,1,0.1,0,0,0,0,0,0,0,0,0,0,2.73057329066579,-18.7332482843287,13.6990461694923,2.69852095624614,-1.39576759709393,-0.667636583291904,11,0,-1.72769624391665,-2.01136953035464,-1.85741502443422,-0.666605297719139,-4.7213160435306,-3.24603444734682,-1.72767240205874,-2.0112980047809,-1.85742694536318,-0.666605297719137,-4.7214118877994,-3.24599844614138,0,0,0,0,0,0,0,0,0,0,0,0,-0.286914821023607,-0.782655550814712,0.230663646928533,2.96658629960679,-0.0812102690499988,-0.0348738152905294,-0.28690291792906,-0.782648430398674,0.230715509692313,2.96653657533485,-0.0812396899023409,-0.0350180561036294,0,0,0,0,0,0,0,0,0,0,0,0
2245.536,0.336168,8,0,7,1,1,0.1,0,0,0,0,0,0,0,0,0,0,2.59224656784786,-18.0955366618506,14.1073073425734,2.74438715292313,-1.3525174913702,-0.590048989656343,11,0,-1.72769624391665,-2.01136953035464,-1.85741502443422,-0.666605297719139,-4.7213160435306,-3.24603444734682,-1.72764856020083,-2.01133376756777,-1.85737926164736,-0.666605297719137,-4.72137600580324,-3.24601036707033,0,0,0,0,0,0,0,0,0,0,0,0,-0.286914821023607,-0.782655550814712,0.230663646928533,2.96658629960679,-0.0812102690499988,-0.0348738152905294,-0.286884894383503,-0.782680670772371,0.230712766766866,2.96652207255856,-0.0811816569329626,-0.0349655575307452,0,0,0,0,0,0,0,0,0,0,0,0
2245.544,0.400489,8,0,7,1,1,0.1,0,0,0,0,0,0,0,0,0,0,3.68190711580592,-16.8930332415696,15.3900698204815,2.80653645198649,-1.23385843718595,-0.67031443159474,11,0,-1.72769624391665,-2.01136953035464,-1.85741502443422,-0.666605297719139,-4.7213160435306,-3.24603444734682,-1.72766048112978,-2.01136953035464,-1.85741502443422,-0.666593376790182,-4.72142392793764,-3.24602228799929,0,0,0,0,0,0,0,0,0,0,0,0,-0.286914821023607,-0.782655550814712,0.230663646928533,2.96658629960679,-0.0812102690499988,-0.0348738152905294,-0.286896808369849,-0.782665059926799,0.230665189670774,2.9665868433497,-0.0811897479734514,-0.035028656224944,0,0,0,0,0,0,0,0,0,0,0,0
2245.552,0.334512,8,0,7,1,1,0.1,0,0,0,0,0,0,0,0,0,0,3.41469814978748,-18.4854792736616,13.8191460721468,2.79934791403177,-0.708846224559354,-0.704358190266217,11,0,-1.72769624391665,-2.01136953035464,-1.85741502443422,-0.666605297719139,-4.7213160435306,-3.24603444734682,-1.72767240205874,-2.01138192812075,-1.85741502443422,-0.666593376790182,-4.7214358488666,-3.24602228799929,0,0,0,0,0,0,0,0,0,0,0,0,-0.286914821023607,-0.782655550814712,0.230663646928533,2.96658629960679,-0.0812102690499988,-0.0348738152905294,-0.286907422788044,-0.782662721240469,0.230655049564149,2.96660011435275,-0.0812093820062592,-0.0350454972917367,0,0,0,0,0,0,0,0,0,0,0,0
2245.56,0.401712,8,0,7,1,1,0.1,0,0,0,0,0,0,0,0,0,0,3.24583760406592,-16.8870863318964,15.7393539372932,2.93979513273151,-1.25616457952144,-0.612396351965639,11,0,-1.72769624391665,-2.01136953035464,-1.85741502443422,-0.666605297719139,-4.7213160435306,-3.24603444734682,-1.72766048112978,-2.01130992570986,-1.85739118257631,-0.666605297719137,-4.72135204473604,-3.24601036707033,0,0,0,0,0,0,0,0,0,0,0,0,-0.286914821023607,-0.782655550814712,0.230663646928533,2.96658629960679,-0.0812102690499988,-0.0348738152905294,-0.286890826449758,-0.782669871954083,0.230725641697721,2.96650722886653,-0.0811957145814942,-0.0349340651242065,0,0,0,0,0,0,0,0,0,0,0,0
2245.568,0.335028,8,0,7,1,1,0.1,0,0,0,0,0,0,0,0,0,0,4.72191123401262,-16.9022793806591,15.1817887005935,2.79945434785594,-1.20364061960522,-0.560149185430662,11,0,-1.72769624391665,-2.01136953035464,-1.85741502443422,-0.666605297719139,-4.7213160435306,-3.24603444734682,-1.72767240205874,-2.01134568849672,-1.85742694536318,-0.666605297719137,-4.72137600580324,-3.24601036707033,0,0,0,0,0,0,0,0,0,0,0,0,-0.286914821023607,-0.782655550814712,0.230663646928533,2.96658629960679,-0.0812102690499988,-0.0348738152905294,-0.286900410255739,-0.782653786308888,0.230676515577154,2.96658058882732,-0.0812183934149451,-0.0349581255923282,0,0,0,0,0,0,0,0,0,0,0,0
2245.576,0.33336,8,0,7,1,1,0.1,0,0,0,0,0,0,0,0,0,0,2.68565743299655,-17.1191988277688,14.7758076062946,2.79897909459302,-1.48652536891924,-0.597161477191026,11,0,-1.72769624391665,-2.01136953035464,-1.85741502443422,-0.666605297719139,-4.7213160435306,-3.24603444734682,-1.72766048112978,-2.01138192812075,-1.85739118257631,-0.666605297719137,-4.72142392793764,-3.24599844614138,0,0,0,0,0,0,0,0,0,0,0,0,-0.286914821023607,-0.782655550814712,0.230663646928533,2.96658629960679,-0.0812102690499988,-0.0348738152905294,-0.28689852735252,-0.782676116622609,0.230666750126492,2.96658608923619,-0.0812250739906928,-0.0350252777681194,0,0,0,0,0,0,0,0,0,0,0,0
2245.584,0.331297,8,0,7,1,1,0.1,0,0,0,0,0,0,0,0,0,0,3.09891555565935,-17.2550798306346,14.9203326523403,2.7843125906745,-1.3689578799795,-0.674771722073388,11,0,-1.72769624391665,-2.01136953035464,-1.85741502443422,-0.666605297719139,-4.7213160435306,-3.24603444734682,-1.72768432298769,-2.01134568849672,-1.85735541978945,-0.66661769548525,-4.7214118877994,-3.24604636827578,0,0,0,0,0,0,0,0,0,0,0,0,-0.286914821023607,-0.782655550814712,0.230663646928533,2.96658629960679,-0.0812102690499988,-0.0348738152905294,-0.286917860477798,-0.78268086097568,0.23071465314439,2.96652724051544,-0.0811861660205297,-0.0350273639471511,0,0,0,0,0,0,0,0,0,0,0,0
2245.592,0.335052,8,0,7,1,1,0.1,0,0,0,0,0,0,0,0,0,0,4.02166455382413,-16.7544118911441,15.6973312827184,2.89727645542107,-1.01423056175013,-0.682458155805094,11,0,-1.72769624391665,-2.01136953035464,-1.85741502443422,-0.666605297719139,-4.7213160435306,-3.24603444734682,-1.72764856020083,-2.01133376756777,-1.85739118257631,-0.66661769548525,-4.7214118877994,-3.24599844614138,0,0,0,0,0,0,0,0,0,0,0,0,-0.286914821023607,-0.782655550814712,0.230663646928533,2.96658629960679,-0.0812102690499988,-0.0348738152905294,-0.286887178062273,-0.782673974769479,0.23070452577155,2.96654959310839,-0.0812046496436771,-0.0350124374063721,0,0,0,0,0,0,0,0,0,0,0,0
2245.6,0.331212,8,0,7,1,1,0.1,0,0,0,0,0,0,0,0,0,0,3.68958954917949,-17.1139892410945,15.4643034000055,2.92660009510408,-1.17685912861512,-0.597332316208298,11,0,-1.72769624391665,-2.01136953035464,-1.85741502443422,-0.666605297719139,-4.7213160435306,-3.24603444734682,-1.72767240205874,-2.01134568849672,-1.85737926164736,-0.666629616414205,-4.7214118877994,-3.24604636827578,0,0,0,0,0,0,0,0,0,0,0,0,-0.286914821023607,-0.782655550814712,0.230663646928533,2.96658629960679,-0.0812102690499988,-0.0348738152905294,-0.286906716089259,-0.782672829879461,0.230699851137898,2.96656314212478,-0.0811691699066167,-0.0350194225215527,0,0,0,0,0,0,0,0,0,0,0,0
2245.608,0.401568,8,0,7,1,1,0.1,0,0,0,0,0,0,0,0,0,0,3.77990613396052,-17.2884702899163,15.1944894978954,2.78164067308103,-1.03346068904611,-0.646969358089642,11,0,-1.72769624391665,-2.01136953035464,-1.85741502443422,-0.666605297719139,-4.7213160435306,-3.24603444734682,-1.72769624391665,-2.01132184663881,-1.85740310350527,-0.66661769548525,-4.7213879267322,-3.24601036707033,0,0,0,0,0,0,0,0,0,0,0,0,-0.286914821023607,-0.782655550814712,0.230663646928533,2.96658629960679,-0.0812102690499988,-0.0348738152905294,-0.286921290669537,-0.782654123470126,0.230707651264436,2.96654611327931,-0.0812544009231837,-0.0349849491507378,0,0,0,0,0,0,0,0,0,0,0,0
2245.616,0.333876,8,0,7,1,1,0.1,0,0,0,0,0,0,0,0,0,0,3.68406984907381,-16.9291536400853,14.755453986143,2.68011862449218,-0.978909573566961,-0.682370536736358,11,0,-1.72769624391665,-2.01136953035464,-1.85741502443422,-0.666605297719139,-4.7213160435306,-3.24603444734682,-1.72766048112978,-2.01135760942568,-1.85739118257631,-0.666605297719137,-4.7213879267322,-3.24598628679384,0,0,0,0,0,0,0,0,0,0,0,0,-0.286914821023607,-0.782655550814712,0.230663646928533,2.96658629960679,-0.0812102690499988,-0.0348738152905294,-0.28689485823173,-0.782674179329231,0.230686641508371,2.96655733672385,-0.0812375677230913,-0.034975119846323,0,0,0,0,0,0,0,0,0,0,0,0
2245.624,0.330744,8,0,7,1,1,0.1,0,0,0,0,0,0,0,0,0,0,4.36859265628868,-16.5193560950179,15.2081773522764,2.65215777108337,-1.1083802064301,-0.601522628429297,11,0,-1.72769624391665,-2.01136953035464,-1.85741502443422,-0.666605297719139,-4.7213160435306,-3.24603444734682,-1.72766048112978,-2.01133376756777,-1.85740310350527,-0.66661769548525,-4.7214358488666,-3.24601036707033,0,0,0,0,0,0,0,0,0,0,0,0,-0.286914821023607,-0.782655550814712,0.230663646928533,2.96658629960679,-0.0812102690499988,-0.0348738152905294,-0.28689785796949,-0.782664891494031,0.230697898591347,2.96656433297709,-0.0812081769618248,-0.0350487058950052,0,0,0,0,0,0,0,0,0,0,0,0
2245.632,0.33366,8,0,7,1,1,0.1,0,0,0,0,0,0,0,0,0,0,3.99898634064112,-16.0258542550992,15.935735105489,2.72681672438252,-1.05683457531602,-0.670139793746429,11,0,-1.72769624391665,-2.01136953035464,-1.85741502443422,-0.666605297719139,-4.7213160435306,-3.24603444734682,-1.72769624391665,-2.01130992570986,-1.85737926164736,-0.666605297719137,-4.7214118877994,-3.24601036707033,0,0,0,0,0,0,0,0,0,0,0,0,-0.286914821023607,-0.782655550814712,0.230663646928533,2.96658629960679,-0.0812102690499988,-0.0348738152905294,-0.286925103705114,-0.78266404922798,0.230732263044397,2.9665009033068,-0.0812566473548591,-0.0350288722983799,0,0,0,0,0,0,0,0,0,0,0,0
2245.64,0.331236,8,0,7,1,1,0.1,0,0,0,0,0,0,0,0,0,0,3.13982708321239,-17.4269170557806,14.5023724495516,2.53082130764479,-1.59295527720819,-0.542104669431461,11,0,-1.72769624391665,-2.01136953035464,-1.85741502443422,-0.666605297719139,-4.7213160435306,-3.24603444734682,-1.72768432298769,-2.01133376756777,-1.85740310350527,-0.66661769548525,-4.72142392793764,-3.24601036707033,0,0,0,0,0,0,0,0,0,0,0,0,-0.286914821023607,-0.782655550814712,0.230663646928533,2.96658629960679,-0.0812102690499988,-0.0348738152905294,-0.286915431792317,-0.782658225378142,0.230697899410964,2.96656229346619,-0.0812419267833634,-0.0350342408785991,0,0,0,0,0,0,0,0,0,0,0,0
2245.648,0.40404,8,0,7,1,1,0.1,0,0,0,0,0,0,0,0,0,0,3.45384484971695,-17.1394294304105,14.6698698973186,2.61458158610262,-1.24380433597601,-0.634279274778135,11,0,-1.72769624391665,-2.01136953035464,-1.85741502443422,-0.666605297719139,-4.7213160435306,-3.24603444734682,-1.72769624391665,-2.01135760942568,-1.85739118257631,-0.666605297719137,-4.7214118877994,-3.24602228799929,0,0,0,0,0,0,0,0,0,0,0,0,-0.286914821023607,-0.782655550814712,0.230663646928533,2.96658629960679,-0.0812102690499988,-0.0348738152905294,-0.286925032080032,-0.782663568342371,0.230686639795629,2.96656072911542,-0.081240492648853,-0.0350196742169307,0,0,0,0,0,0,0,0,0,0,0,0
2245.656,0.40458,8,0,7,1,1,0.1,0,0,0,0,0,0,0,0,0,0,2.96282021048527,-18.4927822498819,13.6098247457535,2.62084528427554,-1.1400856291981,-0.566098315504072,11,0,-1.72769624391665,-2.01136953035464,-1.85741502443422,-0.666605297719139,-4.7213160435306,-3.24603444734682,-1.72763616243471,-2.0112980047809,-1.85737926164736,-0.666629616414205,-4.72137600580324,-3.24599844614138,0,0,0,0,0,0,0,0,0,0,0,0,-0.286914821023607,-0.782655550814712,0.230663646928533,2.96658629960679,-0.0812102690499988,-0.0348738152905294,-0.286874320358243,-0.782678918674893,0.230738851365864,2.96651047186502,-0.0811803337204442,-0.0349643661645202,0,0,0,0,0,0,0,0,0,0,0,0
2245.664,0.375144,8,0,7,1,1,0.1,0,0,0,0,0,0,0,0,0,0,2.8006019261711,-17.6326172398255,14.5471466497229,2.64332446815338,-1.40486668903845,-0.54933986146853,11,0,-1.72769624391665,-2.01136953035464,-1.85741502443422,-0.666605297719139,-4.7213160435306,-3.24603444734682,-1.72768432298769,-2.01130992570986,-1.85743886629214,-0.666629616414205,-4.7213879267322,-3.24598628679384,0,0,0,0,0,0,0,0,0,0,0,0,-0.286914821023607,-0.782655550814712,0.230663646928533,2.96658629960679,-0.0812102690499988,-0.0348738152905294,-0.28690912203816,-0.782639571148269,0.230695973235349,2.96658079697939,-0.081273064534258,-0.0349739685201095,0,0,0,0,0,0,0,0,0,0,0,0
2245.672,0.333385,8,0,7,1,1,0.1,0,0,0,0,0,0,0,0,0,0,3.12637654578046,-16.7094996087921,15.1379171869958,2.66883455971686,-1.30185790289316,-0.539230350266644,11,0,-1.72769624391665,-2.01136953035464,-1.85741502443422,-0.666605297719139,-4.7213160435306,-3.24603444734682,-1.72766048112978,-2.01133376756777,-1.85741502443422,-0.666605297719137,-4.72137600580324,-3.24602228799929,0,0,0,0,0,0,0,0,0,0,0,0,-0.286914821023607,-0.782655550814712,0.230663646928533,2.96658629960679,-0.0812102690499988,-0.0348738152905294,-0.286891723533544,-0.782661311837158,0.230692890175892,2.96655786507551,-0.0811824511164542,-0.0349623769052936,0,0,0,0,0,0,0,0,0,0,0,0
2245.68,0.332316,8,0,7,1,1,0.1,0,0,0,0,0,0,0,0,0,0,3.61654920028145,-16.5943977933436,15.4429525992436,2.74313117485196,-1.18008349377527,-0.533871901281078,11,0,-1.72769624391665,-2.01136953035464,-1.85741502443422,-0.666605297719139,-4.7213160435306,-3.24603444734682,-1.72769624391665,-2.01135760942568,-1.85740310350527,-0.666581455861227,-4.72137600580324,-3.24602228799929,0,0,0,0,0,0,0,0,0,0,0,0,-0.286914821023607,-0.782655550814712,0.230663646928533,2.96658629960679,-0.0812102690499988,-0.0348738152905294,-0.286921221662594,-0.78266043110214,0.230683118518244,2.96654493225944,-0.0812355449437953,-0.0349692100694776,0,0,0,0,0,0,0,0,0,0,0,0
2245.688,0.335628,8,0,7,1,1,0.1,0,0,0,0,0,0,0,0,0,0,2.73712086810421,-18.9847485269846,13.0731788352955,2.51569350630308,-1.40922941445173,-0.602415795891208,11,0,-1.72769624391665,-2.01136953035464,-1.85741502443422,-0.666605297719139,-4.7213160435306,-3.24603444734682,-1.72767240205874,-2.01134568849672,-1.85737926164736,-0.66661769548525,-4.72137600580324,-3.24601036707033,0,0,0,0,0,0,0,0,0,0,0,0,-0.286914821023607,-0.782655550814712,0.230663646928533,2.96658629960679,-0.0812102690499988,-0.0348738152905294,-0.286903592955089,-0.782674180037407,0.230701404497377,2.96654550658364,-0.0812175148603215,-0.0349641675804174,0,0,0,0,0,0,0,0,0,0,0,0
2245.696,0.333348,8,0,7,1,1,0.1,0,0,0,0,0,0,0,0,0,0,2.85913269005275,-16.9070665884201,14.9276407423897,2.69112208127064,-1.27983125154263,-0.601276720280286,11,0,-1.72769624391665,-2.01136953035464,-1.85741502443422,-0.666605297719139,-4.7213160435306,-3.24603444734682,-1.7277081648456,-2.01133376756777,-1.85739118257631,-0.666605297719137,-4.72137600580324,-3.24605828920473,0,0,0,0,0,0,0,0,0,0,0,0,-0.286914821023607,-0.782655550814712,0.230663646928533,2.96658629960679,-0.0812102690499988,-0.0348738152905294,-0.286930711332286,-0.782658256845975,0.230706141172431,2.96653455042676,-0.0811992778963242,-0.0349773786639052,0,0,0,0,0,0,0,0,0,0,0,0
2245.704,0.337656,8,0,7,1,1,0.1,0,0,0,0,0,0,0,0,0,0,4.05071896818093,-15.9172398825891,15.9677609930149,2.66423531234894,-1.23882281787982,-0.607857636952137,11,0,-1.72769624391665,-2.01136953035464,-1.85741502443422,-0.666605297719139,-4.7213160435306,-3.24603444734682,-1.72767240205874,-2.01132184663881,-1.85740310350527,-0.66664153734316,-4.7214358488666,-3.24601036707033,0,0,0,0,0,0,0,0,0,0,0,0,-0.286914821023607,-0.782655550814712,0.230663646928533,2.96658629960679,-0.0812102690499988,-0.0348738152905294,-0.286906704355651,-0.782658612166482,0.230704546351401,2.96657581198432,-0.0812258771351232,-0.0350479660613343,0,0,0,0,0,0,0,0,0,0,0,0
2245.712,0.396193,8,0,7,1,1,0.1,0,0,0,0,0,0,0,0,0,0,3.25493722313256,-18.7417201087813,13.4307403920027,2.50249980952733,-1.28280172465398,-0.652932996492615,11,0,-1.72769624391665,-2.01136953035464,-1.85741502443422,-0.666605297719139,-4.7213160435306,-3.24603444734682,-1.72768432298769,-2.01134568849672,-1.85739118257631,-0.66661769548525,-4.72137600580324,-3.24604636827578,0,0,0,0,0,0,0,0,0,0,0,0,-0.286914821023607,-0.782655550814712,0.230663646928533,2.96658629960679,-0.0812102690499988,-0.0348738152905294,-0.286912089304508,-0.782665446843678,0.230694778977446,2.96655882498785,-0.0811820731801006,-0.0349682774556569,0,0,0,0,0,0,0,0,0,0,0,0
2245.72,0.379956,8,0,7,1,1,0.1,0,0,0,0,0,0,0,0,0,0,3.39576320485717,-18.041209088043,14.2717091125958,2.63772160168048,-1.16729890183959,-0.561919915883006,11,0,-1.72769624391665,-2.01136953035464,-1.85741502443422,-0.666605297719139,-4.7213160435306,-3.24603444734682,-1.72766048112978,-2.0112980047809,-1.85737926164736,-0.666605297719137,-4.7214118877994,-3.24598628679384,0,0,0,0,0,0,0,0,0,0,0,0,-0.286914821023607,-0.782655550814712,0.230663646928533,2.96658629960679,-0.0812102690499988,-0.0348738152905294,-0.286896922701578,-0.782673101638963,0.230742012453651,2.96648892074109,-0.0812389871142305,-0.0350232922639886,0,0,0,0,0,0,0,0,0,0,0,0
2245.728,0.337596,8,0,7,1,1,0.1,0,0,0,0,0,0,0,0,0,0,3.16679702817597,-17.5174599308034,14.5678369971839,2.80762751131296,-1.04801007513378,-0.731604731039959,11,0,-1.72769624391665,-2.01136953035464,-1.85741502443422,-0.666605297719139,-4.7213160435306,-3.24603444734682,-1.72767240205874,-2.01134568849672,-1.85741502443422,-0.666605297719137,-4.72142392793764,-3.24602228799929,0,0,0,0,0,0,0,0,0,0,0,0,-0.286914821023607,-0.782655550814712,0.230663646928533,2.96658629960679,-0.0812102690499988,-0.0348738152905294,-0.286905610919023,-0.782658398965798,0.230683137490508,2.96657463842331,-0.0812069683300442,-0.0350323011154073,0,0,0,0,0,0,0,0,0,0,0,0
2245.736,0.332484,8,0,7,1,1,0.1,0,0,0,0,0,0,0,0,0,0,3.9394826094996,-16.0082916283557,16.6806510424226,3.05139597185712,-1.07577015068297,-0.618416358532169,11,0,-1.72769624391665,-2.01136953035464,-1.85741502443422,-0.666605297719139,-4.7213160435306,-3.24603444734682,-1.72769624391665,-2.01130992570986,-1.85739118257631,-0.666629616414205,-4.721363965665,-3.24604636827578,0,0,0,0,0,0,0,0,0,0,0,0,-0.286914821023607,-0.782655550814712,0.230663646928533,2.96658629960679,-0.0812102690499988,-0.0348738152905294,-0.286919603953662,-0.782657752987461,0.230722477168131,2.96653344741192,-0.0811973399956826,-0.0349563628608093,0,0,0,0,0,0,0,0,0,0,0,0
2245.744,0.40176,8,0,7,1,1,0.1,0,0,0,0,0,0,0,0,0,0,3.56537862849694,-16.9441097661862,15.5320450044388,2.93542320060039,-1.1163290948042,-0.665594674318735,11,0,-1.72769624391665,-2.01136953035464,-1.85741502443422,-0.666605297719139,-4.7213160435306,-3.24603444734682,-1.72769624391665,-2.01136953035464,-1.85735541978945,-0.666581455861227,-4.72137600580324,-3.24599844614138,0,0,0,0,0,0,0,0,0,0,0,0,-0.286914821023607,-0.782655550814712,0.230663646928533,2.96658629960679,-0.0812102690499988,-0.0348738152905294,-0.286924747797141,-0.78268289086069,0.230699870960815,2.96650816422216,-0.0812701665691666,-0.034972316728641,0,0,0,0,0,0,0,0,0,0,0,0
2245.752,0.340164,8,0,7,1,1,0.1,0,0,0,0,0,0,0,0,0,0,2.84185509227073,-17.2348694663637,14.6940484770316,2.7935158653151,-1.48825914097229,-0.539011200213995,11,0,-1.72769624391665,-2.01136953035464,-1.85741502443422,-0.666605297719139,-4.7213160435306,-3.24603444734682,-1.72769624391665,-2.01133376756777,-1.85741502443422,-0.66661769548525,-4.72137600580324,-3.24601036707033,0,0,0,0,0,0,0,0,0,0,0,0,-0.286914821023607,-0.782655550814712,0.230663646928533,2.96658629960679,-0.0812102690499988,-0.0348738152905294,-0.286919561032984,-0.782650192627859,0.230691277380271,2.96656848824782,-0.0812533581840716,-0.0349631490259708,0,0,0,0,0,0,0,0,0,0,0,0
2245.76,0.333637,8,0,7,1,1,0.1,0,0,0,0,0,0,0,0,0,0,3.48601614890041,-17.5848565727995,14.8815816487422,2.78252046635093,-1.45650362833002,-0.572947231393616,11,0,-1.72769624391665,-2.01136953035464,-1.85741502443422,-0.666605297719139,-4.7213160435306,-3.24603444734682,-1.72767240205874,-2.01128608385195,-1.85740310350527,-0.666605297719137,-4.72137600580324,-3.24598628679384,0,0,0,0,0,0,0,0,0,0,0,0,-0.286914821023607,-0.782655550814712,0.230663646928533,2.96658629960679,-0.0812102690499988,-0.0348738152905294,-0.286901125129067,-0.782658372358889,0.230738512795763,2.96649645310818,-0.0812520006997146,-0.0349700013078668,0,0,0,0,0,0,0,0,0,0,0,0
2245.768,0.333804,8,0,7,1,1,0.1,0,0,0,0,0,0,0,0,0,0,3.43802935215901,-16.5034015199198,15.6983538652437,2.87578711092018,-1.2576790993402,-0.581759786825112,11,0,-1.72769624391665,-2.01136953035464,-1.85741502443422,-0.666605297719139,-4.7213160435306,-3.24603444734682,-1.72768432298769,-2.01132184663881,-1.85741502443422,-0.66661769548525,-4.7214118877994,-3.24598628679384,0,0,0,0,0,0,0,0,0,0,0,0,-0.286914821023607,-0.782655550814712,0.230663646928533,2.96658629960679,-0.0812102690499988,-0.0348738152905294,-0.286913310278636,-0.782651880501647,0.230701024032016,2.96655974520101,-0.0812759476045606,-0.0350134769974394,0,0,0,0,0,0,0,0,0,0,0,0
2245.776,0.333012,8,0,7,1,1,0.1,0,0,0,0,0,0,0,0,0,0,4.00282847925708,-15.9284299368014,16.2188530551938,2.90006847033681,-1.05531692232795,-0.50268284063237,11,0,-1.72769624391665,-2.01136953035464,-1.85741502443422,-0.666605297719139,-4.7213160435306,-3.24603444734682,-1.7277081648456,-2.01138192812075,-1.85740310350527,-0.66661769548525,-4.7213879267322,-3.24599844614138,0,0,0,0,0,0,0,0,0,0,0,0,-0.286914821023607,-0.782655550814712,0.230663646928533,2.96658629960679,-0.0812102690499988,-0.0348738152905294,-0.286931580881598,-0.782656789774975,0.230658514644748,2.96660483009008,-0.0812913561534027,-0.0349740470872348,0,0,0,0,0,0,0,0,0,0,0,0
2245.784,0.33372,8,0,7,1,1,0.1,0,0,0,0,0,0,0,0,0,0,3.9057411056863,-16.6372257093146,15.7132380538302,2.88601607626761,-1.23509077527141,-0.701152312902241,11,0,-1.72769624391665,-2.01136953035464,-1.85741502443422,-0.666605297719139,-4.7213160435306,-3.24603444734682,-1.72768432298769,-2.01135760942568,-1.85739118257631,-0.66661769548525,-4.72142392793764,-3.24599844614138,0,0,0,0,0,0,0,0,0,0,0,0,-0.286914821023607,-0.782655550814712,0.230663646928533,2.96658629960679,-0.0812102690499988,-0.0348738152905294,-0.286916646670066,-0.782665954011895,0.230685026159044,2.96657352221471,-0.0812599737037243,-0.0350304617765632,0,0,0,0,0,0,0,0,0,0,0,0
2245.792,0.331944,8,0,7,1,1,0.1,0,0,0,0,0,0,0,0,0,0,3.32043357202088,-16.8915278262609,15.3422008351132,2.84728030911542,-1.14364848971614,-0.60078535484882,11,0,-1.72769624391665,-2.01136953035464,-1.85741502443422,-0.666605297719139,-4.7213160435306,-3.24603444734682,-1.72766048112978,-2.01132184663881,-1.85740310350527,-0.66661769548525,-4.7213879267322,-3.24598628679384,0,0,0,0,0,0,0,0,0,0,0,0,-0.286914821023607,-0.782655550814712,0.230663646928533,2.96658629960679,-0.0812102690499988,-0.0348738152905294,-0.286893300593455,-0.782664384074591,0.230707651264436,2.9665459739309,-0.0812370557569471,-0.0349772086584519,0,0,0,0,0,0,0,0,0,0,0,0
2245.8,0.329977,8,0,7,1,1,0.1,0,0,0,0,0,0,0,0,0,0,3.12574077596371,-18.0522229741777,14.2217082485016,2.63024271392597,-1.38229593677478,-0.639246966744384,11,0,-1.72769624391665,-2.01136953035464,-1.85741502443422,-0.666605297719139,-4.7213160435306,-3.24603444734682,-1.72769624391665,-2.01134568849672,-1.85742694536318,-0.666605297719137,-4.7213879267322,-3.24602228799929,0,0,0,0,0,0,0,0,0,0,0,0,-0.286914821023607,-0.782655550814712,0.230663646928533,2.96658629960679,-0.0812102690499988,-0.0348738152905294,-0.286920156374668,-0.782646771559263,0.230676514705848,2.9665817882013,-0.0812377065532404,-0.034980299166643,0,0,0,0,0,0,0,0,0,0,0,0
2245.808,0.399804,8,0,7,1,1,0.1,0,0,0,0,0,0,0,0,0,0,4.06752141062821,-16.1329728742678,15.8566650412059,2.77374503009047,-0.746890656828077,-0.754470621264014,11,0,-1.72769624391665,-2.01136953035464,-1.85741502443422,-0.666605297719139,-4.7213160435306,-3.24603444734682,-1.72769624391665,-2.01135760942568,-1.85740310350527,-0.66661769548525,-4.7214118877994,-3.24599844614138,0,0,0,0,0,0,0,0,0,0,0,0,-0.286914821023607,-0.782655550814712,0.230663646928533,2.96658629960679,-0.0812102690499988,-0.0348738152905294,-0.286924045692111,-0.782657396554636,0.230678401608548,2.96658368009498,-0.0812762845486027,-0.0350121911022018,0,0,0,0,0,0,0,0,0,0,0,0
2245.816,0.334848,8,0,7,1,1,0.1,0,0,0,0,0,0,0,0,0,0,2.93148977946267,-16.867442432227,14.7674769681135,2.62793907379855,-1.33431374421944,-0.503589153941834,11,0,-1.72769624391665,-2.01136953035464,-1.85741502443422,-0.666605297719139,-4.7213160435306,-3.24603444734682,-1.72767240205874,-2.01135760942568,-1.8573673407184,-0.666593376790182,-4.72137600580324,-3.24601036707033,0,0,0,0,0,0,0,0,0,0,0,0,-0.286914821023607,-0.782655550814712,0.230663646928533,2.96658629960679,-0.0812102690499988,-0.0348738152905294,-0.286904916252495,-0.782682385088357,0.230701444171648,2.96652134309672,-0.0812172303862395,-0.0349686267048888,0,0,0,0,0,0,0,0,0,0,0,0
2245.824,0.33192,8,0,7,1,1,0.1,0,0,0,0,0,0,0,0,0,0,3.47878056589705,-16.2383722706936,15.9458078422978,2.76052622182471,-1.16859082085522,-0.680325786056163,11,0,-1.72769624391665,-2.01136953035464,-1.85741502443422,-0.666605297719139,-4.7213160435306,-3.24603444734682,-1.72769624391665,-2.01135760942568,-1.85741502443422,-0.66661769548525,-4.7213879267322,-3.24601036707033,0,0,0,0,0,0,0,0,0,0,0,0,-0.286914821023607,-0.782655550814712,0.230663646928533,2.96658629960679,-0.0812102690499988,-0.0348738152905294,-0.286921028337352,-0.782652433676055,0.230671777993617,2.96659348979891,-0.0812556103511371,-0.0349763713762701,0,0,0,0,0,0,0,0,0,0,0,0
2245.832,0.334344,8,0,7,1,1,0.1,0,0,0,0,0,0,0,0,0,0,2.99135202114634,-15.7986454074435,15.5227688014452,2.57723669287516,-1.26563835709164,-0.600534203258845,11,0,-1.72769624391665,-2.01136953035464,-1.85741502443422,-0.666605297719139,-4.7213160435306,-3.24603444734682,-1.72769624391665,-2.01136953035464,-1.85737926164736,-0.666581455861227,-4.7213879267322,-3.24598628679384,0,0,0,0,0,0,0,0,0,0,0,0,-0.286914821023607,-0.782655550814712,0.230663646928533,2.96658629960679,-0.0812102690499988,-0.0348738152905294,-0.286924166286567,-0.782672090663698,0.23068661905272,2.96653256061019,-0.0812903457132189,-0.0349841154740696,0,0,0,0,0,0,0,0,0,0,0,0
2245.84,0.333576,8,0,7,1,1,0.1,0,0,0,0,0,0,0,0,0,0,2.75883590620595,-18.4882384243698,13.719540823948,2.62058063644594,-1.24453456754561,-0.547986185209807,11,0,-1.72769624391665,-2.01136953035464,-1.85741502443422,-0.666605297719139,-4.7213160435306,-3.24603444734682,-1.72764856020083,-2.01134568849672,-1.85739118257631,-0.666593376790182,-4.72142392793764,-3.24601036707033,0,0,0,0,0,0,0,0,0,0,0,0,-0.286914821023607,-0.782655550814712,0.230663646928533,2.96658629960679,-0.0812102690499988,-0.0348738152905294,-0.286888764681408,-0.78267669092885,0.230697939143349,2.96653921464759,-0.081188587075696,-0.0350340736720925,0,0,0,0,0,0,0,0,0,0,0,0
2245.848,0.407881,8,0,7,1,1,0.1,0,0,0,0,0,0,0,0,0,0,3.15247855858428,-17.1020888537517,14.7988841910836,2.57224107101322,-1.25981339356022,-0.60137074574516,11,0,-1.72769624391665,-2.01136953035464,-1.85741502443422,-0.666605297719139,-4.7213160435306,-3.24603444734682,-1.72768432298769,-2.01132184663881,-1.85737926164736,-0.666629616414205,-4.72137600580324,-3.24601036707033,0,0,0,0,0,0,0,0,0,0,0,0,-0.286914821023607,-0.782655550814712,0.230663646928533,2.96658629960679,-0.0812102690499988,-0.0348738152905294,-0.286912395447708,-0.78266751820266,0.230719352573374,2.96653330132894,-0.0812347344189318,-0.0349678130502783,0,0,0,0,0,0,0,0,0,0,0,0
2245.856,0.402372,8,0,7,1,1,0.1,0,0,0,0,0,0,0,0,0,0,3.47825015182156,-16.4396995363298,15.4946142813047,2.63459670514915,-1.30697156529098,-0.594859526741153,11,0,-1.72769624391665,-2.01136953035464,-1.85741502443422,-0.666605297719139,-4.7213160435306,-3.24603444734682,-1.72767240205874,-2.01136953035464,-1.85737926164736,-0.66661769548525,-4.72135204473604,-3.24601036707033,0,0,0,0,0,0,0,0,0,0,0,0,-0.286914821023607,-0.782655550814712,0.230663646928533,2.96658629960679,-0.0812102690499988,-0.0348738152905294,-0.286901790527008,-0.782676945882138,0.230681907359249,2.96656654459307,-0.0812148877672203,-0.0349245690227264,0,0,0,0,0,0,0,0,0,0,0,0
2245.864,0.375864,8,0,7,1,1,0.1,0,0,0,0,0,0,0,0,0,0,3.91584710384479,-17.4209393347358,14.6159065098785,2.60816936529759,-1.3194231568138,-0.505607336897753,11,0,-1.72769624391665,-2.01136953035464,-1.85741502443422,-0.666605297719139,-4.7213160435306,-3.24603444734682,-1.72764856020083,-2.0112980047809,-1.85739118257631,-0.66661769548525,-4.72137600580324,-3.24602228799929,0,0,0,0,0,0,0,0,0,0,0,0,-0.286914821023607,-0.782655550814712,0.230663646928533,2.96658629960679,-0.0812102690499988,-0.0348738152905294,-0.286883336761424,-0.782670874867303,0.230733776404284,2.96651131584899,-0.0811634666373585,-0.0349691887043992,0,0,0,0,0,0,0,0,0,0,0,0
2245.872,0.341052,8,0,7,1,1,0.1,0,0,0,0,0,0,0,0,0,0,5.12553974541967,-15.1679069060936,16.8404617152989,2.82337235331868,-1.27352190894987,-0.66391210917044,11,0,-1.72769624391665,-2.01136953035464,-1.85741502443422,-0.666605297719139,-4.7213160435306,-3.24603444734682,-1.72768432298769,-2.01135760942568,-1.85740310350527,-0.66661769548525,-4.7214358488666,-3.24602228799929,0,0,0,0,0,0,0,0,0,0,0,0,-0.286914821023607,-0.782655550814712,0.230663646928533,2.96658629960679,-0.0812102690499988,-0.0348738152905294,-0.286916899093195,-0.782660466590581,0.230678399948129,2.9665879014332,-0.0812264992111767,-0.0350490056025754,0,0,0,0,0,0,0,0,0,0,0,0
2245.88,0.332052,8,0,7,1,1,0.1,0,0,0,0,0,0,0,0,0,0,3.52418022485651,-17.1044730251304,14.3039877136427,2.53788352735977,-1.2204098201096,-0.607279549060244,11,0,-1.72769624391665,-2.01136953035464,-1.85741502443422,-0.666605297719139,-4.7213160435306,-3.24603444734682,-1.72764856020083,-2.01136953035464,-1.85741502443422,-0.66661769548525,-4.721363965665,-3.24597436586489,0,0,0,0,0,0,0,0,0,0,0,0,-0.286914821023607,-0.782655550814712,0.230663646928533,2.96658629960679,-0.0812102690499988,-0.0348738152905294,-0.286881715222147,-0.78266767196524,0.230662030478646,2.96660230249659,-0.081235316155699,-0.0349281141479349,0,0,0,0,0,0,0,0,0,0,0,0
2245.888,0.334561,8,0,7,1,1,0.1,0,0,0,0,0,0,0,0,0,0,4.48008158786194,-16.6348706231876,15.7344547137862,2.81429299382258,-0.937484889943099,-0.7222212114241,11,0,-1.72769624391665,-2.01136953035464,-1.85741502443422,-0.666605297719139,-4.7213160435306,-3.24603444734682,-1.72769624391665,-2.0112980047809,-1.85741502443422,-0.666593376790182,-4.7213879267322,-3.24601036707033,0,0,0,0,0,0,0,0,0,0,0,0,-0.286914821023607,-0.782655550814712,0.230663646928533,2.96658629960679,-0.0812102690499988,-0.0348738152905294,-0.28692037468937,-0.782648078640384,0.230723687804368,2.96651012126687,-0.0812536949722886,-0.0349917208050488,0,0,0,0,0,0,0,0,0,0,0,0
2245.896,0.33042,8,0,7,1,1,0.1,0,0,0,0,0,0,0,0,0,0,3.10719621118784,-17.2763889983201,14.573341984685,2.60972193002699,-1.10583906396378,-0.686963023778844,11,0,-1.72769624391665,-2.01136953035464,-1.85741502443422,-0.666605297719139,-4.7213160435306,-3.24603444734682,-1.72766048112978,-2.01138192812075,-1.85739118257631,-0.666605297719137,-4.7213879267322,-3.24598628679384,0,0,0,0,0,0,0,0,0,0,0,0,-0.286914821023607,-0.782655550814712,0.230663646928533,2.96658629960679,-0.0812102690499988,-0.0348738152905294,-0.286895246769985,-0.782676642870309,0.230666752679998,2.96658149528468,-0.081238211375264,-0.0349707081441606,0,0,0,0,0,0,0,0,0,0,0,0
2245.904,0.350436,8,0,7,1,1,0.1,0,0,0,0,0,0,0,0,0,0,3.83411738029423,-16.4962155566479,15.2853452409818,2.57682070149626,-1.48840157252526,-0.532776327503719,11,0,-1.72769624391665,-2.01136953035464,-1.85741502443422,-0.666605297719139,-4.7213160435306,-3.24603444734682,-1.72764856020083,-2.01130992570986,-1.85741502443422,-0.666605297719137,-4.7213879267322,-3.24599844614138,0,0,0,0,0,0,0,0,0,0,0,0,-0.286914821023607,-0.782655550814712,0.230663646928533,2.96658629960679,-0.0812102690499988,-0.0348738152905294,-0.286883098763988,-0.782662141709028,0.230712387782179,2.96653464606067,-0.0812011134705854,-0.0349796250670564,0,0,0,0,0,0,0,0,0,0,0,0
2245.912,0.397248,8,0,7,1,1,0.1,0,0,0,0,0,0,0,0,0,0,2.42819513087933,-15.9597132932525,15.5000752400858,2.64158148919027,-1.49634579676679,-0.561984727022672,11,0,-1.72769624391665,-2.01136953035464,-1.85741502443422,-0.666605297719139,-4.7213160435306,-3.24603444734682,-1.72766048112978,-2.01138192812075,-1.85737926164736,-0.666605297719137,-4.721363965665,-3.24601036707033,0,0,0,0,0,0,0,0,0,0,0,0,-0.286914821023607,-0.782655550814712,0.230663646928533,2.96658629960679,-0.0812102690499988,-0.0348738152905294,-0.286893897075546,-0.78268230632855,0.230673379780291,2.96656822432499,-0.0811989794540805,-0.034940637728006,0,0,0,0,0,0,0,0,0,0,0,0
2245.92,0.3465,8,0,7,1,1,0.1,0,0,0,0,0,0,0,0,0,0,3.46678699833895,-16.9613220859596,14.8980006389416,2.59200230679855,-1.31896007070305,-0.735506430441622,11,0,-1.72769624391665,-2.01136953035464,-1.85741502443422,-0.666605297719139,-4.7213160435306,-3.24603444734682,-1.72767240205874,-2.01132184663881,-1.85740310350527,-0.666605297719137,-4.7213879267322,-3.24599844614138,0,0,0,0,0,0,0,0,0,0,0,0,-0.286914821023607,-0.782655550814712,0.230663646928533,2.96658629960679,-0.0812102690499988,-0.0348738152905294,-0.286902783099978,-0.78266182261109,0.23070926408085,2.96653391551119,-0.0812365369141565,-0.0349826345147798,0,0,0,0,0,0,0,0,0,0,0,0
2245.928,0.335749,8,0,7,1,1,0.1,0,0,0,0,0,0,0,0,0,0,3.64929969448641,-17.1589351650591,14.8128135551896,2.64864912760623,-1.32205597384357,-0.650176779117767,11,0,-1.72769624391665,-2.01136953035464,-1.85741502443422,-0.666605297719139,-4.7213160435306,-3.24603444734682,-1.72769624391665,-2.01132184663881,-1.85739118257631,-0.666593376790182,-4.721363965665,-3.24602228799929,0,0,0,0,0,0,0,0,0,0,0,0,-0.286914821023607,-0.782655550814712,0.230663646928533,2.96658629960679,-0.0812102690499988,-0.0348738152905294,-0.286920240179449,-0.782661470846988,0.230717442245462,2.96650806719862,-0.0812328631359608,-0.0349578418821815,0,0,0,0,0,0,0,0,0,0,0,0
2245.936,0.332532,8,0,7,1,1,0.1,0,0,0,0,0,0,0,0,0,0,3.56038596987014,-16.8894313676738,14.7696660399664,2.57845660612051,-1.25045649948646,-0.574507510634373,11,0,-1.72769624391665,-2.01136953035464,-1.85741502443422,-0.666605297719139,-4.7213160435306,-3.24603444734682,-1.72768432298769,-2.01135760942568,-1.85739118257631,-0.666581455861227,-4.7214118877994,-3.24602228799929,0,0,0,0,0,0,0,0,0,0,0,0,-0.286914821023607,-0.782655550814712,0.230663646928533,2.96658629960679,-0.0812102690499988,-0.0348738152905294,-0.286915995160167,-0.782668639918561,0.230689741356083,2.96653740791215,-0.0812224770498027,-0.0350225772703859,0,0,0,0,0,0,0,0,0,0,0,0
2245.944,0.41904,8,0,7,1,1,0.1,0,0,0,0,0,0,0,0,0,0,3.35740471035826,-17.5520080901349,14.3594368551267,2.60421124709504,-1.23981787980872,-0.605835787443651,11,0,-1.72769624391665,-2.01136953035464,-1.85741502443422,-0.666605297719139,-4.7213160435306,-3.24603444734682,-1.72769624391665,-2.01134568849672,-1.85739118257631,-0.66661769548525,-4.7213879267322,-3.24605828920473,0,0,0,0,0,0,0,0,0,0,0,0,-0.286914821023607,-0.782655550814712,0.230663646928533,2.96658629960679,-0.0812102690499988,-0.0348738152905294,-0.28692250566342,-0.782661852241101,0.230694778105871,2.96656038653725,-0.0811837009486458,-0.0349889095951284,0,0,0,0,0,0,0,0,0,0,0,0
2245.952,0.38226,8,0,7,1,1,0.1,0,0,0,0,0,0,0,0,0,0,3.12896449427335,-17.5228182722877,14.4235586367313,2.59652070192285,-1.1638080641489,-0.56134522908318,11,0,-1.72769624391665,-2.01136953035464,-1.85741502443422,-0.666605297719139,-4.7213160435306,-3.24603444734682,-1.7277081648456,-2.01136953035464,-1.85741502443422,-0.666605297719137,-4.72137600580324,-3.24598628679384,0,0,0,0,0,0,0,0,0,0,0,0,-0.286914821023607,-0.782655550814712,0.230663646928533,2.96658629960679,-0.0812102690499988,-0.0348738152905294,-0.286929614968283,-0.782651253766663,0.230663642349924,2.96659011253586,-0.0813075300959484,-0.034957398693167,0,0,0,0,0,0,0,0,0,0,0,0
2245.96,0.334092,8,0,7,1,1,0.1,0,0,0,0,0,0,0,0,0,0,3.74501308919766,-17.7217353306126,14.742659793449,2.74873921243914,-0.882001923589428,-0.672501077295527,11,0,-1.72769624391665,-2.01136953035464,-1.85741502443422,-0.666605297719139,-4.7213160435306,-3.24603444734682,-1.72768432298769,-2.0112980047809,-1.85740310350527,-0.66664153734316,-4.7213879267322,-3.24597436586489,0,0,0,0,0,0,0,0,0,0,0,0,-0.286914821023607,-0.782655550814712,0.230663646928533,2.96658629960679,-0.0812102690499988,-0.0348738152905294,-0.286911286384482,-0.782653476412729,0.230724048240799,2.96654464120604,-0.0812898047478044,-0.0349786315913938,0,0,0,0,0,0,0,0,0,0,0,0
2245.968,0.33408,8,0,7,1,1,0.1,0,0,0,0,0,0,0,0,0,0,3.47020116424476,-15.9783085852412,15.9018784787953,2.65880683840246,-1.28970977935627,-0.598621261582692,11,0,-1.72769624391665,-2.01136953035464,-1.85741502443422,-0.666605297719139,-4.7213160435306,-3.24603444734682,-1.72766048112978,-2.01134568849672,-1.85739118257631,-0.66661769548525,-4.72137600580324,-3.24603444734682,0,0,0,0,0,0,0,0,0,0,0,0,-0.286914821023607,-0.782655550814712,0.230663646928533,2.96658629960679,-0.0812102690499988,-0.0348738152905294,-0.286893429024587,-0.782672287138497,0.230694778977446,2.96655894208668,-0.0811643810764755,-0.0349636519359024,0,0,0,0,0,0,0,0,0,0,0,0
2245.976,0.330949,8,0,7,1,1,0.1,0,0,0,0,0,0,0,0,0,0,3.5743311725046,-17.1168282687392,14.9107206847026,2.68576616684304,-1.15877475295607,-0.651014739373547,11,0,-1.72769624391665,-2.01136953035464,-1.85741502443422,-0.666605297719139,-4.7213160435306,-3.24603444734682,-1.72772008577456,-2.0112980047809,-1.85737926164736,-0.66661769548525,-4.721363965665,-3.24602228799929,0,0,0,0,0,0,0,0,0,0,0,0,-0.286914821023607,-0.782655550814712,0.230663646928533,2.96658629960679,-0.0812102690499988,-0.0348738152905294,-0.286939053845971,-0.782655842063959,0.230740403074252,2.96649596551009,-0.0812676767126993,-0.0349628072921898,0,0,0,0,0,0,0,0,0,0,0,0
2245.984,0.331728,8,0,7,1,1,0.1,0,0,0,0,0,0,0,0,0,0,3.63444194327162,-16.7543554127276,15.5024618541109,2.82213520822506,-1.34693892856869,-0.593296748290651,11,0,-1.72769624391665,-2.01136953035464,-1.85741502443422,-0.666605297719139,-4.7213160435306,-3.24603444734682,-1.72766048112978,-2.01133376756777,-1.85740310350527,-0.66664153734316,-4.72137600580324,-3.24601036707033,0,0,0,0,0,0,0,0,0,0,0,0,-0.286914821023607,-0.782655550814712,0.230663646928533,2.96658629960679,-0.0812102690499988,-0.0348738152905294,-0.28689211166622,-0.782664114948223,0.230694801316446,2.96658140757199,-0.0812003698077276,-0.0349561672893991,0,0,0,0,0,0,0,0,0,0,0,0
2245.992,0.330336,8,0,7,1,1,0.1,0,0,0,0,0,0,0,0,0,0,2.86639079817825,-17.1151752238126,15.1437812081999,2.81370910935401,-1.50112829092,-0.594965897183483,11,0,-1.72769624391665,-2.01136953035464,-1.85741502443422,-0.666605297719139,-4.7213160435306,-3.24603444734682,-1.72767240205874,-2.01132184663881,-1.85739118257631,-0.666629616414205,-4.7214118877994,-3.24599844614138,0,0,0,0,0,0,0,0,0,0,0,0,-0.286914821023607,-0.782655550814712,0.230663646928533,2.96658629960679,-0.0812102690499988,-0.0348738152905294,-0.286905501269805,-0.782665101019916,0.230712724350638,2.96654886872965,-0.0812398702073427,-0.0350154617227022,0,0,0,0,0,0,0,0,0,0,0,0
2246,0.330984,8,0,7,1,1,0.1,0,0,0,0,0,0,0,0,0,0,3.33444673467313,-17.2286717730132,15.1125312990852,2.82233196272267,-1.25815782543884,-0.637756032857184,11,0,-1.72769624391665,-2.01136953035464,-1.85741502443422,-0.666605297719139,-4.7213160435306,-3.24603444734682,-1.72769624391665,-2.01133376756777,-1.85739118257631,-0.666593376790182,-4.7214358488666,-3.24598628679384,0,0,0,0,0,0,0,0,0,0,0,0,-0.286914821023607,-0.782655550814712,0.230663646928533,2.96658629960679,-0.0812102690499988,-0.0348738152905294,-0.286926981015031,-0.782661627900143,0.230707687722504,2.96652601575649,-0.0812963450031232,-0.035056837846329,0,0,0,0,0,0,0,0,0,0,0,0
2246.008,0.348336,8,0,7,1,1,0.1,0,0,0,0,0,0,0,0,0,0,3.46688141342377,-16.8007900122939,15.7081683032673,2.90689168138548,-1.38024916127469,-0.618566034222432,11,0,-1.72769624391665,-2.01136953035464,-1.85741502443422,-0.666605297719139,-4.7213160435306,-3.24603444734682,-1.72769624391665,-2.01132184663881,-1.85737926164736,-0.666569534932272,-4.721363965665,-3.24596244493593,0,0,0,0,0,0,0,0,0,0,0,0,-0.286914821023607,-0.782655550814712,0.230663646928533,2.96658629960679,-0.0812102690499988,-0.0348738152905294,-0.28692136721448,-0.782668434658094,0.230727169574431,2.96646948959887,-0.0813210137603195,-0.0349566323399343,0,0,0,0,0,0,0,0,0,0,0,0
2246.016,0.333169,8,0,7,1,1,0.1,0,0,0,0,0,0,0,0,0,0,3.68026866135872,-16.8367163875364,15.1669165148954,2.77103555062856,-1.24251467733075,-0.581343560435094,11,0,-1.72769624391665,-2.01136953035464,-1.85741502443422,-0.666605297719139,-4.7213160435306,-3.24603444734682,-1.72764856020083,-2.01135760942568,-1.85742694536318,-0.666593376790182,-4.7213879267322,-3.24605828920473,0,0,0,0,0,0,0,0,0,0,0,0,-0.286914821023607,-0.782655550814712,0.230663646928533,2.96658629960679,-0.0812102690499988,-0.0348738152905294,-0.28688317354731,-0.782662485328445,0.230668316239905,2.9665850659054,-0.0811137242818213,-0.0349788478723296,0,0,0,0,0,0,0,0,0,0,0,0
2246.024,0.33306,8,0,7,1,1,0.1,0,0,0,0,0,0,0,0,0,0,3.82664338451864,-16.914330635113,15.3907783917096,2.7982295585907,-1.28644529109849,-0.718433028974323,11,0,-1.72769624391665,-2.01136953035464,-1.85741502443422,-0.666605297719139,-4.7213160435306,-3.24603444734682,-1.72766048112978,-2.01132184663881,-1.85740310350527,-0.666593376790182,-4.7214358488666,-3.24604636827578,0,0,0,0,0,0,0,0,0,0,0,0,-0.286914821023607,-0.782655550814712,0.230663646928533,2.96658629960679,-0.0812102690499988,-0.0348738152905294,-0.286897966455567,-0.782665367782323,0.230710811502758,2.96653016521135,-0.0811541365873356,-0.0350600583218003,0,0,0,0,0,0,0,0,0,0,0,0
2246.032,0.33084,8,0,7,1,1,0.1,0,0,0,0,0,0,0,0,0,0,2.88611306959945,-16.9366539196098,15.5778229598083,2.84806090001706,-1.38287374852874,-0.559086767994991,11,0,-1.72769624391665,-2.01136953035464,-1.85741502443422,-0.666605297719139,-4.7213160435306,-3.24603444734682,-1.72767240205874,-2.01133376756777,-1.85743886629214,-0.666593376790182,-4.7214118877994,-3.24602228799929,0,0,0,0,0,0,0,0,0,0,0,0,-0.286914821023607,-0.782655550814712,0.230663646928533,2.96658629960679,-0.0812102690499988,-0.0348738152905294,-0.286902802270606,-0.782647566551751,0.230681187607643,2.96657332365501,-0.0812053754938053,-0.0350147857466876,0,0,0,0,0,0,0,0,0,0,0,0
2246.04,0.335532,8,0,7,1,1,0.1,0,0,0,0,0,0,0,0,0,0,3.11030728998206,-18.2029481904379,14.4881497247208,2.73554549372916,-1.55157737256601,-0.67024327272275,11,0,-1.72769624391665,-2.01136953035464,-1.85741502443422,-0.666605297719139,-4.7213160435306,-3.24603444734682,-1.72767240205874,-2.01133376756777,-1.85737926164736,-0.666629616414205,-4.7214118877994,-3.24603444734682,0,0,0,0,0,0,0,0,0,0,0,0,-0.286914821023607,-0.782655550814712,0.230663646928533,2.96658629960679,-0.0812102690499988,-0.0348738152905294,-0.286906525562737,-0.782671621933529,0.230709600570504,2.96655069340198,-0.0811865335482627,-0.0350200436560522,0,0,0,0,0,0,0,0,0,0,0,0
2246.048,0.404892,8,0,7,1,1,0.1,0,0,0,0,0,0,0,0,0,0,3.20868687273139,-17.9558651598844,14.3783492432185,2.84696433624422,-1.36218698183516,-0.533890924002871,11,0,-1.72769624391665,-2.01136953035464,-1.85741502443422,-0.666605297719139,-4.7213160435306,-3.24603444734682,-1.72768432298769,-2.01135760942568,-1.85740310350527,-0.666593376790182,-4.7214118877994,-3.24597436586489,0,0,0,0,0,0,0,0,0,0,0,0,-0.286914821023607,-0.782655550814712,0.230663646928533,2.96658629960679,-0.0812102690499988,-0.0348738152905294,-0.286915014720968,-0.78266250121874,0.230681565159028,2.96655865960743,-0.0812939729314817,-0.0350120684553105,0,0,0,0,0,0,0,0,0,0,0,0
2246.056,0.403668,8,0,7,1,1,0.1,0,0,0,0,0,0,0,0,0,0,4.04331640354136,-16.7757490415854,15.1399894708598,2.79405175579679,-1.02904869233608,-0.705584088746506,11,0,-1.72769624391665,-2.01136953035464,-1.85741502443422,-0.666605297719139,-4.7213160435306,-3.24603444734682,-1.72766048112978,-2.01132184663881,-1.85740310350527,-0.666593376790182,-4.72137600580324,-3.24599844614138,0,0,0,0,0,0,0,0,0,0,0,0,-0.286914821023607,-0.782655550814712,0.230663646928533,2.96658629960679,-0.0812102690499988,-0.0348738152905294,-0.286892513301843,-0.782666242538597,0.230710815747592,2.96652111941649,-0.0812170649784897,-0.0349657662779769,0,0,0,0,0,0,0,0,0,0,0,0
2246.064,0.370501,8,0,7,1,1,0.1,0,0,0,0,0,0,0,0,0,0,4.23124705067051,-16.1566698642584,16.2460788222412,2.92217891096813,-1.38988307643102,-0.675136216903609,11,0,-1.72769624391665,-2.01136953035464,-1.85741502443422,-0.666605297719139,-4.7213160435306,-3.24603444734682,-1.72766048112978,-2.01135760942568,-1.85740310350527,-0.666629616414205,-4.72142392793764,-3.24599844614138,0,0,0,0,0,0,0,0,0,0,0,0,-0.286914821023607,-0.782655550814712,0.230663646928533,2.96658629960679,-0.0812102690499988,-0.0348738152905294,-0.286897006068121,-0.782666655581211,0.230676850022836,2.96659793669076,-0.0812250298971885,-0.0350230684832285,0,0,0,0,0,0,0,0,0,0,0,0
2246.072,0.334416,8,0,7,1,1,0.1,0,0,0,0,0,0,0,0,0,0,4.08338302937651,-15.7342895000535,16.0674220284064,2.88582177227156,-0.940869928626137,-0.723633730785757,11,0,-1.72769624391665,-2.01136953035464,-1.85741502443422,-0.666605297719139,-4.7213160435306,-3.24603444734682,-1.72768432298769,-2.01133376756777,-1.85739118257631,-0.666593376790182,-4.72137600580324,-3.24602228799929,0,0,0,0,0,0,0,0,0,0,0,0,-0.286914821023607,-0.782655550814712,0.230663646928533,2.96658629960679,-0.0812102690499988,-0.0348738152905294,-0.286912197808144,-0.782665923167144,0.230707691967633,2.96652160148534,-0.0812171312702414,-0.034971860234231,0,0,0,0,0,0,0,0,0,0,0,0
2246.08,0.330948,8,0,7,1,1,0.1,0,0,0,0,0,0,0,0,0,0,2.14056206974451,-17.5661921265595,14.5140273103368,2.77343786729753,-1.30494350551272,-0.512875553949512,11,0,-1.72769624391665,-2.01136953035464,-1.85741502443422,-0.666605297719139,-4.7213160435306,-3.24603444734682,-1.72768432298769,-2.01135760942568,-1.85737926164736,-0.66661769548525,-4.721363965665,-3.24601036707033,0,0,0,0,0,0,0,0,0,0,0,0,-0.286914821023607,-0.782655550814712,0.230663646928533,2.96658629960679,-0.0812102690499988,-0.0348738152905294,-0.28691201651829,-0.782672143687455,0.230691655933566,2.96655565710203,-0.0812338785047405,-0.0349458224829745,0,0,0,0,0,0,0,0,0,0,0,0
2246.088,0.33078,8,0,7,1,1,0.1,0,0,0,0,0,0,0,0,0,0,3.19145314123447,-17.5958331356254,14.5017307454204,2.74731113379065,-1.0332117574314,-0.559689725945833,11,0,-1.72769624391665,-2.01136953035464,-1.85741502443422,-0.666605297719139,-4.7213160435306,-3.24603444734682,-1.72768432298769,-2.01133376756777,-1.85737926164736,-0.66661769548525,-4.7213879267322,-3.24599844614138,0,0,0,0,0,0,0,0,0,0,0,0,-0.286914821023607,-0.782655550814712,0.230663646928533,2.96658629960679,-0.0812102690499988,-0.0348738152905294,-0.286913818876371,-0.7826693775871,0.230711153068374,2.96653401238326,-0.0812541844455215,-0.0349838789070859,0,0,0,0,0,0,0,0,0,0,0,0
2246.096,0.332208,8,0,7,1,1,0.1,0,0,0,0,0,0,0,0,0,0,4.16176359458889,-16.6403876830671,15.4735431679177,2.75648497813285,-1.28012083086898,-0.545706653081073,11,0,-1.72769624391665,-2.01136953035464,-1.85741502443422,-0.666605297719139,-4.7213160435306,-3.24603444734682,-1.72767240205874,-2.01133376756777,-1.85742694536318,-0.666629616414205,-4.72142392793764,-3.24603444734682,0,0,0,0,0,0,0,0,0,0,0,0,-0.286914821023607,-0.782655550814712,0.230663646928533,2.96658629960679,-0.0812102690499988,-0.0348738152905294,-0.286904287595516,-0.782650193729559,0.230683097819284,2.96659942058229,-0.0811892193070322,-0.0350294145523087,0,0,0,0,0,0,0,0,0,0,0,0
2246.104,0.376261,8,0,7,1,1,0.1,0,0,0,0,0,0,0,0,0,0,3.12890183862351,-17.1866091364107,14.7140366821288,2.69967828487116,-1.32838141232056,-0.535620407984263,11,0,-1.72769624391665,-2.01136953035464,-1.85741502443422,-0.666605297719139,-4.7213160435306,-3.24603444734682,-1.72766048112978,-2.01132184663881,-1.85740310350527,-0.666593376790182,-4.7214358488666,-3.24602228799929,0,0,0,0,0,0,0,0,0,0,0,0,-0.286914821023607,-0.782655550814712,0.230663646928533,2.96658629960679,-0.0812102690499988,-0.0348738152905294,-0.286897966455567,-0.782665367782323,0.230710811502758,2.96652894030682,-0.0811898472387539,-0.0350569433106417,0,0,0,0,0,0,0,0,0,0,0,0
2246.112,0.39252,8,0,7,1,1,0.1,0,0,0,0,0,0,0,0,0,0,4.54911335134695,-17.00923687316,15.1345233155034,2.74221682342613,-1.22878445064276,-0.669199554465231,11,0,-1.72769624391665,-2.01136953035464,-1.85741502443422,-0.666605297719139,-4.7213160435306,-3.24603444734682,-1.72764856020083,-2.01132184663881,-1.85741502443422,-0.66661769548525,-4.72137600580324,-3.24604636827578,0,0,0,0,0,0,0,0,0,0,0,0,-0.286914821023607,-0.782655550814712,0.230663646928533,2.96658629960679,-0.0812102690499988,-0.0348738152905294,-0.286882050555669,-0.782662665279379,0.230701026616048,2.96655992330345,-0.0811289111250533,-0.0349638011827571,0,0,0,0,0,0,0,0,0,0,0,0
2246.12,0.343836,8,0,7,1,1,0.1,0,0,0,0,0,0,0,0,0,0,3.68015860154401,-16.210094975928,15.991650863356,2.85402807481029,-1.31376704757762,-0.686408785182285,11,0,-1.72769624391665,-2.01136953035464,-1.85741502443422,-0.666605297719139,-4.7213160435306,-3.24603444734682,-1.72762424150576,-2.01134568849672,-1.85742694536318,-0.666581455861227,-4.7214118877994,-3.24602228799929,0,0,0,0,0,0,0,0,0,0,0,0,-0.286914821023607,-0.782655550814712,0.230663646928533,2.96658629960679,-0.0812102690499988,-0.0348738152905294,-0.286866279712712,-0.782668729613809,0.230679614514059,2.96656293528043,-0.0811338142147426,-0.0350107045577477,0,0,0,0,0,0,0,0,0,0,0,0
2246.128,0.33654,8,0,7,1,1,0.1,0,0,0,0,0,0,0,0,0,0,2.65556383806157,-19.0430335451821,13.5474233565234,2.75903027024987,-1.38765243143185,-0.55569536557048,11,0,-1.72769624391665,-2.01136953035464,-1.85741502443422,-0.666605297719139,-4.7213160435306,-3.24603444734682,-1.72769624391665,-2.01132184663881,-1.85739118257631,-0.666581455861227,-4.72142392793764,-3.24599844614138,0,0,0,0,0,0,0,0,0,0,0,0,-0.286914821023607,-0.782655550814712,0.230663646928533,2.96658629960679,-0.0812102690499988,-0.0348738152905294,-0.286925850754855,-0.782661419707852,0.23071898874168,2.96650163477981,-0.0812762109604203,-0.0350452473185555,0,0,0,0,0,0,0,0,0,0,0,0
2246.136,0.339048,8,0,7,1,1,0.1,0,0,0,0,0,0,0,0,0,0,3.17190939446817,-17.3035357245915,14.8860818455539,2.75374909063915,-1.35995954011797,-0.531558384105211,11,0,-1.72769624391665,-2.01136953035464,-1.85741502443422,-0.666605297719139,-4.7213160435306,-3.24603444734682,-1.72767240205874,-2.01134568849672,-1.85742694536318,-0.666605297719137,-4.7213879267322,-3.24603444734682,0,0,0,0,0,0,0,0,0,0,0,0,-0.286914821023607,-0.782655550814712,0.230663646928533,2.96658629960679,-0.0812102690499988,-0.0348738152905294,-0.286901496540001,-0.78265361204642,0.230676514705848,2.96658313020156,-0.0811843030001104,-0.0349787883660673,0,0,0,0,0,0,0,0,0,0,0,0
2246.144,0.406945,8,0,7,1,1,0.1,0,0,0,0,0,0,0,0,0,0,3.31662812772865,-16.6244930784136,15.1726340701191,2.6339524052571,-1.3189248227573,-0.592729589184844,11,0,-1.72769624391665,-2.01136953035464,-1.85741502443422,-0.666605297719139,-4.7213160435306,-3.24603444734682,-1.72768432298769,-2.01132184663881,-1.85740310350527,-0.666605297719137,-4.72135204473604,-3.24604636827578,0,0,0,0,0,0,0,0,0,0,0,0,-0.286914821023607,-0.782655550814712,0.230663646928533,2.96658629960679,-0.0812102690499988,-0.0348738152905294,-0.286908843425138,-0.782658926969975,0.230709266743237,2.96653202724819,-0.0811782742589234,-0.034937555035657,0,0,0,0,0,0,0,0,0,0,0,0
2246.152,0.394584,8,0,7,1,1,0.1,0,0,0,0,0,0,0,0,0,0,4.1143839726385,-15.9201338455116,15.8419417432814,2.74984640880949,-0.96053343913391,-0.65864070053183,11,0,-1.72769624391665,-2.01136953035464,-1.85741502443422,-0.666605297719139,-4.7213160435306,-3.24603444734682,-1.72769624391665,-2.01132184663881,-1.85740310350527,-0.666629616414205,-4.72132808366884,-3.24601036707033,0,0,0,0,0,0,0,0,0,0,0,0,-0.286914821023607,-0.782655550814712,0.230663646928533,2.96658629960679,-0.0812102690499988,-0.0348738152905294,-0.286915690939777,-0.782654172755997,0.230706104995066,2.96655134365166,-0.0812464284025322,-0.0348946331935799,0,0,0,0,0,0,0,0,0,0,0,0
2246.16,0.396732,8,0,7,1,1,0.1,0,0,0,0,0,0,0,0,0,0,3.46391047110749,-18.2695705727526,14.072412288729,2.71811099883913,-1.31371667000158,-0.538616891017379,11,0,-1.72769624391665,-2.01136953035464,-1.85741502443422,-0.666605297719139,-4.7213160435306,-3.24603444734682,-1.72769624391665,-2.01134568849672,-1.85739118257631,-0.66661769548525,-4.7213879267322,-3.24602228799929,0,0,0,0,0,0,0,0,0,0,0,0,-0.286914821023607,-0.782655550814712,0.230663646928533,2.96658629960679,-0.0812102690499988,-0.0348738152905294,-0.28692250566342,-0.782661852241101,0.230694778105871,2.96655855530715,-0.0812370906948702,-0.0349842532802577,0,0,0,0,0,0,0,0,0,0,0,0
2246.168,0.33366,8,0,7,1,1,0.1,0,0,0,0,0,0,0,0,0,0,2.89870538284797,-16.5189499055632,15.4728558541492,2.79657493005794,-1.43166027640467,-0.520193872943451,11,0,-1.72769624391665,-2.01136953035464,-1.85741502443422,-0.666605297719139,-4.7213160435306,-3.24603444734682,-1.72764856020083,-2.01134568849672,-1.85739118257631,-0.666593376790182,-4.7213879267322,-3.24596244493593,0,0,0,0,0,0,0,0,0,0,0,0,-0.286914821023607,-0.782655550814712,0.230663646928533,2.96658629960679,-0.0812102690499988,-0.0348738152905294,-0.286885484092636,-0.78267721713767,0.230697941697103,2.9665328017008,-0.0812547587203572,-0.0349748783691288,0,0,0,0,0,0,0,0,0,0,0,0
2246.176,0.332124,8,0,7,1,1,0.1,0,0,0,0,0,0,0,0,0,0,4.84681153044354,-17.3371056602995,15.0122326524401,2.79029634382603,-1.48081865402519,-0.569149485857697,11,0,-1.72769624391665,-2.01136953035464,-1.85741502443422,-0.666605297719139,-4.7213160435306,-3.24603444734682,-1.72768432298769,-2.01135760942568,-1.85739118257631,-0.666593376790182,-4.7214358488666,-3.24599844614138,0,0,0,0,0,0,0,0,0,0,0,0,-0.286914821023607,-0.782655550814712,0.230663646928533,2.96658629960679,-0.0812102690499988,-0.0348738152905294,-0.286918031997549,-0.782667464008172,0.230688188910287,2.96655068176417,-0.0812612580504608,-0.0350525435452367,0,0,0,0,0,0,0,0,0,0,0,0
2246.184,0.330348,8,0,7,1,1,0.1,0,0,0,0,0,0,0,0,0,0,3.62523828628906,-16.7141403745705,15.2028149794219,2.74668730988889,-1.19829860159305,-0.645877894773854,11,0,-1.72769624391665,-2.01136953035464,-1.85741502443422,-0.666605297719139,-4.7213160435306,-3.24603444734682,-1.72766048112978,-2.01134568849672,-1.85740310350527,-0.666593376790182,-4.72137600580324,-3.24604636827578,0,0,0,0,0,0,0,0,0,0,0,0,-0.286914821023607,-0.782655550814712,0.230663646928533,2.96658629960679,-0.0812102690499988,-0.0348738152905294,-0.286892894312469,-0.782668658348822,0.23069131709246,2.96654724085633,-0.0811466279033206,-0.0349676394591574,0,0,0,0,0,0,0,0,0,0,0,0
2246.192,0.339889,8,0,7,1,1,0.1,0,0,0,0,0,0,0,0,0,0,4.23466033085261,-16.2276188602888,16.1177381100212,2.90344521633911,-1.24577692994952,-0.555636515971789,11,0,-1.72769624391665,-2.01136953035464,-1.85741502443422,-0.666605297719139,-4.7213160435306,-3.24603444734682,-1.72767240205874,-2.01132184663881,-1.85739118257631,-0.666605297719137,-4.72135204473604,-3.24599844614138,0,0,0,0,0,0,0,0,0,0,0,0,-0.286914821023607,-0.782655550814712,0.230663646928533,2.96658629960679,-0.0812102690499988,-0.0348738152905294,-0.286900347137711,-0.782667660028117,0.230715892337848,2.96651810310536,-0.0812313939116843,-0.0349319021881163,0,0,0,0,0,0,0,0,0,0,0,0
2246.2,0.333192,8,0,7,1,1,0.1,0,0,0,0,0,0,0,0,0,0,3.30411600371404,-16.5424653488723,15.9853883261457,2.88139823206221,-1.30888871861368,-0.630511537931064,11,0,-1.72769624391665,-2.01136953035464,-1.85741502443422,-0.666605297719139,-4.7213160435306,-3.24603444734682,-1.72766048112978,-2.01130992570986,-1.85740310350527,-0.666593376790182,-4.72142392793764,-3.24603444734682,0,0,0,0,0,0,0,0,0,0,0,0,-0.286914821023607,-0.782655550814712,0.230663646928533,2.96658629960679,-0.0812102690499988,-0.0348738152905294,-0.286896689638139,-0.782664333963882,0.230720561627976,2.96651640011468,-0.0811698788421713,-0.0350431305827225,0,0,0,0,0,0,0,0,0,0,0,0
2246.208,0.398688,8,0,7,1,1,0.1,0,0,0,0,0,0,0,0,0,0,4.49391531152358,-15.7298211864006,16.4647293378309,2.92444024227373,-0.990666685814333,-0.687462856571673,11,0,-1.72769624391665,-2.01136953035464,-1.85741502443422,-0.666605297719139,-4.7213160435306,-3.24603444734682,-1.72769624391665,-2.01136953035464,-1.85737926164736,-0.66661769548525,-4.7214358488666,-3.24601036707033,0,0,0,0,0,0,0,0,0,0,0,0,-0.286914821023607,-0.782655550814712,0.230663646928533,2.96658629960679,-0.0812102690499988,-0.0348738152905294,-0.286928087464623,-0.782668880124568,0.230681901323081,2.9665750765987,-0.0812616543161151,-0.0350510191851797,0,0,0,0,0,0,0,0,0,0,0,0
2246.216,0.341232,8,0,7,1,1,0.1,0,0,0,0,0,0,0,0,0,0,2.83812894821317,-17.7347816622117,14.5294544565427,2.78720296433188,-1.25650372473981,-0.608077888681347,11,0,-1.72769624391665,-2.01136953035464,-1.85741502443422,-0.666605297719139,-4.7213160435306,-3.24603444734682,-1.72768432298769,-2.01130992570986,-1.85741502443422,-0.666593376790182,-4.72137600580324,-3.24607021013369,0,0,0,0,0,0,0,0,0,0,0,0,-0.286914821023607,-0.782655550814712,0.230663646928533,2.96658629960679,-0.0812102690499988,-0.0348738152905294,-0.286910149061843,-0.782652881327222,0.230713939448863,2.9665240520967,-0.0811459578620321,-0.034978208882761,0,0,0,0,0,0,0,0,0,0,0,0
2246.224,0.331884,8,0,7,1,1,0.1,0,0,0,0,0,0,0,0,0,0,2.67093894989145,-17.7143017726794,14.6529855247356,2.85435256546655,-1.47800489949254,-0.542615914080883,11,0,-1.72769624391665,-2.01136953035464,-1.85741502443422,-0.666605297719139,-4.7213160435306,-3.24603444734682,-1.72767240205874,-2.01134568849672,-1.85739118257631,-0.666605297719137,-4.7214118877994,-3.24603444734682,0,0,0,0,0,0,0,0,0,0,0,0,-0.286914821023607,-0.782655550814712,0.230663646928533,2.96658629960679,-0.0812102690499988,-0.0348738152905294,-0.286906181342973,-0.782669201155395,0.23069638919909,2.96655022859584,-0.0811867743706822,-0.0350203261809474,0,0,0,0,0,0,0,0,0,0,0,0
2246.232,0.339781,8,0,7,1,1,0.1,0,0,0,0,0,0,0,0,0,0,3.85777622649524,-17.8318096054562,14.4495106861476,2.83687337494406,-1.02737753082684,-0.649680638482894,11,0,-1.72769624391665,-2.01136953035464,-1.85741502443422,-0.666605297719139,-4.7213160435306,-3.24603444734682,-1.72767240205874,-2.01134568849672,-1.85740310350527,-0.66661769548525,-4.7214118877994,-3.24598628679384,0,0,0,0,0,0,0,0,0,0,0,0,-0.286914821023607,-0.782655550814712,0.230663646928533,2.96658629960679,-0.0812102690499988,-0.0348738152905294,-0.286905195117538,-0.782663029441146,0.230688150937502,2.96657194270234,-0.0812586304645861,-0.0350096980116221,0,0,0,0,0,0,0,0,0,0,0,0
2246.24,0.3363,8,0,7,1,1,0.1,0,0,0,0,0,0,0,0,0,0,3.98837079352873,-16.4877754306114,15.9212255009864,2.92350463756596,-1.27282359824154,-0.580495217467886,11,0,-1.72769624391665,-2.01136953035464,-1.85741502443422,-0.666605297719139,-4.7213160435306,-3.24603444734682,-1.72769624391665,-2.01133376756777,-1.85739118257631,-0.666593376790182,-4.72142392793764,-3.24602228799929,0,0,0,0,0,0,0,0,0,0,0,0,-0.286914821023607,-0.782655550814712,0.230663646928533,2.96658629960679,-0.0812102690499988,-0.0348738152905294,-0.286925894736383,-0.78266180219785,0.230707688542198,2.96652653243666,-0.0812413344775344,-0.0350439465911111,0,0,0,0,0,0,0,0,0,0,0,0
2246.248,0.39798,8,0,7,1,1,0.1,0,0,0,0,0,0,0,0,0,0,3.41467487643386,-16.7825106392773,15.5798401125655,2.95540822463237,-1.32566923534881,-0.571996010908104,11,0,-1.72769624391665,-2.01136953035464,-1.85741502443422,-0.666605297719139,-4.7213160435306,-3.24603444734682,-1.72766048112978,-2.01132184663881,-1.85739118257631,-0.666605297719137,-4.72137600580324,-3.24603444734682,0,0,0,0,0,0,0,0,0,0,0,0,-0.286914821023607,-0.782655550814712,0.230663646928533,2.96658629960679,-0.0812102690499988,-0.0348738152905294,-0.286893200428355,-0.782670729856425,0.230715890546825,2.9665229421887,-0.0811635786421175,-0.034970289431288,0,0,0,0,0,0,0,0,0,0,0,0
2246.256,0.402276,8,0,7,1,1,0.1,0,0,0,0,0,0,0,0,0,0,3.35883365722965,-16.8615940092432,15.1642963077635,2.80510352485457,-1.42004538475543,-0.551399055337488,11,0,-1.72769624391665,-2.01136953035464,-1.85741502443422,-0.666605297719139,-4.7213160435306,-3.24603444734682,-1.72768432298769,-2.01133376756777,-1.85737926164736,-0.666605297719137,-4.7214358488666,-3.24602228799929,0,0,0,0,0,0,0,0,0,0,0,0,-0.286914821023607,-0.782655550814712,0.230663646928533,2.96658629960679,-0.0812102690499988,-0.0348738152905294,-0.286918338174951,-0.782669535582467,0.230712762521269,2.96652820254167,-0.0812251733730346,-0.0350598187326514,0,0,0,0,0,0,0,0,0,0,0,0
2246.264,0.38598,8,0,7,1,1,0.1,0,0,0,0,0,0,0,0,0,0,3.3375886878064,-17.3952104107153,15.2983009595426,2.84032944984894,-1.54929582536982,-0.616026473465132,11,0,-1.72769624391665,-2.01136953035464,-1.85741502443422,-0.666605297719139,-4.7213160435306,-3.24603444734682,-1.72766048112978,-2.01130992570986,-1.85743886629214,-0.66661769548525,-4.7213879267322,-3.24603444734682,0,0,0,0,0,0,0,0,0,0,0,0,-0.286914821023607,-0.782655550814712,0.230663646928533,2.96658629960679,-0.0812102690499988,-0.0348738152905294,-0.286890608950981,-0.782647237031959,0.230697523990183,2.96657212898202,-0.0811661057535537,-0.0349793359616791,0,0,0,0,0,0,0,0,0,0,0,0
2246.272,0.353964,8,0,7,1,1,0.1,0,0,0,0,0,0,0,0,0,0,3.69422022368302,-17.3992874238638,15.0765364292723,2.85485155569941,-1.25158048183175,-0.611002648165036,11,0,-1.72769624391665,-2.01136953035464,-1.85741502443422,-0.666605297719139,-4.7213160435306,-3.24603444734682,-1.72763616243471,-2.01135760942568,-1.85740310350527,-0.666629616414205,-4.7214118877994,-3.24602228799929,0,0,0,0,0,0,0,0,0,0,0,0,-0.286914821023607,-0.782655550814712,0.230663646928533,2.96658629960679,-0.0812102690499988,-0.0348738152905294,-0.286876875399126,-0.782673808282708,0.230676850863701,2.96659855738293,-0.0811519562888275,-0.0350052825227934,0,0,0,0,0,0,0,0,0,0,0,0
2246.28,0.334344,8,0,7,1,1,0.1,0,0,0,0,0,0,0,0,0,0,3.53939679219892,-16.3453323091541,15.7182967882748,2.84333925910725,-1.22191677381228,-0.615744350703857,11,0,-1.72769624391665,-2.01136953035464,-1.85741502443422,-0.666605297719139,-4.7213160435306,-3.24603444734682,-1.72769624391665,-2.01132184663881,-1.85743886629214,-0.666629616414205,-4.721363965665,-3.24602228799929,0,0,0,0,0,0,0,0,0,0,0,0,-0.286914821023607,-0.782655550814712,0.230663646928533,2.96658629960679,-0.0812102690499988,-0.0348738152905294,-0.286916458914998,-0.782637708967122,0.230686225916789,2.9665914622761,-0.0812344176543432,-0.0349427297632174,0,0,0,0,0,0,0,0,0,0,0,0
2246.288,0.33438,8,0,7,1,1,0.1,0,0,0,0,0,0,0,0,0,0,2.6662787521795,-18.4814002463413,14.1173933289957,2.89243700217127,-1.14530424446209,-0.688221832288928,11,0,-1.72769624391665,-2.01136953035464,-1.85741502443422,-0.666605297719139,-4.7213160435306,-3.24603444734682,-1.7277081648456,-2.01134568849672,-1.85740310350527,-0.666605297719137,-4.7214118877994,-3.24603444734682,0,0,0,0,0,0,0,0,0,0,0,0,-0.286914821023607,-0.782655550814712,0.230663646928533,2.96658629960679,-0.0812102690499988,-0.0348738152905294,-0.286933337622243,-0.782653627070377,0.230689763733141,2.96656099306043,-0.0812400928754402,-0.0350228632897452,0,0,0,0,0,0,0,0,0,0,0,0
2246.296,0.330408,8,0,7,1,1,0.1,0,0,0,0,0,0,0,0,0,0,3.27209236120776,-17.3438907000013,14.9336166741529,2.81977288020589,-1.17411151391698,-0.479584890033388,11,0,-1.72769624391665,-2.01136953035464,-1.85741502443422,-0.666605297719139,-4.7213160435306,-3.24603444734682,-1.72772008577456,-2.01133376756777,-1.85740310350527,-0.66664153734316,-4.72137600580324,-3.24599844614138,0,0,0,0,0,0,0,0,0,0,0,0,-0.286914821023607,-0.782655550814712,0.230663646928533,2.96658629960679,-0.0812102690499988,-0.0348738152905294,-0.28693876157312,-0.782647013455537,0.230694801316446,2.96657899060938,-0.0813064763735127,-0.0349623338605509,0,0,0,0,0,0,0,0,0,0,0,0
