Miguel-LA/TFM_MiguelLerinAlonso/workspace/ros_ur_driver/src/trayectories/data/20240424_logViewer_j0.csv
timestamp,actual_execution_time,target_execution_time,speed_scaling,robot_mode,safety_mode,runtime_state,payload,payload_cog_0,payload_cog_1,payload_cog_2,payload_inertia_0,payload_inertia_1,payload_inertia_2,payload_inertia_3,payload_inertia_4,payload_inertia_5,script_control_line,wrench_calc_from_currents_0,wrench_calc_from_currents_1,wrench_calc_from_currents_2,wrench_calc_from_currents_3,wrench_calc_from_currents_4,wrench_calc_from_currents_5,motor_command,joint_position_deviation_ratio,target_q_0,target_q_1,target_q_2,target_q_3,target_q_4,target_q_5,actual_q_0,actual_q_1,actual_q_2,actual_q_3,actual_q_4,actual_q_5,target_qd_0,target_qd_1,target_qd_2,target_qd_3,target_qd_4,target_qd_5,actual_qd_0,actual_qd_1,actual_qd_2,actual_qd_3,actual_qd_4,actual_qd_5,target_TCP_pose_0,target_TCP_pose_1,target_TCP_pose_2,target_TCP_pose_3,target_TCP_pose_4,target_TCP_pose_5,actual_TCP_pose_0,actual_TCP_pose_1,actual_TCP_pose_2,actual_TCP_pose_3,actual_TCP_pose_4,actual_TCP_pose_5,target_TCP_speed_0,target_TCP_speed_1,target_TCP_speed_2,target_TCP_speed_3,target_TCP_speed_4,target_TCP_speed_5,actual_TCP_speed_0,actual_TCP_speed_1,actual_TCP_speed_2,actual_TCP_speed_3,actual_TCP_speed_4,actual_TCP_speed_5
1264.184,0.327385,8,0,7,1,1,0.1,0,0,0,0,0,0,0,0,0,0,8.21781681324846,7.37231663281138,17.4801978636825,1.28000973092104,-0.428265530445769,-0.680958237917871,11,0,-1.72769624391665,-2.01136953035464,-1.85741502443422,-0.666605297719139,-4.7213160435306,-3.24603444734682,-1.72767240205874,-2.01138192812075,-1.8573673407184,-0.66661769548525,-4.72128016153444,-3.24599844614138,0,0,0,0,0,0,0,0,0,0,0,0,-0.286914821023607,-0.782655550814712,0.230663646928533,2.96658629960679,-0.0812102690499988,-0.0348738152905294,-0.286896272110527,-0.782684565681141,0.230678398968568,2.96655846279023,-0.081222857493568,-0.0348170484398576,0,0,0,0,0,0,0,0,0,0,0,0
1264.192,0.331284,8,0,7,1,1,0.1,0,0,0,0,0,0,0,0,0,0,8.57987628761349,7.71409737221473,17.902889730734,1.31937833502901,-0.354361180389994,-0.723738905903998,11,0,-1.72769624391665,-2.01136953035464,-1.85741502443422,-0.666605297719139,-4.7213160435306,-3.24603444734682,-1.72766048112978,-2.01141769090761,-1.85740310350527,-0.666593376790182,-4.72125608125796,-3.24597436586489,0,0,0,0,0,0,0,0,0,0,0,0,-0.286914821023607,-0.782655550814712,0.230663646928533,2.96658629960679,-0.0812102690499988,-0.0348738152905294,-0.286883116463751,-0.782677704133757,0.230632440283605,2.9666018584579,-0.0812390104036806,-0.0347687227021875,0,0,0,0,0,0,0,0,0,0,0,0
1264.2,0.342276,8,0,7,1,1,0.1,0,0,0,0,0,0,0,0,0,0,8.01294905646947,8.25404210082382,18.166247508479,1.2953945890634,-0.347740000762014,-0.695501989711711,11,0,-1.72769624391665,-2.01136953035464,-1.85741502443422,-0.666605297719139,-4.7213160435306,-3.24603444734682,-1.72766048112978,-2.01136953035464,-1.85735541978945,-0.66664153734316,-4.72130412260164,-3.24597436586489,0,0,0,0,0,0,0,0,0,0,0,0,-0.286914821023607,-0.782655550814712,0.230663646928533,2.96658629960679,-0.0812102690499988,-0.0348738152905294,-0.28688946767572,-0.782690041217728,0.230692060534931,2.96655976625765,-0.0812438812638575,-0.0348475575518985,0,0,0,0,0,0,0,0,0,0,0,0
1264.208,0.332232,8,0,7,1,1,0.1,0,0,0,0,0,0,0,0,0,0,8.79222169496528,9.59299000809985,19.3845463576652,1.42002163510537,-0.464401687744249,-0.707397137459046,11,0,-1.72769624391665,-2.01136953035464,-1.85741502443422,-0.666605297719139,-4.7213160435306,-3.24603444734682,-1.72766048112978,-2.01138192812075,-1.85737926164736,-0.666605297719137,-4.72128016153444,-3.24598628679384,0,0,0,0,0,0,0,0,0,0,0,0,-0.286914821023607,-0.782655550814712,0.230663646928533,2.96658629960679,-0.0812102690499988,-0.0348738152905294,-0.286886260470176,-0.782683531222945,0.230673386363483,2.96655774148013,-0.0812232950086219,-0.0348141569691312,0,0,0,0,0,0,0,0,0,0,0,0
1264.216,0.333096,8,0,7,1,1,0.1,0,0,0,0,0,0,0,0,0,0,8.97087476357883,9.58853318439344,19.3356648149387,1.36925909532543,-0.544235025854344,-0.634405166329481,11,0,-1.72769624391665,-2.01136953035464,-1.85741502443422,-0.666605297719139,-4.7213160435306,-3.24603444734682,-1.72768432298769,-2.01138192812075,-1.85737926164736,-0.66664153734316,-4.721244160329,-3.24602228799929,0,0,0,0,0,0,0,0,0,0,0,0,-0.286914821023607,-0.782655550814712,0.230663646928533,2.96658629960679,-0.0812102690499988,-0.0348738152905294,-0.286901194773755,-0.782674707287224,0.230668675123981,2.96659086403796,-0.0812008867158399,-0.0347621413979132,0,0,0,0,0,0,0,0,0,0,0,0
1264.224,0.331332,8,0,7,1,1,0.1,0,0,0,0,0,0,0,0,0,0,7.96995993039708,7.42046351645209,17.6242030071171,1.33175271149044,-0.402603340420823,-0.686899696051197,11,0,-1.72769624391665,-2.01136953035464,-1.85741502443422,-0.666605297719139,-4.7213160435306,-3.24603444734682,-1.72768432298769,-2.01135760942568,-1.85737926164736,-0.666593376790182,-4.7212681213962,-3.24599844614138,0,0,0,0,0,0,0,0,0,0,0,0,-0.286914821023607,-0.782655550814712,0.230663646928533,2.96658629960679,-0.0812102690499988,-0.0348738152905294,-0.28690358183526,-0.782675229006857,0.230694827106616,2.96652030436877,-0.0812381840152459,-0.0348077261307413,0,0,0,0,0,0,0,0,0,0,0,0
1264.232,0.331992,8,0,7,1,1,0.1,0,0,0,0,0,0,0,0,0,0,7.96392581384459,8.12963590207879,18.3869363029861,1.37324992453073,-0.463868081528407,-0.763725210639329,11,0,-1.72769624391665,-2.01136953035464,-1.85741502443422,-0.666605297719139,-4.7213160435306,-3.24603444734682,-1.72769624391665,-2.01136953035464,-1.85739118257631,-0.666629616414205,-4.72128016153444,-3.24598628679384,0,0,0,0,0,0,0,0,0,0,0,0,-0.286914821023607,-0.782655550814712,0.230663646928533,2.96658629960679,-0.0812102690499988,-0.0348738152905294,-0.286912920106786,-0.782665017470324,0.230673736907944,2.96658034331353,-0.0812766252042129,-0.0348144086328029,0,0,0,0,0,0,0,0,0,0,0,0
1264.24,0.331728,8,0,7,1,1,0.1,0,0,0,0,0,0,0,0,0,0,8.96854598489737,7.9195295393176,18.0018282121454,1.30064547946172,-0.251895982939916,-0.68362321182291,11,0,-1.72769624391665,-2.01136953035464,-1.85741502443422,-0.666605297719139,-4.7213160435306,-3.24603444734682,-1.72769624391665,-2.01138192812075,-1.85735541978945,-0.666605297719137,-4.7212920824634,-3.24598628679384,0,0,0,0,0,0,0,0,0,0,0,0,-0.286914821023607,-0.782655550814712,0.230663646928533,2.96658629960679,-0.0812102690499988,-0.0348738152905294,-0.286917005341428,-0.782683722744104,0.230686636252532,2.96653427274628,-0.081277444967001,-0.0348405086066779,0,0,0,0,0,0,0,0,0,0,0,0
1264.248,0.33726,8,0,7,1,1,0.1,0,0,0,0,0,0,0,0,0,0,8.49991024835551,7.48322856681643,17.484704885133,1.32697578428716,-0.255213283873553,-0.798852178047791,11,0,-1.72769624391665,-2.01136953035464,-1.85741502443422,-0.666605297719139,-4.7213160435306,-3.24603444734682,-1.72764856020083,-2.0113938490497,-1.8573673407184,-0.66661769548525,-4.7212681213962,-3.24601036707033,0,0,0,0,0,0,0,0,0,0,0,0,-0.286914821023607,-0.782655550814712,0.230663646928533,2.96658629960679,-0.0812102690499988,-0.0348738152905294,-0.286876704659871,-0.782692789140067,0.230668650400942,2.96657030462191,-0.0811684870740776,-0.0347956192180355,0,0,0,0,0,0,0,0,0,0,0,0
1264.256,0.334248,8,0,7,1,1,0.1,0,0,0,0,0,0,0,0,0,0,8.55398572959961,9.22015675042678,18.821365128329,1.35333489162368,-0.422885868385421,-0.770332074059864,11,0,-1.72769624391665,-2.01136953035464,-1.85741502443422,-0.666605297719139,-4.7213160435306,-3.24603444734682,-1.72767240205874,-2.01136953035464,-1.85737926164736,-0.666629616414205,-4.7212920824634,-3.24597436586489,0,0,0,0,0,0,0,0,0,0,0,0,-0.286914821023607,-0.782655550814712,0.230663646928533,2.96658629960679,-0.0812102690499988,-0.0348738152905294,-0.286896179921872,-0.78267699670612,0.230680361314953,2.96656993061215,-0.0812602902651169,-0.0348294209305877,0,0,0,0,0,0,0,0,0,0,0,0
1264.264,0.333456,8,0,7,1,1,0.1,0,0,0,0,0,0,0,0,0,0,8.05935953499017,7.80425581797226,17.8374093767736,1.30844066294355,-0.549472050137594,-0.718143572241225,11,0,-1.72769624391665,-2.01136953035464,-1.85741502443422,-0.666605297719139,-4.7213160435306,-3.24603444734682,-1.72767240205874,-2.01134568849672,-1.8573673407184,-0.666629616414205,-4.7212920824634,-3.24598628679384,0,0,0,0,0,0,0,0,0,0,0,0,-0.286914821023607,-0.782655550814712,0.230663646928533,2.96658629960679,-0.0812102690499988,-0.0348738152905294,-0.286896632684407,-0.782679894089499,0.23070648579914,2.96653500284002,-0.0812417152071974,-0.0348373777872837,0,0,0,0,0,0,0,0,0,0,0,0
1264.272,0.334033,8,0,7,1,1,0.1,0,0,0,0,0,0,0,0,0,0,8.48622203728654,7.82706161529841,17.9189301613946,1.33737956380821,-0.391139867344643,-0.689117203418294,11,0,-1.72769624391665,-2.01136953035464,-1.85741502443422,-0.666605297719139,-4.7213160435306,-3.24603444734682,-1.72768432298769,-2.01138192812075,-1.85737926164736,-0.66661769548525,-4.72130412260164,-3.24596244493593,0,0,0,0,0,0,0,0,0,0,0,0,-0.286914821023607,-0.782655550814712,0.230663646928533,2.96658629960679,-0.0812102690499988,-0.0348738152905294,-0.286906951990605,-0.782675482156357,0.230671771631327,2.96657076665326,-0.0812974544870098,-0.0348471180022182,0,0,0,0,0,0,0,0,0,0,0,0
1264.28,0.331428,8,0,7,1,1,0.1,0,0,0,0,0,0,0,0,0,0,8.5683430236603,7.33222288967641,17.5588660896981,1.34526134748447,-0.434849969927878,-0.68166490467232,11,0,-1.72769624391665,-2.01136953035464,-1.85741502443422,-0.666605297719139,-4.7213160435306,-3.24603444734682,-1.72766048112978,-2.0113938490497,-1.85739118257631,-0.666629616414205,-4.72128016153444,-3.24598628679384,0,0,0,0,0,0,0,0,0,0,0,0,-0.286914821023607,-0.782655550814712,0.230663646928533,2.96658629960679,-0.0812102690499988,-0.0348738152905294,-0.28688531813034,-0.782677741006522,0.230653848090906,2.96660558932216,-0.0812242140906508,-0.0348053706289511,0,0,0,0,0,0,0,0,0,0,0,0
1264.288,0.33186,8,0,7,1,1,0.1,0,0,0,0,0,0,0,0,0,0,8.56659655865698,8.36984902361508,18.0744986573547,1.24194817844651,-0.339361177447435,-0.810536591055155,11,0,-1.72769624391665,-2.01136953035464,-1.85741502443422,-0.666605297719139,-4.7213160435306,-3.24603444734682,-1.72766048112978,-2.01136953035464,-1.85733157793154,-0.666629616414205,-4.7212920824634,-3.24597436586489,0,0,0,0,0,0,0,0,0,0,0,0,-0.286914821023607,-0.782655550814712,0.230663646928533,2.96658629960679,-0.0812102690499988,-0.0348738152905294,-0.286890184483599,-0.782701668639017,0.230706863485383,2.96652289612515,-0.0812415508636107,-0.0348362328884941,0,0,0,0,0,0,0,0,0,0,0,0
1264.296,0.3324,8,0,7,1,1,0.1,0,0,0,0,0,0,0,0,0,0,7.95019979439762,6.84879434328207,16.9125799670909,1.34122170635383,-0.368949919152915,-0.693066909782864,11,0,-1.72769624391665,-2.01136953035464,-1.85741502443422,-0.666605297719139,-4.7213160435306,-3.24603444734682,-1.72766048112978,-2.01141769090761,-1.85737926164736,-0.66661769548525,-4.72128016153444,-3.24597436586489,0,0,0,0,0,0,0,0,0,0,0,0,-0.286914821023607,-0.782655550814712,0.230663646928533,2.96658629960679,-0.0812102690499988,-0.0348738152905294,-0.286886679301083,-0.782686294699711,0.230642525029597,2.9666049774632,-0.0812420961739386,-0.0348038140764638,0,0,0,0,0,0,0,0,0,0,0,0
1264.304,0.334008,8,0,7,1,1,0.1,0,0,0,0,0,0,0,0,0,0,7.99189656147705,7.19527381655564,17.4296540272434,1.30368037049002,-0.335487964468651,-0.697824795289393,11,0,-1.72769624391665,-2.01136953035464,-1.85741502443422,-0.666605297719139,-4.7213160435306,-3.24603444734682,-1.72763616243471,-2.01136953035464,-1.85735541978945,-0.66664153734316,-4.7212681213962,-3.24599844614138,0,0,0,0,0,0,0,0,0,0,0,0,-0.286914821023607,-0.782655550814712,0.230663646928533,2.96658629960679,-0.0812102690499988,-0.0348738152905294,-0.286867152984215,-0.78269754386168,0.230692063481211,2.96655775098956,-0.0811671966234947,-0.0347945301506168,0,0,0,0,0,0,0,0,0,0,0,0
1264.312,0.332629,8,0,7,1,1,0.1,0,0,0,0,0,0,0,0,0,0,8.5896320402073,7.40725085873643,17.5601029520192,1.27963912575725,-0.452128087351206,-0.676756787329804,11,0,-1.72769624391665,-2.01136953035464,-1.85741502443422,-0.666605297719139,-4.7213160435306,-3.24603444734682,-1.72767240205874,-2.01134568849672,-1.8573673407184,-0.666629616414205,-4.7212681213962,-3.24599844614138,0,0,0,0,0,0,0,0,0,0,0,0,-0.286914821023607,-0.782655550814712,0.230663646928533,2.96658629960679,-0.0812102690499988,-0.0348738152905294,-0.286894449246914,-0.782680244317684,0.230706487773107,2.96653297296227,-0.08122042443254,-0.0348036784708342,0,0,0,0,0,0,0,0,0,0,0,0
1264.32,0.332508,8,0,7,1,1,0.1,0,0,0,0,0,0,0,0,0,0,9.29964140130991,8.59063534643779,18.8440096674475,1.41084971147131,-0.302936749492376,-0.821674410904053,11,0,-1.72769624391665,-2.01136953035464,-1.85741502443422,-0.666605297719139,-4.7213160435306,-3.24603444734682,-1.72767240205874,-2.01140576997866,-1.85737926164736,-0.666629616414205,-4.7212681213962,-3.24596244493593,0,0,0,0,0,0,0,0,0,0,0,0,-0.286914821023607,-0.782655550814712,0.230663646928533,2.96658629960679,-0.0812102690499988,-0.0348738152905294,-0.286894575463173,-0.782681017687415,0.23065072483433,2.96660267731762,-0.0812756738694436,-0.0347860302830908,0,0,0,0,0,0,0,0,0,0,0,0
1264.328,0.33312,8,0,7,1,1,0.1,0,0,0,0,0,0,0,0,0,0,8.88994151302269,7.33369508412125,17.0688696837889,1.18709352734359,-0.281047150830421,-0.790393269932889,11,0,-1.72769624391665,-2.01136953035464,-1.85741502443422,-0.666605297719139,-4.7213160435306,-3.24603444734682,-1.72767240205874,-2.01141769090761,-1.85735541978945,-0.66664153734316,-4.7212920824634,-3.24597436586489,0,0,0,0,0,0,0,0,0,0,0,0,-0.286914821023607,-0.782655550814712,0.230663646928533,2.96658629960679,-0.0812102690499988,-0.0348738152905294,-0.286898470381715,-0.782691675724155,0.23065267305447,2.96660591636493,-0.0812612079456273,-0.034822636055012,0,0,0,0,0,0,0,0,0,0,0,0
1264.336,0.331776,8,0,7,1,1,0.1,0,0,0,0,0,0,0,0,0,0,8.62912295391862,8.58145387844816,18.8096923714926,1.43535068743622,-0.352503233418504,-0.727375971377227,11,0,-1.72769624391665,-2.01136953035464,-1.85741502443422,-0.666605297719139,-4.7213160435306,-3.24603444734682,-1.72766048112978,-2.01140576997866,-1.85737926164736,-0.66661769548525,-4.7212681213962,-3.24598628679384,0,0,0,0,0,0,0,0,0,0,0,0,-0.286914821023607,-0.782655550814712,0.230663646928533,2.96658629960679,-0.0812102690499988,-0.0348738152905294,-0.286885391743277,-0.782685263397716,0.230652275558717,2.96659241046877,-0.0812224638434475,-0.0347897945970119,0,0,0,0,0,0,0,0,0,0,0,0
1264.344,0.336192,8,0,7,1,1,0.1,0,0,0,0,0,0,0,0,0,0,8.14766106249618,7.54943120627628,17.8967306533574,1.34496461236593,-0.47116248387461,-0.646511434771007,11,0,-1.72769624391665,-2.01136953035464,-1.85741502443422,-0.666605297719139,-4.7213160435306,-3.24603444734682,-1.72767240205874,-2.01138192812075,-1.85737926164736,-0.666593376790182,-4.7212681213962,-3.24599844614138,0,0,0,0,0,0,0,0,0,0,0,0,-0.286914821023607,-0.782655550814712,0.230663646928533,2.96658629960679,-0.0812102690499988,-0.0348738152905294,-0.286894640197786,-0.78268111284151,0.230674938126474,2.96654482506835,-0.0812211445345333,-0.0348017705147235,0,0,0,0,0,0,0,0,0,0,0,0
1264.352,0.333744,8,0,7,1,1,0.1,0,0,0,0,0,0,0,0,0,0,7.29857440506813,8.30668609444422,17.9125267498827,1.2792186679311,-0.454527692794049,-0.762651902608852,11,0,-1.72769624391665,-2.01136953035464,-1.85741502443422,-0.666605297719139,-4.7213160435306,-3.24603444734682,-1.72768432298769,-2.0113938490497,-1.85739118257631,-0.66664153734316,-4.72125608125796,-3.24599844614138,0,0,0,0,0,0,0,0,0,0,0,0,-0.286914821023607,-0.782655550814712,0.230663646928533,2.96658629960679,-0.0812102690499988,-0.0348738152905294,-0.286901637635662,-0.782670427166265,0.23065229938593,2.96661466196788,-0.0812384457466645,-0.0347723540636193,0,0,0,0,0,0,0,0,0,0,0,0
1264.36,0.336913,8,0,7,1,1,0.1,0,0,0,0,0,0,0,0,0,0,9.0222743257276,7.69019064304362,17.8088167196776,1.25730633058006,-0.285407077857137,-0.79161201085371,11,0,-1.72769624391665,-2.01136953035464,-1.85741502443422,-0.666605297719139,-4.7213160435306,-3.24603444734682,-1.72766048112978,-2.01136953035464,-1.85740310350527,-0.66661769548525,-4.72128016153444,-3.24598628679384,0,0,0,0,0,0,0,0,0,0,0,0,-0.286914821023607,-0.782655550814712,0.230663646928533,2.96658629960679,-0.0812102690499988,-0.0348738152905294,-0.286884242477049,-0.782670790219203,0.230668662324429,2.96658143895297,-0.0812236658605391,-0.0348099178408389,0,0,0,0,0,0,0,0,0,0,0,0
1264.368,0.329976,8,0,7,1,1,0.1,0,0,0,0,0,0,0,0,0,0,8.63399040819444,6.69875776609213,17.2162347806568,1.30555392514069,-0.324078912871846,-0.843740454075537,11,0,-1.72769624391665,-2.01136953035464,-1.85741502443422,-0.666605297719139,-4.7213160435306,-3.24603444734682,-1.72763616243471,-2.01138192812075,-1.85737926164736,-0.666593376790182,-4.72125608125796,-3.24599844614138,0,0,0,0,0,0,0,0,0,0,0,0,-0.286914821023607,-0.782655550814712,0.230663646928533,2.96658629960679,-0.0812102690499988,-0.0348738152905294,-0.286865178783093,-0.782691685223842,0.230674939137863,2.96654459586183,-0.0811657438843986,-0.0347793590669327,0,0,0,0,0,0,0,0,0,0,0,0
1264.376,0.332028,8,0,7,1,1,0.1,0,0,0,0,0,0,0,0,0,0,8.60489918614286,7.21853520674518,17.4005239399736,1.29286770287835,-0.327341773156437,-0.81410544868301,11,0,-1.72769624391665,-2.01136953035464,-1.85741502443422,-0.666605297719139,-4.7213160435306,-3.24603444734682,-1.72767240205874,-2.01138192812075,-1.85737926164736,-0.66661769548525,-4.72130412260164,-3.24604636827578,0,0,0,0,0,0,0,0,0,0,0,0,-0.286914821023607,-0.782655550814712,0.230663646928533,2.96658629960679,-0.0812102690499988,-0.0348738152905294,-0.286897621751401,-0.782678902298136,0.230671771631327,2.96657539514089,-0.0811553101236964,-0.0348564299335129,0,0,0,0,0,0,0,0,0,0,0,0
1264.384,0.331584,8,0,7,1,1,0.1,0,0,0,0,0,0,0,0,0,0,9.03267791331458,7.4826327392778,17.6912907013117,1.26787320207988,-0.38753124867348,-0.71651884790057,11,0,-1.72769624391665,-2.01136953035464,-1.85741502443422,-0.666605297719139,-4.7213160435306,-3.24603444734682,-1.72769624391665,-2.01140576997866,-1.85737926164736,-0.666629616414205,-4.72128016153444,-3.24597436586489,0,0,0,0,0,0,0,0,0,0,0,0,-0.286914821023607,-0.782655550814712,0.230663646928533,2.96658629960679,-0.0812102690499988,-0.0348738152905294,-0.286914333097407,-0.782674001354916,0.230650723836151,2.96660388837921,-0.081295003032512,-0.0348083788828491,0,0,0,0,0,0,0,0,0,0,0,0
1264.392,0.331728,8,0,7,1,1,0.1,0,0,0,0,0,0,0,0,0,0,8.256260000727,7.88737486727049,17.8724755589633,1.27819738422705,-0.538074837865643,-0.776860552747963,11,0,-1.72769624391665,-2.01136953035464,-1.85741502443422,-0.666605297719139,-4.7213160435306,-3.24603444734682,-1.72769624391665,-2.01135760942568,-1.85737926164736,-0.666653458272116,-4.72130412260164,-3.24595052400698,0,0,0,0,0,0,0,0,0,0,0,0,-0.286914821023607,-0.782655550814712,0.230663646928533,2.96658629960679,-0.0812102690499988,-0.0348738152905294,-0.286915453725737,-0.782667121290595,0.230687008305332,2.96658116307306,-0.0813326722433306,-0.0348448628996226,0,0,0,0,0,0,0,0,0,0,0,0
1264.4,0.331465,8,0,7,1,1,0.1,0,0,0,0,0,0,0,0,0,0,9.54039727351208,8.9683840343131,18.8011802661613,1.33069990759647,-0.396560850983592,-0.687958327675499,11,0,-1.72769624391665,-2.01136953035464,-1.85741502443422,-0.666605297719139,-4.7213160435306,-3.24603444734682,-1.72766048112978,-2.01140576997866,-1.85737926164736,-0.66661769548525,-4.7212920824634,-3.24599844614138,0,0,0,0,0,0,0,0,0,0,0,0,-0.286914821023607,-0.782655550814712,0.230663646928533,2.96658629960679,-0.0812102690499988,-0.0348738152905294,-0.286887575184902,-0.782684913195291,0.230652273585228,2.96659567631505,-0.0812076889059134,-0.0348266398861355,0,0,0,0,0,0,0,0,0,0,0,0
1264.408,0.332928,8,0,7,1,1,0.1,0,0,0,0,0,0,0,0,0,0,8.89493986281133,8.10645050479223,18.2921702348502,1.41257392050184,-0.255626002278721,-0.714922825915442,11,0,-1.72769624391665,-2.01136953035464,-1.85741502443422,-0.666605297719139,-4.7213160435306,-3.24603444734682,-1.72768432298769,-2.01140576997866,-1.85740310350527,-0.66661769548525,-4.7212920824634,-3.24599844614138,0,0,0,0,0,0,0,0,0,0,0,0,-0.286914821023607,-0.782655550814712,0.230663646928533,2.96658629960679,-0.0812102690499988,-0.0348738152905294,-0.286904567962651,-0.782667446213725,0.23063902325451,2.96661865000374,-0.081243587099559,-0.0348255451345141,0,0,0,0,0,0,0,0,0,0,0,0
1264.416,0.330516,8,0,7,1,1,0.1,0,0,0,0,0,0,0,0,0,0,9.25978969539515,7.84571005878751,18.1141762589194,1.30954416681079,-0.303134505980318,-0.789993385971377,11,0,-1.72769624391665,-2.01136953035464,-1.85741502443422,-0.666605297719139,-4.7213160435306,-3.24603444734682,-1.7277081648456,-2.01141769090761,-1.85739118257631,-0.666593376790182,-4.7212681213962,-3.24598628679384,0,0,0,0,0,0,0,0,0,0,0,0,-0.286914821023607,-0.782655550814712,0.230663646928533,2.96658629960679,-0.0812102690499988,-0.0348738152905294,-0.286922368304062,-0.782669161042673,0.230639064362228,2.96659049488874,-0.0812934469779955,-0.034796243361068,0,0,0,0,0,0,0,0,0,0,0,0
1264.424,0.332568,8,0,7,1,1,0.1,0,0,0,0,0,0,0,0,0,0,8.88332248727464,7.63614481225854,17.80568298224,1.29843049298756,-0.418312602758968,-0.76955407932663,11,0,-1.72769624391665,-2.01136953035464,-1.85741502443422,-0.666605297719139,-4.7213160435306,-3.24603444734682,-1.72767240205874,-2.01136953035464,-1.85740310350527,-0.66661769548525,-4.72128016153444,-3.24601036707033,0,0,0,0,0,0,0,0,0,0,0,0,-0.286914821023607,-0.782655550814712,0.230663646928533,2.96658629960679,-0.0812102690499988,-0.0348738152905294,-0.28689357261955,-0.782667370236918,0.230668662324429,2.96658230026871,-0.0812056400729998,-0.0348145735939372,0,0,0,0,0,0,0,0,0,0,0,0
1264.432,0.331116,8,0,7,1,1,0.1,0,0,0,0,0,0,0,0,0,0,9.23780755866736,8.20905999821717,18.5669484940511,1.43351251052416,-0.288237130352343,-0.882479949548085,11,0,-1.72769624391665,-2.01136953035464,-1.85741502443422,-0.666605297719139,-4.7213160435306,-3.24603444734682,-1.72769624391665,-2.01141769090761,-1.85739118257631,-0.666629616414205,-4.7212920824634,-3.24598628679384,0,0,0,0,0,0,0,0,0,0,0,0,-0.286914821023607,-0.782655550814712,0.230663646928533,2.96658629960679,-0.0812102690499988,-0.0348738152905294,-0.286914775851882,-0.782669720872627,0.230634348216602,2.96662950354632,-0.0812795247967526,-0.0348232166311834,0,0,0,0,0,0,0,0,0,0,0,0
1264.44,0.33744,8,0,7,1,1,0.1,0,0,0,0,0,0,0,0,0,0,8.51376253973454,7.11700521563339,17.3669567987947,1.33822312798233,-0.245363517192788,-0.772142360339928,11,0,-1.72769624391665,-2.01136953035464,-1.85741502443422,-0.666605297719139,-4.7213160435306,-3.24603444734682,-1.72763616243471,-2.01140576997866,-1.85740310350527,-0.66661769548525,-4.7212920824634,-3.24597436586489,0,0,0,0,0,0,0,0,0,0,0,0,-0.286914821023607,-0.782655550814712,0.230663646928533,2.96658629960679,-0.0812102690499988,-0.0348738152905294,-0.286866873932927,-0.78268126278869,0.23063902325451,2.96661889022846,-0.0812078484000881,-0.0348162046877674,0,0,0,0,0,0,0,0,0,0,0,0
1264.448,0.331488,8,0,7,1,1,0.1,0,0,0,0,0,0,0,0,0,0,8.87975584709258,8.98809488335456,19.1355661347002,1.38496952190194,-0.374648634899038,-0.664548574607715,11,0,-1.72769624391665,-2.01136953035464,-1.85741502443422,-0.666605297719139,-4.7213160435306,-3.24603444734682,-1.72763616243471,-2.01140576997866,-1.8573673407184,-0.66661769548525,-4.7212920824634,-3.24597436586489,0,0,0,0,0,0,0,0,0,0,0,0,-0.286914821023607,-0.782655550814712,0.230663646928533,2.96658629960679,-0.0812102690499988,-0.0348738152905294,-0.286869374852314,-0.782697203031485,0.230658898846759,2.96658334243305,-0.081207058393258,-0.0348224695580464,0,0,0,0,0,0,0,0,0,0,0,0
1264.456,0.33234,8,0,7,1,1,0.1,0,0,0,0,0,0,0,0,0,0,7.77279368571262,7.20520228166146,17.4797424977301,1.36250947445565,-0.208694206876139,-0.808044521329261,11,0,-1.72769624391665,-2.01136953035464,-1.85741502443422,-0.666605297719139,-4.7213160435306,-3.24603444734682,-1.72769624391665,-2.01133376756777,-1.85739118257631,-0.66661769548525,-4.7212920824634,-3.24598628679384,0,0,0,0,0,0,0,0,0,0,0,0,-0.286914821023607,-0.782655550814712,0.230663646928533,2.96658629960679,-0.0812102690499988,-0.0348738152905294,-0.286913581415371,-0.782662045572976,0.230704534857482,2.96653429258663,-0.081277130083287,-0.0348406705845996,0,0,0,0,0,0,0,0,0,0,0,0
1264.464,0.332316,8,0,7,1,1,0.1,0,0,0,0,0,0,0,0,0,0,9.28042825039728,8.66266900833189,18.9714470280341,1.45682943110906,-0.264275659653715,-0.714629751189003,11,0,-1.72769624391665,-2.01136953035464,-1.85741502443422,-0.666605297719139,-4.7213160435306,-3.24603444734682,-1.72767240205874,-2.01140576997866,-1.85739118257631,-0.66664153734316,-4.7212681213962,-3.24597436586489,0,0,0,0,0,0,0,0,0,0,0,0,-0.286914821023607,-0.782655550814712,0.230663646928533,2.96658629960679,-0.0812102690499988,-0.0348738152905294,-0.286893595027266,-0.782674878534184,0.230642548942336,2.9666269738462,-0.0812584251125518,-0.0347832600907975,0,0,0,0,0,0,0,0,0,0,0,0
1264.472,0.332604,8,0,7,1,1,0.1,0,0,0,0,0,0,0,0,0,0,8.54098022624069,9.14080007879198,18.8210728464294,1.29904505043867,-0.255992564812139,-0.711603139410136,11,0,-1.72769624391665,-2.01136953035464,-1.85741502443422,-0.666605297719139,-4.7213160435306,-3.24603444734682,-1.72768432298769,-2.01135760942568,-1.85735541978945,-0.666629616414205,-4.7212681213962,-3.24597436586489,0,0,0,0,0,0,0,0,0,0,0,0,-0.286914821023607,-0.782655550814712,0.230663646928533,2.96658629960679,-0.0812102690499988,-0.0348738152905294,-0.286904803862237,-0.782683345041809,0.230703363836304,2.96653137941555,-0.0812738733053368,-0.034802030959099,0,0,0,0,0,0,0,0,0,0,0,0
1264.48,0.332016,8,0,7,1,1,0.1,0,0,0,0,0,0,0,0,0,0,8.95634377789095,8.909706227667,18.9453475532288,1.3877420013765,-0.234093100648367,-0.746735495093299,11,0,-1.72769624391665,-2.01136953035464,-1.85741502443422,-0.666605297719139,-4.7213160435306,-3.24603444734682,-1.72766048112978,-2.01141769090761,-1.85737926164736,-0.666605297719137,-4.72128016153444,-3.24598628679384,0,0,0,0,0,0,0,0,0,0,0,0,-0.286914821023607,-0.782655550814712,0.230663646928533,2.96658629960679,-0.0812102690499988,-0.0348738152905294,-0.286886831749753,-0.782687153443922,0.230644137783173,2.96659326834771,-0.0812242442568804,-0.0348076672205696,0,0,0,0,0,0,0,0,0,0,0,0
1264.488,0.332353,8,0,7,1,1,0.1,0,0,0,0,0,0,0,0,0,0,8.72738372173396,7.1465795022343,17.5587504317678,1.38565655315922,-0.0758835152230407,-0.71680075218913,11,0,-1.72769624391665,-2.01136953035464,-1.85741502443422,-0.666605297719139,-4.7213160435306,-3.24603444734682,-1.72766048112978,-2.01136953035464,-1.85739118257631,-0.666605297719137,-4.7212920824634,-3.24601036707033,0,0,0,0,0,0,0,0,0,0,0,0,-0.286914821023607,-0.782655550814712,0.230663646928533,2.96658629960679,-0.0812102690499988,-0.0348738152905294,-0.286886314948997,-0.78267678790939,0.230676899462596,2.96655981572782,-0.0811891393967677,-0.034834981136067,0,0,0,0,0,0,0,0,0,0,0,0
1264.496,0.33012,8,0,7,1,1,0.1,0,0,0,0,0,0,0,0,0,0,8.47035726011256,8.8528934091023,18.6253786515905,1.32149779952198,-0.266813749639327,-0.739146497061581,11,0,-1.72769624391665,-2.01136953035464,-1.85741502443422,-0.666605297719139,-4.7213160435306,-3.24603444734682,-1.72764856020083,-2.01138192812075,-1.85739118257631,-0.666629616414205,-4.7212920824634,-3.24599844614138,0,0,0,0,0,0,0,0,0,0,0,0,-0.286914821023607,-0.782655550814712,0.230663646928533,2.96658629960679,-0.0812102690499988,-0.0348738152905294,-0.286876883743436,-0.782679779263488,0.230663596543309,2.96659604452742,-0.0811898002148438,-0.0348251134742233,0,0,0,0,0,0,0,0,0,0,0,0
1264.504,0.331668,8,0,7,1,1,0.1,0,0,0,0,0,0,0,0,0,0,8.59676710147306,8.91419357059747,18.6245010455159,1.38291724599554,-0.385648582424129,-0.748892027843803,11,0,-1.72769624391665,-2.01136953035464,-1.85741502443422,-0.666605297719139,-4.7213160435306,-3.24603444734682,-1.72768432298769,-2.01138192812075,-1.85739118257631,-0.666605297719137,-4.72128016153444,-3.24598628679384,0,0,0,0,0,0,0,0,0,0,0,0,-0.286914821023607,-0.782655550814712,0.230663646928533,2.96658629960679,-0.0812102690499988,-0.0348738152905294,-0.286904087150043,-0.782671377899929,0.230666761027356,2.96656886566543,-0.081258929445453,-0.034815151836686,0,0,0,0,0,0,0,0,0,0,0,0
1264.512,0.331212,8,0,7,1,1,0.1,0,0,0,0,0,0,0,0,0,0,8.55485717440264,8.23773454681831,18.8351896212627,1.51461292191322,-0.213925017360604,-0.696324649938543,11,0,-1.72769624391665,-2.01136953035464,-1.85741502443422,-0.666605297719139,-4.7213160435306,-3.24603444734682,-1.72768432298769,-2.01138192812075,-1.85737926164736,-0.66661769548525,-4.72128016153444,-3.24597436586489,0,0,0,0,0,0,0,0,0,0,0,0,-0.286914821023607,-0.782655550814712,0.230663646928533,2.96658629960679,-0.0812102690499988,-0.0348738152905294,-0.286904768558042,-0.782675832415428,0.230671773578722,2.96656872531594,-0.0812765176409075,-0.0348133870545173,0,0,0,0,0,0,0,0,0,0,0,0
1264.52,0.33048,8,0,7,1,1,0.1,0,0,0,0,0,0,0,0,0,0,8.65195933972936,7.34724736240874,17.6578487064073,1.41151527389132,-0.0947689133744893,-0.742968226802621,11,0,-1.72769624391665,-2.01136953035464,-1.85741502443422,-0.666605297719139,-4.7213160435306,-3.24603444734682,-1.72764856020083,-2.01140576997866,-1.85737926164736,-0.666605297719137,-4.7212681213962,-3.24596244493593,0,0,0,0,0,0,0,0,0,0,0,0,-0.286914821023607,-0.782655550814712,0.230663646928533,2.96658629960679,-0.0812102690499988,-0.0348738152905294,-0.286876213822924,-0.782689542009622,0.230653888322682,2.96657924643519,-0.0812399630362865,-0.0347874813912372,0,0,0,0,0,0,0,0,0,0,0,0
1264.528,0.330877,8,0,7,1,1,0.1,0,0,0,0,0,0,0,0,0,0,9.63210803611095,8.90337313678002,18.9602313364024,1.38690170545301,-0.382878743073527,-0.77828067737646,11,0,-1.72769624391665,-2.01136953035464,-1.85741502443422,-0.666605297719139,-4.7213160435306,-3.24603444734682,-1.72767240205874,-2.01140576997866,-1.85737926164736,-0.666605297719137,-4.7212920824634,-3.24599844614138,0,0,0,0,0,0,0,0,0,0,0,0,-0.286914821023607,-0.782655550814712,0.230663646928533,2.96658629960679,-0.0812102690499988,-0.0348738152905294,-0.286897057951648,-0.782682351896573,0.230653886349205,2.96658299899986,-0.0812252017280262,-0.0348304932346418,0,0,0,0,0,0,0,0,0,0,0,0
1264.536,0.336696,8,0,7,1,1,0.1,0,0,0,0,0,0,0,0,0,0,8.66424015552581,7.24437042621863,17.432502110125,1.35789989146364,-0.10720584248927,-0.710497177219635,11,0,-1.72769624391665,-2.01136953035464,-1.85741502443422,-0.666605297719139,-4.7213160435306,-3.24603444734682,-1.72768432298769,-2.01136953035464,-1.85737926164736,-0.666593376790182,-4.72125608125796,-3.24598628679384,0,0,0,0,0,0,0,0,0,0,0,0,-0.286914821023607,-0.782655550814712,0.230663646928533,2.96658629960679,-0.0812102690499988,-0.0348738152905294,-0.286902675200087,-0.782676612771777,0.230685078625544,2.9665301978508,-0.0812548953147502,-0.0347862658755215,0,0,0,0,0,0,0,0,0,0,0,0
1264.544,0.331572,8,0,7,1,1,0.1,0,0,0,0,0,0,0,0,0,0,8.79983332057542,8.95294168087142,19.2321928903302,1.48636396196079,-0.207604830836162,-0.754175405555151,11,0,-1.72769624391665,-2.01136953035464,-1.85741502443422,-0.666605297719139,-4.7213160435306,-3.24603444734682,-1.72768432298769,-2.01140576997866,-1.85737926164736,-0.66661769548525,-4.72128016153444,-3.24598628679384,0,0,0,0,0,0,0,0,0,0,0,0,-0.286914821023607,-0.782655550814712,0.230663646928533,2.96658629960679,-0.0812102690499988,-0.0348738152905294,-0.286905149480821,-0.782678247297149,0.230652274560543,2.96659301596417,-0.08125947195919,-0.0348106018740169,0,0,0,0,0,0,0,0,0,0,0,0
1264.552,0.332304,8,0,7,1,1,0.1,0,0,0,0,0,0,0,0,0,0,9.26148351266412,7.94198403830664,18.1317956072238,1.36142036278636,-0.130911650518354,-0.764039672656082,11,0,-1.72769624391665,-2.01136953035464,-1.85741502443422,-0.666605297719139,-4.7213160435306,-3.24603444734682,-1.72766048112978,-2.01136953035464,-1.85739118257631,-0.666629616414205,-4.7212920824634,-3.24598628679384,0,0,0,0,0,0,0,0,0,0,0,0,-0.286914821023607,-0.782655550814712,0.230663646928533,2.96658629960679,-0.0812102690499988,-0.0348738152905294,-0.286886015930319,-0.782675103544371,0.230673735932623,2.96658274834576,-0.0812251894006784,-0.0348273323704867,0,0,0,0,0,0,0,0,0,0,0,0
1264.56,0.332904,8,0,7,1,1,0.1,0,0,0,0,0,0,0,0,0,0,9.1864698693357,8.73002426332295,18.5406168149,1.37851162264415,-0.375835866716396,-0.692948617522434,11,0,-1.72769624391665,-2.01136953035464,-1.85741502443422,-0.666605297719139,-4.7213160435306,-3.24603444734682,-1.72769624391665,-2.01140576997866,-1.85735541978945,-0.66661769548525,-4.7212920824634,-3.24601036707033,0,0,0,0,0,0,0,0,0,0,0,0,-0.286914821023607,-0.782655550814712,0.230663646928533,2.96658629960679,-0.0812102690499988,-0.0348738152905294,-0.286917233877767,-0.782685279289638,0.230665524172404,2.96657149668999,-0.0812425398605685,-0.0348369841168986,0,0,0,0,0,0,0,0,0,0,0,0
1264.568,0.332472,8,0,7,1,1,0.1,0,0,0,0,0,0,0,0,0,0,8.223668532387,7.58368472049676,17.5313370283885,1.27274901530798,-0.419562071816479,-0.624735823847201,11,0,-1.72769624391665,-2.01136953035464,-1.85741502443422,-0.666605297719139,-4.7213160435306,-3.24603444734682,-1.72767240205874,-2.01133376756777,-1.85740310350527,-0.666629616414205,-4.7212920824634,-3.24599844614138,0,0,0,0,0,0,0,0,0,0,0,0,-0.286914821023607,-0.782655550814712,0.230663646928533,2.96658629960679,-0.0812102690499988,-0.0348738152905294,-0.286893940863651,-0.782662747272039,0.230696358572154,2.96655932635503,-0.0812241569600295,-0.0348348478346985,0,0,0,0,0,0,0,0,0,0,0,0
1264.576,0.332353,8,0,7,1,1,0.1,0,0,0,0,0,0,0,0,0,0,8.0328188109711,8.51552763924937,18.3295305404823,1.38057650511031,-0.378535645323532,-0.778866714302013,11,0,-1.72769624391665,-2.01136953035464,-1.85741502443422,-0.666605297719139,-4.7213160435306,-3.24603444734682,-1.72763616243471,-2.01135760942568,-1.85734349886049,-0.66664153734316,-4.72130412260164,-3.24601036707033,0,0,0,0,0,0,0,0,0,0,0,0,-0.286914821023607,-0.782655550814712,0.230663646928533,2.96658629960679,-0.0812102690499988,-0.0348738152905294,-0.286871076682286,-0.782701122804016,0.230708435743871,2.96653864301319,-0.0811538342422674,-0.034853320054875,0,0,0,0,0,0,0,0,0,0,0,0
1264.584,0.32994,8,0,7,1,1,0.1,0,0,0,0,0,0,0,0,0,0,7.66191320127644,8.59530274191656,18.2833754879138,1.33246227637837,-0.44773940026334,-0.679069686315822,11,0,-1.72769624391665,-2.01136953035464,-1.85741502443422,-0.666605297719139,-4.7213160435306,-3.24603444734682,-1.72767240205874,-2.0113938490497,-1.85741502443422,-0.66661769548525,-4.7212920824634,-3.24601036707033,0,0,0,0,0,0,0,0,0,0,0,0,-0.286914821023607,-0.782655550814712,0.230663646928533,2.96658629960679,-0.0812102690499988,-0.0348738152905294,-0.286894213562338,-0.782664345635161,0.230642147509324,2.96661962523434,-0.0812081693370827,-0.0348256197571986,0,0,0,0,0,0,0,0,0,0,0,0
1264.592,0.330048,8,0,7,1,1,0.1,0,0,0,0,0,0,0,0,0,0,8.74046203756844,8.33498637529445,18.1994757185043,1.33247269354596,-0.413241649536752,-0.742613991183277,11,0,-1.72769624391665,-2.01136953035464,-1.85741502443422,-0.666605297719139,-4.7213160435306,-3.24603444734682,-1.72767240205874,-2.01140576997866,-1.85735541978945,-0.66661769548525,-4.7212681213962,-3.24598628679384,0,0,0,0,0,0,0,0,0,0,0,0,-0.286914821023607,-0.782655550814712,0.230663646928533,2.96658629960679,-0.0812102690499988,-0.0348738152905294,-0.286896389687568,-0.782692469935653,0.230665526146244,2.96656834951029,-0.0812396220820221,-0.0347955137627854,0,0,0,0,0,0,0,0,0,0,0,0
1264.6,0.331428,8,0,7,1,1,0.1,0,0,0,0,0,0,0,0,0,0,8.72231633101848,8.34727360963255,18.6126915701152,1.38178026389159,-0.436378259591945,-0.653638442952305,11,0,-1.72769624391665,-2.01136953035464,-1.85741502443422,-0.666605297719139,-4.7213160435306,-3.24603444734682,-1.72766048112978,-2.01138192812075,-1.8573673407184,-0.666629616414205,-4.7212681213962,-3.24595052400698,0,0,0,0,0,0,0,0,0,0,0,0,-0.286914821023607,-0.782655550814712,0.230663646928533,2.96658629960679,-0.0812102690499988,-0.0348738152905294,-0.286885698033861,-0.78268733600555,0.230676849212517,2.96656690029062,-0.0812747699259494,-0.0347893618758984,0,0,0,0,0,0,0,0,0,0,0,0
1264.608,0.331224,8,0,7,1,1,0.1,0,0,0,0,0,0,0,0,0,0,9.19574677318055,8.91097295184663,18.9765761905356,1.40563097986087,-0.311109371580271,-0.791316523750146,11,0,-1.72769624391665,-2.01136953035464,-1.85741502443422,-0.666605297719139,-4.7213160435306,-3.24603444734682,-1.72764856020083,-2.01140576997866,-1.8573673407184,-0.66661769548525,-4.7212681213962,-3.24596244493593,0,0,0,0,0,0,0,0,0,0,0,0,-0.286914821023607,-0.782655550814712,0.230663646928533,2.96658629960679,-0.0812102690499988,-0.0348738152905294,-0.286876895081336,-0.782693996608362,0.230658900820423,2.96657971219436,-0.0812398724385651,-0.0347872583596116,0,0,0,0,0,0,0,0,0,0,0,0
1264.616,0.330565,8,0,7,1,1,0.1,0,0,0,0,0,0,0,0,0,0,8.19109767043611,8.3834663211023,18.7102989386791,1.46818396024499,-0.366222939966568,-0.725924401710507,11,0,-1.72769624391665,-2.01136953035464,-1.85741502443422,-0.666605297719139,-4.7213160435306,-3.24603444734682,-1.7277081648456,-2.01136953035464,-1.85742694536318,-0.666593376790182,-4.7212681213962,-3.24598628679384,0,0,0,0,0,0,0,0,0,0,0,0,-0.286914821023607,-0.782655550814712,0.230663646928533,2.96658629960679,-0.0812102690499988,-0.0348738152905294,-0.286919096739774,-0.782648343447239,0.230658576347258,2.96657819979794,-0.0812929587900166,-0.0347987175059695,0,0,0,0,0,0,0,0,0,0,0,0
1264.624,0.330708,8,0,7,1,1,0.1,0,0,0,0,0,0,0,0,0,0,8.21512540272957,7.9586566619958,18.0027286116566,1.37445556174261,-0.194670405350564,-0.724444784473564,11,0,-1.72769624391665,-2.01136953035464,-1.85741502443422,-0.666605297719139,-4.7213160435306,-3.24603444734682,-1.72768432298769,-2.01140576997866,-1.8573673407184,-0.66661769548525,-4.72125608125796,-3.24597436586489,0,0,0,0,0,0,0,0,0,0,0,0,-0.286914821023607,-0.782655550814712,0.230663646928533,2.96658629960679,-0.0812102690499988,-0.0348738152905294,-0.286903789067857,-0.78268391258565,0.230658901831855,2.96657789935582,-0.0812736131193073,-0.034775700857389,0,0,0,0,0,0,0,0,0,0,0,0
1264.632,0.335604,8,0,7,1,1,0.1,0,0,0,0,0,0,0,0,0,0,9.15424448173583,8.69782269665518,18.7804526223927,1.35441704815362,-0.384468188516359,-0.74826886665682,11,0,-1.72769624391665,-2.01136953035464,-1.85741502443422,-0.666605297719139,-4.7213160435306,-3.24603444734682,-1.72768432298769,-2.01134568849672,-1.85737926164736,-0.666605297719137,-4.7212681213962,-3.24597436586489,0,0,0,0,0,0,0,0,0,0,0,0,-0.286914821023607,-0.782655550814712,0.230663646928533,2.96658629960679,-0.0812102690499988,-0.0348738152905294,-0.286903244719082,-0.782673195539083,0.230703025789381,2.96651907928485,-0.0812737444292918,-0.0348045514779705,0,0,0,0,0,0,0,0,0,0,0,0
1264.64,0.333744,8,0,7,1,1,0.1,0,0,0,0,0,0,0,0,0,0,8.48231787518766,8.39354812161062,18.4265409750231,1.35169852762653,-0.115826416950983,-0.737595662860327,11,0,-1.72769624391665,-2.01136953035464,-1.85741502443422,-0.666605297719139,-4.7213160435306,-3.24603444734682,-1.72767240205874,-2.0113938490497,-1.8573673407184,-0.66661769548525,-4.7212681213962,-3.24601036707033,0,0,0,0,0,0,0,0,0,0,0,0,-0.286914821023607,-0.782655550814712,0.230663646928533,2.96658629960679,-0.0812102690499988,-0.0348738152905294,-0.286895365428599,-0.782685949243983,0.230668650400942,2.96656958011576,-0.081203858002228,-0.0347987027119255,0,0,0,0,0,0,0,0,0,0,0,0
1264.648,0.332112,8,0,7,1,1,0.1,0,0,0,0,0,0,0,0,0,0,8.43014101084591,8.67875699131301,18.7296422518703,1.43738609191665,-0.424696383539354,-0.686114662032383,11,0,-1.72769624391665,-2.01136953035464,-1.85741502443422,-0.666605297719139,-4.7213160435306,-3.24603444734682,-1.72768432298769,-2.0113938490497,-1.85735541978945,-0.666605297719137,-4.7213160435306,-3.24598628679384,0,0,0,0,0,0,0,0,0,0,0,0,-0.286914821023607,-0.782655550814712,0.230663646928533,2.96658629960679,-0.0812102690499988,-0.0348738152905294,-0.286910048933927,-0.782688000415003,0.23067688469041,2.9665491252064,-0.0812633346025749,-0.0348720756335112,0,0,0,0,0,0,0,0,0,0,0,0
1264.656,0.331272,8,0,7,1,1,0.1,0,0,0,0,0,0,0,0,0,0,8.73014239245701,8.18271907570935,18.1348747921097,1.36659429083291,-0.217290335739601,-0.77787604406967,11,0,-1.72769624391665,-2.01136953035464,-1.85741502443422,-0.666605297719139,-4.7213160435306,-3.24603444734682,-1.72769624391665,-2.01136953035464,-1.85737926164736,-0.666629616414205,-4.7212920824634,-3.24597436586489,0,0,0,0,0,0,0,0,0,0,0,0,-0.286914821023607,-0.782655550814712,0.230663646928533,2.96658629960679,-0.0812102690499988,-0.0348738152905294,-0.286914840314074,-0.782670156345714,0.230680361314953,2.96656920524803,-0.0812956612028105,-0.0348325043874746,0,0,0,0,0,0,0,0,0,0,0,0
1264.664,0.33114,8,0,7,1,1,0.1,0,0,0,0,0,0,0,0,0,0,8.07840330955103,7.62406188127873,18.3622061157319,1.36847365169981,-0.507538172966598,-0.784705990850667,11,0,-1.72769624391665,-2.01136953035464,-1.85741502443422,-0.666605297719139,-4.7213160435306,-3.24603444734682,-1.72767240205874,-2.01135760942568,-1.85739118257631,-0.66661769548525,-4.7212681213962,-3.24598628679384,0,0,0,0,0,0,0,0,0,0,0,0,-0.286914821023607,-0.782655550814712,0.230663646928533,2.96658629960679,-0.0812102690499988,-0.0348738152905294,-0.286893118795098,-0.782671651789453,0.23068503805889,2.96655605438396,-0.0812391341125816,-0.034797987566106,0,0,0,0,0,0,0,0,0,0,0,0
1264.672,0.330912,8,0,7,1,1,0.1,0,0,0,0,0,0,0,0,0,0,9.02348769265184,8.65741880734723,18.7959221772187,1.36847750235137,-0.335840080108477,-0.728420233646797,11,0,-1.72769624391665,-2.01136953035464,-1.85741502443422,-0.666605297719139,-4.7213160435306,-3.24603444734682,-1.72772008577456,-2.01134568849672,-1.85739118257631,-0.66661769548525,-4.72128016153444,-3.24596244493593,0,0,0,0,0,0,0,0,0,0,0,0,-0.286914821023607,-0.782655550814712,0.230663646928533,2.96658629960679,-0.0812102690499988,-0.0348738152905294,-0.286931345746981,-0.782656586970768,0.230694786454074,2.96654287886213,-0.0813465534033657,-0.0348209587376702,0,0,0,0,0,0,0,0,0,0,0,0
1264.68,0.330672,8,0,7,1,1,0.1,0,0,0,0,0,0,0,0,0,0,9.07469175279249,8.17200331356129,18.644306500597,1.40480327094488,-0.378629800814681,-0.837064930798715,11,0,-1.72769624391665,-2.01136953035464,-1.85741502443422,-0.666605297719139,-4.7213160435306,-3.24603444734682,-1.72766048112978,-2.01135760942568,-1.85737926164736,-0.666629616414205,-4.72128016153444,-3.24599844614138,0,0,0,0,0,0,0,0,0,0,0,0,-0.286914821023607,-0.782655550814712,0.230663646928533,2.96658629960679,-0.0812102690499988,-0.0348738152905294,-0.286885572899576,-0.782679383231842,0.23069011175244,2.96655835743941,-0.081204956371605,-0.0348156082542885,0,0,0,0,0,0,0,0,0,0,0,0
1264.688,0.331752,8,0,7,1,1,0.1,0,0,0,0,0,0,0,0,0,0,8.82751890685141,7.48380826416967,17.5944745449046,1.24135609923038,-0.487784101574503,-0.698240493386519,11,0,-1.72769624391665,-2.01136953035464,-1.85741502443422,-0.666605297719139,-4.7213160435306,-3.24603444734682,-1.72769624391665,-2.01140576997866,-1.8573673407184,-0.66661769548525,-4.72128016153444,-3.24596244493593,0,0,0,0,0,0,0,0,0,0,0,0,-0.286914821023607,-0.782655550814712,0.230663646928533,2.96658629960679,-0.0812102690499988,-0.0348738152905294,-0.286915313659429,-0.782680140351735,0.230658899822162,2.9665795915421,-0.0813122515658578,-0.0348111490828725,0,0,0,0,0,0,0,0,0,0,0,0
1264.696,0.331764,8,0,7,1,1,0.1,0,0,0,0,0,0,0,0,0,0,8.09786827931131,8.03561170271475,18.3206885973866,1.47007338164407,-0.374925484719388,-0.753223602819479,11,0,-1.72769624391665,-2.01136953035464,-1.85741502443422,-0.666605297719139,-4.7213160435306,-3.24603444734682,-1.72767240205874,-2.0113938490497,-1.85737926164736,-0.66661769548525,-4.7212681213962,-3.24603444734682,0,0,0,0,0,0,0,0,0,0,0,0,-0.286914821023607,-0.782655550814712,0.230663646928533,2.96658629960679,-0.0812102690499988,-0.0348738152905294,-0.286894531620394,-0.782680636015986,0.230662025075121,2.96658265255757,-0.081168410207011,-0.0347997278350831,0,0,0,0,0,0,0,0,0,0,0,0
1264.704,0.332437,8,0,7,1,1,0.1,0,0,0,0,0,0,0,0,0,0,8.82081159236474,7.59400698458311,17.9639989381089,1.36882675085969,-0.310081534352924,-0.732915646590089,11,0,-1.72769624391665,-2.01136953035464,-1.85741502443422,-0.666605297719139,-4.7213160435306,-3.24603444734682,-1.72766048112978,-2.01140576997866,-1.85737926164736,-0.66664153734316,-4.72128016153444,-3.24599844614138,0,0,0,0,0,0,0,0,0,0,0,0,-0.286914821023607,-0.782655550814712,0.230663646928533,2.96658629960679,-0.0812102690499988,-0.0348738152905294,-0.286886195722309,-0.78268343597632,0.230649173121754,2.96661804158777,-0.081206400578646,-0.0348046453639043,0,0,0,0,0,0,0,0,0,0,0,0
1264.712,0.332124,8,0,7,1,1,0.1,0,0,0,0,0,0,0,0,0,0,9.37699358767377,8.75727253257528,19.0090476504355,1.49563045945367,0.17103866634499,-0.763046958377563,11,0,-1.72769624391665,-2.01136953035464,-1.85741502443422,-0.666605297719139,-4.7213160435306,-3.24603444734682,-1.72767240205874,-2.0113938490497,-1.85739118257631,-0.66664153734316,-4.72128016153444,-3.24599844614138,0,0,0,0,0,0,0,0,0,0,0,0,-0.286914821023607,-0.782655550814712,0.230663646928533,2.96658629960679,-0.0812102690499988,-0.0348738152905294,-0.286894501757839,-0.782673495278918,0.230652297376509,2.9666176861361,-0.0812240334238708,-0.0348062613246654,0,0,0,0,0,0,0,0,0,0,0,0
1264.72,0.33114,8,0,7,1,1,0.1,0,0,0,0,0,0,0,0,0,0,8.54213164740757,7.90857809970429,18.0015071715607,1.36039017344519,-0.276388398164702,-0.709818178341663,11,0,-1.72769624391665,-2.01136953035464,-1.85741502443422,-0.666605297719139,-4.7213160435306,-3.24603444734682,-1.72764856020083,-2.01141769090761,-1.85737926164736,-0.666629616414205,-4.72130412260164,-3.24597436586489,0,0,0,0,0,0,0,0,0,0,0,0,-0.286914821023607,-0.782655550814712,0.230663646928533,2.96658629960679,-0.0812102690499988,-0.0348738152905294,-0.286879385799777,-0.78268853868301,0.230640972367967,2.96661982881843,-0.0812278339348513,-0.034835323313445,0,0,0,0,0,0,0,0,0,0,0,0
1264.728,0.33732,8,0,7,1,1,0.1,0,0,0,0,0,0,0,0,0,0,8.94763946260871,8.58741505279382,18.8574441946085,1.4006210042158,-0.398905965073622,-0.689541100630694,11,0,-1.72769624391665,-2.01136953035464,-1.85741502443422,-0.666605297719139,-4.7213160435306,-3.24603444734682,-1.72767240205874,-2.01136953035464,-1.85740310350527,-0.66664153734316,-4.7212920824634,-3.24603444734682,0,0,0,0,0,0,0,0,0,0,0,0,-0.286914821023607,-0.782655550814712,0.230663646928533,2.96658629960679,-0.0812102690499988,-0.0348738152905294,-0.286894365720048,-0.782665544584257,0.230665559889606,2.96660852391702,-0.0811718813904769,-0.0348307898746227,0,0,0,0,0,0,0,0,0,0,0,0
1264.736,0.333576,8,0,7,1,1,0.1,0,0,0,0,0,0,0,0,0,0,9.00515148963298,7.95628147832391,18.2415185979921,1.34729171634121,-0.318675447916232,-0.702022907048563,11,0,-1.72769624391665,-2.01136953035464,-1.85741502443422,-0.666605297719139,-4.7213160435306,-3.24603444734682,-1.72764856020083,-2.01138192812075,-1.85739118257631,-0.666629616414205,-4.72128016153444,-3.24597436586489,0,0,0,0,0,0,0,0,0,0,0,0,-0.286914821023607,-0.782655550814712,0.230663646928533,2.96658629960679,-0.0812102690499988,-0.0348738152905294,-0.286875797452148,-0.782679953481606,0.2306635975186,2.96659350366322,-0.0812238910122937,-0.0348044508344545,0,0,0,0,0,0,0,0,0,0,0,0
1264.744,0.332161,8,0,7,1,1,0.1,0,0,0,0,0,0,0,0,0,0,9.07617337276569,8.90135451919982,19.0878622506456,1.43001485673044,-0.263560104800035,-0.771553965809747,11,0,-1.72769624391665,-2.01136953035464,-1.85741502443422,-0.666605297719139,-4.7213160435306,-3.24603444734682,-1.72767240205874,-2.0113938490497,-1.8573673407184,-0.666593376790182,-4.7212681213962,-3.24602228799929,0,0,0,0,0,0,0,0,0,0,0,0,-0.286914821023607,-0.782655550814712,0.230663646928533,2.96658629960679,-0.0812102690499988,-0.0348738152905294,-0.286895664462284,-0.782687633570011,0.230671813950461,2.96654602949458,-0.0811858401256243,-0.0348047797921138,0,0,0,0,0,0,0,0,0,0,0,0
1264.752,0.331632,8,0,7,1,1,0.1,0,0,0,0,0,0,0,0,0,0,8.9974665021889,8.45542703724141,18.4092935264274,1.39771481060737,-0.287790954698556,-0.76645430885483,11,0,-1.72769624391665,-2.01136953035464,-1.85741502443422,-0.666605297719139,-4.7213160435306,-3.24603444734682,-1.72768432298769,-2.01136953035464,-1.85735541978945,-0.666629616414205,-4.72130412260164,-3.24598628679384,0,0,0,0,0,0,0,0,0,0,0,0,-0.286914821023607,-0.782655550814712,0.230663646928533,2.96658629960679,-0.0812102690499988,-0.0348738152905294,-0.286908274972375,-0.782684026655813,0.230693611299713,2.96654780611409,-0.0812614071560863,-0.0348544057851696,0,0,0,0,0,0,0,0,0,0,0,0
1264.76,0.33414,8,0,7,1,1,0.1,0,0,0,0,0,0,0,0,0,0,9.43396026258564,8.20752813396457,18.4526463843696,1.41436035656811,-0.289137661654656,-0.680352494239717,11,0,-1.72769624391665,-2.01136953035464,-1.85741502443422,-0.666605297719139,-4.7213160435306,-3.24603444734682,-1.72764856020083,-2.01138192812075,-1.85740310350527,-0.666593376790182,-4.72130412260164,-3.24595052400698,0,0,0,0,0,0,0,0,0,0,0,0,-0.286914821023607,-0.782655550814712,0.230663646928533,2.96658629960679,-0.0812102690499988,-0.0348738152905294,-0.286877592781416,-0.78267680008129,0.230661684553107,2.96657079043871,-0.0812622647154409,-0.034841308287461,0,0,0,0,0,0,0,0,0,0,0,0
1264.768,0.330552,8,0,7,1,1,0.1,0,0,0,0,0,0,0,0,0,0,7.57211544769154,6.59903199442887,17.1150671523126,1.32341591891975,-0.425417461900759,-0.682689901752785,11,0,-1.72769624391665,-2.01136953035464,-1.85741502443422,-0.666605297719139,-4.7213160435306,-3.24603444734682,-1.72766048112978,-2.0113938490497,-1.8573673407184,-0.666629616414205,-4.72128016153444,-3.24596244493593,0,0,0,0,0,0,0,0,0,0,0,0,-0.286914821023607,-0.782655550814712,0.230663646928533,2.96658629960679,-0.0812102690499988,-0.0348738152905294,-0.286886985637441,-0.782688367596992,0.23066709865827,2.96658067900579,-0.0812590448120628,-0.0348064646600145,0,0,0,0,0,0,0,0,0,0,0,0
1264.776,0.331272,8,0,7,1,1,0.1,0,0,0,0,0,0,0,0,0,0,7.71916424899602,8.08361051931084,18.2381481956889,1.35598918352681,-0.657731861396908,-0.585512153533336,11,0,-1.72769624391665,-2.01136953035464,-1.85741502443422,-0.666605297719139,-4.7213160435306,-3.24603444734682,-1.72768432298769,-2.01138192812075,-1.8573673407184,-0.666629616414205,-4.7213160435306,-3.24599844614138,0,0,0,0,0,0,0,0,0,0,0,0,-0.286914821023607,-0.782655550814712,0.230663646928533,2.96658629960679,-0.0812102690499988,-0.0348738152905294,-0.286908725537757,-0.78267979537727,0.230676845317093,2.96657390688156,-0.0812455881344745,-0.0348691884314609,0,0,0,0,0,0,0,0,0,0,0,0
1264.784,0.331968,8,0,7,1,1,0.1,0,0,0,0,0,0,0,0,0,0,8.36615009149158,7.27468527773619,17.6872658091129,1.39499292510557,-0.280407107298763,-0.825215079514777,11,0,-1.72769624391665,-2.01136953035464,-1.85741502443422,-0.666605297719139,-4.7213160435306,-3.24603444734682,-1.72766048112978,-2.01138192812075,-1.85734349886049,-0.666629616414205,-4.72130412260164,-3.24598628679384,0,0,0,0,0,0,0,0,0,0,0,0,-0.286914821023607,-0.782655550814712,0.230663646928533,2.96658629960679,-0.0812102690499988,-0.0348738152905294,-0.286890646062392,-0.782697435949573,0.230690097218298,2.96654899767125,-0.0812261020271682,-0.0348511608105293,0,0,0,0,0,0,0,0,0,0,0,0
1264.792,0.331909,8,0,7,1,1,0.1,0,0,0,0,0,0,0,0,0,0,9.11083312243673,8.37364399723652,18.4863001652951,1.3691382634018,-0.370956861766135,-0.664753960036891,11,0,-1.72769624391665,-2.01136953035464,-1.85741502443422,-0.666605297719139,-4.7213160435306,-3.24603444734682,-1.72768432298769,-2.01136953035464,-1.8573673407184,-0.666605297719137,-4.7212920824634,-3.24601036707033,0,0,0,0,0,0,0,0,0,0,0,0,-0.286914821023607,-0.782655550814712,0.230663646928533,2.96658629960679,-0.0812102690499988,-0.0348738152905294,-0.286906643035004,-0.782680573941993,0.230690150332142,2.96653539280261,-0.0812239833915243,-0.0348422426319514,0,0,0,0,0,0,0,0,0,0,0,0
1264.8,0.33192,8,0,7,1,1,0.1,0,0,0,0,0,0,0,0,0,0,8.97358314640928,7.7551219566883,18.1258703953006,1.37881765262669,-0.300243217087591,-0.73494158662025,11,0,-1.72769624391665,-2.01136953035464,-1.85741502443422,-0.666605297719139,-4.7213160435306,-3.24603444734682,-1.72766048112978,-2.01134568849672,-1.85737926164736,-0.666593376790182,-4.7212920824634,-3.24598628679384,0,0,0,0,0,0,0,0,0,0,0,0,-0.286914821023607,-0.782655550814712,0.230663646928533,2.96658629960679,-0.0812102690499988,-0.0348738152905294,-0.286886914260928,-0.782680511007065,0.230704574610774,2.96651121675965,-0.0812237882446496,-0.0348405040135265,0,0,0,0,0,0,0,0,0,0,0,0
1264.808,0.331032,8,0,7,1,1,0.1,0,0,0,0,0,0,0,0,0,0,8.02344172423267,7.11968827085509,17.3038324356122,1.26707375454637,-0.317301028152644,-0.81507816339484,11,0,-1.72769624391665,-2.01136953035464,-1.85741502443422,-0.666605297719139,-4.7213160435306,-3.24603444734682,-1.72767240205874,-2.01138192812075,-1.85740310350527,-0.66661769548525,-4.7212681213962,-3.24598628679384,0,0,0,0,0,0,0,0,0,0,0,0,-0.286914821023607,-0.782655550814712,0.230663646928533,2.96658629960679,-0.0812102690499988,-0.0348738152905294,-0.286892673537121,-0.782668801981202,0.230658523989424,2.96659206181213,-0.0812400436286371,-0.0347914853902158,0,0,0,0,0,0,0,0,0,0,0,0
1264.816,0.330684,8,0,7,1,1,0.1,0,0,0,0,0,0,0,0,0,0,9.57474806407872,8.84072521153426,18.8338580666942,1.38771618472971,-0.129839077476748,-0.822505921058453,11,0,-1.72769624391665,-2.01136953035464,-1.85741502443422,-0.666605297719139,-4.7213160435306,-3.24603444734682,-1.72768432298769,-2.01135760942568,-1.85737926164736,-0.666629616414205,-4.7212681213962,-3.24596244493593,0,0,0,0,0,0,0,0,0,0,0,0,-0.286914821023607,-0.782655550814712,0.230663646928533,2.96658629960679,-0.0812102690499988,-0.0348738152905294,-0.286903136200417,-0.782672719121548,0.230690112750736,2.96655447169354,-0.0812920796643626,-0.034796311587787,0,0,0,0,0,0,0,0,0,0,0,0
1264.824,0.336636,8,0,7,1,1,0.1,0,0,0,0,0,0,0,0,0,0,8.7682964430268,8.71381045001757,18.5423345939232,1.31840142417072,-0.250696204572574,-0.655520612821661,11,0,-1.72769624391665,-2.01136953035464,-1.85741502443422,-0.666605297719139,-4.7213160435306,-3.24603444734682,-1.72768432298769,-2.01140576997866,-1.85737926164736,-0.666629616414205,-4.7212681213962,-3.24599844614138,0,0,0,0,0,0,0,0,0,0,0,0,-0.286914821023607,-0.782655550814712,0.230663646928533,2.96658629960679,-0.0812102690499988,-0.0348738152905294,-0.286903905727597,-0.782677597581951,0.23065072483433,2.96660414461797,-0.0812399689468808,-0.0347922269114636,0,0,0,0,0,0,0,0,0,0,0,0
1264.832,0.332281,8,0,7,1,1,0.1,0,0,0,0,0,0,0,0,0,0,7.9725060198907,7.89394349246811,18.1107548331228,1.42590437752822,-0.367077356413749,-0.695801420592932,11,0,-1.72769624391665,-2.01136953035464,-1.85741502443422,-0.666605297719139,-4.7213160435306,-3.24603444734682,-1.72766048112978,-2.01138192812075,-1.85739118257631,-0.666605297719137,-4.72128016153444,-3.24602228799929,0,0,0,0,0,0,0,0,0,0,0,0,-0.286914821023607,-0.782655550814712,0.230663646928533,2.96658629960679,-0.0812102690499988,-0.0348738152905294,-0.286885426728718,-0.78267821800396,0.230666761027356,2.96657141988343,-0.081170168521867,-0.0348167244098919,0,0,0,0,0,0,0,0,0,0,0,0
1264.84,0.331056,8,0,7,1,1,0.1,0,0,0,0,0,0,0,0,0,0,7.78410244267445,9.38388200892743,19.0008769892655,1.28336688583043,-0.455228709040824,-0.762622739891613,11,0,-1.72769624391665,-2.01136953035464,-1.85741502443422,-0.666605297719139,-4.7213160435306,-3.24603444734682,-1.72766048112978,-2.01141769090761,-1.85737926164736,-0.666605297719137,-4.721244160329,-3.24604636827578,0,0,0,0,0,0,0,0,0,0,0,0,-0.286914821023607,-0.782655550814712,0.230663646928533,2.96658629960679,-0.0812102690499988,-0.0348738152905294,-0.286883551154315,-0.782687679608695,0.230644140806889,2.96659234050257,-0.0811302479163473,-0.03476243969328,0,0,0,0,0,0,0,0,0,0,0,0
1264.848,0.332184,8,0,7,1,1,0.1,0,0,0,0,0,0,0,0,0,0,7.95123678599226,9.24116826365643,19.2972413186131,1.44192216997193,-0.471868473194084,-0.649144314026307,11,0,-1.72769624391665,-2.01136953035464,-1.85741502443422,-0.666605297719139,-4.7213160435306,-3.24603444734682,-1.72766048112978,-2.01136953035464,-1.85737926164736,-0.666629616414205,-4.7212681213962,-3.24599844614138,0,0,0,0,0,0,0,0,0,0,0,0,-0.286914821023607,-0.782655550814712,0.230663646928533,2.96658629960679,-0.0812102690499988,-0.0348738152905294,-0.286884666222945,-0.78268076692164,0.230680363288629,2.96656886910514,-0.0812036356151815,-0.0347957208696148,0,0,0,0,0,0,0,0,0,0,0,0
1264.856,0.331992,8,0,7,1,1,0.1,0,0,0,0,0,0,0,0,0,0,8.3766140509648,8.77922206275231,18.4807672958933,1.35412839590899,-0.165206031741411,-0.757848733914875,11,0,-1.72769624391665,-2.01136953035464,-1.85741502443422,-0.666605297719139,-4.7213160435306,-3.24603444734682,-1.72769624391665,-2.0113938490497,-1.8573673407184,-0.66661769548525,-4.7212920824634,-3.24599844614138,0,0,0,0,0,0,0,0,0,0,0,0,-0.286914821023607,-0.782655550814712,0.230663646928533,2.96658629960679,-0.0812102690499988,-0.0348738152905294,-0.28691620946334,-0.782678758622458,0.23066864842722,2.96657089754647,-0.0812601657595858,-0.0348355170164288,0,0,0,0,0,0,0,0,0,0,0,0
1264.864,0.333756,8,0,7,1,1,0.1,0,0,0,0,0,0,0,0,0,0,9.21135675367463,8.17371033271233,18.596122909379,1.36227486358945,-0.411572564583821,-0.801361632990087,11,0,-1.72769624391665,-2.01136953035464,-1.85741502443422,-0.666605297719139,-4.7213160435306,-3.24603444734682,-1.72762424150576,-2.01138192812075,-1.85735541978945,-0.66661769548525,-4.7213160435306,-3.24597436586489,0,0,0,0,0,0,0,0,0,0,0,0,-0.286914821023607,-0.782655550814712,0.230663646928533,2.96658629960679,-0.0812102690499988,-0.0348738152905294,-0.286862680532867,-0.782703170644136,0.230685021525182,2.96655081762316,-0.081191735573771,-0.0348626141313927,0,0,0,0,0,0,0,0,0,0,0,0
1264.872,0.332041,8,0,7,1,1,0.1,0,0,0,0,0,0,0,0,0,0,8.35444360780452,8.37607697149806,18.7256075566517,1.40130475048362,-0.426322959959649,-0.713499820715869,11,0,-1.72769624391665,-2.01136953035464,-1.85741502443422,-0.666605297719139,-4.7213160435306,-3.24603444734682,-1.7277081648456,-2.0113938490497,-1.8573673407184,-0.666629616414205,-4.72125608125796,-3.24598628679384,0,0,0,0,0,0,0,0,0,0,0,0,-0.286914821023607,-0.782655550814712,0.230663646928533,2.96658629960679,-0.0812102690499988,-0.0348738152905294,-0.286922112512491,-0.782675038914233,0.230667100668032,2.96657777868753,-0.0812911551318236,-0.0347802663264607,0,0,0,0,0,0,0,0,0,0,0,0
1264.88,0.331476,8,0,7,1,1,0.1,0,0,0,0,0,0,0,0,0,0,8.65067825614784,7.36464860435113,17.7958662707144,1.36051126369287,-0.692704378158526,-0.665735214081343,11,0,-1.72769624391665,-2.01136953035464,-1.85741502443422,-0.666605297719139,-4.7213160435306,-3.24603444734682,-1.72763616243471,-2.01136953035464,-1.85739118257631,-0.666605297719137,-4.721244160329,-3.24599844614138,0,0,0,0,0,0,0,0,0,0,0,0,-0.286914821023607,-0.782655550814712,0.230663646928533,2.96658629960679,-0.0812102690499988,-0.0348738152905294,-0.286862914284346,-0.782684464668402,0.230676903461707,2.9665546529095,-0.0811642235854525,-0.034759748971219,0,0,0,0,0,0,0,0,0,0,0,0
1264.888,0.332184,8,0,7,1,1,0.1,0,0,0,0,0,0,0,0,0,0,8.09621138895417,7.18683861909119,17.3642495294374,1.28234344150818,-0.590093330457234,-0.71023296702547,11,0,-1.72769624391665,-2.01136953035464,-1.85741502443422,-0.666605297719139,-4.7213160435306,-3.24603444734682,-1.72767240205874,-2.01135760942568,-1.85739118257631,-0.666593376790182,-4.721244160329,-3.24595052400698,0,0,0,0,0,0,0,0,0,0,0,0,-0.286914821023607,-0.782655550814712,0.230663646928533,2.96658629960679,-0.0812102690499988,-0.0348738152905294,-0.286891234383383,-0.78267368629633,0.230688203655298,2.96652743217573,-0.0812885716398182,-0.0347626238720953,0,0,0,0,0,0,0,0,0,0,0,0
1264.896,0.332568,8,0,7,1,1,0.1,0,0,0,0,0,0,0,0,0,0,9.13306569097555,9.33393625540144,19.4783651414606,1.52444131775658,-0.160241434332708,-0.763523171024732,11,0,-1.72769624391665,-2.01136953035464,-1.85741502443422,-0.666605297719139,-4.7213160435306,-3.24603444734682,-1.72763616243471,-2.0113938490497,-1.85739118257631,-0.66661769548525,-4.72128016153444,-3.24598628679384,0,0,0,0,0,0,0,0,0,0,0,0,-0.286914821023607,-0.782655550814712,0.230663646928533,2.96658629960679,-0.0812102690499988,-0.0348738152905294,-0.286866430909282,-0.782685543171197,0.2306553988153,2.96659448716113,-0.0811879691937079,-0.0348044486804198,0,0,0,0,0,0,0,0,0,0,0,0
1264.904,0.33342,8,0,7,1,1,0.1,0,0,0,0,0,0,0,0,0,0,9.04515471852317,8.48491728360689,18.7122091778159,1.42155881749269,-0.368306262646457,-0.724221818292264,11,0,-1.72769624391665,-2.01136953035464,-1.85741502443422,-0.666605297719139,-4.7213160435306,-3.24603444734682,-1.72766048112978,-2.0113938490497,-1.85737926164736,-0.66661769548525,-4.7212681213962,-3.24597436586489,0,0,0,0,0,0,0,0,0,0,0,0,-0.286914821023607,-0.782655550814712,0.230663646928533,2.96658629960679,-0.0812102690499988,-0.0348738152905294,-0.286885201319753,-0.782684056009702,0.230662025075121,2.96657996238854,-0.0812398261928038,-0.0347904162841007,0,0,0,0,0,0,0,0,0,0,0,0
1264.912,0.3303,8,0,7,1,1,0.1,0,0,0,0,0,0,0,0,0,0,8.74390488837022,8.23641445479099,18.1828752012595,1.32390947039548,-0.314154662901903,-0.702121153012038,11,0,-1.72769624391665,-2.01136953035464,-1.85741502443422,-0.666605297719139,-4.7213160435306,-3.24603444734682,-1.72767240205874,-2.01136953035464,-1.85740310350527,-0.66661769548525,-4.72125608125796,-3.24605828920473,0,0,0,0,0,0,0,0,0,0,0,0,-0.286914821023607,-0.782655550814712,0.230663646928533,2.96658629960679,-0.0812102690499988,-0.0348738152905294,-0.286891378318482,-0.782667722203011,0.230668664333768,2.96658207233801,-0.0811312969972838,-0.0347853228947065,0,0,0,0,0,0,0,0,0,0,0,0
1264.92,0.335737,8,0,7,1,1,0.1,0,0,0,0,0,0,0,0,0,0,8.74469505583181,8.20441309842265,18.358729642589,1.30384217902428,-0.426611311951895,-0.854601896300563,11,0,-1.72769624391665,-2.01136953035464,-1.85741502443422,-0.666605297719139,-4.7213160435306,-3.24603444734682,-1.72767240205874,-2.01138192812075,-1.8573673407184,-0.66661769548525,-4.7212920824634,-3.24602228799929,0,0,0,0,0,0,0,0,0,0,0,0,-0.286914821023607,-0.782655550814712,0.230663646928533,2.96658629960679,-0.0812102690499988,-0.0348738152905294,-0.286897358397636,-0.782684391436976,0.230678397993108,2.96656099181452,-0.0811891210009213,-0.0348376805819331,0,0,0,0,0,0,0,0,0,0,0,0
1264.928,0.341352,8,0,7,1,1,0.1,0,0,0,0,0,0,0,0,0,0,9.12226895045458,7.72670548497313,17.919458526433,1.34885169833652,-0.320109628521738,-0.788102015672862,11,0,-1.72769624391665,-2.01136953035464,-1.85741502443422,-0.666605297719139,-4.7213160435306,-3.24603444734682,-1.72767240205874,-2.0113938490497,-1.85739118257631,-0.666605297719137,-4.721244160329,-3.24601036707033,0,0,0,0,0,0,0,0,0,0,0,0,-0.286914821023607,-0.782655550814712,0.230663646928533,2.96658629960679,-0.0812102690499988,-0.0348738152905294,-0.286891666817323,-0.78267653165281,0.230657014602897,2.96657831491865,-0.0812009543407636,-0.0347615641101656,0,0,0,0,0,0,0,0,0,0,0,0
1264.936,0.3339,8,0,7,1,1,0.1,0,0,0,0,0,0,0,0,0,0,7.40451866007598,7.92050391652604,17.8580909460127,1.2768072321039,-0.405343265805001,-0.742451743894037,11,0,-1.72769624391665,-2.01136953035464,-1.85741502443422,-0.666605297719139,-4.7213160435306,-3.24603444734682,-1.72769624391665,-2.01141769090761,-1.8573673407184,-0.66661769548525,-4.7212920824634,-3.24601036707033,0,0,0,0,0,0,0,0,0,0,0,0,-0.286914821023607,-0.782655550814712,0.230663646928533,2.96658629960679,-0.0812102690499988,-0.0348738152905294,-0.286916590403257,-0.782681173426044,0.230649149251726,2.96659518816795,-0.0812431197234183,-0.0348327313594681,0,0,0,0,0,0,0,0,0,0,0,0
1264.944,0.331836,8,0,7,1,1,0.1,0,0,0,0,0,0,0,0,0,0,8.07632773327702,7.53697783993874,17.9446689327466,1.39802278981002,-0.37157598824524,-0.665433175528602,11,0,-1.72769624391665,-2.01136953035464,-1.85741502443422,-0.666605297719139,-4.7213160435306,-3.24603444734682,-1.72768432298769,-2.01136953035464,-1.85737926164736,-0.666605297719137,-4.7212681213962,-3.24598628679384,0,0,0,0,0,0,0,0,0,0,0,0,-0.286914821023607,-0.782655550814712,0.230663646928533,2.96658629960679,-0.0812102690499988,-0.0348738152905294,-0.286903625758273,-0.782675611156764,0.230683526838965,2.96654336986385,-0.0812566992446899,-0.0348017667075416,0,0,0,0,0,0,0,0,0,0,0,0
1264.952,0.331344,8,0,7,1,1,0.1,0,0,0,0,0,0,0,0,0,0,7.90436932697864,8.0820521118996,18.1271305752508,1.34224805300909,-0.638596100391755,-0.588431805307809,11,0,-1.72769624391665,-2.01136953035464,-1.85741502443422,-0.666605297719139,-4.7213160435306,-3.24603444734682,-1.72767240205874,-2.0113938490497,-1.85737926164736,-0.66661769548525,-4.7212920824634,-3.24599844614138,0,0,0,0,0,0,0,0,0,0,0,0,-0.286914821023607,-0.782655550814712,0.230663646928533,2.96658629960679,-0.0812102690499988,-0.0348738152905294,-0.286896715057848,-0.782680285787554,0.230662023101575,2.96658347169908,-0.0812250582119652,-0.0348303448100179,0,0,0,0,0,0,0,0,0,0,0,0
1264.96,0.332413,8,0,7,1,1,0.1,0,0,0,0,0,0,0,0,0,0,8.83829767900343,7.95488037083332,18.0819138079328,1.36827903818435,-0.251414901936827,-0.714365552686811,11,0,-1.72769624391665,-2.01136953035464,-1.85741502443422,-0.666605297719139,-4.7213160435306,-3.24603444734682,-1.72766048112978,-2.01136953035464,-1.85737926164736,-0.666605297719137,-4.7212681213962,-3.24597436586489,0,0,0,0,0,0,0,0,0,0,0,0,-0.286914821023607,-0.782655550814712,0.230663646928533,2.96658629960679,-0.0812102690499988,-0.0348738152905294,-0.28688496523602,-0.782682451249793,0.230683526838965,2.96654348915655,-0.0812390072718033,-0.0347971408420621,0,0,0,0,0,0,0,0,0,0,0,0
1264.968,0.3312,8,0,7,1,1,0.1,0,0,0,0,0,0,0,0,0,0,8.96622214949952,8.02291447582981,17.9561269937301,1.34139760328824,-0.280316114724114,-0.794914845115286,11,0,-1.72769624391665,-2.01136953035464,-1.85741502443422,-0.666605297719139,-4.7213160435306,-3.24603444734682,-1.72767240205874,-2.01136953035464,-1.85735541978945,-0.666629616414205,-4.7212920824634,-3.24602228799929,0,0,0,0,0,0,0,0,0,0,0,0,-0.286914821023607,-0.782655550814712,0.230663646928533,2.96658629960679,-0.0812102690499988,-0.0348738152905294,-0.286897847481675,-0.782687622802195,0.230693612271948,2.96654866794155,-0.0811886949222744,-0.0348397965478706,0,0,0,0,0,0,0,0,0,0,0,0
1264.976,0.3318,8,0,7,1,1,0.1,0,0,0,0,0,0,0,0,0,0,8.46542620726718,7.50319427254592,17.8337045417921,1.38182413769112,-0.366792506411769,-0.694650336518968,11,0,-1.72769624391665,-2.01136953035464,-1.85741502443422,-0.666605297719139,-4.7213160435306,-3.24603444734682,-1.72766048112978,-2.01141769090761,-1.85739118257631,-0.666605297719137,-4.7213160435306,-3.24598628679384,0,0,0,0,0,0,0,0,0,0,0,0,-0.286914821023607,-0.782655550814712,0.230663646928533,2.96658629960679,-0.0812102690499988,-0.0348738152905294,-0.286889267700631,-0.782681315547768,0.230637509743113,2.9666090824114,-0.0812293857593704,-0.0348584004833102,0,0,0,0,0,0,0,0,0,0,0,0
1264.984,0.330456,8,0,7,1,1,0.1,0,0,0,0,0,0,0,0,0,0,8.91475769665536,7.92610163109483,17.7944348746998,1.23430977039885,-0.500359789066392,-0.782203183816913,11,0,-1.72769624391665,-2.01136953035464,-1.85741502443422,-0.666605297719139,-4.7213160435306,-3.24603444734682,-1.72769624391665,-2.0113938490497,-1.85735541978945,-0.66664153734316,-4.72130412260164,-3.24602228799929,0,0,0,0,0,0,0,0,0,0,0,0,-0.286914821023607,-0.782655550814712,0.230663646928533,2.96658629960679,-0.0812102690499988,-0.0348738152905294,-0.286917847316307,-0.782682244407657,0.230672171346029,2.96658527376771,-0.0812265140445592,-0.0348539671336875,0,0,0,0,0,0,0,0,0,0,0,0
1264.992,0.331044,8,0,7,1,1,0.1,0,0,0,0,0,0,0,0,0,0,9.22798721222185,9.27326579686239,19.5721741428546,1.4347088369122,-0.274434854732602,-0.712266128855998,11,0,-1.72769624391665,-2.01136953035464,-1.85741502443422,-0.666605297719139,-4.7213160435306,-3.24603444734682,-1.72767240205874,-2.01135760942568,-1.85737926164736,-0.66664153734316,-4.7212920824634,-3.24602228799929,0,0,0,0,0,0,0,0,0,0,0,0,-0.286914821023607,-0.782655550814712,0.230663646928533,2.96658629960679,-0.0812102690499988,-0.0348738152905294,-0.286895842845358,-0.78267496333107,0.230688560022219,2.96657236543528,-0.0811890712948428,-0.0348355591707805,0,0,0,0,0,0,0,0,0,0,0,0
1265,0.332004,8,0,7,1,1,0.1,0,0,0,0,0,0,0,0,0,0,8.74767119472865,7.30870199249838,17.4350775835067,1.28743641800933,-0.156517349241738,-0.757428363413546,11,0,-1.72769624391665,-2.01136953035464,-1.85741502443422,-0.666605297719139,-4.7213160435306,-3.24603444734682,-1.72767240205874,-2.0113938490497,-1.85737926164736,-0.666629616414205,-4.7212681213962,-3.24597436586489,0,0,0,0,0,0,0,0,0,0,0,0,-0.286914821023607,-0.782655550814712,0.230663646928533,2.96658629960679,-0.0812102690499988,-0.0348738152905294,-0.286894385028143,-0.78267981031993,0.230660474340739,2.96659144105915,-0.0812576782121434,-0.0347897350888323,0,0,0,0,0,0,0,0,0,0,0,0
1265.008,0.331129,8,0,7,1,1,0.1,0,0,0,0,0,0,0,0,0,0,8.86176949512997,8.52730605030881,18.5217588225043,1.32854015638947,-0.427899964017311,-0.711159389802878,11,0,-1.72769624391665,-2.01136953035464,-1.85741502443422,-0.666605297719139,-4.7213160435306,-3.24603444734682,-1.72766048112978,-2.0113938490497,-1.8573673407184,-0.666605297719137,-4.7212681213962,-3.24598628679384,0,0,0,0,0,0,0,0,0,0,0,0,-0.286914821023607,-0.782655550814712,0.230663646928533,2.96658629960679,-0.0812102690499988,-0.0348738152905294,-0.286886187504408,-0.782690227934969,0.230670263185696,2.96655640400621,-0.0812217107084547,-0.0347963583592181,0,0,0,0,0,0,0,0,0,0,0,0
1265.016,0.335316,8,0,7,1,1,0.1,0,0,0,0,0,0,0,0,0,0,8.39898838105631,8.46132221537328,18.5357048022524,1.40814613771705,-0.367424149735433,-0.723988824079976,11,0,-1.72769624391665,-2.01136953035464,-1.85741502443422,-0.666605297719139,-4.7213160435306,-3.24603444734682,-1.7277081648456,-2.01140576997866,-1.85734349886049,-0.666629616414205,-4.72125608125796,-3.24601036707033,0,0,0,0,0,0,0,0,0,0,0,0,-0.286914821023607,-0.782655550814712,0.230663646928533,2.96658629960679,-0.0812102690499988,-0.0348738152905294,-0.286923970994254,-0.782686872707623,0.230670601793422,2.96656714675976,-0.0812552329051045,-0.0347853952222196,0,0,0,0,0,0,0,0,0,0,0,0
1265.024,0.333624,8,0,7,1,1,0.1,0,0,0,0,0,0,0,0,0,0,7.40811063848825,7.28509016519433,17.4933469553603,1.4005671751874,-0.511547378597926,-0.784928715485081,11,0,-1.72769624391665,-2.01136953035464,-1.85741502443422,-0.666605297719139,-4.7213160435306,-3.24603444734682,-1.72769624391665,-2.01136953035464,-1.85737926164736,-0.666653458272116,-4.7212681213962,-3.24601036707033,0,0,0,0,0,0,0,0,0,0,0,0,-0.286914821023607,-0.782655550814712,0.230663646928533,2.96658629960679,-0.0812102690499988,-0.0348738152905294,-0.286912363664289,-0.782668855260533,0.230677261809071,2.96659207007676,-0.0812393460335907,-0.0347974412013723,0,0,0,0,0,0,0,0,0,0,0,0
1265.032,0.333156,8,0,7,1,1,0.1,0,0,0,0,0,0,0,0,0,0,8.06359248316765,7.460018827826,17.6743318958469,1.310938157701,-0.372705196290498,-0.74905124496692,11,0,-1.72769624391665,-2.01136953035464,-1.85741502443422,-0.666605297719139,-4.7213160435306,-3.24603444734682,-1.72766048112978,-2.01136953035464,-1.85737926164736,-0.666605297719137,-4.721244160329,-3.24602228799929,0,0,0,0,0,0,0,0,0,0,0,0,-0.286914821023607,-0.782655550814712,0.230663646928533,2.96658629960679,-0.0812102690499988,-0.0348738152905294,-0.286882781792987,-0.782682801443146,0.230683528864775,2.96654327537923,-0.0811646807036734,-0.0347680672669452,0,0,0,0,0,0,0,0,0,0,0,0
1265.04,0.331356,8,0,7,1,1,0.1,0,0,0,0,0,0,0,0,0,0,8.51024275383794,7.69621571407636,17.7433617223916,1.36141613079057,-0.151935916991902,-0.67405562001177,11,0,-1.72769624391665,-2.01136953035464,-1.85741502443422,-0.666605297719139,-4.7213160435306,-3.24603444734682,-1.72768432298769,-2.01138192812075,-1.85741502443422,-0.666605297719137,-4.72130412260164,-3.24597436586489,0,0,0,0,0,0,0,0,0,0,0,0,-0.286914821023607,-0.782655550814712,0.230663646928533,2.96658629960679,-0.0812102690499988,-0.0348738152905294,-0.286904602810867,-0.782660401008301,0.230653508600587,2.96659460574114,-0.081280393329533,-0.0348447055611662,0,0,0,0,0,0,0,0,0,0,0,0
1265.048,0.331129,8,0,7,1,1,0.1,0,0,0,0,0,0,0,0,0,0,7.85972512244276,6.87453241756452,16.9952192942821,1.27361668910387,-0.319620644632359,-0.757322172341578,11,0,-1.72769624391665,-2.01136953035464,-1.85741502443422,-0.666605297719139,-4.7213160435306,-3.24603444734682,-1.72767240205874,-2.0113938490497,-1.85739118257631,-0.666593376790182,-4.72128016153444,-3.24599844614138,0,0,0,0,0,0,0,0,0,0,0,0,-0.286914821023607,-0.782655550814712,0.230663646928533,2.96658629960679,-0.0812102690499988,-0.0348738152905294,-0.286895093995711,-0.782676831126031,0.230658562324055,2.96656984720756,-0.0812233617672559,-0.034815242180273,0,0,0,0,0,0,0,0,0,0,0,0
1265.056,0.332424,8,0,7,1,1,0.1,0,0,0,0,0,0,0,0,0,0,8.53398350358329,9.0145343386407,18.9782192166705,1.40095861648735,-0.348617727137693,-0.813451417906332,11,0,-1.72769624391665,-2.01136953035464,-1.85741502443422,-0.666605297719139,-4.7213160435306,-3.24603444734682,-1.72769624391665,-2.01138192812075,-1.85737926164736,-0.666629616414205,-4.7212920824634,-3.24598628679384,0,0,0,0,0,0,0,0,0,0,0,0,-0.286914821023607,-0.782655550814712,0.230663646928533,2.96658629960679,-0.0812102690499988,-0.0348738152905294,-0.28691503843459,-0.782671412244316,0.230670221858961,2.96658212750505,-0.0812783115960305,-0.0348317960941571,0,0,0,0,0,0,0,0,0,0,0,0
1265.064,0.331416,8,0,7,1,1,0.1,0,0,0,0,0,0,0,0,0,0,7.74276473216046,8.01762730744575,18.2565265661421,1.39661664804233,-0.457443645076784,-0.76545606768779,11,0,-1.72769624391665,-2.01136953035464,-1.85741502443422,-0.666605297719139,-4.7213160435306,-3.24603444734682,-1.72769624391665,-2.01136953035464,-1.8573673407184,-0.66661769548525,-4.721244160329,-3.24604636827578,0,0,0,0,0,0,0,0,0,0,0,0,-0.286914821023607,-0.782655550814712,0.230663646928533,2.96658629960679,-0.0812102690499988,-0.0348738152905294,-0.286911453970157,-0.782676995601509,0.230688541526009,2.96654387722649,-0.0811819351389713,-0.0347755848988755,0,0,0,0,0,0,0,0,0,0,0,0
1265.072,0.331404,8,0,7,1,1,0.1,0,0,0,0,0,0,0,0,0,0,7.24543773956866,7.2740143404338,17.4598215018041,1.3618518348082,-0.557063339568651,-0.660823369018842,11,0,-1.72769624391665,-2.01136953035464,-1.85741502443422,-0.666605297719139,-4.7213160435306,-3.24603444734682,-1.72768432298769,-2.01135760942568,-1.85739118257631,-0.666605297719137,-4.7213160435306,-3.24599844614138,0,0,0,0,0,0,0,0,0,0,0,0,-0.286914821023607,-0.782655550814712,0.230663646928533,2.96658629960679,-0.0812102690499988,-0.0348738152905294,-0.286906968269878,-0.782668389846993,0.230686646959547,2.96654929069371,-0.0812451309895249,-0.0348739587678415,0,0,0,0,0,0,0,0,0,0,0,0
1265.08,0.330768,8,0,7,1,1,0.1,0,0,0,0,0,0,0,0,0,0,9.00598972092672,7.51071570030988,17.9144036727986,1.39181148622157,-0.329476128348498,-0.758963404313282,11,0,-1.72769624391665,-2.01136953035464,-1.85741502443422,-0.666605297719139,-4.7213160435306,-3.24603444734682,-1.72768432298769,-2.0113938490497,-1.85737926164736,-0.66661769548525,-4.72128016153444,-3.24599844614138,0,0,0,0,0,0,0,0,0,0,0,0,-0.286914821023607,-0.782655550814712,0.230663646928533,2.96658629960679,-0.0812102690499988,-0.0348738152905294,-0.286904959028509,-0.782677039913686,0.230662024076919,2.96658179181498,-0.0812411229551453,-0.034814337807941,0,0,0,0,0,0,0,0,0,0,0,0
1265.088,0.330529,8,0,7,1,1,0.1,0,0,0,0,0,0,0,0,0,0,8.40195336939413,9.28485803668043,19.0608996539558,1.4270697548816,-0.319884070532248,-0.704119677187924,11,0,-1.72769624391665,-2.01136953035464,-1.85741502443422,-0.666605297719139,-4.7213160435306,-3.24603444734682,-1.72766048112978,-2.01134568849672,-1.85739118257631,-0.666629616414205,-4.72130412260164,-3.24602228799929,0,0,0,0,0,0,0,0,0,0,0,0,-0.286914821023607,-0.782655550814712,0.230663646928533,2.96658629960679,-0.0812102690499988,-0.0348738152905294,-0.286886732136923,-0.782672512172513,0.230693233741894,2.96656222367549,-0.0811728041541312,-0.0348540390222741,0,0,0,0,0,0,0,0,0,0,0,0
1265.096,0.331272,8,0,7,1,1,0.1,0,0,0,0,0,0,0,0,0,0,8.10862906671099,7.5179669409824,17.5954219626824,1.31519204029491,-0.432450312558509,-0.76751154123238,11,0,-1.72769624391665,-2.01136953035464,-1.85741502443422,-0.666605297719139,-4.7213160435306,-3.24603444734682,-1.72768432298769,-2.01140576997866,-1.85737926164736,-0.666593376790182,-4.721244160329,-3.24599844614138,0,0,0,0,0,0,0,0,0,0,0,0,-0.286914821023607,-0.782655550814712,0.230663646928533,2.96658629960679,-0.0812102690499988,-0.0348738152905294,-0.286902167963267,-0.782680457937198,0.230655441093082,2.96656549850498,-0.0812362049871398,-0.0347637127580356,0,0,0,0,0,0,0,0,0,0,0,0
1265.104,0.332196,8,0,7,1,1,0.1,0,0,0,0,0,0,0,0,0,0,8.70046728645476,7.2966719636095,17.7501827003192,1.46512219107932,-0.21275443385168,-0.72389691320619,11,0,-1.72769624391665,-2.01136953035464,-1.85741502443422,-0.666605297719139,-4.7213160435306,-3.24603444734682,-1.72767240205874,-2.01135760942568,-1.85737926164736,-0.666629616414205,-4.72128016153444,-3.24598628679384,0,0,0,0,0,0,0,0,0,0,0,0,-0.286914821023607,-0.782655550814712,0.230663646928533,2.96658629960679,-0.0812102690499988,-0.0348738152905294,-0.286894903144515,-0.782675963233697,0.23069011175244,2.96655737707113,-0.0812406740717864,-0.0348155774174975,0,0,0,0,0,0,0,0,0,0,0,0
1265.112,0.336576,8,0,7,1,1,0.1,0,0,0,0,0,0,0,0,0,0,8.86741828253009,8.83771935214523,19.0695710234658,1.39109378110935,-0.351091603607249,-0.697594123042737,11,0,-1.72769624391665,-2.01136953035464,-1.85741502443422,-0.666605297719139,-4.7213160435306,-3.24603444734682,-1.72768432298769,-2.0113938490497,-1.8573673407184,-0.666605297719137,-4.7212681213962,-3.24602228799929,0,0,0,0,0,0,0,0,0,0,0,0,-0.286914821023607,-0.782655550814712,0.230663646928533,2.96658629960679,-0.0812102690499988,-0.0348738152905294,-0.286904848212072,-0.782683387812797,0.230670263185696,2.96655750850731,-0.0812036917300098,-0.0348040984449401,0,0,0,0,0,0,0,0,0,0,0,0
1265.12,0.332328,8,0,7,1,1,0.1,0,0,0,0,0,0,0,0,0,0,9.63845519535072,9.53773824877728,19.3854605278354,1.36468325246916,-0.411431690384143,-0.743828809653728,11,0,-1.72769624391665,-2.01136953035464,-1.85741502443422,-0.666605297719139,-4.7213160435306,-3.24603444734682,-1.72767240205874,-2.01136953035464,-1.85737926164736,-0.666629616414205,-4.72125608125796,-3.24601036707033,0,0,0,0,0,0,0,0,0,0,0,0,-0.286914821023607,-0.782655550814712,0.230663646928533,2.96658629960679,-0.0812102690499988,-0.0348738152905294,-0.286892899333654,-0.782677522916129,0.230680364300066,2.96656778156997,-0.0812020051703904,-0.0347810803628329,0,0,0,0,0,0,0,0,0,0,0,0
1265.128,0.332232,8,0,7,1,1,0.1,0,0,0,0,0,0,0,0,0,0,8.0173701434556,7.82002679415387,17.6501861503311,1.25859352430827,-0.345055900809635,-0.752409124946367,11,0,-1.72769624391665,-2.01136953035464,-1.85741502443422,-0.666605297719139,-4.7213160435306,-3.24603444734682,-1.72763616243471,-2.01142961183657,-1.85737926164736,-0.66661769548525,-4.72125608125796,-3.24601036707033,0,0,0,0,0,0,0,0,0,0,0,0,-0.286914821023607,-0.782655550814712,0.230663646928533,2.96658629960679,-0.0812102690499988,-0.0348738152905294,-0.286865641350987,-0.78269483022776,0.230632777493483,2.96661672651545,-0.0811496695322488,-0.0347677127203835,0,0,0,0,0,0,0,0,0,0,0,0
1265.136,0.331717,8,0,7,1,1,0.1,0,0,0,0,0,0,0,0,0,0,8.78773994996105,9.08896964692763,19.0110185071351,1.37462869281381,-0.302120788911115,-0.705685702913352,11,0,-1.72769624391665,-2.01136953035464,-1.85741502443422,-0.666605297719139,-4.7213160435306,-3.24603444734682,-1.72768432298769,-2.0113938490497,-1.85737926164736,-0.66661769548525,-4.7212681213962,-3.24601036707033,0,0,0,0,0,0,0,0,0,0,0,0,-0.286914821023607,-0.782655550814712,0.230663646928533,2.96658629960679,-0.0812102690499988,-0.0348738152905294,-0.286903861880265,-0.782677215911044,0.230662025075121,2.96658106690231,-0.0812218070720594,-0.0347981553572986,0,0,0,0,0,0,0,0,0,0,0,0
1265.144,0.331032,8,0,7,1,1,0.1,0,0,0,0,0,0,0,0,0,0,8.46247255320603,9.23277614753868,19.0928310116251,1.36973569856145,-0.361536204413627,-0.69515567162125,11,0,-1.72769624391665,-2.01136953035464,-1.85741502443422,-0.666605297719139,-4.7213160435306,-3.24603444734682,-1.72766048112978,-2.01136953035464,-1.85740310350527,-0.66661769548525,-4.7212681213962,-3.24598628679384,0,0,0,0,0,0,0,0,0,0,0,0,-0.286914821023607,-0.782655550814712,0.230663646928533,2.96658629960679,-0.0812102690499988,-0.0348738152905294,-0.286883145324598,-0.782670966190334,0.230668663322514,2.96658010839197,-0.0812220288547058,-0.0347921937111109,0,0,0,0,0,0,0,0,0,0,0,0
1265.152,0.33102,8,0,7,1,1,0.1,0,0,0,0,0,0,0,0,0,0,9.10154541470927,8.15273392003319,18.2923954712659,1.33058683008171,-0.372470559115709,-0.720916015154624,11,0,-1.72769624391665,-2.01136953035464,-1.85741502443422,-0.666605297719139,-4.7213160435306,-3.24603444734682,-1.72769624391665,-2.01142961183657,-1.85734349886049,-0.666593376790182,-4.7212681213962,-3.24597436586489,0,0,0,0,0,0,0,0,0,0,0,0,-0.286914821023607,-0.782655550814712,0.230663646928533,2.96658629960679,-0.0812102690499988,-0.0348738152905294,-0.286916564405377,-0.782695041942341,0.230655815604096,2.96655469705964,-0.0812927015488748,-0.0347993523334751,0,0,0,0,0,0,0,0,0,0,0,0
1265.16,0.332208,8,0,7,1,1,0.1,0,0,0,0,0,0,0,0,0,0,8.30328654495701,9.41155916353543,19.4286747690025,1.34478585767463,-0.546197242438274,-0.66215339180161,11,0,-1.72769624391665,-2.01136953035464,-1.85741502443422,-0.666605297719139,-4.7213160435306,-3.24603444734682,-1.72763616243471,-2.01134568849672,-1.85737926164736,-0.66661769548525,-4.7212681213962,-3.24601036707033,0,0,0,0,0,0,0,0,0,0,0,0,-0.286914821023607,-0.782655550814712,0.230663646928533,2.96658629960679,-0.0812102690499988,-0.0348738152905294,-0.286865398002801,-0.782686153416989,0.230701412973028,2.96653468760474,-0.0811490799432425,-0.0348006668129257,0,0,0,0,0,0,0,0,0,0,0,0
1265.168,0.33126,8,0,7,1,1,0.1,0,0,0,0,0,0,0,0,0,0,8.61377689587097,7.69035809299088,17.887320332379,1.39167662392276,-0.263386360736175,-0.828063581300055,11,0,-1.72769624391665,-2.01136953035464,-1.85741502443422,-0.666605297719139,-4.7213160435306,-3.24603444734682,-1.72769624391665,-2.01140576997866,-1.85739118257631,-0.666629616414205,-4.72128016153444,-3.24601036707033,0,0,0,0,0,0,0,0,0,0,0,0,-0.286914821023607,-0.782655550814712,0.230663646928533,2.96658629960679,-0.0812102690499988,-0.0348738152905294,-0.286913499135592,-0.782668687972447,0.230644098648641,2.96661756799484,-0.0812418760030511,-0.0348109448403389,0,0,0,0,0,0,0,0,0,0,0,0
1265.176,0.332101,8,0,7,1,1,0.1,0,0,0,0,0,0,0,0,0,0,7.54545753383622,7.39800891541709,17.4821090375787,1.36304563980077,-0.31797601117725,-0.788945442236468,11,0,-1.72769624391665,-2.01136953035464,-1.85741502443422,-0.666605297719139,-4.7213160435306,-3.24603444734682,-1.72767240205874,-2.01140576997866,-1.85737926164736,-0.66661769548525,-4.7212920824634,-3.24599844614138,0,0,0,0,0,0,0,0,0,0,0,0,-0.286914821023607,-0.782655550814712,0.230663646928533,2.96658629960679,-0.0812102690499988,-0.0348738152905294,-0.286896905495761,-0.782681493173276,0.230652273585228,2.96659531398827,-0.0812253745264474,-0.0348281814112457,0,0,0,0,0,0,0,0,0,0,0,0
1265.184,0.33258,8,0,7,1,1,0.1,0,0,0,0,0,0,0,0,0,0,7.5351738738421,6.14952338517445,16.6451477720283,1.32218794092875,-0.427173067229309,-0.711135741511112,11,0,-1.72769624391665,-2.01136953035464,-1.85741502443422,-0.666605297719139,-4.7213160435306,-3.24603444734682,-1.72769624391665,-2.01140576997866,-1.85739118257631,-0.66661769548525,-4.72128016153444,-3.24601036707033,0,0,0,0,0,0,0,0,0,0,0,0,-0.286914821023607,-0.782655550814712,0.230663646928533,2.96658629960679,-0.0812102690499988,-0.0348738152905294,-0.286913645753181,-0.78266951370144,0.230645649363039,2.96660572670057,-0.0812417096822885,-0.0348131681480315,0,0,0,0,0,0,0,0,0,0,0,0
1265.192,0.334536,8,0,7,1,1,0.1,0,0,0,0,0,0,0,0,0,0,9.55511939590034,8.73353226111007,19.0061649423351,1.44653544699195,-0.129376856739033,-0.76671752580017,11,0,-1.72769624391665,-2.01136953035464,-1.85741502443422,-0.666605297719139,-4.7213160435306,-3.24603444734682,-1.72767240205874,-2.01136953035464,-1.85737926164736,-0.666629616414205,-4.72128016153444,-3.24597436586489,0,0,0,0,0,0,0,0,0,0,0,0,-0.286914821023607,-0.782655550814712,0.230663646928533,2.96658629960679,-0.0812102690499988,-0.0348738152905294,-0.28689509363474,-0.78267717095015,0.230680362290361,2.96656861335778,-0.0812586693532663,-0.0348118723416771,0,0,0,0,0,0,0,0,0,0,0,0
1265.2,0.332244,8,0,7,1,1,0.1,0,0,0,0,0,0,0,0,0,0,8.31489446555698,6.90123135881763,17.0108339243442,1.28914506046925,-0.366902719894124,-0.749483693440646,11,0,-1.72769624391665,-2.01136953035464,-1.85741502443422,-0.666605297719139,-4.7213160435306,-3.24603444734682,-1.72767240205874,-2.01140576997866,-1.85737926164736,-0.66664153734316,-4.7212681213962,-3.24597436586489,0,0,0,0,0,0,0,0,0,0,0,0,-0.286914821023607,-0.782655550814712,0.230663646928533,2.96658629960679,-0.0812102690499988,-0.0348738152905294,-0.286894428865185,-0.782680191954834,0.230649174119939,2.96661512463896,-0.0812581613626337,-0.0347853488556262,0,0,0,0,0,0,0,0,0,0,0,0
1265.208,0.338004,8,0,7,1,1,0.1,0,0,0,0,0,0,0,0,0,0,8.60585010548393,8.83830990017973,18.8300391963022,1.31750883572248,-0.45407165901726,-0.706312780431145,11,0,-1.72769624391665,-2.01136953035464,-1.85741502443422,-0.666605297719139,-4.7213160435306,-3.24603444734682,-1.7277081648456,-2.01136953035464,-1.8573673407184,-0.666605297719137,-4.7212920824634,-3.24599844614138,0,0,0,0,0,0,0,0,0,0,0,0,-0.286914821023607,-0.782655550814712,0.230663646928533,2.96658629960679,-0.0812102690499988,-0.0348738152905294,-0.286925303512492,-0.782673733332126,0.230690150332142,2.96653406174286,-0.0812770325024434,-0.0348437846587878,0,0,0,0,0,0,0,0,0,0,0,0
1265.216,0.332604,8,0,7,1,1,0.1,0,0,0,0,0,0,0,0,0,0,7.26501678586483,7.50796149246358,17.672727233391,1.36275062652617,-0.444258151330375,-0.680498638822841,11,0,-1.72769624391665,-2.01136953035464,-1.85741502443422,-0.666605297719139,-4.7213160435306,-3.24603444734682,-1.72767240205874,-2.01138192812075,-1.85737926164736,-0.666605297719137,-4.7212681213962,-3.24599844614138,0,0,0,0,0,0,0,0,0,0,0,0,-0.286914821023607,-0.782655550814712,0.230663646928533,2.96658629960679,-0.0812102690499988,-0.0348738152905294,-0.286894493614235,-0.782680287200978,0.230673387361708,2.96655666637727,-0.0812213108887615,-0.0347995475191547,0,0,0,0,0,0,0,0,0,0,0,0
1265.224,0.333576,8,0,7,1,1,0.1,0,0,0,0,0,0,0,0,0,0,8.04006035097242,7.20393210038641,17.5064027103055,1.34819854890168,-0.466487636388009,-0.589920716935049,11,0,-1.72769624391665,-2.01136953035464,-1.85741502443422,-0.666605297719139,-4.7213160435306,-3.24603444734682,-1.72769624391665,-2.01135760942568,-1.8573673407184,-0.666605297719137,-4.72130412260164,-3.24596244493593,0,0,0,0,0,0,0,0,0,0,0,0,-0.286914821023607,-0.782655550814712,0.230663646928533,2.96658629960679,-0.0812102690499988,-0.0348738152905294,-0.286916879902295,-0.782675769850343,0.230699898906528,2.96652208129068,-0.0813140574366447,-0.0348574727148393,0,0,0,0,0,0,0,0,0,0,0,0
1265.232,0.33162,8,0,7,1,1,0.1,0,0,0,0,0,0,0,0,0,0,8.11517162501935,7.98257010595337,17.9369694819657,1.35543600288735,-0.4350370891148,-0.710713538578181,11,0,-1.72769624391665,-2.01136953035464,-1.85741502443422,-0.666605297719139,-4.7213160435306,-3.24603444734682,-1.72767240205874,-2.0113938490497,-1.8573673407184,-0.666605297719137,-4.7212920824634,-3.24597436586489,0,0,0,0,0,0,0,0,0,0,0,0,-0.286914821023607,-0.782655550814712,0.230663646928533,2.96658629960679,-0.0812102690499988,-0.0348738152905294,-0.286897701316038,-0.782686457700804,0.230670261211986,2.96655808330918,-0.081260333045336,-0.0348316308680757,0,0,0,0,0,0,0,0,0,0,0,0
1265.24,0.33186,8,0,7,1,1,0.1,0,0,0,0,0,0,0,0,0,0,8.46283922332394,9.43987260792446,19.7499437399847,1.49396454485168,-0.399718141414875,-0.778405497882456,11,0,-1.72769624391665,-2.01136953035464,-1.85741502443422,-0.666605297719139,-4.7213160435306,-3.24603444734682,-1.72768432298769,-2.0113938490497,-1.85739118257631,-0.666605297719137,-4.72130412260164,-3.24601036707033,0,0,0,0,0,0,0,0,0,0,0,0,-0.286914821023607,-0.782655550814712,0.230663646928533,2.96658629960679,-0.0812102690499988,-0.0348738152905294,-0.286906461043711,-0.782672235079907,0.230657009632122,2.96658458010789,-0.0812267924996048,-0.034851375221654,0,0,0,0,0,0,0,0,0,0,0,0
1265.248,0.33072,8,0,7,1,1,0.1,0,0,0,0,0,0,0,0,0,0,9.71398582337096,9.06954414845816,19.1858662673411,1.37734173901915,-0.366252473280244,-0.723395852536592,11,0,-1.72769624391665,-2.01136953035464,-1.85741502443422,-0.666605297719139,-4.7213160435306,-3.24603444734682,-1.72767240205874,-2.0113938490497,-1.8573673407184,-0.666629616414205,-4.7213160435306,-3.24597436586489,0,0,0,0,0,0,0,0,0,0,0,0,-0.286914821023607,-0.782655550814712,0.230663646928533,2.96658629960679,-0.0812102690499988,-0.0348738152905294,-0.286899585712654,-0.78268442310044,0.230667095761257,2.9665848870795,-0.0812639301081816,-0.0348623694522922,0,0,0,0,0,0,0,0,0,0,0,0
1265.256,0.333432,8,0,7,1,1,0.1,0,0,0,0,0,0,0,0,0,0,9.17894395980577,8.07569114409843,18.100409018678,1.32055506058757,-0.30543362345075,-0.732315780162034,11,0,-1.72769624391665,-2.01136953035464,-1.85741502443422,-0.666605297719139,-4.7213160435306,-3.24603444734682,-1.72769624391665,-2.01142961183657,-1.85734349886049,-0.66661769548525,-4.721244160329,-3.24598628679384,0,0,0,0,0,0,0,0,0,0,0,0,-0.286914821023607,-0.782655550814712,0.230663646928533,2.96658629960679,-0.0812102690499988,-0.0348738152905294,-0.286914081894704,-0.782693707857738,0.23065265410103,2.96657681089074,-0.081272104772759,-0.0347610863565487,0,0,0,0,0,0,0,0,0,0,0,0
1265.264,0.331045,8,0,7,1,1,0.1,0,0,0,0,0,0,0,0,0,0,8.78290554183902,7.45673746614435,17.2294983575916,1.26516081286996,-0.237701404790107,-0.742576135110852,11,0,-1.72769624391665,-2.01136953035464,-1.85741502443422,-0.666605297719139,-4.7213160435306,-3.24603444734682,-1.72767240205874,-2.01140576997866,-1.85737926164736,-0.666605297719137,-4.721244160329,-3.24599844614138,0,0,0,0,0,0,0,0,0,0,0,0,-0.286914821023607,-0.782655550814712,0.230663646928533,2.96658629960679,-0.0812102690499988,-0.0348738152905294,-0.286892691075386,-0.78268305234469,0.230653890348317,2.96657770239829,-0.0812186861039872,-0.0347599478151704,0,0,0,0,0,0,0,0,0,0,0,0
1265.272,0.33126,8,0,7,1,1,0.1,0,0,0,0,0,0,0,0,0,0,8.88649390978682,8.37015707936325,18.4560288515153,1.34993780222405,-0.307356909618583,-0.70405298026383,11,0,-1.72769624391665,-2.01136953035464,-1.85741502443422,-0.666605297719139,-4.7213160435306,-3.24603444734682,-1.72768432298769,-2.01138192812075,-1.85737926164736,-0.666593376790182,-4.72125608125796,-3.24603444734682,0,0,0,0,0,0,0,0,0,0,0,0,-0.286914821023607,-0.782655550814712,0.230663646928533,2.96658629960679,-0.0812102690499988,-0.0348738152905294,-0.286902873314766,-0.782677868730503,0.230674939137863,2.96654496090925,-0.0811838030020908,-0.0347902453106561,0,0,0,0,0,0,0,0,0,0,0,0
1265.28,0.329412,8,0,7,1,1,0.1,0,0,0,0,0,0,0,0,0,0,8.23914159043693,6.83270004626929,17.0116278664813,1.21370040973741,-0.337087090605115,-0.781336372595797,11,0,-1.72769624391665,-2.01136953035464,-1.85741502443422,-0.666605297719139,-4.7213160435306,-3.24603444734682,-1.72764856020083,-2.01141769090761,-1.85737926164736,-0.666629616414205,-4.72128016153444,-3.24602228799929,0,0,0,0,0,0,0,0,0,0,0,0,-0.286914821023607,-0.782655550814712,0.230663646928533,2.96658629960679,-0.0812102690499988,-0.0348738152905294,-0.286877202354667,-0.782688888863854,0.230640974315201,2.96661961584066,-0.0811535067940805,-0.0348062462104843,0,0,0,0,0,0,0,0,0,0,0,0
1265.288,0.3306,8,0,7,1,1,0.1,0,0,0,0,0,0,0,0,0,0,8.43088630659179,8.60970729163101,18.8731505379703,1.38425100077423,-0.54961924542887,-0.777798971730519,11,0,-1.72769624391665,-2.01136953035464,-1.85741502443422,-0.666605297719139,-4.7213160435306,-3.24603444734682,-1.72768432298769,-2.01138192812075,-1.8573673407184,-0.666605297719137,-4.7212681213962,-3.24599844614138,0,0,0,0,0,0,0,0,0,0,0,0,-0.286914821023607,-0.782655550814712,0.230663646928533,2.96658629960679,-0.0812102690499988,-0.0348738152905294,-0.286904657726261,-0.782682180217527,0.230680012762036,2.96654445467458,-0.0812387325955091,-0.0348031783361946,0,0,0,0,0,0,0,0,0,0,0,0
1265.296,0.33216,8,0,7,1,1,0.1,0,0,0,0,0,0,0,0,0,0,8.69021834730894,7.67316251375134,17.9496388951883,1.3792526120781,-0.21038911028367,-0.750639304210634,11,0,-1.72769624391665,-2.01136953035464,-1.85741502443422,-0.666605297719139,-4.7213160435306,-3.24603444734682,-1.72767240205874,-2.01141769090761,-1.85733157793154,-0.666653458272116,-4.72128016153444,-3.24603444734682,0,0,0,0,0,0,0,0,0,0,0,0,-0.286914821023607,-0.782655550814712,0.230663646928533,2.96658629960679,-0.0812102690499988,-0.0348738152905294,-0.286898905119752,-0.782701650722916,0.230664373971159,2.96659579507874,-0.0811701245294653,-0.034814811134579,0,0,0,0,0,0,0,0,0,0,0,0
1265.304,0.354337,8,0,7,1,1,0.1,0,0,0,0,0,0,0,0,0,0,8.92665245740596,8.84183117159909,19.2100046235199,1.38666367992543,-0.664767117714717,-0.671377675124259,11,0,-1.72769624391665,-2.01136953035464,-1.85741502443422,-0.666605297719139,-4.7213160435306,-3.24603444734682,-1.72769624391665,-2.01138192812075,-1.8573673407184,-0.66661769548525,-4.721244160329,-3.24604636827578,0,0,0,0,0,0,0,0,0,0,0,0,-0.286914821023607,-0.782655550814712,0.230663646928533,2.96658629960679,-0.0812102690499988,-0.0348738152905294,-0.286911652106515,-0.782678251600279,0.230678401992826,2.96655619310785,-0.0811822643736698,-0.0347733341026291,0,0,0,0,0,0,0,0,0,0,0,0
1265.312,0.339444,8,0,7,1,1,0.1,0,0,0,0,0,0,0,0,0,0,8.57944867166643,7.49781913440907,17.6444321510651,1.30489274711521,-0.330630334114423,-0.785088238980796,11,0,-1.72769624391665,-2.01136953035464,-1.85741502443422,-0.666605297719139,-4.7213160435306,-3.24603444734682,-1.7277081648456,-2.01140576997866,-1.85737926164736,-0.666605297719137,-4.7212920824634,-3.24601036707033,0,0,0,0,0,0,0,0,0,0,0,0,-0.286914821023607,-0.782655550814712,0.230663646928533,2.96658629960679,-0.0812102690499988,-0.0348738152905294,-0.286925048670313,-0.782672091157723,0.230653886349205,2.96658251763836,-0.081260579490858,-0.0348366597378681,0,0,0,0,0,0,0,0,0,0,0,0
1265.32,0.362376,8,0,7,1,1,0.1,0,0,0,0,0,0,0,0,0,0,9.84004201757873,9.57071316116184,19.5784650184743,1.37687009626879,-0.467965329404279,-0.820643599120329,11,0,-1.72769624391665,-2.01136953035464,-1.85741502443422,-0.666605297719139,-4.7213160435306,-3.24603444734682,-1.72768432298769,-2.01136953035464,-1.85740310350527,-0.666605297719137,-4.7212681213962,-3.24599844614138,0,0,0,0,0,0,0,0,0,0,0,0,-0.286914821023607,-0.782655550814712,0.230663646928533,2.96658629960679,-0.0812102690499988,-0.0348738152905294,-0.286901958035838,-0.782664984842678,0.230670276097292,2.96656768632267,-0.081239194384456,-0.0347991615518987,0,0,0,0,0,0,0,0,0,0,0,0
1265.328,0.335028,8,0,7,1,1,0.1,0,0,0,0,0,0,0,0,0,0,8.65349134125107,7.49070727713644,17.8508517869667,1.33370188068895,-0.313159391833723,-0.702609097541073,11,0,-1.72769624391665,-2.01136953035464,-1.85741502443422,-0.666605297719139,-4.7213160435306,-3.24603444734682,-1.72768432298769,-2.0113938490497,-1.85740310350527,-0.66661769548525,-4.72128016153444,-3.24597436586489,0,0,0,0,0,0,0,0,0,0,0,0,-0.286914821023607,-0.782655550814712,0.230663646928533,2.96658629960679,-0.0812102690499988,-0.0348738152905294,-0.28690329124997,-0.782666413243349,0.230648773617795,2.96660426602822,-0.0812773617089312,-0.0348070461981016,0,0,0,0,0,0,0,0,0,0,0,0
1265.336,0.343044,8,0,7,1,1,0.1,0,0,0,0,0,0,0,0,0,0,8.6861467513773,7.41384370984865,17.7253092030119,1.32502943485914,-0.122400965455634,-0.821976889201519,11,0,-1.72769624391665,-2.01136953035464,-1.85741502443422,-0.666605297719139,-4.7213160435306,-3.24603444734682,-1.72763616243471,-2.01141769090761,-1.85739118257631,-0.66664153734316,-4.72125608125796,-3.24598628679384,0,0,0,0,0,0,0,0,0,0,0,0,-0.286914821023607,-0.782655550814712,0.230663646928533,2.96658629960679,-0.0812102690499988,-0.0348738152905294,-0.286864324196345,-0.782686658041558,0.230632800506707,2.96663919328979,-0.0811856609932249,-0.0347602282424231,0,0,0,0,0,0,0,0,0,0,0,0
1265.344,0.3324,8,0,7,1,1,0.1,0,0,0,0,0,0,0,0,0,0,8.78785305727008,8.4094346392334,18.6797229386667,1.45866000165261,-0.344372391149269,-0.758220991814058,11,0,-1.72769624391665,-2.01136953035464,-1.85741502443422,-0.666605297719139,-4.7213160435306,-3.24603444734682,-1.72767240205874,-2.01141769090761,-1.85740310350527,-0.666593376790182,-4.72125608125796,-3.24599844614138,0,0,0,0,0,0,0,0,0,0,0,0,-0.286914821023607,-0.782655550814712,0.230663646928533,2.96658629960679,-0.0812102690499988,-0.0348738152905294,-0.286892446688674,-0.782674284164894,0.230632440283605,2.96660271943551,-0.0812209844820172,-0.0347733779293441,0,0,0,0,0,0,0,0,0,0,0,0
1265.352,0.340237,8,0,7,1,1,0.1,0,0,0,0,0,0,0,0,0,0,8.89019287605366,7.5841000624505,17.6930974354966,1.36190664616741,-0.312775004525997,-0.789842549038046,11,0,-1.72769624391665,-2.01136953035464,-1.85741502443422,-0.666605297719139,-4.7213160435306,-3.24603444734682,-1.72768432298769,-2.0113938490497,-1.85737926164736,-0.66661769548525,-4.72130412260164,-3.24595052400698,0,0,0,0,0,0,0,0,0,0,0,0,-0.286914821023607,-0.782655550814712,0.230663646928533,2.96658629960679,-0.0812102690499988,-0.0348738152905294,-0.286907142461068,-0.782676689654594,0.230662022129581,2.96658200252138,-0.0813154498548766,-0.0348434132753664,0,0,0,0,0,0,0,0,0,0,0,0
1265.36,0.335568,8,0,7,1,1,0.1,0,0,0,0,0,0,0,0,0,0,8.10142698517432,8.0983793765433,18.2436085302335,1.3299043935895,-0.438863597575001,-0.738107331203172,11,0,-1.72769624391665,-2.01136953035464,-1.85741502443422,-0.666605297719139,-4.7213160435306,-3.24603444734682,-1.72764856020083,-2.01138192812075,-1.85740310350527,-0.666593376790182,-4.72130412260164,-3.24596244493593,0,0,0,0,0,0,0,0,0,0,0,0,-0.286914821023607,-0.782655550814712,0.230663646928533,2.96658629960679,-0.0812102690499988,-0.0348738152905294,-0.286877592781416,-0.78267680008129,0.230661684553107,2.96657139655824,-0.081244585910192,-0.0348428500085659,0,0,0,0,0,0,0,0,0,0,0,0
1265.368,0.332532,8,0,7,1,1,0.1,0,0,0,0,0,0,0,0,0,0,9.10148834845609,7.85647515555547,18.0948713207936,1.34011274499009,-0.460551568580612,-0.734577089495212,11,0,-1.72769624391665,-2.01136953035464,-1.85741502443422,-0.666605297719139,-4.7213160435306,-3.24603444734682,-1.72767240205874,-2.01135760942568,-1.85737926164736,-0.666629616414205,-4.72128016153444,-3.24593836465944,0,0,0,0,0,0,0,0,0,0,0,0,-0.286914821023607,-0.782655550814712,0.230663646928533,2.96658629960679,-0.0812102690499988,-0.0348738152905294,-0.286894903144515,-0.782675963233697,0.23069011175244,2.96655494034418,-0.0813117425186999,-0.0348093792140932,0,0,0,0,0,0,0,0,0,0,0,0
1265.376,0.338892,8,0,7,1,1,0.1,0,0,0,0,0,0,0,0,0,0,8.79651754325095,7.09700707846176,17.3171788966813,1.2746390222832,-0.404440504443333,-0.713737267555567,11,0,-1.72769624391665,-2.01136953035464,-1.85741502443422,-0.666605297719139,-4.7213160435306,-3.24603444734682,-1.72768432298769,-2.01141769090761,-1.85737926164736,-0.66661769548525,-4.7212681213962,-3.24603444734682,0,0,0,0,0,0,0,0,0,0,0,0,-0.286914821023607,-0.782655550814712,0.230663646928533,2.96658629960679,-0.0812102690499988,-0.0348738152905294,-0.286904242766732,-0.782679630563195,0.230642526027742,2.9666059748368,-0.0811867284880626,-0.0347969415878755,0,0,0,0,0,0,0,0,0,0,0,0
1265.384,0.332916,8,0,7,1,1,0.1,0,0,0,0,0,0,0,0,0,0,9.14737392435727,8.52871674032385,18.6974498007416,1.42484295694464,-0.313191662446593,-0.791528001441012,11,0,-1.72769624391665,-2.01136953035464,-1.85741502443422,-0.666605297719139,-4.7213160435306,-3.24603444734682,-1.72768432298769,-2.01136953035464,-1.85734349886049,-0.666629616414205,-4.72128016153444,-3.24598628679384,0,0,0,0,0,0,0,0,0,0,0,0,-0.286914821023607,-0.782655550814712,0.230663646928533,2.96658629960679,-0.0812102690499988,-0.0348738152905294,-0.286906925365301,-0.78268968983573,0.230700238822282,2.96653330912662,-0.0812578850646524,-0.0348212222141314,0,0,0,0,0,0,0,0,0,0,0,0
