Miguel-LA/TFM_MiguelLerinAlonso/workspace/ros_ur_driver/src/trayectories/data/20240424_logViewer_j3.csv
timestamp,actual_execution_time,target_execution_time,speed_scaling,robot_mode,safety_mode,runtime_state,payload,payload_cog_0,payload_cog_1,payload_cog_2,payload_inertia_0,payload_inertia_1,payload_inertia_2,payload_inertia_3,payload_inertia_4,payload_inertia_5,script_control_line,wrench_calc_from_currents_0,wrench_calc_from_currents_1,wrench_calc_from_currents_2,wrench_calc_from_currents_3,wrench_calc_from_currents_4,wrench_calc_from_currents_5,motor_command,joint_position_deviation_ratio,target_q_0,target_q_1,target_q_2,target_q_3,target_q_4,target_q_5,actual_q_0,actual_q_1,actual_q_2,actual_q_3,actual_q_4,actual_q_5,target_qd_0,target_qd_1,target_qd_2,target_qd_3,target_qd_4,target_qd_5,actual_qd_0,actual_qd_1,actual_qd_2,actual_qd_3,actual_qd_4,actual_qd_5,target_TCP_pose_0,target_TCP_pose_1,target_TCP_pose_2,target_TCP_pose_3,target_TCP_pose_4,target_TCP_pose_5,actual_TCP_pose_0,actual_TCP_pose_1,actual_TCP_pose_2,actual_TCP_pose_3,actual_TCP_pose_4,actual_TCP_pose_5,target_TCP_speed_0,target_TCP_speed_1,target_TCP_speed_2,target_TCP_speed_3,target_TCP_speed_4,target_TCP_speed_5,actual_TCP_speed_0,actual_TCP_speed_1,actual_TCP_speed_2,actual_TCP_speed_3,actual_TCP_speed_4,actual_TCP_speed_5
2429.224,0.340524,8,0,7,1,1,0.1,0,0,0,0,0,0,0,0,0,0,4.3078682069579,-16.3824330696466,17.7605694585398,3.93433004447653,-0.0257669061972564,-0.942216603196658,11,0,-1.72769624391665,-2.01136953035464,-1.85741502443422,-0.666605297719139,-4.7213160435306,-3.24603444734682,-1.72766048112978,-2.01132184663881,-1.85745078722109,-0.666569534932272,-4.72135204473604,-3.24604636827578,0,0,0,0,0,0,0,0,0,0,0,0,-0.286914821023607,-0.782655550814712,0.230663646928533,2.96658629960679,-0.0812102690499988,-0.0348738152905294,-0.28688728813673,-0.782646991714238,0.230687417301537,2.96654462347876,-0.081143458069444,-0.0349327846426027,0,0,0,0,0,0,0,0,0,0,0,0
2429.232,0.331021,8,0,7,1,1,0.1,0,0,0,0,0,0,0,0,0,0,4.96715839557146,-16.9151065397249,16.9080069147476,3.7807609860946,0.0764366197691093,-0.898424769746489,11,0,-1.72769624391665,-2.01136953035464,-1.85741502443422,-0.666605297719139,-4.7213160435306,-3.24603444734682,-1.72767240205874,-2.01132184663881,-1.85742694536318,-0.666545693074362,-4.7214118877994,-3.24604636827578,0,0,0,0,0,0,0,0,0,0,0,0,-0.286914821023607,-0.782655550814712,0.230663646928533,2.96658629960679,-0.0812102690499988,-0.0348738152905294,-0.28690403185709,-0.782654974234094,0.230703765348203,2.96650349075524,-0.081168427659139,-0.0350310414534038,0,0,0,0,0,0,0,0,0,0,0,0
2429.24,0.339084,8,0,7,1,1,0.1,0,0,0,0,0,0,0,0,0,0,4.44345412262778,-16.9575151657062,16.7299820438844,3.75582151398116,0.0100572178178022,-0.857093483644445,11,0,-1.72769624391665,-2.01136953035464,-1.85741502443422,-0.666605297719139,-4.7213160435306,-3.24603444734682,-1.72767240205874,-2.01136953035464,-1.85743886629214,-0.666557614003317,-4.721363965665,-3.24603444734682,0,0,0,0,0,0,0,0,0,0,0,0,-0.286914821023607,-0.782655550814712,0.230663646928533,2.96658629960679,-0.0812102690499988,-0.0348738152905294,-0.286899446540907,-0.782654366608331,0.230656595848415,2.9665686516991,-0.0811812772627312,-0.0349459914997475,0,0,0,0,0,0,0,0,0,0,0,0
2429.248,0.332112,8,0,7,1,1,0.1,0,0,0,0,0,0,0,0,0,0,3.65942731951521,-17.1606953715188,16.648118826633,3.79784079098614,0.00551229050773889,-0.943905335309656,11,0,-1.72769624391665,-2.01136953035464,-1.85741502443422,-0.666605297719139,-4.7213160435306,-3.24603444734682,-1.72772008577456,-2.0112980047809,-1.85745078722109,-0.666557614003317,-4.721363965665,-3.24603444734682,0,0,0,0,0,0,0,0,0,0,0,0,-0.286914821023607,-0.782655550814712,0.230663646928533,2.96658629960679,-0.0812102690499988,-0.0348738152905294,-0.286934788770114,-0.782628126062557,0.230708465333575,2.9665079993199,-0.0812503873305983,-0.0349630511011823,0,0,0,0,0,0,0,0,0,0,0,0
2429.256,0.329844,8,0,7,1,1,0.1,0,0,0,0,0,0,0,0,0,0,4.61240347946941,-14.8200911844122,18.7761852581686,3.92967281581909,0.00503681434493006,-0.803855884274856,11,0,-1.72769624391665,-2.01136953035464,-1.85741502443422,-0.666605297719139,-4.7213160435306,-3.24603444734682,-1.72767240205874,-2.0112980047809,-1.85743886629214,-0.666569534932272,-4.7214118877994,-3.24602228799929,0,0,0,0,0,0,0,0,0,0,0,0,-0.286914821023607,-0.782655550814712,0.230663646928533,2.96658629960679,-0.0812102690499988,-0.0348738152905294,-0.286902523886091,-0.782645594178316,0.230713536547917,2.96651411335441,-0.0812040999534323,-0.0350257188413157,0,0,0,0,0,0,0,0,0,0,0,0
2429.264,0.331584,8,0,7,1,1,0.1,0,0,0,0,0,0,0,0,0,0,4.19737171088754,-15.1490059145,18.2295273856208,3.80103215288286,0.0113498599323893,-0.858653897367941,11,0,-1.72769624391665,-2.01136953035464,-1.85741502443422,-0.666605297719139,-4.7213160435306,-3.24603444734682,-1.72768432298769,-2.01135760942568,-1.85745078722109,-0.666569534932272,-4.72137600580324,-3.24599844614138,0,0,0,0,0,0,0,0,0,0,0,0,-0.286914821023607,-0.782655550814712,0.230663646928533,2.96658629960679,-0.0812102690499988,-0.0348738152905294,-0.286908702686145,-0.78264342398161,0.230658168216255,2.96657963715884,-0.0812541024670333,-0.0349584533622916,0,0,0,0,0,0,0,0,0,0,0,0
2429.272,0.332557,8,0,7,1,1,0.1,0,0,0,0,0,0,0,0,0,0,3.63094528005722,-15.9420631829617,17.4501291554657,3.78826054775366,0.00207818209576507,-0.856577564003055,11,0,-1.72769624391665,-2.01136953035464,-1.85741502443422,-0.666605297719139,-4.7213160435306,-3.24603444734682,-1.72767240205874,-2.01130992570986,-1.85743886629214,-0.666557614003317,-4.7213400045978,-3.24602228799929,0,0,0,0,0,0,0,0,0,0,0,0,-0.286914821023607,-0.782655550814712,0.230663646928533,2.96658629960679,-0.0812102690499988,-0.0348738152905294,-0.286896310696389,-0.782648678534083,0.230705343527593,2.96650617459887,-0.0811944725868084,-0.0349199624800377,0,0,0,0,0,0,0,0,0,0,0,0
2429.28,0.34248,8,0,7,1,1,0.1,0,0,0,0,0,0,0,0,0,0,5.12370336541573,-14.100997905684,19.6196197966145,3.99068087403583,0.039703606508371,-0.92662287206144,11,0,-1.72769624391665,-2.01136953035464,-1.85741502443422,-0.666605297719139,-4.7213160435306,-3.24603444734682,-1.72769624391665,-2.01132184663881,-1.85743886629214,-0.666569534932272,-4.72137600580324,-3.24597436586489,0,0,0,0,0,0,0,0,0,0,0,0,-0.286914821023607,-0.782655550814712,0.230663646928533,2.96658629960679,-0.0812102690499988,-0.0348738152905294,-0.286918294934861,-0.782641694143031,0.230694040879398,2.96653067286813,-0.0813062885822292,-0.0349654576495369,0,0,0,0,0,0,0,0,0,0,0,0
2429.288,0.331752,8,0,7,1,1,0.1,0,0,0,0,0,0,0,0,0,0,3.44322978118993,-16.4659511355247,16.9617658697926,3.76671980898006,0.0246563050122916,-0.860037738544042,11,0,-1.72769624391665,-2.01136953035464,-1.85741502443422,-0.666605297719139,-4.7213160435306,-3.24603444734682,-1.72767240205874,-2.01136953035464,-1.85745078722109,-0.666557614003317,-4.7213879267322,-3.24604636827578,0,0,0,0,0,0,0,0,0,0,0,0,-0.286914821023607,-0.782655550814712,0.230663646928533,2.96658629960679,-0.0812102690499988,-0.0348738152905294,-0.286900796132591,-0.782648702897222,0.230649968962904,2.96658375405206,-0.0811671189468178,-0.0349807172789238,0,0,0,0,0,0,0,0,0,0,0,0
2429.296,0.33138,8,0,7,1,1,0.1,0,0,0,0,0,0,0,0,0,0,3.97386616005776,-16.9881401933819,16.840440792286,3.8317912222927,-0.0157224692886808,-0.854670857210647,11,0,-1.72769624391665,-2.01136953035464,-1.85741502443422,-0.666605297719139,-4.7213160435306,-3.24603444734682,-1.72767240205874,-2.01132184663881,-1.8574631849872,-0.666569534932272,-4.7213400045978,-3.24601036707033,0,0,0,0,0,0,0,0,0,0,0,0,-0.286914821023607,-0.782655550814712,0.230663646928533,2.96658629960679,-0.0812102690499988,-0.0348738152905294,-0.28689465368974,-0.782638221933764,0.23068052790578,2.96655342482949,-0.0812131689213911,-0.0349097738961793,0,0,0,0,0,0,0,0,0,0,0,0
2429.304,0.337284,8,0,7,1,1,0.1,0,0,0,0,0,0,0,0,0,0,4.61272123281923,-16.8228585707729,16.9412444217578,3.81997190412995,0.127566012583058,-0.879541039992134,11,0,-1.72769624391665,-2.01136953035464,-1.85741502443422,-0.666605297719139,-4.7213160435306,-3.24603444734682,-1.72767240205874,-2.01130992570986,-1.8574631849872,-0.666557614003317,-4.72137600580324,-3.24598628679384,0,0,0,0,0,0,0,0,0,0,0,0,-0.286914821023607,-0.782655550814712,0.230663646928533,2.96658629960679,-0.0812102690499988,-0.0348738152905294,-0.286897890356694,-0.782637313559123,0.230691824984126,2.96653249282931,-0.0812532943787567,-0.0349640408322286,0,0,0,0,0,0,0,0,0,0,0,0
2429.312,0.333313,8,0,7,1,1,0.1,0,0,0,0,0,0,0,0,0,0,4.18725712380253,-15.0501404727856,18.5195205314539,3.82452116668314,-0.0435618445431631,-0.964805061986345,11,0,-1.72769624391665,-2.01136953035464,-1.85741502443422,-0.666605297719139,-4.7213160435306,-3.24603444734682,-1.72767240205874,-2.01133376756777,-1.85745078722109,-0.666557614003317,-4.721363965665,-3.24602228799929,0,0,0,0,0,0,0,0,0,0,0,0,-0.286914821023607,-0.782655550814712,0.230663646928533,2.96658629960679,-0.0812102690499988,-0.0348738152905294,-0.286898041345579,-0.782645430743047,0.230679218095782,2.96654435565387,-0.0811986255743019,-0.0349488197648776,0,0,0,0,0,0,0,0,0,0,0,0
2429.32,0.333804,8,0,7,1,1,0.1,0,0,0,0,0,0,0,0,0,0,3.886580962764,-16.5158517239584,16.9756108735959,3.86795213942055,0.121787992423254,-0.793574491027202,11,0,-1.72769624391665,-2.01136953035464,-1.85741502443422,-0.666605297719139,-4.7213160435306,-3.24603444734682,-1.72767240205874,-2.01135760942568,-1.85745078722109,-0.666569534932272,-4.7213879267322,-3.24602228799929,0,0,0,0,0,0,0,0,0,0,0,0,-0.286914821023607,-0.782655550814712,0.230663646928533,2.96658629960679,-0.0812102690499988,-0.0348738152905294,-0.286900459113324,-0.782646669881522,0.23065816734517,2.96658252858724,-0.0812026801033219,-0.0349775436688783,0,0,0,0,0,0,0,0,0,0,0,0
2429.328,0.344724,8,0,7,1,1,0.1,0,0,0,0,0,0,0,0,0,0,4.30852106975769,-16.0132692166501,17.8141262416307,3.93917823611891,-0.0555253876574263,-0.908455795486831,11,0,-1.72769624391665,-2.01136953035464,-1.85741502443422,-0.666605297719139,-4.7213160435306,-3.24603444734682,-1.72768432298769,-2.01130992570986,-1.85742694536318,-0.666581455861227,-4.721363965665,-3.24602228799929,0,0,0,0,0,0,0,0,0,0,0,0,-0.286914821023607,-0.782655550814712,0.230663646928533,2.96658629960679,-0.0812102690499988,-0.0348738152905294,-0.286908364674301,-0.782648569981942,0.230708865596948,2.96652029326882,-0.0812154851143543,-0.0349544198352882,0,0,0,0,0,0,0,0,0,0,0,0
2429.336,0.332736,8,0,7,1,1,0.1,0,0,0,0,0,0,0,0,0,0,5.83527041685726,-15.1109484490969,18.7578457887298,3.93000443899641,0.162426896779667,-0.917693134540683,11,0,-1.72769624391665,-2.01136953035464,-1.85741502443422,-0.666605297719139,-4.7213160435306,-3.24603444734682,-1.72768432298769,-2.01134568849672,-1.85745078722109,-0.666593376790182,-4.72142392793764,-3.24599844614138,0,0,0,0,0,0,0,0,0,0,0,0,-0.286914821023607,-0.782655550814712,0.230663646928533,2.96658629960679,-0.0812102690499988,-0.0348738152905294,-0.28691258588128,-0.782639864598288,0.230664812405199,2.96659677005392,-0.0812606334600391,-0.0350267173842635,0,0,0,0,0,0,0,0,0,0,0,0
2429.344,0.332184,8,0,7,1,1,0.1,0,0,0,0,0,0,0,0,0,0,5.23725715931182,-17.3757629313092,17.0104015831782,3.98963200065294,0.212187389214155,-0.956834803437995,11,0,-1.72769624391665,-2.01136953035464,-1.85741502443422,-0.666605297719139,-4.7213160435306,-3.24603444734682,-1.72768432298769,-2.01134568849672,-1.8574631849872,-0.666569534932272,-4.7214118877994,-3.24601036707033,0,0,0,0,0,0,0,0,0,0,0,0,-0.286914821023607,-0.782655550814712,0.230663646928533,2.96658629960679,-0.0812102690499988,-0.0348738152905294,-0.286910914681862,-0.782636166040014,0.230661024565173,2.96658468759616,-0.0812412601086167,-0.0350128076142371,0,0,0,0,0,0,0,0,0,0,0,0
2429.352,0.331416,8,0,7,1,1,0.1,0,0,0,0,0,0,0,0,0,0,4.01970201207977,-15.8794873359604,17.6260516522739,3.80283026166789,0.00548749376181686,-0.857800306075514,11,0,-1.72769624391665,-2.01136953035464,-1.85741502443422,-0.666605297719139,-4.7213160435306,-3.24603444734682,-1.72767240205874,-2.01135760942568,-1.85745078722109,-0.666581455861227,-4.7214118877994,-3.24602228799929,0,0,0,0,0,0,0,0,0,0,0,0,-0.286914821023607,-0.782655550814712,0.230663646928533,2.96658629960679,-0.0812102690499988,-0.0348738152905294,-0.286902495955085,-0.782645493931344,0.230656614888091,2.96659701642497,-0.0812061030855299,-0.0350105941305697,0,0,0,0,0,0,0,0,0,0,0,0
2429.36,0.332173,8,0,7,1,1,0.1,0,0,0,0,0,0,0,0,0,0,4.82966502251901,-16.8570794504109,17.2114131756984,3.82102489734803,0.0955539692240087,-0.845087883964871,11,0,-1.72769624391665,-2.01136953035464,-1.85741502443422,-0.666605297719139,-4.7213160435306,-3.24603444734682,-1.72766048112978,-2.01130992570986,-1.8574631849872,-0.666569534932272,-4.72135204473604,-3.24601036707033,0,0,0,0,0,0,0,0,0,0,0,0,-0.286914821023607,-0.782655550814712,0.230663646928533,2.96658629960679,-0.0812102690499988,-0.0348738152905294,-0.286886230568803,-0.782640258222994,0.230690275989296,2.96654327447945,-0.0811968051615447,-0.034928118987384,0,0,0,0,0,0,0,0,0,0,0,0
2429.368,0.332088,8,0,7,1,1,0.1,0,0,0,0,0,0,0,0,0,0,3.89314242323843,-15.5407576486776,17.8383472204376,3.86760673099602,0.0173000321323377,-0.804206963176046,11,0,-1.72769624391665,-2.01136953035464,-1.85741502443422,-0.666605297719139,-4.7213160435306,-3.24603444734682,-1.72768432298769,-2.01132184663881,-1.85747558275332,-0.666545693074362,-4.7214118877994,-3.24605828920473,0,0,0,0,0,0,0,0,0,0,0,0,-0.286914821023607,-0.782655550814712,0.230663646928533,2.96658629960679,-0.0812102690499988,-0.0348738152905294,-0.286909959672426,-0.782629876376521,0.23067673390767,2.96655208108242,-0.0811695038252931,-0.0350256047046201,0,0,0,0,0,0,0,0,0,0,0,0
2429.376,0.341064,8,0,7,1,1,0.1,0,0,0,0,0,0,0,0,0,0,4.13775358522668,-16.3053154491473,17.0605781413258,3.70473979998545,-0.138649000380524,-0.858651967217432,11,0,-1.72769624391665,-2.01136953035464,-1.85741502443422,-0.666605297719139,-4.7213160435306,-3.24603444734682,-1.72769624391665,-2.01132184663881,-1.85748750368227,-0.666569534932272,-4.72142392793764,-3.24596244493593,0,0,0,0,0,0,0,0,0,0,0,0,-0.286914821023607,-0.782655550814712,0.230663646928533,2.96658629960679,-0.0812102690499988,-0.0348738152905294,-0.286919259310614,-0.782619315422401,0.230667006358255,2.96658370296016,-0.0813315565294239,-0.0350259419218593,0,0,0,0,0,0,0,0,0,0,0,0
2429.384,0.331464,8,0,7,1,1,0.1,0,0,0,0,0,0,0,0,0,0,4.14927358354861,-17.1326774879454,16.5371287719443,3.72320402172948,0.043269946157556,-0.890782189928926,11,0,-1.72769624391665,-2.01136953035464,-1.85741502443422,-0.666605297719139,-4.7213160435306,-3.24603444734682,-1.72766048112978,-2.01133376756777,-1.85745078722109,-0.666581455861227,-4.72137600580324,-3.24601036707033,0,0,0,0,0,0,0,0,0,0,0,0,-0.286914821023607,-0.782655550814712,0.230663646928533,2.96658629960679,-0.0812102690499988,-0.0348738152905294,-0.286889515471222,-0.782647023525392,0.230676115662386,2.96656912404182,-0.0812005869066906,-0.0349590150805707,0,0,0,0,0,0,0,0,0,0,0,0
2429.392,0.331548,8,0,7,1,1,0.1,0,0,0,0,0,0,0,0,0,0,5.32305458256947,-14.4681533299295,18.5782411990117,3.82770646745074,0.094371522140309,-0.902717123588485,11,0,-1.72769624391665,-2.01136953035464,-1.85741502443422,-0.666605297719139,-4.7213160435306,-3.24603444734682,-1.72768432298769,-2.01130992570986,-1.85742694536318,-0.666569534932272,-4.721363965665,-3.24599844614138,0,0,0,0,0,0,0,0,0,0,0,0,-0.286914821023607,-0.782655550814712,0.230663646928533,2.96658629960679,-0.0812102690499988,-0.0348738152905294,-0.286908511255541,-0.782649395546189,0.230710416402141,2.96650723907154,-0.0812506764649013,-0.0349535579925749,0,0,0,0,0,0,0,0,0,0,0,0
2429.4,0.334741,8,0,7,1,1,0.1,0,0,0,0,0,0,0,0,0,0,4.13805475963755,-16.2229664034074,17.5405253540806,3.83428523154301,-0.0510904046790953,-0.906251451802449,11,0,-1.72769624391665,-2.01136953035464,-1.85741502443422,-0.666605297719139,-4.7213160435306,-3.24603444734682,-1.72767240205874,-2.01132184663881,-1.85747558275332,-0.666557614003317,-4.72137600580324,-3.24602228799929,0,0,0,0,0,0,0,0,0,0,0,0,-0.286914821023607,-0.782655550814712,0.230663646928533,2.96658629960679,-0.0812102690499988,-0.0348738152905294,-0.286897213682613,-0.7826329954701,0.230675185715841,2.96655848983616,-0.0812004936354556,-0.0349643628194607,0,0,0,0,0,0,0,0,0,0,0,0
2429.408,0.3339,8,0,7,1,1,0.1,0,0,0,0,0,0,0,0,0,0,4.02364091456936,-16.3161598437733,17.1722429356808,3.73367016349425,-0.0626018563225011,-0.843869716325032,11,0,-1.72769624391665,-2.01136953035464,-1.85741502443422,-0.666605297719139,-4.7213160435306,-3.24603444734682,-1.72769624391665,-2.01132184663881,-1.85742694536318,-0.666545693074362,-4.72137600580324,-3.24597436586489,0,0,0,0,0,0,0,0,0,0,0,0,-0.286914821023607,-0.782655550814712,0.230663646928533,2.96658629960679,-0.0812102690499988,-0.0348738152905294,-0.286919422022429,-0.782648658302875,0.230703767931871,2.96649514062574,-0.0813056941056456,-0.0349719904122526,0,0,0,0,0,0,0,0,0,0,0,0
2429.416,0.33276,8,0,7,1,1,0.1,0,0,0,0,0,0,0,0,0,0,5.08097796515663,-15.5227852451593,18.2250091090061,3.86942364810615,0.161726427458027,-0.944612192760988,11,0,-1.72769624391665,-2.01136953035464,-1.85741502443422,-0.666605297719139,-4.7213160435306,-3.24603444734682,-1.72769624391665,-2.01134568849672,-1.85747558275332,-0.666581455861227,-4.72142392793764,-3.24597436586489,0,0,0,0,0,0,0,0,0,0,0,0,-0.286914821023607,-0.782655550814712,0.230663646928533,2.96658629960679,-0.0812102690499988,-0.0348738152905294,-0.286920327614584,-0.782626218023871,0.230652582878683,2.96660798715945,-0.0813144114022755,-0.0350230241432284,0,0,0,0,0,0,0,0,0,0,0,0
2429.424,0.341796,8,0,7,1,1,0.1,0,0,0,0,0,0,0,0,0,0,4.91623702854631,-16.2912610602914,17.3162405794949,3.82783710883453,0.127563581769744,-0.822333102308428,11,0,-1.72769624391665,-2.01136953035464,-1.85741502443422,-0.666605297719139,-4.7213160435306,-3.24603444734682,-1.72769624391665,-2.01134568849672,-1.8574631849872,-0.666557614003317,-4.7214118877994,-3.24603444734682,0,0,0,0,0,0,0,0,0,0,0,0,-0.286914821023607,-0.782655550814712,0.230663646928533,2.96658629960679,-0.0812102690499988,-0.0348738152905294,-0.286920391016891,-0.782633571393933,0.23066257532002,2.96657370970347,-0.0812230692780067,-0.0350196859361007,0,0,0,0,0,0,0,0,0,0,0,0
2429.432,0.331644,8,0,7,1,1,0.1,0,0,0,0,0,0,0,0,0,0,4.06639855026629,-16.9092663027972,16.8592070905512,3.72165227099689,0.0428221477198047,-0.833211757866157,11,0,-1.72769624391665,-2.01136953035464,-1.85741502443422,-0.666605297719139,-4.7213160435306,-3.24603444734682,-1.72766048112978,-2.01135760942568,-1.85743886629214,-0.666605297719137,-4.7214118877994,-3.24602228799929,0,0,0,0,0,0,0,0,0,0,0,0,-0.286914821023607,-0.782655550814712,0.230663646928533,2.96658629960679,-0.0812102690499988,-0.0348738152905294,-0.28689370668297,-0.782652576061401,0.230660138572957,2.96660921159038,-0.0811884851278292,-0.0350066961793126,0,0,0,0,0,0,0,0,0,0,0,0
2429.44,0.332052,8,0,7,1,1,0.1,0,0,0,0,0,0,0,0,0,0,3.72699536277064,-16.8039153462687,17.2422871154864,3.8142290224577,-0.0330701100184722,-0.822627724426348,11,0,-1.72769624391665,-2.01136953035464,-1.85741502443422,-0.666605297719139,-4.7213160435306,-3.24603444734682,-1.72767240205874,-2.01133376756777,-1.85745078722109,-0.666581455861227,-4.7214118877994,-3.24598628679384,0,0,0,0,0,0,0,0,0,0,0,0,-0.286914821023607,-0.782655550814712,0.230663646928533,2.96658629960679,-0.0812102690499988,-0.0348738152905294,-0.286902115044883,-0.782643078942873,0.230676113079283,2.96657149964988,-0.0812588627156587,-0.0350102639064098,0,0,0,0,0,0,0,0,0,0,0,0
2429.448,0.332317,8,0,7,1,1,0.1,0,0,0,0,0,0,0,0,0,0,3.95289717193425,-16.9117025707939,16.6345616398215,3.73520711004585,-0.055553526211645,-0.816456283202684,11,0,-1.72769624391665,-2.01136953035464,-1.85741502443422,-0.666605297719139,-4.7213160435306,-3.24603444734682,-1.72767240205874,-2.01133376756777,-1.8574631849872,-0.666545693074362,-4.7214118877994,-3.24605828920473,0,0,0,0,0,0,0,0,0,0,0,0,-0.286914821023607,-0.782655550814712,0.230663646928533,2.96658629960679,-0.0812102690499988,-0.0348738152905294,-0.286901687619675,-0.782640030000796,0.230673875136476,2.96655196147842,-0.0811518608672971,-0.0350240717238579,0,0,0,0,0,0,0,0,0,0,0,0
2429.456,0.33312,8,0,7,1,1,0.1,0,0,0,0,0,0,0,0,0,0,4.71628855809039,-16.8390239347494,16.9398969927427,3.80708180767584,0.0483618488255983,-0.894199268001171,11,0,-1.72769624391665,-2.01136953035464,-1.85741502443422,-0.666605297719139,-4.7213160435306,-3.24603444734682,-1.72768432298769,-2.01135760942568,-1.85745078722109,-0.666581455861227,-4.7214118877994,-3.24599844614138,0,0,0,0,0,0,0,0,0,0,0,0,-0.286914821023607,-0.782655550814712,0.230663646928533,2.96658629960679,-0.0812102690499988,-0.0348738152905294,-0.286911825796029,-0.782642073731463,0.230656614888091,2.96659544147315,-0.0812591466082661,-0.0350090526183116,0,0,0,0,0,0,0,0,0,0,0,0
2429.464,0.331632,8,0,7,1,1,0.1,0,0,0,0,0,0,0,0,0,0,4.60202126226,-16.7736452472706,17.11475655134,3.88751381942048,0.0729606836225159,-0.78570318844759,11,0,-1.72769624391665,-2.01136953035464,-1.85741502443422,-0.666605297719139,-4.7213160435306,-3.24603444734682,-1.72766048112978,-2.01132184663881,-1.85745078722109,-0.666581455861227,-4.7214118877994,-3.24604636827578,0,0,0,0,0,0,0,0,0,0,0,0,-0.286914821023607,-0.782655550814712,0.230663646928533,2.96658629960679,-0.0812102690499988,-0.0348738152905294,-0.28689259472402,-0.782645291358301,0.230685862153018,2.96656307524364,-0.081151761085107,-0.0350186553716605,0,0,0,0,0,0,0,0,0,0,0,0
2429.472,0.33276,8,0,7,1,1,0.1,0,0,0,0,0,0,0,0,0,0,4.99649709155954,-15.696633062154,17.8548054352708,3.82034016645819,0.078539341834215,-0.928682486780274,11,0,-1.72769624391665,-2.01136953035464,-1.85741502443422,-0.666605297719139,-4.7213160435306,-3.24603444734682,-1.72772008577456,-2.01132184663881,-1.85745078722109,-0.666581455861227,-4.7214118877994,-3.24599844614138,0,0,0,0,0,0,0,0,0,0,0,0,-0.286914821023607,-0.782655550814712,0.230663646928533,2.96658629960679,-0.0812102690499988,-0.0348738152905294,-0.286939243508948,-0.782628189836856,0.230685862153018,2.96655882794455,-0.0813112567427182,-0.0350201663437909,0,0,0,0,0,0,0,0,0,0,0,0
2429.48,0.338496,8,0,7,1,1,0.1,0,0,0,0,0,0,0,0,0,0,5.14605901911558,-15.9855025923787,18.2942357748578,4.01943472937711,0.126733051629777,-0.914097721254401,11,0,-1.72769624391665,-2.01136953035464,-1.85741502443422,-0.666605297719139,-4.7213160435306,-3.24603444734682,-1.72766048112978,-2.01132184663881,-1.8574631849872,-0.666545693074362,-4.7214358488666,-3.24599844614138,0,0,0,0,0,0,0,0,0,0,0,0,-0.286914821023607,-0.782655550814712,0.230663646928533,2.96658629960679,-0.0812102690499988,-0.0348738152905294,-0.286894350772214,-0.782641892178974,0.230683622513877,2.96654008209621,-0.0812258659352946,-0.035052224402663,0,0,0,0,0,0,0,0,0,0,0,0
2429.488,0.331213,8,0,7,1,1,0.1,0,0,0,0,0,0,0,0,0,0,5.08016427621177,-15.9720702670395,17.9608533742155,3.88171981231536,0.080344791906197,-0.930647507167282,11,0,-1.72769624391665,-2.01136953035464,-1.85741502443422,-0.666605297719139,-4.7213160435306,-3.24603444734682,-1.72773248354067,-2.01133376756777,-1.85747558275332,-0.666569534932272,-4.7213879267322,-3.24601036707033,0,0,0,0,0,0,0,0,0,0,0,0,-0.286914821023607,-0.782655550814712,0.230663646928533,2.96658629960679,-0.0812102690499988,-0.0348738152905294,-0.286945365088453,-0.782615964399207,0.230663885129995,2.96658105917264,-0.0813094093637566,-0.0349837540086334,0,0,0,0,0,0,0,0,0,0,0,0
2429.496,0.335904,8,0,7,1,1,0.1,0,0,0,0,0,0,0,0,0,0,3.04319353534789,-18.0657581333157,15.8956639537836,3.7900621959471,-0.0393590580918751,-0.791974808199635,11,0,-1.72769624391665,-2.01136953035464,-1.85741502443422,-0.666605297719139,-4.7213160435306,-3.24603444734682,-1.72767240205874,-2.0112980047809,-1.8574631849872,-0.666533772145407,-4.72137600580324,-3.24601036707033,0,0,0,0,0,0,0,0,0,0,0,0,-0.286914821023607,-0.782655550814712,0.230663646928533,2.96658629960679,-0.0812102690499988,-0.0348738152905294,-0.28689799298474,-0.782637756822754,0.230704675601705,2.9664981925403,-0.0812169373539749,-0.034973763445276,0,0,0,0,0,0,0,0,0,0,0,0
2429.504,0.333924,8,0,7,1,1,0.1,0,0,0,0,0,0,0,0,0,0,4.87994767345079,-15.467266088817,18.1769803553389,3.81882902104379,0.0801059068309382,-0.84256903947526,11,0,-1.72769624391665,-2.01136953035464,-1.85741502443422,-0.666605297719139,-4.7213160435306,-3.24603444734682,-1.72768432298769,-2.01132184663881,-1.85745078722109,-0.666569534932272,-4.7214118877994,-3.24603444734682,0,0,0,0,0,0,0,0,0,0,0,0,-0.286914821023607,-0.782655550814712,0.230663646928533,2.96658629960679,-0.0812102690499988,-0.0348738152905294,-0.28691140094993,-0.782639276702027,0.230687412928253,2.96654990462409,-0.0812046456917936,-0.0350224197190437,0,0,0,0,0,0,0,0,0,0,0,0
2429.512,0.33228,8,0,7,1,1,0.1,0,0,0,0,0,0,0,0,0,0,4.59222751850066,-14.2185521106947,19.4412373476613,4.04062008363057,0.0473756572643304,-0.900635930625602,11,0,-1.72769624391665,-2.01136953035464,-1.85741502443422,-0.666605297719139,-4.7213160435306,-3.24603444734682,-1.72767240205874,-2.01128608385195,-1.85742694536318,-0.666569534932272,-4.72137600580324,-3.24601036707033,0,0,0,0,0,0,0,0,0,0,0,0,-0.286914821023607,-0.782655550814712,0.230663646928533,2.96658629960679,-0.0812102690499988,-0.0348738152905294,-0.286899897364158,-0.78265022344807,0.23072991386014,2.9664858524781,-0.0812163195541633,-0.0349756074539109,0,0,0,0,0,0,0,0,0,0,0,0
2429.52,0.331092,8,0,7,1,1,0.1,0,0,0,0,0,0,0,0,0,0,4.46381919846537,-17.035021495857,17.2092163194217,3.87191187537433,0.12225370269103,-0.966438779123062,11,0,-1.72769624391665,-2.01136953035464,-1.85741502443422,-0.666605297719139,-4.7213160435306,-3.24603444734682,-1.72766048112978,-2.01132184663881,-1.85742694536318,-0.666557614003317,-4.72137600580324,-3.24601036707033,0,0,0,0,0,0,0,0,0,0,0,0,-0.286914821023607,-0.782655550814712,0.230663646928533,2.96658629960679,-0.0812102690499988,-0.0348738152905294,-0.286891285583065,-0.782658093291152,0.230702217116679,2.96650990002987,-0.0811994156705364,-0.0349697989765286,0,0,0,0,0,0,0,0,0,0,0,0
2429.528,0.338233,8,0,7,1,1,0.1,0,0,0,0,0,0,0,0,0,0,4.94804358604984,-16.4472785735409,17.5218492518694,3.82200442319513,0.0327532451589375,-0.891817159904669,11,0,-1.72769624391665,-2.01136953035464,-1.85741502443422,-0.666605297719139,-4.7213160435306,-3.24603444734682,-1.72768432298769,-2.01130992570986,-1.85745078722109,-0.666557614003317,-4.72137600580324,-3.24602228799929,0,0,0,0,0,0,0,0,0,0,0,0,-0.286914821023607,-0.782655550814712,0.230663646928533,2.96658629960679,-0.0812102690499988,-0.0348738152905294,-0.286908087307902,-0.782639419063865,0.230698715375875,2.96652163904522,-0.081217317222805,-0.0349724118598363,0,0,0,0,0,0,0,0,0,0,0,0
2429.536,0.332652,8,0,7,1,1,0.1,0,0,0,0,0,0,0,0,0,0,4.50095815789321,-14.7164937520152,18.9218705686415,3.91221865617942,-0.00885406162753122,-0.829676619838331,11,0,-1.72769624391665,-2.01136953035464,-1.85741502443422,-0.666605297719139,-4.7213160435306,-3.24603444734682,-1.72769624391665,-2.01132184663881,-1.8574631849872,-0.666581455861227,-4.7214118877994,-3.24596244493593,0,0,0,0,0,0,0,0,0,0,0,0,-0.286914821023607,-0.782655550814712,0.230663646928533,2.96658629960679,-0.0812102690499988,-0.0348738152905294,-0.286919716825042,-0.782629505020639,0.230678971849007,2.96657004235708,-0.0813295488766478,-0.0350102550138707,0,0,0,0,0,0,0,0,0,0,0,0
2429.544,0.336948,8,0,7,1,1,0.1,0,0,0,0,0,0,0,0,0,0,3.65737152762982,-17.2933172892587,16.5945000441683,3.89132778815777,0.0411925287224819,-0.837565995210242,11,0,-1.72769624391665,-2.01136953035464,-1.85741502443422,-0.666605297719139,-4.7213160435306,-3.24603444734682,-1.72769624391665,-2.01135760942568,-1.85741502443422,-0.666569534932272,-4.7213400045978,-3.24603444734682,0,0,0,0,0,0,0,0,0,0,0,0,-0.286914821023607,-0.782655550814712,0.230663646928533,2.96658629960679,-0.0812102690499988,-0.0348738152905294,-0.286917253770158,-0.782656469907889,0.230678046645321,2.96654158112495,-0.0812127139722486,-0.0349179208529818,0,0,0,0,0,0,0,0,0,0,0,0
2429.552,0.331416,8,0,7,1,1,0.1,0,0,0,0,0,0,0,0,0,0,5.32476762855275,-14.5801118596846,19.0227016146975,3.89671328483802,0.108631592930706,-0.936093250003535,11,0,-1.72769624391665,-2.01136953035464,-1.85741502443422,-0.666605297719139,-4.7213160435306,-3.24603444734682,-1.72767240205874,-2.01133376756777,-1.85743886629214,-0.666581455861227,-4.7214118877994,-3.24601036707033,0,0,0,0,0,0,0,0,0,0,0,0,-0.286914821023607,-0.782655550814712,0.230663646928533,2.96658629960679,-0.0812102690499988,-0.0348738152905294,-0.286902948853343,-0.782648392190394,0.230682738372883,2.96656087567961,-0.0812228892113317,-0.0350154662916197,0,0,0,0,0,0,0,0,0,0,0,0
2429.56,0.33234,8,0,7,1,1,0.1,0,0,0,0,0,0,0,0,0,0,4.80132448798615,-15.4117580574354,18.1448116522791,3.86223890735386,0.03671181970502,-0.836059399013211,11,0,-1.72769624391665,-2.01136953035464,-1.85741502443422,-0.666605297719139,-4.7213160435306,-3.24603444734682,-1.72766048112978,-2.01132184663881,-1.8574631849872,-0.666569534932272,-4.72137600580324,-3.24601036707033,0,0,0,0,0,0,0,0,0,0,0,0,-0.286914821023607,-0.782655550814712,0.230663646928533,2.96658629960679,-0.0812102690499988,-0.0348738152905294,-0.286888604481512,-0.782641115708589,0.230680525196748,2.96655776350248,-0.0812003791913607,-0.0349612285408354,0,0,0,0,0,0,0,0,0,0,0,0
2429.568,0.331584,8,0,7,1,1,0.1,0,0,0,0,0,0,0,0,0,0,3.95644323909465,-16.6861216178234,16.7658542100564,3.80137022184371,-0.011861372159678,-0.825838312550599,11,0,-1.72769624391665,-2.01136953035464,-1.85741502443422,-0.666605297719139,-4.7213160435306,-3.24603444734682,-1.72768432298769,-2.01132184663881,-1.85747558275332,-0.666569534932272,-4.72137600580324,-3.24601036707033,0,0,0,0,0,0,0,0,0,0,0,0,-0.286914821023607,-0.782655550814712,0.230663646928533,2.96658629960679,-0.0812102690499988,-0.0348738152905294,-0.286906396781958,-0.782628749694483,0.230673634951414,2.96656936307414,-0.0812360232198039,-0.0349621402544209,0,0,0,0,0,0,0,0,0,0,0,0
2429.576,0.362389,8,0,7,1,1,0.1,0,0,0,0,0,0,0,0,0,0,4.51838452204727,-15.9057794302035,18.0087899220474,3.91508917952326,0.0568724220579813,-0.898628831104977,11,0,-1.72769624391665,-2.01136953035464,-1.85741502443422,-0.666605297719139,-4.7213160435306,-3.24603444734682,-1.72763616243471,-2.01132184663881,-1.85747558275332,-0.666557614003317,-4.72137600580324,-3.24602228799929,0,0,0,0,0,0,0,0,0,0,0,0,-0.286914821023607,-0.782655550814712,0.230663646928533,2.96658629960679,-0.0812102690499988,-0.0348738152905294,-0.286868851168721,-0.782643392003336,0.230675185715841,2.96655958910759,-0.0811467299758599,-0.0349596756301605,0,0,0,0,0,0,0,0,0,0,0,0
2429.584,0.404316,8,0,7,1,1,0.1,0,0,0,0,0,0,0,0,0,0,4.21892041548127,-16.4426279124029,17.4251913704708,3.87285411361155,0.0153782233273293,-0.89034903305565,11,0,-1.72769624391665,-2.01136953035464,-1.85741502443422,-0.666605297719139,-4.7213160435306,-3.24603444734682,-1.7277081648456,-2.0112980047809,-1.85749942461123,-0.666569534932272,-4.7214118877994,-3.24599844614138,0,0,0,0,0,0,0,0,0,0,0,0,-0.286914821023607,-0.782655550814712,0.230663646928533,2.96658629960679,-0.0812102690499988,-0.0348738152905294,-0.286926276657563,-0.782608342570568,0.230679879692992,2.96657200919147,-0.0812938463958563,-0.0350166525273697,0,0,0,0,0,0,0,0,0,0,0,0
2429.592,0.339108,8,0,7,1,1,0.1,0,0,0,0,0,0,0,0,0,0,4.10089827577047,-16.0984777749533,17.5112501704555,3.84131792333311,0.0719527878569935,-0.84189978870111,11,0,-1.72769624391665,-2.01136953035464,-1.85741502443422,-0.666605297719139,-4.7213160435306,-3.24603444734682,-1.72769624391665,-2.0112980047809,-1.85743886629214,-0.666533772145407,-4.72142392793764,-3.24599844614138,0,0,0,0,0,0,0,0,0,0,0,0,-0.286914821023607,-0.782655550814712,0.230663646928533,2.96658629960679,-0.0812102690499988,-0.0348738152905294,-0.286922720426956,-0.782641054204603,0.230718188182824,2.96647798142451,-0.0812759692611508,-0.0350501091682191,0,0,0,0,0,0,0,0,0,0,0,0
2429.6,0.356868,8,0,7,1,1,0.1,0,0,0,0,0,0,0,0,0,0,4.41206524173303,-16.2708820241738,17.3335326198667,3.82073165124158,0.0338374611797939,-0.92073769857641,11,0,-1.72769624391665,-2.01136953035464,-1.85741502443422,-0.666605297719139,-4.7213160435306,-3.24603444734682,-1.72768432298769,-2.01130992570986,-1.8574631849872,-0.666557614003317,-4.72137600580324,-3.24598628679384,0,0,0,0,0,0,0,0,0,0,0,0,-0.286914821023607,-0.782655550814712,0.230663646928533,2.96658629960679,-0.0812102690499988,-0.0348738152905294,-0.28690722010012,-0.782633893414145,0.230691824984126,2.96653213070748,-0.0812709796376915,-0.0349655828746568,0,0,0,0,0,0,0,0,0,0,0,0
2429.608,0.334728,8,0,7,1,1,0.1,0,0,0,0,0,0,0,0,0,0,3.67528986035293,-17.0245446636619,16.3619100001908,3.71152030184439,-0.0517424489879607,-0.845206504497636,11,0,-1.72769624391665,-2.01136953035464,-1.85741502443422,-0.666605297719139,-4.7213160435306,-3.24603444734682,-1.72764856020083,-2.01133376756777,-1.85743886629214,-0.666569534932272,-4.7214118877994,-3.24604636827578,0,0,0,0,0,0,0,0,0,0,0,0,-0.286914821023607,-0.782655550814712,0.230663646928533,2.96658629960679,-0.0812102690499988,-0.0348738152905294,-0.286884435540249,-0.782656057891162,0.230684289148117,2.9665515880455,-0.0811339638138734,-0.0350192612792641,0,0,0,0,0,0,0,0,0,0,0,0
2429.616,0.384433,8,0,7,1,1,0.1,0,0,0,0,0,0,0,0,0,0,4.63302769247774,-15.9619260776032,17.4354888363729,3.72482886283645,0.0463138288589515,-0.862599843490786,11,0,-1.72769624391665,-2.01136953035464,-1.85741502443422,-0.666605297719139,-4.7213160435306,-3.24603444734682,-1.72769624391665,-2.01130992570986,-1.85745078722109,-0.666557614003317,-4.721363965665,-3.24601036707033,0,0,0,0,0,0,0,0,0,0,0,0,-0.286914821023607,-0.782655550814712,0.230663646928533,2.96658629960679,-0.0812102690499988,-0.0348738152905294,-0.286916319933212,-0.782636174826603,0.230698716268887,2.96651934068195,-0.0812510432909001,-0.0349546880903611,0,0,0,0,0,0,0,0,0,0,0,0
2429.624,0.355224,8,0,7,1,1,0.1,0,0,0,0,0,0,0,0,0,0,4.39532316608297,-15.5278255938303,18.1906002690296,3.86921721330505,-0.0434995015550313,-0.908599764439245,11,0,-1.72769624391665,-2.01136953035464,-1.85741502443422,-0.666605297719139,-4.7213160435306,-3.24603444734682,-1.7277081648456,-2.01133376756777,-1.8574631849872,-0.666557614003317,-4.72137600580324,-3.24603444734682,0,0,0,0,0,0,0,0,0,0,0,0,-0.286914821023607,-0.782655550814712,0.230663646928533,2.96658629960679,-0.0812102690499988,-0.0348738152905294,-0.286926260519767,-0.782629468135376,0.230672326944435,2.96655754185357,-0.0812355599736927,-0.0349705699250645,0,0,0,0,0,0,0,0,0,0,0,0
2429.632,0.395916,8,0,7,1,1,0.1,0,0,0,0,0,0,0,0,0,0,4.05883364693769,-15.8536775486436,17.721888093295,3.80832187160356,-0.0258361031566705,-0.881139115485258,11,0,-1.72769624391665,-2.01136953035464,-1.85741502443422,-0.666605297719139,-4.7213160435306,-3.24603444734682,-1.72768432298769,-2.01138192812075,-1.85745078722109,-0.666545693074362,-4.72137600580324,-3.24601036707033,0,0,0,0,0,0,0,0,0,0,0,0,-0.286914821023607,-0.782655550814712,0.230663646928533,2.96658629960679,-0.0812102690499988,-0.0348738152905294,-0.286909384374891,-0.782647538196665,0.230641381460302,2.96658071924766,-0.081236736552205,-0.0349600275086246,0,0,0,0,0,0,0,0,0,0,0,0
2429.64,0.4206,8,0,7,1,1,0.1,0,0,0,0,0,0,0,0,0,0,5.06966187926651,-14.5895520423414,18.3678776319266,3.77776261470473,0.0676868164033047,-0.81034892067965,11,0,-1.72769624391665,-2.01136953035464,-1.85741502443422,-0.666605297719139,-4.7213160435306,-3.24603444734682,-1.72767240205874,-2.01130992570986,-1.85745078722109,-0.666581455861227,-4.7213879267322,-3.24599844614138,0,0,0,0,0,0,0,0,0,0,0,0,-0.286914821023607,-0.782655550814712,0.230663646928533,2.96658629960679,-0.0812102690499988,-0.0348738152905294,-0.286899550631809,-0.782641013769961,0.23069561292425,2.96654578759159,-0.0812369411313197,-0.0349808892578455,0,0,0,0,0,0,0,0,0,0,0,0
2429.648,0.407052,8,0,7,1,1,0.1,0,0,0,0,0,0,0,0,0,0,4.27112657399614,-15.1639234076588,18.5636127905107,3.93279229761683,0.0155104258366964,-0.92085336815441,11,0,-1.72769624391665,-2.01136953035464,-1.85741502443422,-0.666605297719139,-4.7213160435306,-3.24603444734682,-1.72769624391665,-2.01134568849672,-1.85743886629214,-0.666581455861227,-4.7214118877994,-3.24597436586489,0,0,0,0,0,0,0,0,0,0,0,0,-0.286914821023607,-0.782655550814712,0.230663646928533,2.96658629960679,-0.0812102690499988,-0.0348738152905294,-0.286921799068865,-0.782642759293711,0.230672989220459,2.96657016161882,-0.0813119653932932,-0.0350117309954857,0,0,0,0,0,0,0,0,0,0,0,0
2429.656,0.343572,8,0,7,1,1,0.1,0,0,0,0,0,0,0,0,0,0,5.36281247911471,-14.8437101999416,18.5236763148117,3.81476247622264,0.0768767912642068,-0.899298831021498,11,0,-1.72769624391665,-2.01136953035464,-1.85741502443422,-0.666605297719139,-4.7213160435306,-3.24603444734682,-1.72772008577456,-2.01133376756777,-1.85745078722109,-0.666593376790182,-4.72137600580324,-3.24603444734682,0,0,0,0,0,0,0,0,0,0,0,0,-0.286914821023607,-0.782655550814712,0.230663646928533,2.96658629960679,-0.0812102690499988,-0.0348738152905294,-0.286936017734463,-0.782629096537243,0.230674564907157,2.96658038078758,-0.081253468667209,-0.0349676150452571,0,0,0,0,0,0,0,0,0,0,0,0
2429.664,0.402097,8,0,7,1,2,0.1,0,0,0,0,0,0,0,0,0,0,5.61950345240732,-13.4908083058908,20.0933984346437,3.95955963104572,0.124617179724482,-0.854359253741493,11,0,-1.72769624391665,-2.01136953035464,-1.85741502443422,-0.666605297719139,-4.7213160435306,-3.24603444734682,-1.72769624391665,-2.01134568849672,-1.85747558275332,-0.666545693074362,-4.7214118877994,-3.24596244493593,0,0,0,0,0,0,0,0,0,0,0,0,-0.286914821023607,-0.782655550814712,0.230663646928533,2.96658629960679,-0.0812102690499988,-0.0348738152905294,-0.286919670297296,-0.782628871081676,0.230657235952377,2.9665705261237,-0.0813299569428842,-0.0350104246462661,0,0,0,0,0,0,0,0,0,0,0,0
2429.672,0.411888,8,1,7,1,2,0.1,0,0,0,0,0,0,0,0,0,0,4.68710809586084,-17.0000117518138,16.7951203382567,3.7385525647863,0.0254096744505792,-0.917091131045989,11,0,-1.72769624391665,-2.01136953035464,-1.85741502443422,-0.666605297719139,-4.7213160435306,-3.24603444734682,-1.72764856020083,-2.01132184663881,-1.8574631849872,-0.666581455861227,-4.7214358488666,-3.24599844614138,0,0,0,0,0,0,0,0,0,0,0,0,-0.286914821023607,-0.782655550814712,0.230663646928533,2.96658629960679,-0.0812102690499988,-0.0348738152905294,-0.286884581253125,-0.782642835297276,0.230678970189336,2.96657596827487,-0.0812086750726837,-0.0350440170104824,0,0,0,0,0,0,0,0,0,0,0,0
2429.68,0.907812,8,1,7,1,2,0.1,0,0,0,0,0,0,0,0,0,86,4.21064682720227,-16.1336496218158,17.7637034449226,3.89877114982006,0.0397985090879749,-0.866377919986245,11,0,-1.72769624391564,-2.01136953035262,-1.85741502443473,-0.666605279846967,-4.72131604353516,-3.24603444734428,-1.72768432298769,-2.01134568849672,-1.85743886629214,-0.666581455861227,-4.721363965665,-3.24599844614138,5.04457759602166E-10,1.00891551604719E-09,-2.5222890024734E-10,8.93608577021097E-06,-2.28267135415661E-09,1.27123354658273E-09,0,0,0,0,0,0,-0.286914821242969,-0.782655552052389,0.230663649254814,2.96658628185285,-0.0812102688041577,-0.0348738186302318,-0.286908102366198,-0.78264688020498,0.230672992696763,2.96656645696676,-0.0812520523204872,-0.0349427581312068,-1.09680161447632E-07,-6.1883856291319E-07,1.16314010894551E-06,-8.82272458980171E-06,1.42146666719223E-06,-7.95029760265347E-08,0,0,0,0,0,0
2429.688,0.410004,8,1,7,1,2,0.1,0,0,0,0,0,0,0,0,0,86,4.53366507795278,-14.8708597367415,18.2059793704025,3.79808764040919,-0.0863742579804121,-0.899341518932169,11,0,-1.72769624390757,-2.01136953033647,-1.85741502443877,-0.666605136869595,-4.72131604357169,-3.24603444732394,-1.72767240205874,-2.0112980047809,-1.8574631849872,-0.666569534932272,-4.72144788900484,-3.24601036707033,2.27005991820975E-09,4.54011982221235E-09,-1.13503005111303E-09,4.02123859659494E-05,-1.02720210937047E-08,5.72055095962229E-09,0,0,0,0,0,0,-0.286914822997852,-0.782655561953805,0.230663667865056,2.96658613982137,-0.0812102668374343,-0.0348738453478515,-0.28690410355951,-0.782634229284295,0.230700018130122,2.96654165455867,-0.0812272098291695,-0.0350729133137464,-4.93560611145958E-07,-2.78477279397209E-06,5.23413089470965E-06,-3.9702260654318E-05,6.39660000098771E-06,-3.57763393423128E-07,0,0,0,0,0,0
2429.696,0.396408,8,1,7,1,2,0.1,0,0,0,0,0,0,0,0,0,86,4.47095473726683,-16.2736561745812,17.6412279053008,3.80212597038775,0.148348632987409,-0.825031838104515,11,0,-1.72769624388033,-2.01136953028199,-1.85741502445239,-0.666604654320963,-4.72131604369495,-3.24603444725529,-1.72768432298769,-2.01133376756777,-1.85745078722109,-0.666593376790182,-4.721363965665,-3.24603444734682,6.05349311522599E-09,1.21069861925663E-08,-3.02674680296809E-09,0.000107233029242532,-2.73920562498793E-08,1.52548025589928E-08,0,0,0,0,0,0,-0.286914828920575,-0.782655595371064,0.230663730674635,2.96658566046511,-0.0812102601997439,-0.0348739355197987,-0.286906931408041,-0.782639533684306,0.230674565800127,2.96658013637297,-0.081198774930491,-0.0349452660097892,-1.3161605914069E-06,-7.42605413168903E-06,1.39576860259842E-05,-0.000105872695080074,1.70575999902382E-05,-9.54035727528507E-07,0,0,0,0,0,0
2429.704,0.396073,8,1,7,1,2,0.1,0,0,0,0,0,0,0,0,0,86,3.01181353642503,-19.3309304571585,14.2875755599522,3.48887440580455,-0.0142604231859754,-0.845454337280493,11,0,-1.72769624381576,-2.01136953015285,-1.85741502448467,-0.666603510501985,-4.72131604398713,-3.24603444709258,-1.72768432298769,-2.01132184663881,-1.85745078722109,-0.666581455861227,-4.72142392793764,-3.24599844614138,1.26114439900542E-08,2.52228879011797E-08,-6.30572250618351E-09,0.000223402144255274,-5.70667838539152E-08,3.17808386645683E-08,0,0,0,0,0,0,-0.286914842959608,-0.782655674582223,0.230663879556666,2.96658452421323,-0.0812102444659489,-0.0348741492606048,-0.286912351504208,-0.782638275058121,0.230685861312442,2.9665612436422,-0.0812598377735067,-0.035033264979577,-2.74199610461046E-06,-1.54709132571202E-05,2.9078530529868E-05,-0.0002205681147595,3.55366665851161E-05,-1.98757449029422E-06,0,0,0,0,0,0
2429.712,0.393384,8,1,7,1,2,0.1,0,0,0,0,0,0,0,0,0,86,3.90364411700352,-17.9092197619012,15.294960224947,3.48321177201869,0.0941701705400615,-0.921746712895809,11,0,-1.72769624368964,-2.01136952990062,-1.85741502454773,-0.666601276480542,-4.7213160445578,-3.24603444677477,-1.72769624391665,-2.01134568849672,-1.8574631849872,-0.666569534932272,-4.7214118877994,-3.24603444734682,2.27005991820975E-08,4.54011982221235E-08,-1.13503005111303E-08,0.000402123859659494,-1.02720210937047E-07,5.72055095962229E-08,0,0,0,0,0,0,-0.286914870379521,-0.782655829291036,0.230664170342146,2.96658230497124,-0.0812102137358527,-0.0348745667226795,-0.286920244411609,-0.782632745739774,0.230661024565173,2.96658555116175,-0.0812232343621659,-0.0350174632627213,-4.93557496195782E-06,-2.78475283724429E-05,5.23414181495065E-05,-0.000397022606599959,6.39659996380051E-05,-3.57763428623574E-06,0,0,0,0,0,0
2429.72,0.397164,8,1,7,1,2,0.1,0,0,0,0,0,0,0,0,0,86,3.93858911564367,-17.1544086746579,16.0613085527437,3.53600569683278,0.0695917172767314,-0.803693564608976,11,0,-1.72769624347172,-2.01136952946477,-1.85741502465669,-0.66659741609149,-4.72131604554392,-3.24603444622559,-1.72769624391665,-2.01132184663881,-1.8574631849872,-0.666581455861227,-4.721363965665,-3.24602228799929,3.70776453307592E-08,7.41552904294684E-08,-1.85388241681795E-08,0.000656802304110506,-1.67776344530511E-07,9.34356656738308E-08,0,0,0,0,0,0,-0.286914917760893,-0.78265609662635,0.230664672820285,2.96657847012094,-0.0812101606341548,-0.0348752880957786,-0.286915349979799,-0.782630205664916,0.230678975324825,2.96656779557859,-0.0812342849475468,-0.0349474491016035,-8.06138822689135E-06,-4.54839703810912E-05,8.549116134019E-05,-0.000648470257539338,0.000104477798801349,-5.84346990912383E-06,0,0,0,0,0,0
2429.728,0.418728,8,1,7,1,2,0.1,0,0,0,0,0,0,0,0,0,86,4.57075391469308,-15.5320817843221,17.9338972836679,3.66150105697114,0.0497476354617126,-0.832639180858725,11,0,-1.72769624312566,-2.01136952877266,-1.85741502482972,-0.666591285936651,-4.72131604710983,-3.24603444535353,-1.72766048112978,-2.01134568849672,-1.85745078722109,-0.666581455861227,-4.7213879267322,-3.24604636827578,5.64992690754426E-08,1.12998537797285E-07,-2.82496368277021E-08,0.00100084160626363,-2.5565919166554E-07,1.42378157217266E-07,0,0,0,0,0,0,-0.286914993000138,-0.782656521140991,0.230665470739112,2.96657238052037,-0.0812100763103871,-0.0348764336059932,-0.286890792207325,-0.782648056829646,0.23066636570287,2.96658411357719,-0.0811491330736231,-0.0349790566270672,-1.22838970435608E-05,-6.93081185011695E-05,0.000130272677441334,-0.000988145154570064,0.000159204263370401,-8.90433649082151E-06,0,0,0,0,0,0
2429.736,0.44346,8,1,7,1,2,0.1,0,0,0,0,0,0,0,0,0,86,3.68415320788468,-17.5289203178869,16.1644584884496,3.71997449289355,0.0846081145040453,-0.783027133332535,11,0,-1.72769624260909,-2.01136952773953,-1.857415025088,-0.666582135384822,-4.72131604944728,-3.24603444405179,-1.72766048112978,-2.01136953035464,-1.85742694536318,-0.666581455861227,-4.7214358488666,-3.24598628679384,8.17221570555509E-08,1.63444313599645E-07,-4.08610818400691E-08,0.00144764589477418,-3.6979275937337E-07,2.05939834546402E-07,0,0,0,0,0,0,-0.286915105309214,-0.782657154809835,0.230666661806537,2.96656329050359,-0.0812099504387972,-0.0348781435140112,-0.286897207472219,-0.782660397991109,0.230660114377288,2.96658633556008,-0.0812448563214159,-0.0350416834850088,-1.77675138405281E-05,-0.000100247539842804,0.000188431054559775,-0.00142928138477336,0.000230277592058827,-1.28794897136691E-05,0,0,0,0,0,0
2429.744,0.400909,8,1,7,1,2,0.1,0,0,0,0,0,0,0,0,0,86,4.79798683439752,-16.0993637264642,17.5262850195233,3.84748261074581,0.0857703830415356,-0.959315974082144,11,0,-1.72769624187359,-2.01136952626853,-1.85741502545575,-0.666569106571769,-4.72131605277542,-3.24603444219833,-1.72767240205874,-2.01134568849672,-1.85747558275332,-0.666557614003317,-4.72137600580324,-3.24599844614138,1.13502995910487E-07,2.27005991110618E-07,-5.67515025556516E-08,0.00201061929829747,-5.13601054685236E-07,2.86027547981115E-07,0,0,0,0,0,0,-0.286915265215133,-0.782658057026782,0.230668357691998,2.96655034788044,-0.0812097712181716,-0.0348805781123888,-0.28689759458937,-0.78263541043673,0.230655687780362,2.96658096198072,-0.081236482287681,-0.0349569534111041,-2.46765768995732E-05,-0.000139229326478235,0.000261711640696327,-0.00198511303536562,0.00031982998269509,-1.78881860978152E-05,0,0,0,0,0,0
2429.752,0.39582,8,1,7,1,2,0.1,0,0,0,0,0,0,0,0,0,86,3.78140685885618,-17.1939163533903,16.6493426593898,3.84907115007122,0.0291370275671368,-0.834431136290247,11,0,-1.72769624086468,-2.0113695242507,-1.85741502596021,-0.666551234400229,-4.72131605734076,-3.24603443965586,-1.72768432298769,-2.01133376756777,-1.85742694536318,-0.666533772145407,-4.72137600580324,-3.24602228799929,1.52598472279655E-07,3.05196943604275E-07,-7.62992423248205E-08,0.00270316594548882,-6.90508084632373E-07,3.84548147841276E-07,0,0,0,0,0,0,-0.286915484559282,-0.782659294600264,0.230670684028927,2.96653259393618,-0.0812095253715497,-0.0348839177214982,-0.286910429211509,-0.782654112014154,0.230695569515033,2.96649794229933,-0.0812170922538862,-0.0349767077942647,-3.31753172789284E-05,-0.000187179883530439,0.00035186015964187,-0.00266887419375866,0.000429993631827527,-2.40496833748823E-05,0,0,0,0,0,0
2429.76,0.394164,8,1,7,1,2,0.1,0,0,0,0,0,0,0,0,0,86,5.57720622168189,-15.0180885698521,17.3188425174705,3.09574937920651,0.290033446518014,-0.973730870047189,11,0,-1.72769623952181,-2.01136952156496,-1.85741502663164,-0.666527446539908,-4.72131606341723,-3.24603443627184,-1.72767240205874,-2.0112980047809,-1.8574631849872,-0.666485611592428,-4.7213879267322,-3.24597436586489,1.99765272802458E-07,3.99530544354687E-07,-9.98826444979468E-08,0.00353868996500354,-9.03937856246015E-07,5.03408484446761E-07,0,0,0,0.00381577736698091,0,0,-0.286915776496393,-0.782660941746864,0.230673780418233,2.96650896343092,-0.0812091981458562,-0.0348883626837804,-0.286899671376167,-0.782640917588889,0.230710940124117,2.96644983762289,-0.0812712789332955,-0.0349956305643655,-4.34278170794627E-05,-0.000245024661801504,0.000460622857160694,-0.00349379894763587,0.00056290073422608,-3.14832409593456E-05,-4.6911020550219E-05,-0.000264223705190301,0.000496415770513977,-0.0037672037698912,0.000605981250028596,-3.34573623449273E-05
2429.768,0.47304,8,1,7,1,2,0.1,0,0,0,0,0,0,0,0,0,86,5.7137076351065,-13.6637530071017,16.1489083475629,1.92148496739988,0.424103342071799,-0.906132794154012,11,0,-1.7276962377784,-2.01136951807815,-1.85741502750335,-0.666496563427486,-4.72131607130614,-3.24603443187845,-1.72769624391665,-2.01132184663881,-1.85745078722109,-0.666473690663473,-4.7214118877994,-3.24603444734682,2.55760084118298E-07,5.11520166635925E-07,-1.27880052425402E-07,0.00453059548549696,-1.1573143765574E-06,6.44515408117445E-07,0,0,0,0.00506213679909706,0,0,-0.286916155493228,-0.782663080082603,0.230677800433073,2.96647828459884,-0.081208773311368,-0.0348941333558831,-0.286921909272879,-0.782642493692015,0.230699881524323,2.96645433759029,-0.0812210037446928,-0.0350418310428027,-5.55979580411697E-05,-0.000313687828455406,0.000589746680966424,-0.00447312138504588,0.000720683482268519,-4.03081205289836E-05,-6.22420731193033E-05,-0.000350526036928444,0.000658561798031915,-0.00499767817879332,0.000804034636660739,-4.43857751492195E-05
2429.776,0.424164,8,1,7,1,2,0.1,0,0,0,0,0,0,0,0,0,86,5.07505890604605,-16.0224547522102,16.3148092981589,3.15173082073055,0.255009298415546,-0.940417947256526,11,0,-1.72769623556182,-2.01136951364498,-1.85741502861164,-0.666457298266613,-4.7213160813362,-3.24603442629265,-1.72769624391665,-2.01133376756777,-1.85743886629214,-0.666461769734518,-4.72137600580324,-3.24602228799929,3.2133959286658E-07,6.4267918372206E-07,-1.60669809457556E-07,0.00569228663562439,-1.45406165259776E-06,8.097757691732E-07,0,0,0,0.00243519456125796,0,0,-0.286916637326726,-0.782665798611341,0.230682911625192,2.96643927914729,-0.0812082331610134,-0.0349014700982081,-0.286919810592462,-0.782650364651658,0.230698311192953,2.96643790751111,-0.0812340406189976,-0.0349895863255587,-6.98493594556926E-05,-0.000394091869260722,0.000740979497978733,-0.00562007559451577,0.000905474065199023,-5.06435867257364E-05,-2.99416589047517E-05,-0.000168620593706237,0.000316810170727432,-0.00240418604561153,0.000386789458542194,-2.13523775674033E-05
2429.784,0.40344,8,1,7,1,2,0.1,0,0,0,0,0,0,0,0,0,86,4.88270528898675,-14.122123772736,12.5867315245143,0.383918145989487,0.645785619440902,-0.814680866499176,11,0,-1.72769623279335,-2.01136950810805,-1.85741502999587,-0.666408257027905,-4.7213160938635,-3.24603441931612,-1.72767240205874,-2.0112980047809,-1.85743886629214,-0.666413609181539,-4.7213879267322,-3.24603444734682,3.97260485686706E-07,7.94520968887162E-07,-1.98630258944781E-07,0.00703716754404114,-1.79760369139833E-06,1.0010964179339E-06,0,0,0,0.0141509734094143,0,0,-0.286917239081694,-0.782669193709762,0.230689295533126,2.96639056225539,-0.0812075585094741,-0.0349106332613802,-0.286902257345529,-0.782656741171858,0.230733823712451,2.96635719924846,-0.0811806485931856,-0.0350210890627164,-8.63453043784607E-05,-0.000487157115886548,0.000916070352325992,-0.00694789566518566,0.00111940466824701,-6.2608907988274E-05,-0.000173944358585377,-0.000979709656238807,0.00184107492846799,-0.0139708364617791,0.00224730527984756,-0.000124080503476491
2429.792,0.398521,8,1,7,1,2,0.1,0,0,0,0,0,0,0,0,0,86,5.47782999678775,-14.1420856322565,17.1899212864678,2.62826865013771,0.363521995998499,-0.858173498716287,11,0,-1.72769622938826,-2.01136950129787,-1.85741503169842,-0.666347938448957,-4.72131610927153,-3.2460344107353,-1.72766048112978,-2.01130992570986,-1.8574631849872,-0.666354004536764,-4.721363965665,-3.24598628679384,4.84279449218079E-07,9.68558895405302E-07,-2.42139744237447E-07,0.00857864233940253,-2.19136449999034E-06,1.22038420471942E-06,0,0,0,0.00456359283998609,0,0,-0.286917979147796,-0.782673369108288,0.230697147692638,2.9663306425725,-0.0812067286920282,-0.0349219031690513,-0.286889966350085,-0.782655008096371,0.230718314824501,2.9663292729609,-0.0812311436750767,-0.0349827275572575,-0.000105248653121154,-0.000593801191728903,0.00111676976752883,-0.00846981568696646,0.00136460747159386,-7.63233575275345E-05,-5.60899427950757E-05,-0.000315936757913019,0.00059374165635908,-0.00450550836187931,0.000724688122543116,-4.00141881435273E-05
2429.8,0.39294,8,1,7,1,2,0.1,0,0,0,0,0,0,0,0,0,86,5.54101344255867,-12.4068899653289,12.6775272317269,-0.711071311332067,0.869811333865544,-0.909078980411352,11,0,-1.72769622525575,-2.01136949303283,-1.85741503376468,-0.666274734034327,-4.72131612797118,-3.24603440032135,-1.72766048112978,-2.01134568849672,-1.85740310350527,-0.666245762501852,-4.72137600580324,-3.24599844614138,5.83153170100104E-07,1.16630633655055E-06,-2.91576608685925E-07,0.0103301151503639,-2.63876808540504E-06,1.46954597984964E-06,0,0,0,0.012923788279295,0,0,-0.28691887721586,-0.782678435867276,0.230706677649713,2.96625792221609,-0.0812057215631239,-0.034935580096447,-0.286897167050598,-0.782692725464926,0.230736542091604,2.96619950665686,-0.0812128729879802,-0.035026234438729,-0.000126721743001607,-0.0007149383697244,0.00134483009626109,-0.0101990697507228,0.00164321464917539,-9.19062144564364E-05,-0.000158809078232797,-0.000894491229575908,0.00168155689883078,-0.0127592970164534,0.00205226735702294,-0.000113321795183964
2429.808,0.433392,8,1,7,1,2,0.1,0,0,0,0,0,0,0,0,0,86,4.96466797767433,-14.9787495577616,15.1903208318427,2.00887684849482,0.270090978389644,-0.910584749158747,11,0,-1.72769622029894,-2.01136948311923,-1.85741503624308,-0.666186928055549,-4.72131615040071,-3.24603438783021,-1.72767240205874,-2.01135760942568,-1.85745078722109,-0.666198078786032,-4.72137600580324,-3.24601036707033,6.94638334972183E-07,1.38927666559698E-06,-3.47319195640588E-07,0.0123049901055805,-3.14323845467365E-06,1.75048859364442E-06,0,0,0,0.0133839827030897,0,0,-0.286919954273304,-0.78268451234774,0.230718108976533,2.96617069676931,-0.0812045134946095,-0.0349519842440131,-0.286903939098658,-0.782672563039311,0.230706494444636,2.96621162555493,-0.0812135841128878,-0.035027698217179,-0.000150926273323669,-0.000851478835582262,0.0016020059210358,-0.0121488919484828,0.00195735836730754,-0.000109476765084901,-0.000164477975705121,-0.000926361152605128,0.00174142311061293,-0.013213608048221,0.00212550790247704,-0.000117352039189614
2429.816,0.40344,8,1,7,1,2,0.1,0,0,0,0,0,0,0,0,0,86,6.3015685622221,-12.9021511502758,13.8063591684288,0.0138383650702736,0.811245800766925,-0.862101214590598,11,0,-1.72769621441495,-2.01136947135124,-1.85741503918508,-0.666082697551126,-4.72131617702579,-3.24603437300254,-1.72768432298769,-2.01132184663881,-1.8574631849872,-0.666102234517233,-4.72137600580324,-3.24598628679384,8.19491630473719E-07,1.63898325581866E-06,-4.09745848451805E-07,0.0145166713337077,-3.70819961482741E-06,2.06511889642365E-06,0,0,0,0.0114281568676233,0,0,-0.286921232598591,-0.782691724175851,0.230731679290843,2.9660671552779,-0.0812030793736064,-0.0349714557054548,-0.286913008201133,-0.782666626143259,0.230741323050545,2.96609162863394,-0.0812649686109987,-0.035048301441894,-0.000178023174553946,-0.00100432784983398,0.00189005450910435,-0.0143325163736769,0.00230917078312291,-0.000129154304391234,-0.000140424433314961,-0.000790813507986459,0.00148704151324132,-0.0112826581637733,0.00181503538844921,-0.000100203239081339
2429.824,0.4152,8,1,7,1,2,0.1,0,0,0,0,0,0,0,0,0,86,4.96381084510859,-14.3787592516017,13.5707853006924,0.683800618583344,0.554576621458901,-0.95149340740833,11,0,-1.7276962074948,-2.01136945751093,-1.85741504264515,-0.66596011232653,-4.72131620833947,-3.24603435556376,-1.72767240205874,-2.01133376756777,-1.85747558275332,-0.66597015062441,-4.72137600580324,-3.24599844614138,9.58469743244116E-07,1.91693948048966E-06,-4.79234910469947E-07,0.0169785629634008,-4.33707557289755E-06,2.41534373850719E-06,0,0,0,0.0212839841842651,0,0,-0.286922735754578,-0.782700204200364,0.230747640279145,2.96594538024659,-0.0812013925999408,-0.0349943544294221,-0.286904624355206,-0.782674868839541,0.230741870311849,2.96598557116196,-0.0812280115279455,-0.0350686150342962,-0.000208172460655451,-0.00117438480206125,0.00221073632478304,-0.0167631771214077,0.00270078404280553,-0.000151058137680813,-0.000261465109080586,-0.0014725320810871,0.00276965132561522,-0.0210130447552841,0.00338010454621394,-0.000186617590650111
2429.832,0.445789,8,1,7,1,2,0.1,0,0,0,0,0,0,0,0,0,86,6.28046486878554,-14.0089700702734,15.0585748569431,1.31909766336985,0.600254718733361,-0.949216495708151,11,0,-1.72769619942347,-2.01136944136829,-1.85741504668081,-0.665817134954207,-4.72131624486221,-3.24603433522402,-1.72767240205874,-2.01127368608584,-1.85745078722109,-0.665826145802633,-4.7214358488666,-3.24601036707033,1.11232935992278E-06,2.22465871288405E-06,-5.56164725045386E-07,0.0197040691233152,-5.03329033591532E-06,2.80306997021492E-06,0,0,0,0.0167587399482727,0,0,-0.28692448858064,-0.782710092442079,0.2307662577242,2.96580334763477,-0.0811994250831093,-0.0350210601740841,-0.286912619181,-0.782688911379547,0.230823526013821,2.96576540251399,-0.08121437243584,-0.0352003058450241,-0.000241533063529979,-0.00136254215061644,0.00256581560233363,-0.0194541082887522,0.00313433027961098,-0.000175307582442902,-0.000205797191739802,-0.0011589591907333,0.00218105788388005,-0.0165454074169679,0.00266144039079721,-0.00014694593090279
2429.84,0.405348,8,1,7,1,2,0.1,0,0,0,0,0,0,0,0,0,86,4.95617826066703,-13.5673971728596,13.7663611068574,0.623501915027325,0.585078114698196,-0.926652199599993,11,0,-1.72769619007991,-2.01136942268115,-1.8574150513526,-0.66565162077357,-4.72131628714185,-3.24603431167824,-1.72767240205874,-2.01130992570986,-1.8574631849872,-0.665670220051901,-4.72142392793764,-3.24605828920473,1.2818271671491E-06,2.56365432627591E-06,-6.40913635528492E-07,0.0227065939421061,-5.80026791091194E-06,3.23020444186672E-06,0,0,0,0.0201143231242895,0,0,-0.286926517183381,-0.78272153603443,0.230787811537326,2.9656389268514,-0.0811971472387083,-0.0350519724537147,-0.286913160400056,-0.782698019579982,0.230807290030762,2.965659963534,-0.0811407695872667,-0.0352092999608361,-0.000278262648511179,-0.00156968424109429,0.00295706098241885,-0.0224185439750988,0.00361194161165911,-0.000202021970416254,-0.000246960530071523,-0.00139073889031932,0.00261792011582451,-0.019858274047323,0.00319434531266262,-0.000176365056677027
2429.848,0.402996,8,1,7,1,2,0.1,0,0,0,0,0,0,0,0,0,86,5.64596673117614,-15.566455728067,12.8003620031133,0.788396343282438,0.645117937899404,-0.970889413132868,11,0,-1.72769617933697,-2.01136940119529,-1.85741505672406,-0.665461317891008,-4.72131633575362,-3.24603428460605,-1.72769624391665,-2.01128608385195,-1.85747558275332,-0.665502373372213,-4.7214118877994,-3.24603444734682,1.4677198515625E-06,2.9354396939393E-06,-7.33859985269637E-07,0.0259995415484288,-6.64143230491865E-06,3.69865400378246E-06,0,0,0,0.0236041303724051,0,0,-0.286928848925815,-0.782734689154163,0.230812595796017,2.96544988074913,-0.0811945279842782,-0.0350875104764639,-0.286931536327552,-0.7826950152893,0.230841745821118,2.96547860832426,-0.0812071480114049,-0.0352250095756747,-0.000318517409838783,-0.00179668599674885,0.00338624621502965,-0.0256697182825219,0.0041357501394861,-0.00023132064987401,-0.000289761566584137,-0.00163147923865438,0.0030724227124661,-0.0233035682557006,0.00374911233205598,-0.000206963549989289
2429.856,0.399384,8,1,7,1,2,0.1,0,0,0,0,0,0,0,0,0,86,4.67611894197036,-14.8355521248334,14.9398984727905,1.78668478628573,0.492122945081957,-0.857667697230982,11,0,-1.7276961670615,-2.01136937664434,-1.8574150628618,-0.665243867179876,-4.72131639130015,-3.24603425367185,-1.72769624391665,-2.01132184663881,-1.85743886629214,-0.665322605763571,-4.72137600580324,-3.24602228799929,1.67076409980237E-06,3.34152818914829E-06,-8.35382117619192E-07,0.0295963160709387,-7.56020752496668E-06,4.21032550628201E-06,0,0,0,0.0243902951478958,0,0,-0.286931512414845,-0.782749712941097,0.230840918787416,2.96523386561749,-0.0811915347344821,-0.0351281130723644,-0.286933613208883,-0.782727950883762,0.230856308166401,2.96529449021941,-0.0812179078086745,-0.0352040636216592,-0.000362451845030922,-0.00204441147397351,0.00385515093163553,-0.0292208653161943,0.00470788794334236,-0.000263322988138154,-0.000299324744134192,-0.00168525126170315,0.00317506284026559,-0.0240797220640423,0.00387398325744384,-0.000213860798156994
2429.864,0.394236,8,1,7,1,2,0.1,0,0,0,0,0,0,0,0,0,86,4.63374616035996,-15.1924534964344,15.7100981904115,2.20406810218147,0.325107715961158,-0.92691161719065,11,0,-1.72769615311425,-2.01136934874984,-1.85741506983543,-0.664996802280501,-4.72131645441144,-3.24603421852478,-1.72768432298769,-2.01133376756777,-1.85742694536318,-0.665083233510153,-4.72142392793764,-3.24598628679384,1.89171659850812E-06,3.78343318517696E-06,-9.45858375927527E-07,0.0335103216382911,-8.56001757808727E-06,4.76712579968524E-06,0,0,0,0.0275541301816702,0,0,-0.28693453748685,-0.782766775405836,0.230873103058212,2.96498843117497,-0.0811881333955881,-0.0351742386106321,-0.286932610443716,-0.782753727401892,0.230884343808955,2.96506051500104,-0.0812568894290223,-0.0353128447378736,-0.000410218507055958,-0.00231371227587424,0.00436556148913993,-0.0330852191848414,0.00533048708022299,-0.000298148374333594,-0.000337997260305729,-0.00190301152535769,0.00358738508097125,-0.027203322521654,0.00437618115842013,-0.000241603642330713
2429.872,0.394392,8,1,7,1,2,0.1,0,0,0,0,0,0,0,0,0,86,5.63386653267261,-14.825042889004,16.6497134157294,2.5277661967117,0.397285968777108,-0.891574720063609,11,0,-1.72769613734994,-2.01136931722123,-1.85741507771758,-0.664717549600182,-4.72131652574492,-3.24603417879874,-1.7277081648456,-2.01133376756777,-1.85745078722109,-0.664867703114645,-4.7214118877994,-3.24599844614138,2.13133403431915E-06,4.26266805529938E-06,-1.06566710354501E-06,0.0377549623791413,-9.64428647131166E-06,5.37096173431204E-06,0,0,0,0.0336325280368328,0,0,-0.286937955191203,-0.782786051324283,0.230909485471536,2.96471102056017,-0.081184288359152,-0.035226364905238,-0.286951152070354,-0.782751323581948,0.230899153542663,2.96486868683414,-0.0812701018662011,-0.0353357935219217,-0.000461967733187209,-0.00260542581686551,0.00491927188802774,-0.0372760140012384,0.00600567958061612,-0.000335916222391604,-0.000412484527442734,-0.00232197399343375,0.00437920865543522,-0.0332042046669762,0.00534235634598777,-0.000294895327841325
2429.88,0.417157,8,1,7,1,2,0.1,0,0,0,0,0,0,0,0,0,86,5.42211031078716,-13.6715116870845,18.3764793886615,3.02003423182074,0.242082694992692,-0.965001132343384,11,0,-1.72769611961725,-2.01136928175583,-1.85741508658393,-0.664403428313188,-4.72131660598539,-3.24603413411233,-1.72768432298769,-2.01130992570986,-1.85743886629214,-0.664604012166158,-4.7214118877994,-3.24601036707033,2.39037309387487E-06,4.78074617278961E-06,-1.19518664382202E-06,0.0423436424221447,-1.08164382116711E-05,6.02374016048228E-06,0,0,0,0.0371223352849483,0,0,-0.286941797771565,-0.782807722117749,0.230950417271472,2.96439897032155,-0.081179962494853,-0.0352849891077464,-0.286936174051502,-0.782779254055622,0.230959619047772,2.96457254227154,-0.0812125322116338,-0.0353897455906219,-0.000517847349403655,-0.00292037343110321,0.00551808476686793,-0.0418064838827524,0.00673559744495553,-0.000376745974312082,-0.000455000804768883,-0.00256148919263305,0.00483438699795399,-0.0366497100426679,0.0058958104242121,-0.000325499981940519
2429.888,0.397956,8,1,7,1,2,0.1,0,0,0,0,0,0,0,0,0,86,4.91934132464721,-14.9836214398138,17.1397652357115,2.99902646577445,0.234437403136757,-0.876784818825533,11,0,-1.72769609975876,-2.01136924203887,-1.85741509651317,-0.664051650360757,-4.72131669584503,-3.24603408406895,-1.72769624391665,-2.01133376756777,-1.85743886629214,-0.664268795643942,-4.72135204473604,-3.24603444734682,2.66959046381466E-06,5.33918091092173E-06,-1.33479534010893E-06,0.0472897658959565,-1.20798968061968E-05,6.72736792851582E-06,0,0,0,0.0427788905799389,0,0,-0.286946098644689,-0.782831975717359,0.230996264155775,2.96404951040607,-0.0811751171424095,-0.0353506275862933,-0.286944542390661,-0.782802254261937,0.23098377997504,2.96425750908092,-0.0811822666203835,-0.0353645236504534,-0.000578002349176474,-0.00325935831743931,0.00616381247507895,-0.0466898629519329,0.00752237263976198,-0.000420757103693692,-0.000524100301294002,-0.00295008022781165,0.00557196483272025,-0.0422341661792735,0.00679470305481582,-0.000375095706154022
2429.896,0.393372,8,1,7,1,2,0.1,0,0,0,0,0,0,0,0,0,86,4.18123363503974,-16.0269423344292,16.2387343291685,2.9129369538621,0.20672373565708,-0.812261884092183,11,0,-1.72769607761105,-2.01136919774344,-1.85741510758703,-0.663659320451102,-4.72131679606343,-3.24603402825672,-1.72769624391665,-2.01132184663881,-1.85748750368227,-0.663896862660543,-4.7214118877994,-3.24598628679384,2.96974283077795E-06,5.93948564296981E-06,-1.48487153575609E-06,0.052606736929232,-1.34380862619199E-05,7.48375188873254E-06,0,0,0,0.0480327755212784,0,0,-0.286950892376602,-0.782859006411445,0.231047406357451,2.96365976414625,-0.0811697121024816,-0.0354238157896211,-0.286950959702789,-0.782804146038694,0.231014936012698,2.96392868838685,-0.0812574569363828,-0.0355091242506659,-0.000642574545455208,-0.00362316331343583,0.00685827822557508,-0.051939385337152,0.00836813709345852,-0.000468069119540539,-0.000588142583637385,-0.00331031970881858,0.0062574124420132,-0.0474211495075027,0.00762920297739011,-0.000421147948323124
2429.904,0.397632,8,1,7,1,2,0.1,0,0,0,0,0,0,0,0,0,86,5.31420743758501,-16.3743094013349,15.1297573289145,2.34250431984971,0.310479580659886,-0.872027517283562,11,0,-1.72769605300461,-2.01136914853056,-1.85741511989025,-0.663223436059402,-4.72131690740757,-3.24603396624849,-1.72766048112978,-2.01138192812075,-1.85742694536318,-0.663501564656393,-4.7214118877994,-3.24601036707033,3.29158688140414E-06,6.58317374220792E-06,-1.6457935741139E-06,0.0583079596506266,-1.48944305858719E-05,8.29479889145233E-06,0,0,0,0.0536509789526463,0,0,-0.286956214655881,-0.782889014674514,0.231104238735834,2.96322674824583,-0.0811637056265185,-0.035505108095002,-0.286932997421755,-0.782874718362111,0.231050958908422,2.9635378117165,-0.0811635437105065,-0.0355808564649175,-0.000711702194638149,-0.00401254849081272,0.00760331732858466,-0.0575682851732972,0.00927502269184377,-0.00051880157035357,-0.000656379020480169,-0.00369480423030573,0.00699080265732545,-0.0529681167520962,0.00851967446087876,-0.000470422569873518
2429.912,0.39174,8,1,7,1,2,0.1,0,0,0,0,0,0,0,0,0,86,4.96031492969013,-15.682979259437,16.0627293712631,2.66991826343009,0.387503126533445,-0.895596784898771,11,0,-1.72769602576389,-2.01136909404912,-1.85741513351061,-0.662740887427811,-4.72131703067183,-3.24603389760188,-1.72766048112978,-2.01135760942568,-1.85747558275332,-0.662998501454489,-4.721363965665,-3.24599844614138,3.63587930233261E-06,7.27175858191012E-06,-1.81793979853271E-06,0.0644068381887956,-1.64523537850837E-05,9.16241578699504E-06,0,0,0,0.0595568045973778,0,0,-0.286962102263819,-0.782922206976357,0.231167170877802,2.96274737276376,-0.0811570544054245,-0.0355950776388558,-0.286930993984839,-0.782885916534715,0.231109372945853,2.96305638795659,-0.0811680164486611,-0.0355983085367633,-0.000785519591279021,-0.00442824856452127,0.00840077850756336,-0.0635897966025196,0.0102451612732063,-0.000573074048514335,-0.000728058002176733,-0.00409785407229859,0.00776233356595583,-0.0587987732092704,0.0094575134847243,-0.000522189258107304
2429.92,0.397669,8,1,7,1,2,0.1,0,0,0,0,0,0,0,0,0,86,4.04507881348607,-18.0745329940502,16.454619917862,3.97159795101803,0.0618842517598911,-0.937502647161471,11,0,-1.72769599570729,-2.01136903393592,-1.85741514853891,-0.66220845756545,-4.72131716667795,-3.24603382185924,-1.72772008577456,-2.01134568849672,-1.85749942461123,-0.662530724202291,-4.7214118877994,-3.24602228799929,4.00337678020279E-06,8.0067535353505E-06,-2.00168855236289E-06,0.0709167766723943,-1.81152798665868E-05,1.00885094256806E-05,0,0,0,0.0673034116625786,0,0,-0.286968593041266,-0.782958795569751,0.231236627209818,2.9622184410965,-0.0811497135570061,-0.0356943161288456,-0.2869858842244,-0.782888455021247,0.231166840434858,2.9626082606258,-0.0812213679406578,-0.0357647787522208,-0.000864156632245951,-0.0048709701074332,0.00925252529771427,-0.0700171537750395,0.011280684623064,-0.000631006194968163,-0.000822414991336564,-0.0046268627908648,0.00877413018093025,-0.0664461449330241,0.0106916240616836,-0.000590101589303471
2429.928,0.411636,8,1,7,1,2,0.1,0,0,0,0,0,0,0,0,0,86,4.24870827626644,-17.6101256374541,17.5742592904759,4.39936025192483,-0.104131246778098,-0.892248939327723,11,0,-1.72769596264714,-2.01136896781563,-1.85741516506899,-0.661622822248414,-4.7213173162751,-3.24603373854768,-1.72768432298769,-2.01130992570986,-1.85743886629214,-0.661931816731588,-4.72137600580324,-3.24599844614138,4.39483600165407E-06,8.78967197580312E-06,-2.19741817895483E-06,0.077851179230078,-1.98866328374124E-05,1.10749866578288E-05,0,0,0,0.0710041373968124,0,0,-0.286975725851856,-0.782998998255201,0.23131304712141,2.96163664995839,-0.0811416366120905,-0.0358034336361983,-0.286965585187137,-0.782963704057816,0.231307867452756,2.96191350480605,-0.0811880936635593,-0.0358325590377632,-0.000947738349009046,-0.00534138856241349,0.0101604375271667,-0.0768635908500131,0.0123837244685091,-0.000692717704213131,-0.000866470717121204,-0.00487494682689955,0.00926002577779347,-0.0701001439550612,0.0112769557791277,-0.000622585978574885
2429.936,0.422148,8,1,7,1,2,0.1,0,0,0,0,0,0,0,0,0,86,5.37472948991214,-13.8168456034468,18.8173901851627,3.40122023594922,0.1763375266769,-0.827764891513891,11,0,-1.72769592638975,-2.01136889530084,-1.85741518319769,-0.660980550019765,-4.72131748033982,-3.24603364717904,-1.72764856020083,-2.01132184663881,-1.8574631849872,-0.661356274281637,-4.721363965665,-3.24602228799929,4.81101365332586E-06,9.62202727654206E-06,-2.40550702165889E-06,0.085223449990502,-2.17698367045916E-05,1.21237543337595E-05,0,0,0,0.0828541368246078,0,0,-0.286983540541393,-0.783043038121049,0.231396885100809,2.9609985893602,-0.0811327754992278,-0.0359230583669583,-0.286941999096791,-0.783004029575776,0.231359661389477,2.96137875563435,-0.081090990487944,-0.0359138508308185,-0.00103638440668912,-0.00584014504330108,0.0111264128803546,-0.0841423419964624,0.0135564124721416,-0.000758328329600462,-0.0010099748443343,-0.00568281299434214,0.0108085607856652,-0.0817997417780587,0.0131560811139828,-0.000726473479256741
2429.944,0.40032,8,1,7,1,2,0.1,0,0,0,0,0,0,0,0,0,86,4.92604492013734,-15.3186119320312,14.0255393429322,1.39859631069526,0.538546208281262,-0.979323671039228,11,0,-1.72769588673533,-2.011368815992,-1.8574152030249,-0.660278102189541,-4.72131765977605,-3.24603354724991,-1.72767240205874,-2.01133376756777,-1.85745078722109,-0.660613838826315,-4.72137600580324,-3.24607021013369,5.25266642185756E-06,1.05053328108414E-05,-2.62633342382543E-06,0.0930469930823218,-2.37683154751557E-05,1.32367193037927E-05,0,0,0,0.0911951586604118,0,0,-0.286992077893085,-0.783091143257238,0.231488610883344,2.96030074258543,-0.0811230805279167,-0.0360538364108737,-0.286971867870372,-0.783054631676141,0.231453673958994,2.96064380009817,-0.0810467680314126,-0.0360790643069286,-0.00113020856845271,-0.00636784291605643,0.0121523685425711,-0.0918666413942726,0.0148008802255707,-0.000827957888951129,-0.00111043687359136,-0.00624614627382561,0.0119013867029781,-0.0900342707235318,0.014482668141581,-0.000799613581864908
2429.952,0.424464,8,1,7,1,2,0.1,0,0,0,0,0,0,0,0,0,86,5.26565337515846,-15.4837440492548,15.9204465038803,2.49877995473122,0.509476989239757,-1.00770702639548,11,0,-1.72769584347808,-2.0113687294775,-1.85741522465353,-0.659511832834745,-4.72131785551512,-3.24603343824163,-1.72766048112978,-2.01138192812075,-1.8574631849872,-0.659882370625631,-4.721363965665,-3.24602228799929,5.72055099388857E-06,1.14411019519751E-05,-2.86027572880484E-06,0.101335212634192,-2.58854931561359E-05,1.44157884182482E-05,0,0,0,0.0991718620061874,0,0,-0.287001379578409,-0.783143546440955,0.231588709613266,2.95953948616462,-0.0811125003702291,-0.0361964314665879,-0.286970247045025,-0.783107697869256,0.231502848673346,2.95997391768663,-0.0810897222640632,-0.0361783660379674,-0.00122931812378641,-0.00692504415104657,0.0132402429240464,-0.100049723235258,0.0161192592424639,-0.000901726270492566,-0.00120614571940369,-0.00678392113508242,0.01294700795053,-0.097909613070516,0.015748326705652,-0.000869533281808034
2429.96,0.399565,8,1,7,1,2,0.1,0,0,0,0,0,0,0,0,0,86,3.86833685610012,-16.6473239189756,14.4682093051772,2.39980398162644,0.270121592803396,-0.818482400419334,11,0,-1.72769579640612,-2.01136863533357,-1.85741524818951,-0.658677988799355,-4.72131806851575,-3.24603331962029,-1.72769624391665,-2.01134568849672,-1.85747558275332,-0.659043614064352,-4.72137600580324,-3.24602228799929,6.21542405605829E-06,1.24308480732174E-05,-3.10771227994748E-06,0.110101512774769,-2.81247937545636E-05,1.56628685274458E-05,0,0,0,0.108835935592651,0,0,-0.287011488103238,-0.783200484792261,0.231697682019628,2.95871108984716,-0.0811009820407695,-0.0363515245417709,-0.287008096172242,-0.783145369281424,0.231635132468927,2.95911726068437,-0.0811319782131695,-0.0363609373943113,-0.00133381327912768,-0.00751226543712691,0.014391997461211,-0.108704821724304,0.0175136809511214,-0.000979753439118311,-0.00132205539626617,-0.00743283780635908,0.0142151809713933,-0.107450069342174,0.017286782437881,-0.0009542681148913
2429.968,0.3963,8,1,7,1,2,0.1,0,0,0,0,0,0,0,0,0,86,4.97690144568321,-12.3706117462042,16.5726323953474,1.42683263927472,0.482984724630338,-0.887284282651346,11,0,-1.72769574530152,-2.01136853312438,-1.85741527374181,-0.657772709694319,-4.72131829976405,-3.2460331908367,-1.72767240205874,-2.01133376756777,-1.85745078722109,-0.658169094716207,-4.7213879267322,-3.24599844614138,6.73804229500614E-06,1.34760845478423E-05,-3.36902142060373E-06,0.119359297632708,-3.04896412774698E-05,1.69798664817056E-05,0,0,0,0.115585453808308,0,0,-0.287022446748969,-0.783262199397798,0.231816044606819,2.95781171657083,-0.0810884708748615,-0.0365198136268202,-0.287002662372998,-0.78322151743508,0.231772930953024,2.95821280328492,-0.0811205994404785,-0.0365407257568015,-0.00144378650926878,-0.00812997404784409,0.0156096184920436,-0.117845171080584,0.0189862766865542,-0.00106215944297232,-0.00140173386802071,-0.00788022543717726,0.015104041429698,-0.114114084483709,0.0183560815517988,-0.00101347154924424
2429.976,0.439068,8,1,7,1,2,0.1,0,0,0,0,0,0,0,0,0,86,4.38719033437164,-16.0687674783616,19.0523103244584,4.59301781911582,0.0423352851442305,-0.845223280541467,11,0,-1.7276956899403,-2.01136842240195,-1.85741530142242,-0.656792027897552,-4.72131855027354,-3.24603305132645,-1.72763616243471,-2.01130992570986,-1.85747558275332,-0.657210652028219,-4.72142392793764,-3.24602228799929,7.28916239737151E-06,1.45783247491239E-05,-3.64458149412395E-06,0.129121971336663,-3.29834597318859E-05,1.83686891313472E-05,0,0,0,0.127723082900047,0,0,-0.287034299508342,-0.783328934900532,0.231944329860327,2.9568374224287,-0.0810749105048855,-0.0367020133407778,-0.286987055941242,-0.783283210038425,0.231903920803377,2.95726786016799,-0.0810234402354246,-0.0367695493631522,-0.00155932186788557,-0.00877858344972687,0.016895119201576,-0.127484005538855,0.020539177682041,-0.00114906442035839,-0.00154614657600446,-0.00869198684458105,0.0166985763609878,-0.126097941332294,0.020279076956932,-0.00111988170116864
2429.984,0.4647,8,1,7,1,2,0.1,0,0,0,0,0,0,0,0,0,86,5.83990998871818,-14.0813221559224,16.4789898177499,2.23201228884386,0.485153880836419,-0.914941355421457,11,0,-1.72769563009244,-2.01136830270624,-1.85741533134635,-0.655731868553946,-4.7213188210851,-3.24603290050984,-1.72769624391665,-2.01132184663881,-1.8574631849872,-0.656155888234274,-4.7213879267322,-3.24603444734682,7.8695410497938E-06,1.57390820503362E-05,-3.93477084385851E-06,0.139402938015291,-3.56096731248431E-05,1.98312433266906E-05,0,0,0,0.137348800897598,0,0,-0.287047091015563,-0.783400939053457,0.232083086468283,2.95578415663346,-0.0810602428346542,-0.0368988545480188,-0.287044655015549,-0.78334493305307,0.232039003732281,2.9562144294853,-0.081074524204072,-0.0369220138027887,-0.00168049425547368,-0.00945844864224983,0.0182505416327107,-0.137634559350847,0.0221745150601383,-0.00124058860697387,-0.00166030957087771,-0.0093282246220421,0.0179670535825444,-0.135599871070073,0.0218155394996757,-0.00120428822366519
2429.992,0.403176,8,1,7,1,2,0.1,0,0,0,0,0,0,0,0,0,86,6.2641457432034,-13.6779220581936,14.1609892016719,0.586204374664628,0.680286150512561,-0.989436147945873,11,0,-1.72769556552185,-2.01136817356505,-1.85741536363165,-0.654588049575359,-4.72131911326704,-3.24603273779195,-1.72767240205874,-2.01132184663881,-1.8574631849872,-0.655041519795553,-4.7213879267322,-3.24602228799929,8.47993493891242E-06,1.69598698247533E-05,-4.2399678131578E-06,0.150215601797246,-3.83717054633726E-05,2.13694359180557E-05,0,0,0,0.145133763551712,0,0,-0.287060866470447,-0.783478462235039,0.232232879559292,2.95464776147894,-0.0810444080117527,-0.0371110839443613,-0.287039434986928,-0.783427380358332,0.232184820769903,2.9551074433188,-0.0810417031431795,-0.0371234493518091,-0.00180736864290093,-0.0101698612186508,0.01967795875652,-0.148310066786731,0.0238944198231167,-0.00133685234346507,-0.00175091662922359,-0.00983608173374464,0.0189965735918729,-0.14328625352917,0.0230486332555869,-0.00127254756619132
2430,0.4017,8,1,7,1,2,0.1,0,0,0,0,0,0,0,0,0,86,4.51124525424966,-15.854496293003,15.5938554471346,2.46866709316817,0.414625153278601,-0.88362911425823,11,0,-1.72769549598639,-2.01136803449412,-1.85741539839939,-0.653356281640622,-4.72131942791502,-3.24603256256257,-1.72769624391665,-2.01132184663881,-1.85742694536318,-0.653867069874899,-4.721363965665,-3.24601036707033,9.12110075136678E-06,1.82422014456493E-05,-4.56055074537217E-06,0.161573366811185,-4.12729807545056E-05,2.29851737557624E-05,0,0,0,0.15493206679821,0,0,-0.287075671556176,-0.783561756924176,0.232394290956982,2.95342397229878,-0.0810273443977258,-0.0373394636111623,-0.287072612676277,-0.783516485526382,0.232358766932991,2.95390070861262,-0.0810738660746901,-0.0373135935483014,-0.00193999924870687,-0.0109130441363579,0.0211794765951049,-0.159523762136691,0.0257010228427954,-0.00143797608330057,-0.00186558899777155,-0.0104758286317277,0.0202919694731217,-0.152959245700849,0.024608310685257,-0.00135849998534578
2430.008,0.399373,8,1,7,1,2,0.1,0,0,0,0,0,0,0,0,0,86,5.30571014750995,-13.8751443916653,17.0905894061856,2.52240774353732,0.38115349679274,-0.938624508124561,11,0,-1.72769542123785,-2.01136788499705,-1.85741543577366,-0.652032168195535,-4.72131976615213,-3.24603237419627,-1.72768432298769,-2.01134568849672,-1.85745078722109,-0.652536694203512,-4.7213879267322,-3.24601036707033,9.79379517379626E-06,1.95875902862982E-05,-4.896897983852E-06,0.173489637185761,-4.43169230052735E-05,2.46803636901305E-05,0,0,0,0.168546140193939,0,0,-0.287091552350309,-0.783651077132262,0.23256791945168,2.9521084174221,-0.0810089885360581,-0.0375847705360315,-0.287080183013875,-0.783601272320321,0.23250027420751,2.95262936741901,-0.0810422879150464,-0.0375846276079738,-0.00207842866819851,-0.0116881461853356,0.0227572363889147,-0.171288879712586,0.0275964548497444,-0.00154408040095627,-0.00202501266541509,-0.0113683869211685,0.0220898774071922,-0.166400274850527,0.0267687487711892,-0.00147783394505419
2430.016,0.393552,8,1,7,1,2,0.1,0,0,0,0,0,0,0,0,0,86,6.07700048867598,-12.0792074067893,17.0102261476637,1.71211308878389,0.526425214511538,-0.943103471477656,11,0,-1.72769534102201,-2.01136772456536,-1.85741547588158,-0.65061120545287,-4.72132012912883,-3.24603217205234,-1.72768432298769,-2.01130992570986,-1.85745078722109,-0.651182476674215,-4.72137600580324,-3.24598628679384,1.04987748928403E-05,2.09975497199741E-05,-5.24938787194765E-06,0.185977817049631,-4.75069562227073E-05,2.64569125714798E-05,0,0,0,0.182198569178581,0,0,-0.287108555228668,-0.783746677789932,0.232754381089534,2.95069661812612,-0.0809892751177971,-0.0378477960987288,-0.287094765844468,-0.783688975481108,0.232707108747768,2.95124589172443,-0.0810561732065209,-0.037820409313,-0.00222268695230478,-0.0124952361421927,0.0244134167991485,-0.183618653849722,0.0295828464218216,-0.00165528600040443,-0.00218391576503399,-0.0122564335099949,0.0238965070256732,-0.17987889517364,0.0289369917663339,-0.00159755730669146
2430.024,0.418452,8,1,7,1,2,0.1,0,0,0,0,0,0,0,0,0,86,5.8177980788328,-12.7033115616853,13.5103425474165,-0.0750540227506667,0.832879647614232,-0.91932327973577,11,0,-1.72769525507855,-2.01136755267844,-1.85741551885332,-0.649088782392371,-4.72132051802299,-3.24603195547482,-1.72769624391665,-2.01130992570986,-1.8574631849872,-0.64961272874941,-4.72135204473604,-3.24601036707033,1.12367965951383E-05,2.24735931199512E-05,-5.61839875300951E-06,0.199051310531449,-5.08465044138384E-05,2.83167272501304E-05,0,0,0,0.192706346511841,0,0,-0.287126726761652,-0.783848814085909,0.232954309479306,2.94918398858565,-0.0809681369447863,-0.0381293455209342,-0.287119853635631,-0.783785841557268,0.232906172152553,2.94969694872179,-0.0810129731367624,-0.0380779925841218,-0.00237279063406364,-0.0133342965974182,0.0261502361344635,-0.196526318908735,0.031662327972012,-0.00177171372389673,-0.00230394297544557,-0.0129243564335903,0.0252951410989191,-0.190252524959918,0.0306081317830665,-0.001689674840887
2430.032,0.508896,8,1,7,1,2,0.1,0,0,0,0,0,0,0,0,0,86,6.18879102814384,-13.4062448801919,12.8144060196906,-0.14597348134139,0.95031858336737,-0.913290857089683,11,0,-1.72769516314112,-2.01136736880359,-1.85741556482203,-0.64746018076075,-4.72132093403984,-3.24603172379251,-1.72769624391665,-2.01136953035464,-1.85743886629214,-0.647982899342672,-4.72137600580324,-3.24597436586489,1.20086169673296E-05,2.40172338595034E-05,-6.00430897038794E-06,0.212723521759872,-5.4338991585698E-05,3.0261714576402E-05,0,0,0,0.208026975393295,0,0,-0.287146113602582,-0.783957740755303,0.233168356117023,2.94756583581919,-0.0809455048903753,-0.0384302372784546,-0.287144163333171,-0.783911588959491,0.233084921103053,2.94811346480424,-0.08104775376078,-0.0384020290542547,-0.00252874170052193,-0.014205217442609,0.027969954589715,-0.210025109277583,0.033837029735532,-0.00189348456102873,-0.00248039331032926,-0.013908831089872,0.0273287259459282,-0.205378056702776,0.0330416297769728,-0.00182401150096115
2430.04,0.428448,8,1,7,1,2,0.1,0,0,0,0,0,0,0,0,0,86,5.74058650937547,-13.3964963226118,16.7016726003612,1.98476180652314,0.669435924597649,-0.986901156582054,11,0,-1.72769506493732,-2.01136717239599,-1.85741561392394,-0.645720575071691,-4.72132137841204,-3.24603147631893,-1.72768432298769,-2.01130992570986,-1.85747558275332,-0.646269623433248,-4.7214118877994,-3.24602228799929,1.28149926960536E-05,2.56299853119048E-05,-6.40749686743332E-06,0.227007854863555,-5.79878417453174E-05,3.22937814006145E-05,0,0,0,0.220720663666725,0,0,-0.287166762367638,-0.784073711314584,0.233397190728483,2.94583735963185,-0.0809213078575397,-0.0387513024745989,-0.287154954151822,-0.784006384698494,0.233338464732146,2.9463952441016,-0.080940133242824,-0.0387795683551416,-0.00269052650773363,-0.0151077890040568,0.0298748764828177,-0.224128259373671,0.0361090817561614,-0.00202071965807082,-0.00262378655740703,-0.0147078032091764,0.0290222868521741,-0.2179105379111,0.0350551493311157,-0.00193528864710852
2430.048,0.425221,8,1,7,1,2,0.1,0,0,0,0,0,0,0,0,0,86,7.50047023970324,-12.2085477115837,13.0917707294556,-0.460675885495029,1.038868340994,-1.09958032800335,11,0,-1.72769496018868,-2.01136696289872,-1.85741566629826,-0.64386503260585,-4.72132185239962,-3.24603121235237,-1.7277081648456,-2.01132184663881,-1.85743886629214,-0.644424263631002,-4.7213879267322,-3.24601036707033,1.36566804679499E-05,2.73133608504295E-05,-6.82834078749601E-06,0.241917713971152,-6.17964788997277E-05,3.44148345730877E-05,0,0,0,0.234258040785789,0,0,-0.287188719506913,-0.784196977240365,0.233641501629584,2.94399365255471,-0.0808954727343148,-0.039093384173384,-0.287196116312516,-0.784140134564312,0.233591920403959,2.94453320017985,-0.0809628001964378,-0.0390900373204768,-0.00285811463644412,-0.0160416948085441,0.0318673524740623,-0.238849003646088,0.0384806138717621,-0.00215354032754787,-0.00277618903569851,-0.0155528638609898,0.0308318940686792,-0.231274679555975,0.0372106596804488,-0.00205403875899651
2430.056,0.4014,8,1,7,1,2,0.1,0,0,0,0,0,0,0,0,0,86,6.10161826742535,-14.1727136737496,11.1357296723093,-0.768526423536596,0.903717512595027,-1.0658551245966,11,0,-1.7276948486107,-2.01136673974275,-1.85741572208726,-0.641888513410852,-4.72132235729,-3.24603093117585,-1.72764856020083,-2.0112980047809,-1.85742694536318,-0.642386738454,-4.7214118877994,-3.24605828920473,1.45344369696576E-05,2.90688738483517E-05,-7.26721907392638E-06,0.257466503211319,-6.57683270559602E-05,3.66267809441417E-05,0,0,0,0.250307321548462,0,0,-0.287212031166049,-0.784327787088986,0.233901996104255,2.94202969978081,-0.0808679243464594,-0.039457336691301,-0.287176092384667,-0.784294692740735,0.233886410820293,2.9424800065707,-0.0807787026480787,-0.0395041263452626,-0.0030314576859492,-0.0170065039666905,0.0339497817503177,-0.254200576578,0.0409537556989411,-0.00229206805804648,-0.0029548479794541,-0.0165510571979197,0.0329791438096056,-0.247121947174867,0.0397452047116534,-0.00219480014947305
2430.064,0.3963,8,1,7,1,2,0.1,0,0,0,0,0,0,0,0,0,86,7.48034158472439,-11.5222683287946,15.0899592979947,0.250830001951616,0.911217742857691,-0.959307068213253,11,0,-1.7276947299128,-2.01136650234694,-1.85741578143621,-0.639785870301293,-4.721322894398,-3.24603063205714,-1.72769624391665,-2.01132184663881,-1.85745078722109,-0.640253845845358,-4.72144788900484,-3.24605828920473,1.54490188878163E-05,3.08980376789452E-05,-7.7245100700748E-06,0.273667626712711,-6.99068102210461E-05,3.89315273640962E-05,0,0,0,0.265167772769928,0,0,-0.287236743038091,-0.784466385553795,0.234179400799643,2.93994037909746,-0.0808385854072708,-0.0398440248464491,-0.287240648068317,-0.784413159149496,0.234134744087373,2.94041064415021,-0.0808256403302112,-0.0399468103424926,-0.00321048800351887,-0.0180016631586846,0.0361246141545076,-0.270196212689168,0.0435306366168127,-0.00243642452422566,-0.00311984958085328,-0.0174614991725255,0.0349741335685986,-0.261791264101728,0.0421174066001606,-0.00232504130293056
2430.072,0.406188,8,1,7,1,2,0.1,0,0,0,0,0,0,0,0,0,86,6.5617957454047,-14.9281591046961,14.693910331726,1.50528867724785,0.708640285553125,-0.934021403344926,11,0,-1.72769460379836,-2.01136625011806,-1.85741584449344,-0.63755184885874,-4.72132346506584,-3.24603031424875,-1.72769624391665,-2.01130992570986,-1.85743886629214,-0.637988869343893,-4.72142392793764,-3.24601036707033,1.60795910873191E-05,3.21591820740042E-05,-8.03979619538398E-06,0.284837733925475,-7.27601494137418E-05,4.05205692973246E-05,0,0,0,0.280795186758041,0,0,-0.287262900204854,-0.78461301245689,0.234474462138022,2.93772046081517,-0.0808073764644747,-0.0402543231638195,-0.287265690867705,-0.784566343008831,0.234450075772053,2.93813132297376,-0.0808599344827591,-0.0403240888926103,-0.00332854641831055,-0.0186534198105323,0.037641521802491,-0.281224653469247,0.0453072409311882,-0.00253601136961076,-0.00329061540237012,-0.0184067786962355,0.0370781878414253,-0.277219694317599,0.0445995074219207,-0.00246209802042776
2430.08,0.419472,8,1,7,1,2,0.1,0,0,0,0,0,0,0,0,0,86,6.69365572027111,-14.7333295629644,15.3559987543475,1.90859868439934,0.58287952888452,-0.982742761871948,11,0,-1.72769447263934,-2.01136598780003,-1.85741591007295,-0.635228466558486,-4.72132405856039,-3.24602998372803,-1.72772008577456,-2.01130992570986,-1.8574631849872,-0.635616127644674,-4.721363965665,-3.24597436586489,1.67101632868218E-05,3.34203264690632E-05,-8.35508232069316E-06,0.296007841138238,-7.56134886064376E-05,4.2109611230553E-05,0,0,0,0.290363401174545,0,0,-0.287289995577748,-0.784764813435515,0.234781678175545,2.93541168946499,-0.0807748789689621,-0.0406804320641684,-0.287304998184714,-0.784704801616052,0.234750013579514,2.93578882781646,-0.080905435344383,-0.0406649874420493,-0.00344502868280961,-0.0192951131756078,0.0391633144459879,-0.292253097179223,0.0470838261400463,-0.00263561482833612,-0.00338927537597628,-0.0189449115706653,0.0383869366713497,-0.286664966253442,0.0461261317400319,-0.00254594486668275
2430.088,0.399876,8,1,7,1,2,0.1,0,0,0,0,0,0,0,0,0,86,7.52872101286832,-11.7560317476142,14.8377938600748,0.34492942805512,0.968560980764986,-0.926268570437687,11,0,-1.72769433643574,-2.01136571539284,-1.85741597817475,-0.632815723400529,-4.72132467488166,-3.24602964049497,-1.72768432298769,-2.01134568849672,-1.8574631849872,-0.633267227803366,-4.7214118877994,-3.24603444734682,1.73407354863245E-05,3.46814708641222E-05,-8.67036844600233E-06,0.307177948351002,-7.84668277991333E-05,4.36986531637814E-05,0,0,0,0.297879904508591,0,0,-0.287318016286559,-0.78492170632782,0.235101088598111,2.93301405858882,-0.0807410882622997,-0.0411222818516832,-0.28730925306437,-0.784871047062895,0.23503139625543,2.93349960953074,-0.080740132715501,-0.0411614460598827,-0.00355986947821884,-0.0199263290157477,0.0406901427873269,-0.303281543945179,0.0488603914278938,-0.00273523549213509,-0.00346223504979531,-0.0193453877624571,0.0394261980125013,-0.294087407519974,0.0473097519668271,-0.00261182255622269
2430.096,0.397873,8,1,7,1,2,0.1,0,0,0,0,0,0,0,0,0,86,7.36044206115288,-13.3186149747053,16.5837313501397,1.93151754280139,0.638270611894223,-1.03072797891222,11,0,-1.72769419518757,-2.0113654328965,-1.85741604879885,-0.63031361938487,-4.72132531402964,-3.24602928454958,-1.72768432298769,-2.01135760942568,-1.85742694536318,-0.630798641835348,-4.7213879267322,-3.24596244493593,1.79713076858272E-05,3.59426152591811E-05,-8.98565457131151E-06,0.318348055563766,-8.13201669918291E-05,4.52876950970098E-05,0,0,0,0.310707807540894,0,0,-0.287346948936981,-0.785083605649612,0.235432734278221,2.9305275615122,-0.0807059995202015,-0.0415798003488062,-0.2873384082018,-0.785048565229518,0.235368781426324,2.93101605142825,-0.0808064454332491,-0.0415701202795315,-0.00367300310342776,-0.0205466509754366,0.0422221527421094,-0.314309993894452,0.0506369359718048,-0.00283487394560398,-0.00359548821595964,-0.0200771274625483,0.04117501256988,-0.306751995613971,0.0493470634443517,-0.00272436839180198
2430.104,0.396792,8,1,7,1,2,0.1,0,0,0,0,0,0,0,0,0,86,6.58051965736306,-14.2814730441542,12.960732421993,0.429604814348382,0.8462083389117,-0.910385801323268,11,0,-1.72769404889482,-2.011365140311,-1.85741612194523,-0.627722154511508,-4.72132597600433,-3.24602891589185,-1.72769624391665,-2.01132184663881,-1.85742694536318,-0.628270451222555,-4.7214118877994,-3.24598628679384,1.86018798853299E-05,3.72037596542401E-05,-9.30094069662068E-06,0.32951816277653,-8.41735061845249E-05,4.68767370302382E-05,0,0,0,0.322634518146515,0,0,-0.287376779607545,-0.78525042257721,0.235776657235908,2.92795219134769,-0.0806696077539638,-0.0420529129179077,-0.287378542823237,-0.785203934007032,0.235733365636493,2.92847163042036,-0.0807560741810327,-0.0420774429488883,-0.00378436346488728,-0.0211556605293448,0.0437594852456107,-0.32533844715568,0.0524134589411776,-0.00293453076588813,-0.00371679299194541,-0.0207393710157571,0.0428096928442762,-0.318526264785606,0.0512449786826787,-0.00282897528724599
2430.112,0.391692,8,1,7,1,2,0.1,0,0,0,0,0,0,0,0,0,86,6.65894556036046,-14.2117937587652,18.0520673639418,3.13011329213998,0.318733057191913,-0.953093920152841,11,0,-1.72769389755749,-2.01136483763634,-1.8574161976139,-0.625041328780445,-4.72132666080574,-3.24602853452179,-1.72767240205874,-2.01135760942568,-1.85742694536318,-0.625694100056783,-4.7214118877994,-3.24601036707033,1.92324520848326E-05,3.84649040492991E-05,-9.61622682192986E-06,0.340688269989293,-8.70268453772206E-05,4.84657789634667E-05,0,0,0,0.334311932325363,0,0,-0.287407493846432,-0.785422064929883,0.236132900598118,2.92528794099847,-0.0806319078119674,-0.0425415424835897,-0.287390031385646,-0.785379775127657,0.236046085975702,2.92594883819931,-0.0806503641817483,-0.0425398236822117,-0.00389388406697379,-0.0217529369329738,0.0453022760578716,-0.336366903858844,0.0541899594975021,-0.00303420652236315,-0.00383337732945644,-0.0213786831597218,0.0444144572378668,-0.330056234717791,0.0530919701137361,-0.00293133561283164
2430.12,0.398256,8,1,7,1,2,0.1,0,0,0,0,0,0,0,0,0,86,7.28256502968477,-14.0065026549756,15.854430803331,1.88198006859892,0.586935829054669,-1.02860981629972,11,0,-1.72769374117559,-2.01136452487253,-1.85741627580486,-0.622271142191679,-4.72132736843386,-3.24602814043939,-1.72766048112978,-2.01127368608584,-1.85743886629214,-0.623021427785055,-4.72135204473604,-3.24599844614138,1.98630242843353E-05,3.97260484443581E-05,-9.93151294723903E-06,0.351858377202057,-8.98801845699164E-05,5.00548208966951E-05,0,0,0,0.341310739517212,0,0,-0.28743907666821,-0.785598437151916,0.236501508556522,2.92253480316198,-0.0805928943812026,-0.0430456095556232,-0.28740354703245,-0.785540297617196,0.236463615519276,2.92321459227141,-0.0806005414019467,-0.0429473722162431,-0.0040014980028616,-0.0223380571765377,0.0468506555674581,-0.347395364135301,0.0559664367941276,-0.00313390177631135,-0.00389411023185868,-0.0217032605626205,0.045404950382369,-0.336966630473992,0.0541992094760028,-0.0029927493992096
2430.128,0.414684,8,1,7,1,2,0.1,0,0,0,0,0,0,0,0,0,86,6.41485541971692,-14.4770038132536,15.5144711145422,1.95985412077135,0.55475262544772,-0.911867787184509,11,0,-1.7276935797491,-2.01136420201957,-1.8574163565181,-0.619411594745213,-4.72132809888869,-3.24602773364465,-1.72769624391665,-2.01132184663881,-1.85743886629214,-0.620204750691549,-4.7213879267322,-3.24598628679384,2.0493596483838E-05,4.09871928394171E-05,-1.02467990725482E-05,0.363028484414821,-9.27335237626121E-05,5.16438628299235E-05,0,0,0,0.358337908983231,0,0,-0.287471512550535,-0.785779440294308,0.236882526323755,2.91969277033365,-0.0805525619888496,-0.0435650322525123,-0.287467786329405,-0.785713247910246,0.236799037682552,2.92046536650716,-0.0806377097882982,-0.0435054213020998,-0.00410713794592428,-0.0229105959422021,0.0484047485938653,-0.35842382811783,0.0577428899760393,-0.00323361708059304,-0.0040687704310752,-0.022655346268976,0.0477339889921528,-0.353775024082507,0.0569158778723607,-0.00314200507867463
2430.136,0.402913,8,1,7,1,2,0.1,0,0,0,0,0,0,0,0,0,86,4.46290841178609,-12.8515174819689,11.4158821026464,-0.908682116898946,0.789921640539054,-0.979300871347113,11,0,-1.72769341327804,-2.01136386907745,-1.85741643975364,-0.616462686441042,-4.72132885217024,-3.24602731413758,-1.72767240205874,-2.01130992570986,-1.85745078722109,-0.617293183003561,-4.7214118877994,-3.24598628679384,2.11241686833407E-05,4.22483372344761E-05,-1.05620851978574E-05,0.374198591627584,-9.55868629553079E-05,5.32329047631519E-05,0,0,0,0.370207101106644,0,0,-0.287504785430726,-0.785964971996155,0.23727600008807,2.91676183481071,-0.0805109050038873,-0.0440997263256453,-0.287483179761726,-0.785896751360168,0.237190279639024,2.91757491583254,-0.0805654003518672,-0.044063289192632,-0.00421073614168419,-0.0234701255648057,0.0499646741885539,-0.369452295940668,0.0595193181796369,-0.00333335297931271,-0.00418075474688093,-0.0232638886913276,0.0493840918823977,-0.365494484029631,0.0587923716431772,-0.00324605765033366
2430.144,0.397356,8,1,7,1,2,0.1,0,0,0,0,0,0,0,0,0,86,6.09508174449794,-11.5241300473483,13.7563124202739,-0.322220870168457,0.757928529805556,-1.02625504288622,11,0,-1.72769324176241,-2.01136352604617,-1.85741652551147,-0.613424417279171,-4.7213296282785,-3.24602688191818,-1.72767240205874,-2.0112980047809,-1.85747558275332,-0.614201370869772,-4.721363965665,-3.24599844614138,2.17547408828434E-05,4.35094816295351E-05,-1.08773713231666E-05,0.385368698840348,-9.84402021480037E-05,5.48219466963803E-05,0,0,0,0.38332262635231,0,0,-0.287538878702343,-0.786154926465717,0.237681976966391,2.91374198869612,-0.0804679176387495,-0.0446496051840405,-0.287511718509038,-0.78607894235383,0.237598945565205,2.9145104673023,-0.0804955688273373,-0.0445523708013772,-0.00431222440033137,-0.0240162159961951,0.0515305454345961,-0.380480767739546,0.0612957205325217,-0.00343311000747995,-0.00430449184304469,-0.0239324213008188,0.0512087443479905,-0.378443050451361,0.0608752585593055,-0.00336100193977924
2430.152,0.400752,8,1,7,1,2,0.1,0,0,0,0,0,0,0,0,0,86,6.67003139709467,-12.2739154532095,14.4417134691084,0.519952872098383,0.667261357616252,-0.982439155497231,11,0,-1.72769306520219,-2.01136317292574,-1.85741661379158,-0.610296787259597,-4.72133042721347,-3.24602643698644,-1.72764856020083,-2.01132184663881,-1.85747558275332,-0.611049477254049,-4.7214358488666,-3.24602228799929,2.23853130823461E-05,4.47706260245941E-05,-1.11926574484757E-05,0.396538806053112,-0.000101293541340699,5.64109886296087E-05,0,0,0,0.392737448215485,0,0,-0.287573775211656,-0.786349194461233,0.238100504955761,2.91063322390256,-0.0804235939510118,-0.0452145799196487,-0.287535221438896,-0.786283461998649,0.238000735731303,2.91141092213234,-0.0803941990236897,-0.0452204301794651,-0.0044115340898313,-0.0245484347732959,0.0531024692449268,-0.391509243651727,0.0630720961532871,-0.0035328886906649,-0.00438422013041837,-0.0243580418995058,0.0525441451160501,-0.387739498779007,0.0623612575071493,-0.00344352719490664
2430.16,0.395688,8,1,7,1,2,0.1,0,0,0,0,0,0,0,0,0,86,7.46209247348887,-10.6697027504262,16.252194044599,0.556183000228584,0.735539523744912,-1.00363712943678,11,0,-1.7276928835974,-2.01136280971615,-1.85741670459399,-0.607079796382321,-4.72133124897516,-3.24602597934236,-1.72769624391665,-2.01136953035464,-1.85743886629214,-0.607814137135641,-4.72137600580324,-3.24602228799929,2.30158852818488E-05,4.60317704196531E-05,-1.15079435737849E-05,0.407708913265876,-0.000104146880533395,5.80000305628372E-05,0,0,0,0.399947136640549,0,0,-0.287609457254087,-0.786547663271481,0.238531632883171,2.90743553215649,-0.0803779278451196,-0.045794559333212,-0.287606624744646,-0.786491872459544,0.238415289828898,2.90819853057664,-0.0804072989233774,-0.0457221634298254,-0.00450859612964289,-0.0250663469900512,0.0546805461591843,-0.402537723816041,0.0648484441513172,-0.00363268954464819,-0.00443917535636578,-0.0246344078831464,0.0535896966394584,-0.394854395934859,0.0635249596560892,-0.00350679605675963
2430.168,0.396912,8,1,7,1,2,0.1,0,0,0,0,0,0,0,0,0,86,4.23214267485268,-13.8564746757699,15.4039641038233,1.61921173457443,0.317842782655628,-0.94943639622701,11,0,-1.72769269694802,-2.01136243641741,-1.85741679791868,-0.603773444647343,-4.72133209356356,-3.24602550898595,-1.72769624391665,-2.0112980047809,-1.85747558275332,-0.604494396840231,-4.72135204473604,-3.24597436586489,2.36464574813516E-05,4.7292914814712E-05,-1.18232296990941E-05,0.418879020478639,-0.000107000219726091,5.95890724960656E-05,0,0,0,0.412832587957382,0,0,-0.28764590657061,-0.786750216696139,0.238975410353753,2.90414890500231,-0.080330913074147,-0.046389449960646,-0.28763741639289,-0.786672078354571,0.238898685821395,2.90485918629648,-0.0804238559252156,-0.0462820073136244,-0.00460334098506713,-0.0255695152733586,0.0562648701391394,-0.413566208372921,0.0666247636265899,-0.00373251307506533,-0.00455343217776472,-0.0252446102290569,0.055402587168587,-0.407575796341503,0.0655714369525122,-0.00361974752738329
