Miguel-LA/TFM_MiguelLerinAlonso/workspace/ros_ur_driver/src/trayectories/data/20240424_logViewer_j4.csv
timestamp,actual_execution_time,target_execution_time,speed_scaling,robot_mode,safety_mode,runtime_state,payload,payload_cog_0,payload_cog_1,payload_cog_2,payload_inertia_0,payload_inertia_1,payload_inertia_2,payload_inertia_3,payload_inertia_4,payload_inertia_5,script_control_line,wrench_calc_from_currents_0,wrench_calc_from_currents_1,wrench_calc_from_currents_2,wrench_calc_from_currents_3,wrench_calc_from_currents_4,wrench_calc_from_currents_5,motor_command,joint_position_deviation_ratio,target_q_0,target_q_1,target_q_2,target_q_3,target_q_4,target_q_5,actual_q_0,actual_q_1,actual_q_2,actual_q_3,actual_q_4,actual_q_5,target_qd_0,target_qd_1,target_qd_2,target_qd_3,target_qd_4,target_qd_5,actual_qd_0,actual_qd_1,actual_qd_2,actual_qd_3,actual_qd_4,actual_qd_5,target_TCP_pose_0,target_TCP_pose_1,target_TCP_pose_2,target_TCP_pose_3,target_TCP_pose_4,target_TCP_pose_5,actual_TCP_pose_0,actual_TCP_pose_1,actual_TCP_pose_2,actual_TCP_pose_3,actual_TCP_pose_4,actual_TCP_pose_5,target_TCP_speed_0,target_TCP_speed_1,target_TCP_speed_2,target_TCP_speed_3,target_TCP_speed_4,target_TCP_speed_5,actual_TCP_speed_0,actual_TCP_speed_1,actual_TCP_speed_2,actual_TCP_speed_3,actual_TCP_speed_4,actual_TCP_speed_5
2579.808,0.3984,8,0,7,1,1,0.1,0,0,0,0,0,0,0,0,0,0,6.85755062480609,-10.3288675443829,18.5656035121929,3.60178246758483,-0.442888631141813,-0.773247423224359,11,0,-1.72769624391665,-2.01136953035464,-1.85741502443422,-0.666605297719139,-4.7213160435306,-3.24603444734682,-1.72767240205874,-2.01134568849672,-1.8574631849872,-0.666605297719137,-4.7212920824634,-3.24602228799929,0,0,0,0,0,0,0,0,0,0,1.91747603821568E-05,0,-0.286914821023607,-0.782655550814712,0.230663646928533,2.96658629960679,-0.0812102690499988,-0.0348738152905294,-0.286890227971526,-0.782638860425881,0.230656381440869,2.96660794405359,-0.0811901038510121,-0.0348297746245453,0,0,0,0,0,0,1.74728765385251E-06,-2.80272608885555E-07,1.55764060668795E-09,-2.99241235842041E-06,-1.86366693493389E-05,3.37512363532288E-06
2579.816,0.367824,8,0,7,1,1,0.1,0,0,0,0,0,0,0,0,0,0,6.7711689296965,-12.7987858727478,16.9112445658601,3.65586880155151,-0.376473440653354,-0.843953637034705,11,0,-1.72769624391665,-2.01136953035464,-1.85741502443422,-0.666605297719139,-4.7213160435306,-3.24603444734682,-1.72768432298769,-2.01134568849672,-1.85747558275332,-0.666593376790182,-4.7212920824634,-3.24603444734682,0,0,0,0,0,0,0,0,0,0,1.91747603821568E-05,0,-0.286914821023607,-0.782655550814712,0.230663646928533,2.96658629960679,-0.0812102690499988,-0.0348738152905294,-0.28689883706979,-0.782630740049217,0.230651042073849,2.96660868158761,-0.0811898647187361,-0.0348329388690851,0,0,0,0,0,0,1.74728429258258E-06,-2.80293563921241E-07,1.5574850498183E-09,-2.99263582001218E-06,-1.86366350980988E-05,3.37511463245641E-06
2579.824,0.376308,8,0,7,1,1,0.1,0,0,0,0,0,0,0,0,0,0,6.86160105132963,-9.57486758820375,19.5023938344162,3.74020314497861,-0.374761002119989,-0.70278584687403,11,0,-1.72769624391665,-2.01136953035464,-1.85741502443422,-0.666605297719139,-4.7213160435306,-3.24603444734682,-1.72768432298769,-2.01132184663881,-1.85745078722109,-0.666593376790182,-4.7212920824634,-3.24602228799929,0,0,0,0,0,0,0,0,0,0,1.91747603821568E-05,0,-0.286914821023607,-0.782655550814712,0.230663646928533,2.96658629960679,-0.0812102690499988,-0.0348738152905294,-0.286900190622958,-0.7826393768571,0.230684320469483,2.96655973280077,-0.0812067171106546,-0.0348400392418297,0,0,0,0,0,0,1.74728428540677E-06,-2.80293606515172E-07,1.55786984529706E-09,-2.99261179325923E-06,-1.86364726764401E-05,3.37603266398245E-06
2579.832,0.341364,8,0,7,1,1,0.1,0,0,0,0,0,0,0,0,0,0,5.28488757190744,-14.2171510361014,15.6570172285933,3.59669756180606,-0.447929909764159,-0.801042226496943,11,0,-1.72769624391665,-2.01136953035464,-1.85741502443422,-0.666605297719139,-4.7213160435306,-3.24603444734682,-1.7277081648456,-2.01132184663881,-1.85740310350527,-0.666605297719137,-4.7212920824634,-3.24601036707033,0,0,0,0,0,0,0,0,0,0,1.91747603821568E-05,0,-0.286914821023607,-0.782655550814712,0.230663646928533,2.96658629960679,-0.0812102690499988,-0.0348738152905294,-0.286922039399078,-0.782652962985738,0.230709271453393,2.96652284652243,-0.0812588787486677,-0.0348477142617994,0,0,0,0,0,0,1.74727760426652E-06,-2.80335248817411E-07,1.55844162170418E-09,-2.99303848544758E-06,-1.86362818610277E-05,3.37670767673064E-06
2579.84,0.333828,8,0,7,1,1,0.1,0,0,0,0,0,0,0,0,0,0,5.47032811220936,-13.6101947209455,15.8113435600001,3.55937146466832,-0.529809974830985,-0.843208971033078,11,0,-1.72769624391665,-2.01136953035464,-1.85741502443422,-0.666605297719139,-4.7213160435306,-3.24603444734682,-1.7277081648456,-2.01133376756777,-1.85743886629214,-0.666605297719137,-4.7212920824634,-3.24602228799929,0,0,0,0,0,0,0,0,0,0,1.91747603821568E-05,0,-0.286914821023607,-0.782655550814712,0.230663646928533,2.96658629960679,-0.0812102690499988,-0.0348738152905294,-0.286919728026903,-0.782638231626046,0.230679645934751,2.96657084250666,-0.0812423070514476,-0.0348408249041918,0,0,0,0,0,0,1.7472776197478E-06,-2.80335154926836E-07,1.55797361617659E-09,-2.99306132236963E-06,-1.86364412455157E-05,3.37580765685885E-06
2579.848,0.333144,8,0,7,1,1,0.1,0,0,0,0,0,0,0,0,0,0,5.69640648675804,-12.0887029019629,16.7171240838962,3.46658771240106,-0.448992221903152,-0.797067519662623,11,0,-1.72769624391665,-2.01136953035464,-1.85741502443422,-0.666605297719139,-4.7213160435306,-3.24603444734682,-1.72766048112978,-2.01134568849672,-1.85745078722109,-0.666593376790182,-4.72128016153444,-3.24603444734682,0,0,0,0,0,0,0,0,0,0,1.91747603821568E-05,0,-0.286914821023607,-0.782655550814712,0.230663646928533,2.96658629960679,-0.0812102690499988,-0.0348738152905294,-0.286880825587395,-0.782648806285745,0.230664823301772,2.9665834417239,-0.0811523252471234,-0.0348166524973408,0,0,0,0,0,0,1.74729153214568E-06,-2.80248312632218E-07,1.5785436254903E-09,-2.99218001314748E-06,-1.86366235218599E-05,3.37558264400553E-06
2579.856,0.338484,8,0,7,1,1,0.1,0,0,0,0,0,0,0,0,0,0,5.70125977799728,-12.8101013558653,16.1453358499067,3.4957629081645,-0.471396960729051,-0.793985791558334,11,0,-1.72769624391665,-2.01136953035464,-1.85741502443422,-0.666605297719139,-4.7213160435306,-3.24603444734682,-1.72767240205874,-2.01133376756777,-1.8574631849872,-0.666605297719137,-4.72128016153444,-3.24597436586489,0,0,0,0,0,0,0,0,0,0,1.91747603821568E-05,0,-0.286914821023607,-0.782655550814712,0.230663646928533,2.96658629960679,-0.0812102690499988,-0.0348738152905294,-0.286888951238806,-0.782637827235842,0.230666131417666,2.96659234874759,-0.0812592363466143,-0.0348081925652949,0,0,0,0,0,0,1.74728822654229E-06,-2.80268922134263E-07,1.57845290094956E-09,-2.9924060845748E-06,-1.86366296054973E-05,3.3753486465298E-06
2579.864,0.35178,8,0,7,1,1,0.1,0,0,0,0,0,0,0,0,0,0,5.85964285771882,-11.3201724727713,17.9548217052511,3.6078207837124,-0.585868125247418,-0.633306410794756,11,0,-1.72769624391665,-2.01136953035464,-1.85741502443422,-0.666605297719139,-4.7213160435306,-3.24603444734682,-1.72769624391665,-2.01128608385195,-1.85743886629214,-0.666593376790182,-4.72128016153444,-3.24599844614138,0,0,0,0,0,0,0,0,0,0,1.91747603821568E-05,0,-0.286914821023607,-0.782655550814712,0.230663646928533,2.96658629960679,-0.0812102690499988,-0.0348738152905294,-0.286908696362915,-0.782637820268953,0.230720194090211,2.96650946495674,-0.0812569256533668,-0.0348295286870243,0,0,0,0,0,0,1.74728151635307E-06,-2.80310749847861E-07,1.57891476142831E-09,-2.99280960589637E-06,-1.86362778463009E-05,3.37693269276417E-06
2579.872,0.347724,8,0,7,1,1,0.1,0,0,0,0,0,0,0,0,0,0,6.58780059713533,-11.6452688420924,17.3003430808257,3.52628684528406,-0.293139137465982,-0.797243828845338,11,0,-1.72769624391665,-2.01136953035464,-1.85741502443422,-0.666605297719139,-4.7213160435306,-3.24603444734682,-1.72766048112978,-2.01133376756777,-1.85742694536318,-0.666593376790182,-4.72128016153444,-3.24602228799929,0,0,0,0,0,0,0,0,0,0,1.91747603821568E-05,0,-0.286914821023607,-0.782655550814712,0.230663646928533,2.96658629960679,-0.0812102690499988,-0.0348738152905294,-0.286882302624548,-0.7826582252239,0.230687823013667,2.96654728342239,-0.0811695149162823,-0.0348214213732586,0,0,0,0,0,0,1.74729152284819E-06,-2.80248368756647E-07,1.57887088487222E-09,-2.99216270371639E-06,-1.86365040247509E-05,3.37625766242191E-06
2579.88,0.339529,8,0,7,1,1,0.1,0,0,0,0,0,0,0,0,0,0,7.02349373372166,-14.0259240540883,15.727795374118,3.50746175152256,-0.3068759060074,-0.823100892470921,11,0,-1.72769624391665,-2.01136953035464,-1.85741502443422,-0.666605297719139,-4.7213160435306,-3.24603444734682,-1.72767240205874,-2.0112980047809,-1.85745078722109,-0.666581455861227,-4.72128016153444,-3.24599844614138,0,0,0,0,0,0,0,0,0,0,0,0,-0.286914821023607,-0.782655550814712,0.230663646928533,2.96658629960679,-0.0812102690499988,-0.0348738152905294,-0.286889540090691,-0.782641381124796,0.230705370314024,2.96652204006634,-0.0812219690973453,-0.0348244149677592,0,0,0,0,0,0,0,0,0,0,0,0
2579.888,0.336168,8,0,7,1,1,0.1,0,0,0,0,0,0,0,0,0,0,5.99418744829177,-11.6549382428342,17.4089919522868,3.57311384473809,-0.497457907317438,-0.762884758799931,11,0,-1.72769624391665,-2.01136953035464,-1.85741502443422,-0.666605297719139,-4.7213160435306,-3.24603444734682,-1.72763616243471,-2.01132184663881,-1.8574631849872,-0.666569534932272,-4.7212920824634,-3.24599844614138,0,0,0,0,0,0,0,0,0,0,0,0,-0.286914821023607,-0.782655550814712,0.230663646928533,2.96658629960679,-0.0812102690499988,-0.0348738152905294,-0.286861924090571,-0.782649318701236,0.230680531694526,2.96654862490918,-0.0811705673830892,-0.0348329997312245,0,0,0,0,0,0,0,0,0,0,0,0
2579.896,0.332844,8,0,7,1,1,0.1,0,0,0,0,0,0,0,0,0,0,7.23733598888941,-11.3267925795423,18.0059489895319,3.63387803809099,-0.370482238247154,-0.786760668580649,11,0,-1.72769624391665,-2.01136953035464,-1.85741502443422,-0.666605297719139,-4.7213160435306,-3.24603444734682,-1.72769624391665,-2.01133376756777,-1.85741502443422,-0.666605297719137,-4.7212681213962,-3.24602228799929,0,0,0,0,0,0,0,0,0,0,0,0,-0.286914821023607,-0.782655550814712,0.230663646928533,2.96658629960679,-0.0812102690499988,-0.0348738152905294,-0.286909882648657,-0.782652628495176,0.230692898649374,2.96654485797642,-0.0812208363258055,-0.0348081892167371,0,0,0,0,0,0,0,0,0,0,0,0
2579.904,0.333216,8,0,7,1,1,0.1,0,0,0,0,0,0,0,0,0,0,5.788434653482,-11.3754997947204,17.7639528693113,3.60354126657136,-0.491513914740626,-0.735994214405119,11,0,-1.72769624391665,-2.01136953035464,-1.85741502443422,-0.666605297719139,-4.7213160435306,-3.24603444734682,-1.72768432298769,-2.01134568849672,-1.85743886629214,-0.666593376790182,-4.72128016153444,-3.24602228799929,0,0,0,0,0,0,0,0,0,0,0,0,-0.286914821023607,-0.782655550814712,0.230663646928533,2.96658629960679,-0.0812102690499988,-0.0348738152905294,-0.286900319194447,-0.782647279625552,0.230671448522232,2.96657025054339,-0.0812054653529024,-0.0348202524288838,0,0,0,0,0,0,0,0,0,0,0,0
2579.912,0.401928,8,0,7,1,1,0.1,0,0,0,0,0,0,0,0,0,0,6.28118435950302,-11.9001414110723,17.1667379636866,3.50835291656426,-0.428787896239773,-0.772924950350831,11,0,-1.72769624391665,-2.01136953035464,-1.85741502443422,-0.666605297719139,-4.7213160435306,-3.24603444734682,-1.72767240205874,-2.01135760942568,-1.8574631849872,-0.666593376790182,-4.72125608125796,-3.24599844614138,0,0,0,0,0,0,0,0,0,0,0,0,-0.286914821023607,-0.782655550814712,0.230663646928533,2.96658629960679,-0.0812102690499988,-0.0348738152905294,-0.286887284408009,-0.782641419687346,0.230648186122467,2.96660275443452,-0.0812207178369985,-0.0347737540265525,0,0,0,0,0,0,0,0,0,0,0,0
2579.92,0.347785,8,0,7,1,1,0.1,0,0,0,0,0,0,0,0,0,0,5.68494297484534,-13.6169999685578,15.9693806042216,3.56095732160154,-0.446407231953686,-0.656381595518329,11,0,-1.72769624391665,-2.01136953035464,-1.85741502443422,-0.666605297719139,-4.7213160435306,-3.24603444734682,-1.72767240205874,-2.01132184663881,-1.85742694536318,-0.666593376790182,-4.7212920824634,-3.24599844614138,0,0,0,0,0,0,0,0,0,0,0,0,-0.286914821023607,-0.782655550814712,0.230663646928533,2.96658629960679,-0.0812102690499988,-0.0348738152905294,-0.286892528400232,-0.78265342321624,0.230697571230797,2.96653518485776,-0.0812238623593365,-0.0348395911880386,0,0,0,0,0,0,0,0,0,0,0,0
2579.928,0.349428,8,0,7,1,1,0.1,0,0,0,0,0,0,0,0,0,0,5.95043849677459,-13.3279755860174,15.9927138052289,3.5509623669557,-0.387897945748002,-0.781362891157529,11,0,-1.72769624391665,-2.01136953035464,-1.85741502443422,-0.666605297719139,-4.7213160435306,-3.24603444734682,-1.72769624391665,-2.01132184663881,-1.85745078722109,-0.666569534932272,-4.7212681213962,-3.24601036707033,0,0,0,0,0,0,0,0,0,0,0,0,-0.286914821023607,-0.782655550814712,0.230663646928533,2.96658629960679,-0.0812102690499988,-0.0348738152905294,-0.286907630164056,-0.782637958219742,0.230687423982639,2.96653243357279,-0.0812384901544929,-0.0348092134192975,0,0,0,0,0,0,0,0,0,0,0,0
2579.936,0.338496,8,0,7,1,1,0.1,0,0,0,0,0,0,0,0,0,0,6.12036217629739,-13.0846438430602,16.301091501303,3.54916228210717,-0.357111287701293,-0.844294355094858,11,0,-1.72769624391665,-2.01136953035464,-1.85741502443422,-0.666605297719139,-4.7213160435306,-3.24603444734682,-1.72767240205874,-2.01135760942568,-1.85747558275332,-0.666581455861227,-4.7212920824634,-3.24601036707033,0,0,0,0,0,0,0,0,0,0,0,0,-0.286914821023607,-0.782655550814712,0.230663646928533,2.96658629960679,-0.0812102690499988,-0.0348738152905294,-0.286889844378691,-0.782636193083173,0.230642843828446,2.96660782112491,-0.0812080408170935,-0.0348283432837031,0,0,0,0,0,0,0,0,0,0,0,0
2579.944,0.337296,8,0,7,1,1,0.1,0,0,0,0,0,0,0,0,0,0,6.00002201953102,-11.3077741374142,17.7178595675696,3.49660539474989,-0.531767879047125,-0.668238819884679,11,0,-1.72769624391665,-2.01136953035464,-1.85741502443422,-0.666605297719139,-4.7213160435306,-3.24603444734682,-1.72768432298769,-2.01132184663881,-1.85743886629214,-0.666581455861227,-4.721244160329,-3.24597436586489,0,0,0,0,0,0,0,0,0,0,0,0,-0.286914821023607,-0.782655550814712,0.230663646928533,2.96658629960679,-0.0812102690499988,-0.0348738152905294,-0.286896804207191,-0.78264621615508,0.230692500591381,2.9665283099897,-0.0812708382887116,-0.0347676081014015,0,0,0,0,0,0,0,0,0,0,0,0
2579.952,0.334692,8,0,7,1,1,0.1,0,0,0,0,0,0,0,0,0,0,5.63905878167701,-13.4167695359916,16.2771056060737,3.62118994871313,-0.426119271650182,-0.776777716727367,11,0,-1.72769624391665,-2.01136953035464,-1.85741502443422,-0.666605297719139,-4.7213160435306,-3.24603444734682,-1.72767240205874,-2.01132184663881,-1.8574631849872,-0.66661769548525,-4.72130412260164,-3.24601036707033,0,0,0,0,0,0,0,0,0,0,0,0,-0.286914821023607,-0.782655550814712,0.230663646928533,2.96658629960679,-0.0812102690499988,-0.0348738152905294,-0.286890791756749,-0.78263541073082,0.230674265694624,2.96659729928864,-0.0812089600213591,-0.0348479724820388,0,0,0,0,0,0,0,0,0,0,0,0
2579.96,0.343392,8,0,7,1,1,0.1,0,0,0,0,0,0,0,0,0,0,5.01331230411398,-13.3218451208007,15.2591437452353,3.40638499483388,-0.579514067998771,-0.830104106746889,11,0,-1.72769624391665,-2.01136953035464,-1.85741502443422,-0.666605297719139,-4.7213160435306,-3.24603444734682,-1.72767240205874,-2.01132184663881,-1.85747558275332,-0.666581455861227,-4.72128016153444,-3.24602228799929,0,0,0,0,0,0,0,0,0,0,0,0,-0.286914821023607,-0.782655550814712,0.230663646928533,2.96658629960679,-0.0812102690499988,-0.0348738152905294,-0.286888186775975,-0.782632745158968,0.230672091668953,2.96657158250201,-0.0811877923993343,-0.0348188269456884,0,0,0,0,0,0,0,0,0,0,0,0
2579.968,0.346633,8,0,7,1,1,0.1,0,0,0,0,0,0,0,0,0,0,5.39370432573292,-13.2723610036156,15.0844951003309,3.359424838531,-0.494340802851238,-0.757282697843991,11,0,-1.72769624391665,-2.01136953035464,-1.85741502443422,-0.666605297719139,-4.7213160435306,-3.24603444734682,-1.72767240205874,-2.01135760942568,-1.85743886629214,-0.666593376790182,-4.7212681213962,-3.24598628679384,0,0,0,0,0,0,0,0,0,0,0,0,-0.286914821023607,-0.782655550814712,0.230663646928533,2.96658629960679,-0.0812102690499988,-0.0348738152905294,-0.286890082596597,-0.782652083169305,0.230661700362747,2.96657929494217,-0.0812398493262478,-0.0347941671646433,0,0,0,0,0,0,0,0,0,0,0,0
2579.976,0.349848,8,0,7,1,1,0.1,0,0,0,0,0,0,0,0,0,0,5.75947627538545,-11.7504996163379,16.8168758573922,3.49420325948203,-0.562040745922611,-0.749362814611303,11,0,-1.72769624391665,-2.01136953035464,-1.85741502443422,-0.666605297719139,-4.7213160435306,-3.24603444734682,-1.72766048112978,-2.01132184663881,-1.8574631849872,-0.666581455861227,-4.7212920824634,-3.24598628679384,0,0,0,0,0,0,0,0,0,0,0,0,-0.286914821023607,-0.782655550814712,0.230663646928533,2.96658629960679,-0.0812102690499988,-0.0348738152905294,-0.286880810442877,-0.782641516719966,0.230678980929741,2.96655910951516,-0.0812248438736758,-0.0348323498450888,0,0,0,0,0,0,0,0,0,0,0,0
2579.984,0.333792,8,0,7,1,1,0.1,0,0,0,0,0,0,0,0,0,0,6.01051231171369,-11.432338213044,17.2688881482649,3.47635196125423,-0.520889773855762,-0.641011486689657,11,0,-1.72769624391665,-2.01136953035464,-1.85741502443422,-0.666605297719139,-4.7213160435306,-3.24603444734682,-1.72769624391665,-2.0112980047809,-1.85743886629214,-0.666593376790182,-4.72130412260164,-3.24599844614138,0,0,0,0,0,0,0,0,0,0,0,0,-0.286914821023607,-0.782655550814712,0.230663646928533,2.96658629960679,-0.0812102690499988,-0.0348738152905294,-0.286911070366368,-0.782638678049934,0.230710443058871,2.96652395516911,-0.0812605010596714,-0.0348626371418942,0,0,0,0,0,0,0,0,0,0,0,0
2579.992,0.33336,8,0,7,1,1,0.1,0,0,0,0,0,0,0,0,0,0,6.00685184556501,-12.1933883206226,18.020546049273,3.66729923821355,-0.464902827429182,-0.713719896351051,11,0,-1.72769624391665,-2.01136953035464,-1.85741502443422,-0.666605297719139,-4.7213160435306,-3.24603444734682,-1.72767240205874,-2.01134568849672,-1.85745078722109,-0.666581455861227,-4.7212920824634,-3.24602228799929,0,0,0,0,0,0,0,0,0,0,0,0,-0.286914821023607,-0.782655550814712,0.230663646928533,2.96658629960679,-0.0812102690499988,-0.0348738152905294,-0.286891388343503,-0.782646037776227,0.230666373072042,2.96657193821617,-0.0811894980267117,-0.0348363933589813,0,0,0,0,0,0,0,0,0,0,0,0
2580,0.332292,8,0,7,1,1,0.1,0,0,0,0,0,0,0,0,0,0,5.84475425313406,-11.8215099799506,17.8525650103666,3.71465097264765,-0.427126221569204,-0.836792619496644,11,0,-1.72769624391665,-2.01136953035464,-1.85741502443422,-0.666605297719139,-4.7213160435306,-3.24603444734682,-1.72769624391665,-2.01133376756777,-1.85745078722109,-0.666593376790182,-4.7212920824634,-3.24597436586489,0,0,0,0,0,0,0,0,0,0,0,0,-0.286914821023607,-0.782655550814712,0.230663646928533,2.96658629960679,-0.0812102690499988,-0.0348738152905294,-0.286909710899239,-0.782637164328422,0.230674571405453,2.96656877610692,-0.0812957876005139,-0.0348332195573262,0,0,0,0,0,0,0,0,0,0,0,0
2580.008,0.406033,8,0,7,1,1,0.1,0,0,0,0,0,0,0,0,0,0,6.01966138446541,-12.407574393704,16.8872692872732,3.52129868817725,-0.361593521012664,-0.785262712747946,11,0,-1.72769624391665,-2.01136953035464,-1.85741502443422,-0.666605297719139,-4.7213160435306,-3.24603444734682,-1.72768432298769,-2.01134568849672,-1.8574631849872,-0.666593376790182,-4.7213160435306,-3.24601036707033,0,0,0,0,0,0,0,0,0,0,0,0,-0.286914821023607,-0.782655550814712,0.230663646928533,2.96658629960679,-0.0812102690499988,-0.0348738152905294,-0.286901887769394,-0.782635915820301,0.230657930245315,2.96659778263507,-0.0812285600244348,-0.0348672706377576,0,0,0,0,0,0,0,0,0,0,0,0
2580.016,0.341064,8,0,7,1,1,0.1,0,0,0,0,0,0,0,0,0,0,6.40600365503675,-10.5001046903344,18.9581725170124,3.74915534487147,-0.490063040730942,-0.682985030359858,11,0,-1.72769624391665,-2.01136953035464,-1.85741502443422,-0.666605297719139,-4.7213160435306,-3.24603444734682,-1.72768432298769,-2.01130992570986,-1.85745078722109,-0.666569534932272,-4.7213160435306,-3.24599844614138,0,0,0,0,0,0,0,0,0,0,0,0,-0.286914821023607,-0.782655550814712,0.230663646928533,2.96658629960679,-0.0812102690499988,-0.0348738152905294,-0.286902476719375,-0.782639470053345,0.230697169158597,2.96652564362376,-0.0812446845766082,-0.0348788369623647,0,0,0,0,0,0,0,0,0,0,0,0
2580.024,0.3531,8,0,7,1,1,0.1,0,0,0,0,0,0,0,0,0,0,5.800679863449,-11.8429380794792,17.4232366465768,3.5772489649337,-0.403741944754829,-0.808276816318843,11,0,-1.72769624391665,-2.01136953035464,-1.85741502443422,-0.666605297719139,-4.7213160435306,-3.24603444734682,-1.72767240205874,-2.01130992570986,-1.85745078722109,-0.666581455861227,-4.7213160435306,-3.24597436586489,0,0,0,0,0,0,0,0,0,0,0,0,-0.286914821023607,-0.782655550814712,0.230663646928533,2.96658629960679,-0.0812102690499988,-0.0348738152905294,-0.286893000332444,-0.782642064538815,0.230695618373413,2.96653662278846,-0.0812628760970007,-0.034871957324775,0,0,0,0,0,0,0,0,0,0,0,0
2580.032,0.33792,8,0,7,1,1,0.1,0,0,0,0,0,0,0,0,0,0,5.99191481681714,-12.5104807673121,16.7883350164792,3.55332024019096,-0.487086399828314,-0.792825721078962,11,0,-1.72769624391665,-2.01136953035464,-1.85741502443422,-0.666605297719139,-4.7213160435306,-3.24603444734682,-1.72766048112978,-2.01132184663881,-1.85745078722109,-0.66664153734316,-4.7212681213962,-3.24601036707033,0,0,0,0,0,0,0,0,0,0,0,0,-0.286914821023607,-0.782655550814712,0.230663646928533,2.96658629960679,-0.0812102690499988,-0.0348738152905294,-0.286878755339103,-0.782643231292436,0.230678057452761,2.9666050422036,-0.0811864383488211,-0.0347911602432349,0,0,0,0,0,0,0,0,0,0,0,0
2580.04,0.33366,8,0,7,1,1,0.1,0,0,0,0,0,0,0,0,0,0,6.22254233249172,-11.0010617906346,18.4252377167091,3.6894378812497,-0.486333136027913,-0.82557468550812,11,0,-1.72769624391665,-2.01136953035464,-1.85741502443422,-0.666605297719139,-4.7213160435306,-3.24603444734682,-1.72766048112978,-2.01132184663881,-1.85742694536318,-0.666593376790182,-4.72125608125796,-3.24603444734682,0,0,0,0,0,0,0,0,0,0,0,0,-0.286914821023607,-0.782655550814712,0.230663646928533,2.96658629960679,-0.0812102690499988,-0.0348738152905294,-0.286879917829586,-0.782657369357508,0.230697574215146,2.96653339707909,-0.0811478917683201,-0.0347897101700106,0,0,0,0,0,0,0,0,0,0,0,0
2580.048,0.333504,8,0,7,1,1,0.1,0,0,0,0,0,0,0,0,0,0,6.91669626759186,-10.7057096209428,17.9696486618324,3.58911892577299,-0.372867362175583,-0.785100064094438,11,0,-1.72769624391665,-2.01136953035464,-1.85741502443422,-0.666605297719139,-4.7213160435306,-3.24603444734682,-1.72769624391665,-2.01132184663881,-1.85748750368227,-0.666593376790182,-4.72128016153444,-3.24598628679384,0,0,0,0,0,0,0,0,0,0,0,0,-0.286914821023607,-0.782655550814712,0.230663646928533,2.96658629960679,-0.0812102690499988,-0.0348738152905294,-0.286905865542823,-0.782619765906144,0.230663915773346,2.96659271826695,-0.0812769835166924,-0.034812942385741,0,0,0,0,0,0,0,0,0,0,0,0
2580.056,0.333348,8,0,7,1,1,0.1,0,0,0,0,0,0,0,0,0,0,5.93653724802548,-12.9277165202866,16.4145242397441,3.60570088393593,-0.216833512136665,-0.726531566526877,11,0,-1.72769624391665,-2.01136953035464,-1.85741502443422,-0.666605297719139,-4.7213160435306,-3.24603444734682,-1.72764856020083,-2.01134568849672,-1.8574631849872,-0.666581455861227,-4.7212920824634,-3.24603444734682,0,0,0,0,0,0,0,0,0,0,0,0,-0.286914821023607,-0.782655550814712,0.230663646928533,2.96658629960679,-0.0812102690499988,-0.0348738152905294,-0.286871861471885,-0.78264735161519,0.230659482900475,2.96658560304646,-0.0811363682413049,-0.0348327100532359,0,0,0,0,0,0,0,0,0,0,0,0
2580.064,0.352248,8,0,7,1,1,0.1,0,0,0,0,0,0,0,0,0,0,7.08594686415419,-10.7668282903703,18.1456494484009,3.60539105754033,-0.254827044742923,-0.863816326218298,11,0,-1.72769624391665,-2.01136953035464,-1.85741502443422,-0.666605297719139,-4.7213160435306,-3.24603444734682,-1.72766048112978,-2.01135760942568,-1.85743886629214,-0.666593376790182,-4.72130412260164,-3.24603444734682,0,0,0,0,0,0,0,0,0,0,0,0,-0.286914821023607,-0.782655550814712,0.230663646928533,2.96658629960679,-0.0812102690499988,-0.0348738152905294,-0.286884033229655,-0.782654976931568,0.2306616974183,2.96658608300382,-0.081155635909369,-0.0348518505922141,0,0,0,0,0,0,0,0,0,0,0,0
2580.072,0.347568,8,0,7,1,1,0.1,0,0,0,0,0,0,0,0,0,0,6.05500015908554,-11.7932338554351,17.5650565380749,3.70086715564493,-0.424617048939791,-0.779175164813455,11,0,-1.72769624391665,-2.01136953035464,-1.85741502443422,-0.666605297719139,-4.7213160435306,-3.24603444734682,-1.72767240205874,-2.01133376756777,-1.85743886629214,-0.66661769548525,-4.7212681213962,-3.24599844614138,0,0,0,0,0,0,0,0,0,0,0,0,-0.286914821023607,-0.782655550814712,0.230663646928533,2.96658629960679,-0.0812102690499988,-0.0348738152905294,-0.286889402629439,-0.78264798369909,0.230678035132917,2.96658038462373,-0.0812215232274516,-0.0347955317190411,0,0,0,0,0,0,0,0,0,0,0,0
2580.08,0.341028,8,0,7,1,1,0.1,0,0,0,0,0,0,0,0,0,0,5.87750333147426,-12.4876984317585,16.7243501069702,3.57634830402196,-0.467976865187442,-0.768150915046223,11,0,-1.72769624391665,-2.01136953035464,-1.85741502443422,-0.666605297719139,-4.7213160435306,-3.24603444734682,-1.72767240205874,-2.01132184663881,-1.8574631849872,-0.666581455861227,-4.7212920824634,-3.24602228799929,0,0,0,0,0,0,0,0,0,0,0,0,-0.286914821023607,-0.782655550814712,0.230663646928533,2.96658629960679,-0.0812102690499988,-0.0348738152905294,-0.286890140236411,-0.782638096778596,0.230678980929741,2.96656057684441,-0.0811891394850383,-0.0348385479866547,0,0,0,0,0,0,0,0,0,0,0,0
2580.088,0.334728,8,0,7,1,1,0.1,0,0,0,0,0,0,0,0,0,0,6.19537210935418,-11.9358192986904,17.0529525810722,3.55329589327268,-0.433296923039314,-0.71603841001343,11,0,-1.72769624391665,-2.01136953035464,-1.85741502443422,-0.666605297719139,-4.7213160435306,-3.24603444734682,-1.72767240205874,-2.01134568849672,-1.8574631849872,-0.666593376790182,-4.72130412260164,-3.24602228799929,0,0,0,0,0,0,0,0,0,0,0,0,-0.286914821023607,-0.782655550814712,0.230663646928533,2.96658629960679,-0.0812102690499988,-0.0348738152905294,-0.286891471715459,-0.782639510150454,0.230657931194198,2.96659743337488,-0.0811915747315548,-0.0348497219267269,0,0,0,0,0,0,0,0,0,0,0,0
2580.096,0.334837,8,0,7,1,1,0.1,0,0,0,0,0,0,0,0,0,0,6.19937247785971,-10.920487944504,18.1564208950436,3.63576293065825,-0.385150563485616,-0.784316130755594,11,0,-1.72769624391665,-2.01136953035464,-1.85741502443422,-0.666605297719139,-4.7213160435306,-3.24603444734682,-1.72766048112978,-2.01132184663881,-1.85743886629214,-0.666593376790182,-4.7212920824634,-3.24599844614138,0,0,0,0,0,0,0,0,0,0,0,0,-0.286914821023607,-0.782655550814712,0.230663646928533,2.96658629960679,-0.0812102690499988,-0.0348738152905294,-0.286882364700206,-0.782651530066205,0.230690945818084,2.96654739638508,-0.0812064404357373,-0.034835960549282,0,0,0,0,0,0,0,0,0,0,0,0
2580.104,0.333132,8,0,7,1,1,0.1,0,0,0,0,0,0,0,0,0,0,6.02929200146677,-11.6569980753389,17.6163344037566,3.59940111138389,-0.503530535547754,-0.791277871715949,11,0,-1.72769624391665,-2.01136953035464,-1.85741502443422,-0.666605297719139,-4.7213160435306,-3.24603444734682,-1.72769624391665,-2.01134568849672,-1.85748750368227,-0.66661769548525,-4.7212681213962,-3.24602228799929,0,0,0,0,0,0,0,0,0,0,0,0,-0.286914821023607,-0.782655550814712,0.230663646928533,2.96658629960679,-0.0812102690499988,-0.0348738152905294,-0.286904850211818,-0.782620672064442,0.230641255596734,2.96664105811534,-0.0812229285774033,-0.0347910098294349,0,0,0,0,0,0,0,0,0,0,0,0
2580.112,0.402192,8,0,7,1,1,0.1,0,0,0,0,0,0,0,0,0,0,5.72426433881517,-12.3183484592731,17.1264121529286,3.5645952019819,-0.448839019873617,-0.74239844060398,11,0,-1.72769624391665,-2.01136953035464,-1.85741502443422,-0.666605297719139,-4.7213160435306,-3.24603444734682,-1.72768432298769,-2.01132184663881,-1.85743886629214,-0.666581455861227,-4.7212920824634,-3.24596244493593,0,0,0,0,0,0,0,0,0,0,0,0,-0.286914821023607,-0.782655550814712,0.230663646928533,2.96658629960679,-0.0812102690499988,-0.0348738152905294,-0.286901171075097,-0.782645515654856,0.230692496593261,2.96653299966248,-0.0812950341964738,-0.0348366104149802,0,0,0,0,0,0,0,0,0,0,0,0
2580.12,0.352164,8,0,7,1,1,0.1,0,0,0,0,0,0,0,0,0,0,5.91192074285597,-11.6765557864944,17.5849639369108,3.58252292698921,-0.420434281632077,-0.77657558108551,11,0,-1.72769624391665,-2.01136953035464,-1.85741502443422,-0.666605297719139,-4.7213160435306,-3.24603444734682,-1.7277081648456,-2.01132184663881,-1.85743886629214,-0.666593376790182,-4.7212681213962,-3.24602228799929,0,0,0,0,0,0,0,0,0,0,0,0,-0.286914821023607,-0.782655550814712,0.230663646928533,2.96658629960679,-0.0812102690499988,-0.0348738152905294,-0.286917500682274,-0.78263819986586,0.230690947791076,2.96654451034764,-0.0812385659943182,-0.0348099399152278,0,0,0,0,0,0,0,0,0,0,0,0
2580.128,0.348708,8,0,7,1,1,0.1,0,0,0,0,0,0,0,0,0,0,5.84098160564298,-13.3827257770792,15.6565775379512,3.46013466015665,-0.530614504171756,-0.782723877671212,11,0,-1.72769624391665,-2.01136953035464,-1.85741502443422,-0.666605297719139,-4.7213160435306,-3.24603444734682,-1.72768432298769,-2.01130992570986,-1.85741502443422,-0.66661769548525,-4.72130412260164,-3.24603444734682,0,0,0,0,0,0,0,0,0,0,0,0,-0.286914821023607,-0.782655550814712,0.230663646928533,2.96658629960679,-0.0812102690499988,-0.0348738152905294,-0.286903299737953,-0.782652247951474,0.230710781365948,2.96653844776107,-0.0811895548877536,-0.0348632313881724,0,0,0,0,0,0,0,0,0,0,0,0
2580.136,0.336421,8,0,7,1,1,0.1,0,0,0,0,0,0,0,0,0,0,6.31997459912744,-11.490146107954,17.6683424266758,3.59888558234777,-0.456039721545009,-0.828455004575879,11,0,-1.72769624391665,-2.01136953035464,-1.85741502443422,-0.666605297719139,-4.7213160435306,-3.24603444734682,-1.72768432298769,-2.0112980047809,-1.85742694536318,-0.666581455861227,-4.7212920824634,-3.24602228799929,0,0,0,0,0,0,0,0,0,0,0,0,-0.286914821023607,-0.782655550814712,0.230663646928533,2.96658629960679,-0.0812102690499988,-0.0348738152905294,-0.286901623825468,-0.782648412751649,0.230718620376738,2.96650050847866,-0.0812053918643243,-0.034850767565948,0,0,0,0,0,0,0,0,0,0,0,0
2580.144,0.33624,8,0,7,1,1,0.1,0,0,0,0,0,0,0,0,0,0,6.01242928784433,-12.4619775299971,16.8381822353637,3.5559790597313,-0.309704676150594,-0.795176521630183,11,0,-1.72769624391665,-2.01136953035464,-1.85741502443422,-0.666605297719139,-4.7213160435306,-3.24603444734682,-1.72767240205874,-2.01136953035464,-1.85743886629214,-0.666605297719137,-4.72128016153444,-3.24599844614138,0,0,0,0,0,0,0,0,0,0,0,0,-0.286914821023607,-0.782655550814712,0.230663646928533,2.96658629960679,-0.0812102690499988,-0.0348738152905294,-0.286891223589828,-0.78265228885405,0.230650399467821,2.96660492715618,-0.0812239365660397,-0.0348090773014997,0,0,0,0,0,0,0,0,0,0,0,0
2580.152,0.334548,8,0,7,1,1,0.1,0,0,0,0,0,0,0,0,0,0,6.47760125312784,-12.0765281177453,17.3072383255525,3.70629280584132,-0.27358121335178,-0.834509319901729,11,0,-1.72769624391665,-2.01136953035464,-1.85741502443422,-0.666605297719139,-4.7213160435306,-3.24603444734682,-1.72766048112978,-2.01130992570986,-1.85747558275332,-0.666581455861227,-4.7212681213962,-3.24601036707033,0,0,0,0,0,0,0,0,0,0,0,0,-0.286914821023607,-0.782655550814712,0.230663646928533,2.96658629960679,-0.0812102690499988,-0.0348738152905294,-0.286877569433347,-0.782635133426968,0.23068184159275,2.96655816609957,-0.0811858322778527,-0.0348001829427011,0,0,0,0,0,0,0,0,0,0,0,0
2580.16,0.3348,8,0,7,1,1,0.1,0,0,0,0,0,0,0,0,0,0,5.27917250655266,-13.4836070867169,16.0988950593132,3.58916200968447,-0.533476330508928,-0.728244515623338,11,0,-1.72769624391665,-2.01136953035464,-1.85741502443422,-0.666605297719139,-4.7213160435306,-3.24603444734682,-1.72767240205874,-2.01133376756777,-1.85743886629214,-0.666593376790182,-4.72128016153444,-3.24603444734682,0,0,0,0,0,0,0,0,0,0,0,0,-0.286914821023607,-0.782655550814712,0.230663646928533,2.96658629960679,-0.0812102690499988,-0.0348738152905294,-0.2868907988178,-0.782649492076771,0.230681197664979,2.96655938822598,-0.0811694313000412,-0.0348224469966665,0,0,0,0,0,0,0,0,0,0,0,0
2580.168,0.349848,8,0,7,1,1,0.1,0,0,0,0,0,0,0,0,0,0,5.9583498200909,-10.6920540936122,18.2552298040824,3.64056245155032,-0.535885649738137,-0.815700009274113,11,0,-1.72769624391665,-2.01136953035464,-1.85741502443422,-0.666605297719139,-4.7213160435306,-3.24603444734682,-1.72772008577456,-2.0112980047809,-1.85743886629214,-0.666581455861227,-4.7212920824634,-3.24601036707033,0,0,0,0,0,0,0,0,0,0,0,0,-0.286914821023607,-0.782655550814712,0.230663646928533,2.96658629960679,-0.0812102690499988,-0.0348738152905294,-0.286928779317356,-0.782632838953664,0.230711994825809,2.9665106644385,-0.0812763890237524,-0.0348517630550965,0,0,0,0,0,0,0,0,0,0,0,0
2580.176,0.347532,8,0,7,1,1,0.1,0,0,0,0,0,0,0,0,0,0,6.65859805762325,-10.3438054301519,18.9323778770374,3.68551965171092,-0.427162990311043,-0.835923141309663,11,0,-1.72769624391665,-2.01136953035464,-1.85741502443422,-0.666605297719139,-4.7213160435306,-3.24603444734682,-1.72769624391665,-2.01132184663881,-1.85743886629214,-0.666581455861227,-4.72128016153444,-3.24598628679384,0,0,0,0,0,0,0,0,0,0,0,0,-0.286914821023607,-0.782655550814712,0.230663646928533,2.96658629960679,-0.0812102690499988,-0.0348738152905294,-0.286909414633364,-0.782642269740951,0.230692497568324,2.96653253218119,-0.0812757410639256,-0.0348236881603553,0,0,0,0,0,0,0,0,0,0,0,0
2580.184,0.334489,8,0,7,1,1,0.1,0,0,0,0,0,0,0,0,0,0,5.67620414108536,-10.7917196177138,17.7918432238147,3.54153275565352,-0.476597905127218,-0.765515133844584,11,0,-1.72769624391665,-2.01136953035464,-1.85741502443422,-0.666605297719139,-4.7213160435306,-3.24603444734682,-1.72766048112978,-2.01130992570986,-1.85747558275332,-0.666581455861227,-4.72125608125796,-3.24602228799929,0,0,0,0,0,0,0,0,0,0,0,0,-0.286914821023607,-0.782655550814712,0.230663646928533,2.96658629960679,-0.0812102690499988,-0.0348738152905294,-0.286876472280553,-0.782635309395889,0.230681842603595,2.96655744077471,-0.0811665163552543,-0.0347840008458425,0,0,0,0,0,0,0,0,0,0,0,0
2580.192,0.335196,8,0,7,1,1,0.1,0,0,0,0,0,0,0,0,0,0,6.63403258168003,-12.9075881757264,16.7995273944821,3.64400234995964,-0.237455537005652,-0.839241275879404,11,0,-1.72769624391665,-2.01136953035464,-1.85741502443422,-0.666605297719139,-4.7213160435306,-3.24603444734682,-1.72769624391665,-2.0112980047809,-1.8574631849872,-0.666629616414205,-4.7213160435306,-3.24598628679384,0,0,0,0,0,0,0,0,0,0,0,0,-0.286914821023607,-0.782655550814712,0.230663646928533,2.96658629960679,-0.0812102690499988,-0.0348738152905294,-0.286910009797981,-0.782625155155458,0.23069221191135,2.96658482414546,-0.0812811970080338,-0.0348675942327008,0,0,0,0,0,0,0,0,0,0,0,0
2580.2,0.334212,8,0,7,1,1,0.1,0,0,0,0,0,0,0,0,0,0,5.34354677227807,-12.3593427709324,16.6317614430443,3.50761491576393,-0.445147894463377,-0.741429203508704,11,0,-1.72769624391665,-2.01136953035464,-1.85741502443422,-0.666605297719139,-4.7213160435306,-3.24603444734682,-1.72769624391665,-2.0112980047809,-1.85743886629214,-0.666605297719137,-4.7212920824634,-3.24603444734682,0,0,0,0,0,0,0,0,0,0,0,0,-0.286914821023607,-0.782655550814712,0.230663646928533,2.96658629960679,-0.0812102690499988,-0.0348738152905294,-0.286909826624168,-0.782638028465341,0.230708893245473,2.96653629611194,-0.0812056404726422,-0.0348473472814826,0,0,0,0,0,0,0,0,0,0,0,0
2580.208,0.40674,8,0,7,1,1,0.1,0,0,0,0,0,0,0,0,0,0,6.72897176321437,-11.59691276637,17.4270225844884,3.54992679634353,-0.394334482320456,-0.751561188513834,11,0,-1.72769624391665,-2.01136953035464,-1.85741502443422,-0.666605297719139,-4.7213160435306,-3.24603444734682,-1.72769624391665,-2.01133376756777,-1.85742694536318,-0.666581455861227,-4.72130412260164,-3.24598628679384,0,0,0,0,0,0,0,0,0,0,0,0,-0.286914821023607,-0.782655550814712,0.230663646928533,2.96658629960679,-0.0812102690499988,-0.0348738152905294,-0.286912622508537,-0.782648440345312,0.230689371841947,2.96653517307105,-0.0812790526331229,-0.0348588857234578,0,0,0,0,0,0,0,0,0,0,0,0
2580.216,0.343788,8,0,7,1,1,0.1,0,0,0,0,0,0,0,0,0,0,6.36668917557805,-11.1675504296226,17.9606634902651,3.58676013553465,-0.444424519463151,-0.772583242649624,11,0,-1.72769624391665,-2.01136953035464,-1.85741502443422,-0.666605297719139,-4.7213160435306,-3.24603444734682,-1.7277081648456,-2.01132184663881,-1.85743886629214,-0.66661769548525,-4.7212920824634,-3.24603444734682,0,0,0,0,0,0,0,0,0,0,0,0,-0.286914821023607,-0.782655550814712,0.230663646928533,2.96658629960679,-0.0812102690499988,-0.0348738152905294,-0.286919385014889,-0.78263616524565,0.230687782267714,2.96657193332105,-0.0812241311573345,-0.0348422490207582,0,0,0,0,0,0,0,0,0,0,0,0
2580.224,0.351313,8,0,7,1,1,0.1,0,0,0,0,0,0,0,0,0,0,6.25127216486819,-11.0699482488952,18.2305700428661,3.66811963748346,-0.477710579697583,-0.653996156448363,11,0,-1.72769624391665,-2.01136953035464,-1.85741502443422,-0.666605297719139,-4.7213160435306,-3.24603444734682,-1.72767240205874,-2.01133376756777,-1.85745078722109,-0.666593376790182,-4.72130412260164,-3.24601036707033,0,0,0,0,0,0,0,0,0,0,0,0,-0.286914821023607,-0.782655550814712,0.230663646928533,2.96658629960679,-0.0812102690499988,-0.0348738152905294,-0.286892148443247,-0.782643828577615,0.230674570433855,2.96657266203207,-0.0812086637880132,-0.0348525161743037,0,0,0,0,0,0,0,0,0,0,0,0
2580.232,0.3375,8,0,7,1,1,0.1,0,0,0,0,0,0,0,0,0,0,5.9101276014893,-12.3790854697653,16.7597217150082,3.55312792593695,-0.415877055034722,-0.834222964372317,11,0,-1.72769624391665,-2.01136953035464,-1.85741502443422,-0.666605297719139,-4.7213160435306,-3.24603444734682,-1.72769624391665,-2.01132184663881,-1.85740310350527,-0.666593376790182,-4.72130412260164,-3.24596244493593,0,0,0,0,0,0,0,0,0,0,0,0,-0.286914821023607,-0.782655550814712,0.230663646928533,2.96658629960679,-0.0812102690499988,-0.0348738152905294,-0.286913953167938,-0.782657032873563,0.230710821276575,2.96651026075615,-0.0813137323154996,-0.0348599192110515,0,0,0,0,0,0,0,0,0,0,0,0
2580.24,0.335136,8,0,7,1,1,0.1,0,0,0,0,0,0,0,0,0,0,5.62484593814925,-12.2837212977836,16.871627658926,3.48758449556716,-0.53170040303272,-0.725610349757247,11,0,-1.72769624391665,-2.01136953035464,-1.85741502443422,-0.666605297719139,-4.7213160435306,-3.24603444734682,-1.72766048112978,-2.01133376756777,-1.85747558275332,-0.666593376790182,-4.7212681213962,-3.24599844614138,0,0,0,0,0,0,0,0,0,0,0,0,-0.286914821023607,-0.782655550814712,0.230663646928533,2.96658629960679,-0.0812102690499988,-0.0348738152905294,-0.286877803754454,-0.782636722856944,0.230660792991485,2.96659308633224,-0.0812043101762411,-0.0347920913285829,0,0,0,0,0,0,0,0,0,0,0,0
2580.248,0.334524,8,0,7,1,1,0.1,0,0,0,0,0,0,0,0,0,0,6.59089770987778,-12.3536030079732,17.3497979384615,3.62979537303005,-0.356466469534811,-0.789207004952945,11,0,-1.72769624391665,-2.01136953035464,-1.85741502443422,-0.666605297719139,-4.7213160435306,-3.24603444734682,-1.72769624391665,-2.01134568849672,-1.85745078722109,-0.66661769548525,-4.72130412260164,-3.24598628679384,0,0,0,0,0,0,0,0,0,0,0,0,-0.286914821023607,-0.782655550814712,0.230663646928533,2.96658629960679,-0.0812102690499988,-0.0348738152905294,-0.286910699445112,-0.782636511413482,0.230661657866065,2.96660671152588,-0.0812804015522549,-0.0348457871368136,0,0,0,0,0,0,0,0,0,0,0,0
2580.256,0.333264,8,0,7,1,1,0.1,0,0,0,0,0,0,0,0,0,0,6.56404745548786,-12.3708411010063,17.1262347794711,3.65727482275208,-0.373133350500771,-0.844426983525247,11,0,-1.72769624391665,-2.01136953035464,-1.85741502443422,-0.666605297719139,-4.7213160435306,-3.24603444734682,-1.7277081648456,-2.01133376756777,-1.8574631849872,-0.666581455861227,-4.721244160329,-3.24601036707033,0,0,0,0,0,0,0,0,0,0,0,0,-0.286914821023607,-0.782655550814712,0.230663646928533,2.96658629960679,-0.0812102690499988,-0.0348738152905294,-0.286913953033874,-0.782629744469947,0.230669235919682,2.96656542873737,-0.0812536747867598,-0.0347689229168411,0,0,0,0,0,0,0,0,0,0,0,0
2580.264,0.351049,8,0,7,1,1,0.1,0,0,0,0,0,0,0,0,0,0,6.16916533113439,-11.5109794736352,17.7004025576391,3.55199249514888,-0.438282996567359,-0.859016456577856,11,0,-1.72769624391665,-2.01136953035464,-1.85741502443422,-0.666605297719139,-4.7213160435306,-3.24603444734682,-1.72768432298769,-2.01138192812075,-1.85743886629214,-0.666593376790182,-4.72130412260164,-3.24605828920473,0,0,0,0,0,0,0,0,0,0,0,0,-0.286914821023607,-0.782655550814712,0.230663646928533,2.96658629960679,-0.0812102690499988,-0.0348738152905294,-0.286903081599114,-0.782650599793415,0.230641809092301,2.96661072866478,-0.081156293733186,-0.0348536026327103,0,0,0,0,0,0,0,0,0,0,0,0
2580.272,0.344604,8,0,7,1,1,0.1,0,0,0,0,0,0,0,0,0,0,6.58741407500671,-11.3431823817472,17.7661774952641,3.63540075074271,-0.400887440370621,-0.781469810764012,11,0,-1.72769624391665,-2.01136953035464,-1.85741502443422,-0.666605297719139,-4.7213160435306,-3.24603444734682,-1.72767240205874,-2.0112980047809,-1.8574631849872,-0.666605297719137,-4.7212681213962,-3.24602228799929,0,0,0,0,0,0,0,0,0,0,0,0,-0.286914821023607,-0.782655550814712,0.230663646928533,2.96658629960679,-0.0812102690499988,-0.0348738152905294,-0.286887282642724,-0.782634380228956,0.230695379333906,2.96655792661557,-0.0811855809915484,-0.034803156561361,0,0,0,0,0,0,0,0,0,0,0,0
2580.28,0.339288,8,0,7,1,1,0.1,0,0,0,0,0,0,0,0,0,0,6.84707275834689,-10.3007236830258,18.7283410045702,3.60397579476734,-0.379025221453429,-0.89959207131964,11,0,-1.72769624391665,-2.01136953035464,-1.85741502443422,-0.666605297719139,-4.7213160435306,-3.24603444734682,-1.72768432298769,-2.01130992570986,-1.8574631849872,-0.66661769548525,-4.7212920824634,-3.24597436586489,0,0,0,0,0,0,0,0,0,0,0,0,-0.286914821023607,-0.782655550814712,0.230663646928533,2.96658629960679,-0.0812102690499988,-0.0348738152905294,-0.286898833836633,-0.782630959029822,0.230684015628558,2.96658193379352,-0.0812780826452065,-0.0348292977031525,0,0,0,0,0,0,0,0,0,0,0,0
2580.288,0.335748,8,0,7,1,1,0.1,0,0,0,0,0,0,0,0,0,0,5.97651729585038,-12.4886233947385,16.8033668649101,3.64745876586078,-0.441744402663842,-0.77467688165585,11,0,-1.72769624391665,-2.01136953035464,-1.85741502443422,-0.666605297719139,-4.7213160435306,-3.24603444734682,-1.72767240205874,-2.01132184663881,-1.85743886629214,-0.666581455861227,-4.7212681213962,-3.24597436586489,0,0,0,0,0,0,0,0,0,0,0,0,-0.286914821023607,-0.782655550814712,0.230663646928533,2.96658629960679,-0.0812102690499988,-0.0348738152905294,-0.286889657755713,-0.782649285956416,0.230692498566242,2.96653132088254,-0.0812564117190477,-0.0348013381890793,0,0,0,0,0,0,0,0,0,0,0,0
2580.296,0.334716,8,0,7,1,1,0.1,0,0,0,0,0,0,0,0,0,0,6.32379852389067,-10.075356315905,18.9198430382443,3.7131502264527,-0.326153944044682,-0.710502047732756,11,0,-1.72769624391665,-2.01136953035464,-1.85741502443422,-0.666605297719139,-4.7213160435306,-3.24603444734682,-1.72766048112978,-2.01132184663881,-1.85745078722109,-0.666581455861227,-4.7212920824634,-3.24598628679384,0,0,0,0,0,0,0,0,0,0,0,0,-0.286914821023607,-0.782655550814712,0.230663646928533,2.96658629960679,-0.0812102690499988,-0.0348738152905294,-0.286881677537554,-0.782647042509681,0.230685871234667,2.96654678629528,-0.0812245699264125,-0.0348345219083749,0,0,0,0,0,0,0,0,0,0,0,0
2580.304,0.333336,8,0,7,1,1,0.1,0,0,0,0,0,0,0,0,0,0,5.56441255894632,-12.1767574320242,16.8887485288007,3.50557969530137,-0.570365478066987,-0.719352871478003,11,0,-1.72769624391665,-2.01136953035464,-1.85741502443422,-0.666605297719139,-4.7213160435306,-3.24603444734682,-1.7277081648456,-2.01132184663881,-1.85745078722109,-0.666605297719137,-4.72125608125796,-3.24602228799929,0,0,0,0,0,0,0,0,0,0,0,0,-0.286914821023607,-0.782655550814712,0.230663646928533,2.96658629960679,-0.0812102690499988,-0.0348738152905294,-0.286915422933679,-0.782632237075779,0.230682772698134,2.96656686972195,-0.0812373589670934,-0.0347879030904023,0,0,0,0,0,0,0,0,0,0,0,0
2580.312,0.409933,8,0,7,1,1,0.1,0,0,0,0,0,0,0,0,0,0,6.24414779338394,-11.3640891584868,17.4312247255445,3.56447892432951,-0.425373984096328,-0.803882859498691,11,0,-1.72769624391665,-2.01136953035464,-1.85741502443422,-0.666605297719139,-4.7213160435306,-3.24603444734682,-1.72767240205874,-2.01134568849672,-1.85749942461123,-0.666605297719137,-4.72125608125796,-3.24603444734682,0,0,0,0,0,0,0,0,0,0,0,0,-0.286914821023607,-0.782655550814712,0.230663646928533,2.96658629960679,-0.0812102690499988,-0.0348738152905294,-0.286884412441096,-0.782623233287885,0.230636244380347,2.96664060366695,-0.0811679780974829,-0.0347719981728149,0,0,0,0,0,0,0,0,0,0,0,0
2580.32,0.351528,8,0,7,1,1,0.1,0,0,0,0,0,0,0,0,0,0,5.800341953843,-12.7852956486857,16.6554867921376,3.57046690686528,-0.402333258658237,-0.721814297338858,11,0,-1.72769624391665,-2.01136953035464,-1.85741502443422,-0.666605297719139,-4.7213160435306,-3.24603444734682,-1.72767240205874,-2.01132184663881,-1.8574631849872,-0.666593376790182,-4.7212681213962,-3.24602228799929,0,0,0,0,0,0,0,0,0,0,0,0,-0.286914821023607,-0.782655550814712,0.230663646928533,2.96658629960679,-0.0812102690499988,-0.0348738152905294,-0.286887810213263,-0.782637621348289,0.230677432147584,2.96656976982298,-0.081186047515298,-0.0348010523629194,0,0,0,0,0,0,0,0,0,0,0,0
2580.328,0.343092,8,0,7,1,1,0.1,0,0,0,0,0,0,0,0,0,0,5.52840961631467,-14.7006632629073,14.7862747081396,3.47507815623248,-0.498489848950232,-0.702394260150959,11,0,-1.72769624391665,-2.01136953035464,-1.85741502443422,-0.666605297719139,-4.7213160435306,-3.24603444734682,-1.72769624391665,-2.01134568849672,-1.85743886629214,-0.666593376790182,-4.7212920824634,-3.24602228799929,0,0,0,0,0,0,0,0,0,0,0,0,-0.286914821023607,-0.782655550814712,0.230663646928533,2.96658629960679,-0.0812102690499988,-0.0348738152905294,-0.286910735339628,-0.782643685181517,0.23067144754722,2.96657120584652,-0.0812247717317017,-0.0348393426839105,0,0,0,0,0,0,0,0,0,0,0,0
2580.336,0.335052,8,0,7,1,1,0.1,0,0,0,0,0,0,0,0,0,0,7.06839268878057,-10.2241714514983,19.0939070417654,3.69421699887045,-0.421565648052828,-0.837084697559321,11,0,-1.72769624391665,-2.01136953035464,-1.85741502443422,-0.666605297719139,-4.7213160435306,-3.24603444734682,-1.72768432298769,-2.01134568849672,-1.85743886629214,-0.666593376790182,-4.7212681213962,-3.24598628679384,0,0,0,0,0,0,0,0,0,0,0,0,-0.286914821023607,-0.782655550814712,0.230663646928533,2.96658629960679,-0.0812102690499988,-0.0348738152905294,-0.28689922204621,-0.782647455622961,0.230671449520097,2.96656709005287,-0.0812572181929155,-0.0347978723371398,0,0,0,0,0,0,0,0,0,0,0,0
2580.344,0.334428,8,0,7,1,1,0.1,0,0,0,0,0,0,0,0,0,0,6.50606874544967,-11.023286913634,18.1071162772339,3.65978819629561,-0.398492604145286,-0.840252217392696,11,0,-1.72769624391665,-2.01136953035464,-1.85741502443422,-0.666605297719139,-4.7213160435306,-3.24603444734682,-1.7277081648456,-2.01132184663881,-1.85745078722109,-0.666581455861227,-4.7212920824634,-3.24601036707033,0,0,0,0,0,0,0,0,0,0,0,0,-0.286914821023607,-0.782655550814712,0.230663646928533,2.96658629960679,-0.0812102690499988,-0.0348738152905294,-0.286918996730558,-0.782633362035534,0.230685871234667,2.96654656073357,-0.0812596003590499,-0.0348438043186649,0,0,0,0,0,0,0,0,0,0,0,0
2580.352,0.334333,8,0,7,1,1,0.1,0,0,0,0,0,0,0,0,0,0,5.46093668000331,-12.9384484495881,16.5399797199286,3.57852994337351,-0.533256559667214,-0.78549531516151,11,0,-1.72769624391665,-2.01136953035464,-1.85741502443422,-0.666605297719139,-4.7213160435306,-3.24603444734682,-1.72769624391665,-2.01136953035464,-1.85747558275332,-0.666581455861227,-4.7212681213962,-3.24604636827578,0,0,0,0,0,0,0,0,0,0,0,0,-0.286914821023607,-0.782655550814712,0.230663646928533,2.96658629960679,-0.0812102690499988,-0.0348738152905294,-0.286906510799995,-0.782630910309879,0.230633096816278,2.96661811939858,-0.0811870805144548,-0.0347986441679768,0,0,0,0,0,0,0,0,0,0,0,0
2580.36,0.33366,8,0,7,1,1,0.1,0,0,0,0,0,0,0,0,0,0,6.28688277575406,-11.4906486321887,18.272171402557,3.74835684869958,-0.376949504739461,-0.731419999805293,11,0,-1.72769624391665,-2.01136953035464,-1.85741502443422,-0.666605297719139,-4.7213160435306,-3.24603444734682,-1.72769624391665,-2.01132184663881,-1.85745078722109,-0.666593376790182,-4.7212920824634,-3.24603444734682,0,0,0,0,0,0,0,0,0,0,0,0,-0.286914821023607,-0.782655550814712,0.230663646928533,2.96658629960679,-0.0812102690499988,-0.0348738152905294,-0.286909520390982,-0.782635956684701,0.230684320469483,2.96655998853556,-0.0812063702046437,-0.0348431537305831,0,0,0,0,0,0,0,0,0,0,0,0
2580.368,0.350856,8,0,7,1,1,0.1,0,0,0,0,0,0,0,0,0,0,6.17620416079722,-11.6540793405988,17.5054856085417,3.60903624029385,-0.338630027888529,-0.762817583919349,11,0,-1.72769624391665,-2.01136953035464,-1.85741502443422,-0.666605297719139,-4.7213160435306,-3.24603444734682,-1.72768432298769,-2.01135760942568,-1.85747558275332,-0.666581455861227,-4.7212681213962,-3.24602228799929,0,0,0,0,0,0,0,0,0,0,0,0,-0.286914821023607,-0.782655550814712,0.230663646928533,2.96658629960679,-0.0812102690499988,-0.0348738152905294,-0.286896990675513,-0.782633123288757,0.230642845800713,2.96660541612077,-0.0812047900879979,-0.0347961531740183,0,0,0,0,0,0,0,0,0,0,0,0
2580.376,0.347496,8,0,7,1,1,0.1,0,0,0,0,0,0,0,0,0,0,6.18357020993751,-13.1995384440775,16.4105737394295,3.63667418385406,-0.306538694951364,-0.85555555829532,11,0,-1.72769624391665,-2.01136953035464,-1.85741502443422,-0.666605297719139,-4.7213160435306,-3.24603444734682,-1.72768432298769,-2.01132184663881,-1.85745078722109,-0.666605297719137,-4.7212681213962,-3.24601036707033,0,0,0,0,0,0,0,0,0,0,0,0,-0.286914821023607,-0.782655550814712,0.230663646928533,2.96658629960679,-0.0812102690499988,-0.0348738152905294,-0.28689786059416,-0.782638901455153,0.230682771687123,2.96656831993321,-0.0812213039789854,-0.0348010017968571,0,0,0,0,0,0,0,0,0,0,0,0
2580.384,0.335376,8,0,7,1,1,0.1,0,0,0,0,0,0,0,0,0,0,5.56157277786935,-12.8563379746552,16.5576473434522,3.61290566081583,-0.468515792776128,-0.769078269922015,11,0,-1.72769624391665,-2.01136953035464,-1.85741502443422,-0.666605297719139,-4.7213160435306,-3.24603444734682,-1.72763616243471,-2.01132184663881,-1.85741502443422,-0.666605297719137,-4.7212920824634,-3.24602228799929,0,0,0,0,0,0,0,0,0,0,0,0,-0.286914821023607,-0.782655550814712,0.230663646928533,2.96658629960679,-0.0812102690499988,-0.0348738152905294,-0.286864852181427,-0.782668307033283,0.230702645922451,2.96653748897603,-0.0811346446883787,-0.0348378533503501,0,0,0,0,0,0,0,0,0,0,0,0
2580.392,0.333744,8,0,7,1,1,0.1,0,0,0,0,0,0,0,0,0,0,6.04620154261063,-12.0944672388455,17.3704859584665,3.60461519518367,-0.276032607867655,-0.716134558862258,11,0,-1.72769624391665,-2.01136953035464,-1.85741502443422,-0.666605297719139,-4.7213160435306,-3.24603444734682,-1.72767240205874,-2.01132184663881,-1.85743886629214,-0.666605297719137,-4.72128016153444,-3.24601036707033,0,0,0,0,0,0,0,0,0,0,0,0,-0.286914821023607,-0.782655550814712,0.230663646928533,2.96658629960679,-0.0812102690499988,-0.0348738152905294,-0.286890461743121,-0.782647458710702,0.230689396027976,2.96655816385704,-0.0812049921913977,-0.0348192729748018,0,0,0,0,0,0,0,0,0,0,0,0
2580.4,0.333912,8,0,7,1,1,0.1,0,0,0,0,0,0,0,0,0,0,5.90636116909536,-12.3727488356317,16.6954450919974,3.56799265456766,-0.447221339352121,-0.829141505529365,11,0,-1.72769624391665,-2.01136953035464,-1.85741502443422,-0.666605297719139,-4.7213160435306,-3.24603444734682,-1.72767240205874,-2.01132184663881,-1.85743886629214,-0.666593376790182,-4.72130412260164,-3.24601036707033,0,0,0,0,0,0,0,0,0,0,0,0,-0.286914821023607,-0.782655550814712,0.230663646928533,2.96658629960679,-0.0812102690499988,-0.0348738152905294,-0.286892791762728,-0.782647934117366,0.230690944846369,2.96654897048221,-0.081208084409948,-0.0348567683207002,0,0,0,0,0,0,0,0,0,0,0,0
2580.408,0.409692,8,0,7,1,1,0.1,0,0,0,0,0,0,0,0,0,0,5.91430218173761,-12.6107814752299,16.9616415474211,3.63427471487392,-0.352682051671747,-0.761184008283099,11,0,-1.72769624391665,-2.01136953035464,-1.85741502443422,-0.666605297719139,-4.7213160435306,-3.24603444734682,-1.72769624391665,-2.01134568849672,-1.8574631849872,-0.666581455861227,-4.7212920824634,-3.24598628679384,0,0,0,0,0,0,0,0,0,0,0,0,-0.286914821023607,-0.782655550814712,0.230663646928533,2.96658629960679,-0.0812102690499988,-0.0348738152905294,-0.286909180679635,-0.782633671609108,0.230659482900475,2.96658170654092,-0.0812785331286004,-0.0348326483881776,0,0,0,0,0,0,0,0,0,0,0,0
2580.416,0.341436,8,0,7,1,1,0.1,0,0,0,0,0,0,0,0,0,0,6.01435149408073,-12.7536970504792,16.847169643143,3.57914040043413,-0.475737978040216,-0.738042393395465,11,0,-1.72769624391665,-2.01136953035464,-1.85741502443422,-0.666605297719139,-4.7213160435306,-3.24603444734682,-1.7277081648456,-2.01130992570986,-1.85743886629214,-0.666569534932272,-4.7212681213962,-3.24598628679384,0,0,0,0,0,0,0,0,0,0,0,0,-0.286914821023607,-0.782655550814712,0.230663646928533,2.96658629960679,-0.0812102690499988,-0.0348738152905294,-0.286917603339645,-0.782638643209559,0.230703798485016,2.96650715518855,-0.0812913054224901,-0.0348118931890754,0,0,0,0,0,0,0,0,0,0,0,0
2580.424,0.350328,8,0,7,1,1,0.1,0,0,0,0,0,0,0,0,0,0,5.35783885043747,-12.822925172752,16.4960499410281,3.49495399399777,-0.434972369093715,-0.742821347552233,11,0,-1.72769624391665,-2.01136953035464,-1.85741502443422,-0.666605297719139,-4.7213160435306,-3.24603444734682,-1.72767240205874,-2.01133376756777,-1.85745078722109,-0.666605297719137,-4.7212920824634,-3.24599844614138,0,0,0,0,0,0,0,0,0,0,0,0,-0.286914821023607,-0.782655550814712,0.230663646928533,2.96658629960679,-0.0812102690499988,-0.0348738152905294,-0.286890904705094,-0.782643178890322,0.230673020660258,2.96658256696184,-0.0812248716451674,-0.0348310275056452,0,0,0,0,0,0,0,0,0,0,0,0
2580.432,0.336612,8,0,7,1,1,0.1,0,0,0,0,0,0,0,0,0,0,6.46069081910814,-10.9758922148011,18.0772743707908,3.56323575407402,-0.421370694698556,-0.86226482754069,11,0,-1.72769624391665,-2.01136953035464,-1.85741502443422,-0.666605297719139,-4.7213160435306,-3.24603444734682,-1.72766048112978,-2.01133376756777,-1.85741502443422,-0.666557614003317,-4.7212920824634,-3.24598628679384,0,0,0,0,0,0,0,0,0,0,0,0,-0.286914821023607,-0.782655550814712,0.230663646928533,2.96658629960679,-0.0812102690499988,-0.0348738152905294,-0.286884662331983,-0.782665840872237,0.230699099836742,2.96649939813013,-0.0812237636871065,-0.0348430694743369,0,0,0,0,0,0,0,0,0,0,0,0
2580.44,0.333469,8,0,7,1,1,0.1,0,0,0,0,0,0,0,0,0,0,5.79134068996208,-11.6100083250309,17.759217720044,3.65829901209822,-0.424250866043068,-0.662943180291152,11,0,-1.72769624391665,-2.01136953035464,-1.85741502443422,-0.666605297719139,-4.7213160435306,-3.24603444734682,-1.72768432298769,-2.0112980047809,-1.85742694536318,-0.66661769548525,-4.7212681213962,-3.24598628679384,0,0,0,0,0,0,0,0,0,0,0,0,-0.286914821023607,-0.782655550814712,0.230663646928533,2.96658629960679,-0.0812102690499988,-0.0348738152905294,-0.286898994776137,-0.782646253231896,0.230713907933353,2.96653202807999,-0.0812560274760671,-0.0348040802446095,0,0,0,0,0,0,0,0,0,0,0,0
2580.448,0.333492,8,0,7,1,1,0.1,0,0,0,0,0,0,0,0,0,0,6.83425971465402,-10.8752450713715,18.618153692848,3.72678342267821,-0.485759215680359,-0.769241395358268,11,0,-1.72769624391665,-2.01136953035464,-1.85741502443422,-0.666605297719139,-4.7213160435306,-3.24603444734682,-1.72769624391665,-2.01130992570986,-1.85747558275332,-0.666605297719137,-4.7212681213962,-3.24597436586489,0,0,0,0,0,0,0,0,0,0,0,0,-0.286914821023607,-0.782655550814712,0.230663646928533,2.96658629960679,-0.0812102690499988,-0.0348738152905294,-0.286905265249689,-0.782623222054525,0.230678740093985,2.96657893125315,-0.081292611467891,-0.0347957060745144,0,0,0,0,0,0,0,0,0,0,0,0
2580.456,0.334428,8,0,7,1,1,0.1,0,0,0,0,0,0,0,0,0,0,6.67464533488962,-11.0977684836276,17.9318606889812,3.60656795837576,-0.243876593400921,-0.779443087587466,11,0,-1.72769624391665,-2.01136953035464,-1.85741502443422,-0.666605297719139,-4.7213160435306,-3.24603444734682,-1.72768432298769,-2.01130992570986,-1.8574631849872,-0.666629616414205,-4.72130412260164,-3.24601036707033,0,0,0,0,0,0,0,0,0,0,0,0,-0.286914821023607,-0.782655550814712,0.230663646928533,2.96658629960679,-0.0812102690499988,-0.0348738152905294,-0.286899784382909,-0.782629957333952,0.230682463922577,2.96659693607439,-0.0812264954968238,-0.0348494544894647,0,0,0,0,0,0,0,0,0,0,0,0
2580.464,0.350436,8,0,7,1,1,0.1,0,0,0,0,0,0,0,0,0,0,5.74492394952559,-13.2741160170103,16.4884082748904,3.51149707267751,-0.496812278625175,-0.818726549173328,11,0,-1.72769624391665,-2.01136953035464,-1.85741502443422,-0.666605297719139,-4.7213160435306,-3.24603444734682,-1.72766048112978,-2.01134568849672,-1.85742694536318,-0.666581455861227,-4.7212681213962,-3.24599844614138,0,0,0,0,0,0,0,0,0,0,0,0,-0.286914821023607,-0.782655550814712,0.230663646928533,2.96658629960679,-0.0812102690499988,-0.0348738152905294,-0.286881542516902,-0.782660434528559,0.230679625569929,2.96654474249976,-0.0812033850966561,-0.0348006730917306,0,0,0,0,0,0,0,0,0,0,0,0
2580.472,0.349044,8,0,7,1,1,0.1,0,0,0,0,0,0,0,0,0,0,5.78586858405615,-13.5651731613261,15.5599593559182,3.45400420018954,-0.398988389186724,-0.863059499958305,11,0,-1.72769624391665,-2.01136953035464,-1.85741502443422,-0.666605297719139,-4.7213160435306,-3.24603444734682,-1.72768432298769,-2.01132184663881,-1.8574631849872,-0.666605297719137,-4.7212920824634,-3.24601036707033,0,0,0,0,0,0,0,0,0,0,0,0,-0.286914821023607,-0.782655550814712,0.230663646928533,2.96658629960679,-0.0812102690499988,-0.0348738152905294,-0.286899176795266,-0.782633025393831,0.230675879430155,2.96658329143103,-0.0812248359482014,-0.0348341018329017,0,0,0,0,0,0,0,0,0,0,0,0
2580.48,0.340177,8,0,7,1,1,0.1,0,0,0,0,0,0,0,0,0,0,6.57064083586706,-9.98044076449045,19.2415227171381,3.76854256610424,-0.372956680556231,-0.876606264464394,11,0,-1.72769624391665,-2.01136953035464,-1.85741502443422,-0.666605297719139,-4.7213160435306,-3.24603444734682,-1.72767240205874,-2.01134568849672,-1.85743886629214,-0.666581455861227,-4.72130412260164,-3.24597436586489,0,0,0,0,0,0,0,0,0,0,0,0,-0.286914821023607,-0.782655550814712,0.230663646928533,2.96658629960679,-0.0812102690499988,-0.0348738152905294,-0.286893319313935,-0.782651175112933,0.230672997330757,2.96655898348248,-0.0812619404962189,-0.0348500081570016,0,0,0,0,0,0,0,0,0,0,0,0
2580.488,0.334248,8,0,7,1,1,0.1,0,0,0,0,0,0,0,0,0,0,6.83116937895533,-11.1236912976858,17.992525338529,3.71523557991825,-0.332592731680474,-0.766976917607499,11,0,-1.72769624391665,-2.01136953035464,-1.85741502443422,-0.666605297719139,-4.7213160435306,-3.24603444734682,-1.72769624391665,-2.01130992570986,-1.85743886629214,-0.666581455861227,-4.72128016153444,-3.24601036707033,0,0,0,0,0,0,0,0,0,0,0,0,-0.286914821023607,-0.782655550814712,0.230663646928533,2.96658629960679,-0.0812102690499988,-0.0348738152905294,-0.286909224091724,-0.782641061886157,0.230702246691915,2.96652191421379,-0.0812397138494433,-0.0348289667605017,0,0,0,0,0,0,0,0,0,0,0,0
2580.496,0.33366,8,0,7,1,1,0.1,0,0,0,0,0,0,0,0,0,0,6.21975708954045,-12.5478965650884,17.0606820750039,3.57637726388434,-0.388879230216753,-0.839499710788653,11,0,-1.72769624391665,-2.01136953035464,-1.85741502443422,-0.666605297719139,-4.7213160435306,-3.24603444734682,-1.72768432298769,-2.0112980047809,-1.85745078722109,-0.666605297719137,-4.72128016153444,-3.24598628679384,0,0,0,0,0,0,0,0,0,0,0,0,-0.286914821023607,-0.782655550814712,0.230663646928533,2.96658629960679,-0.0812102690499988,-0.0348738152905294,-0.286898576706003,-0.782636309858035,0.230702268753685,2.96654474214352,-0.0812580191574905,-0.0348199383365506,0,0,0,0,0,0,0,0,0,0,0,0
2580.504,0.338448,8,0,7,1,1,0.1,0,0,0,0,0,0,0,0,0,0,6.03371191001075,-13.1936507254342,16.3916300365947,3.68730152478073,-0.336859947353428,-0.736722458080896,11,0,-1.72769624391665,-2.01136953035464,-1.85741502443422,-0.666605297719139,-4.7213160435306,-3.24603444734682,-1.72769624391665,-2.01135760942568,-1.8574631849872,-0.666581455861227,-4.72130412260164,-3.24601036707033,0,0,0,0,0,0,0,0,0,0,0,0,-0.286914821023607,-0.782655550814712,0.230663646928533,2.96658629960679,-0.0812102690499988,-0.0348738152905294,-0.286910468287039,-0.782634702945193,0.230649732892542,2.96659610387865,-0.0812447751059484,-0.0348513229491554,0,0,0,0,0,0,0,0,0,0,0,0
2580.512,0.407388,8,0,7,1,1,0.1,0,0,0,0,0,0,0,0,0,0,5.64020835541547,-13.8508617588761,15.2194732595013,3.44133361633806,-0.328752836438265,-0.759984671921003,11,0,-1.72769624391665,-2.01136953035464,-1.85741502443422,-0.666605297719139,-4.7213160435306,-3.24603444734682,-1.72769624391665,-2.0112980047809,-1.85742694536318,-0.666593376790182,-4.7213160435306,-3.24603444734682,0,0,0,0,0,0,0,0,0,0,0,0,-0.286914821023607,-0.782655550814712,0.230663646928533,2.96658629960679,-0.0812102690499988,-0.0348738152905294,-0.286912990537726,-0.78264381670927,0.230717067650454,2.96651525374441,-0.0812084700656089,-0.0348869316163186,0,0,0,0,0,0,0,0,0,0,0,0
2580.52,0.350952,8,0,7,1,1,0.1,0,0,0,0,0,0,0,0,0,0,6.39720437959922,-12.302922228464,16.8255785554366,3.55278992010795,-0.401233924811615,-0.83679921003989,11,0,-1.72769624391665,-2.01136953035464,-1.85741502443422,-0.666605297719139,-4.7213160435306,-3.24603444734682,-1.72768432298769,-2.0112980047809,-1.8574631849872,-0.666593376790182,-4.7213160435306,-3.24601036707033,0,0,0,0,0,0,0,0,0,0,0,0,-0.286914821023607,-0.782655550814712,0.230663646928533,2.96658629960679,-0.0812102690499988,-0.0348738152905294,-0.286901125808972,-0.78263108533136,0.230696926205339,2.96655041339729,-0.0812272955841405,-0.0348759243652909,0,0,0,0,0,0,0,0,0,0,0,0
2580.528,0.343249,8,0,7,1,1,0.1,0,0,0,0,0,0,0,0,0,0,6.49640828805633,-11.7032749428436,17.505241162142,3.60301534667577,-0.375262830062965,-0.813864796032125,11,0,-1.72769624391665,-2.01136953035464,-1.85741502443422,-0.666605297719139,-4.7213160435306,-3.24603444734682,-1.72769624391665,-2.01133376756777,-1.85743886629214,-0.666593376790182,-4.72128016153444,-3.24599844614138,0,0,0,0,0,0,0,0,0,0,0,0,-0.286914821023607,-0.782655550814712,0.230663646928533,2.96658629960679,-0.0812102690499988,-0.0348738152905294,-0.286909458554244,-0.782642651844669,0.230681197664979,2.96655683401034,-0.0812581918630994,-0.0348208743204295,0,0,0,0,0,0,0,0,0,0,0,0
2580.536,0.335292,8,0,7,1,1,0.1,0,0,0,0,0,0,0,0,0,0,7.39302539834084,-11.2460294267435,18.1675508806865,3.72804477605301,-0.229729596706204,-0.814198035619155,11,0,-1.72769624391665,-2.01136953035464,-1.85741502443422,-0.666605297719139,-4.7213160435306,-3.24603444734682,-1.72772008577456,-2.01132184663881,-1.85745078722109,-0.666581455861227,-4.72130412260164,-3.24603444734682,0,0,0,0,0,0,0,0,0,0,0,0,-0.286914821023607,-0.782655550814712,0.230663646928533,2.96658629960679,-0.0812102690499988,-0.0348738152905294,-0.286929423568091,-0.782629765597613,0.230685870263046,2.96654875348244,-0.0812432121303458,-0.0348661847695501,0,0,0,0,0,0,0,0,0,0,0,0
2580.544,0.33438,8,0,7,1,1,0.1,0,0,0,0,0,0,0,0,0,0,6.75613033028232,-10.8505725758333,18.1582756819369,3.65474638233971,-0.377305219595309,-0.843653903692823,11,0,-1.72769624391665,-2.01136953035464,-1.85741502443422,-0.666605297719139,-4.7213160435306,-3.24603444734682,-1.72768432298769,-2.01132184663881,-1.85743886629214,-0.66661769548525,-4.72125608125796,-3.24604636827578,0,0,0,0,0,0,0,0,0,0,0,0,-0.286914821023607,-0.782655550814712,0.230663646928533,2.96658629960679,-0.0812102690499988,-0.0348738152905294,-0.286897444851121,-0.782643531963367,0.230687785251835,2.96656928358522,-0.0811661862966793,-0.0347877108541792,0,0,0,0,0,0,0,0,0,0,0,0
2580.552,0.340296,8,0,7,1,1,0.1,0,0,0,0,0,0,0,0,0,0,6.64545472491938,-11.6705147833734,17.5538493648742,3.57071553375833,-0.409093665015835,-0.778206706371562,11,0,-1.72769624391665,-2.01136953035464,-1.85741502443422,-0.666605297719139,-4.7213160435306,-3.24603444734682,-1.72766048112978,-2.0112980047809,-1.85745078722109,-0.666557614003317,-4.7212681213962,-3.24603444734682,0,0,0,0,0,0,0,0,0,0,0,0,-0.286914821023607,-0.782655550814712,0.230663646928533,2.96658629960679,-0.0812102690499988,-0.0348738152905294,-0.286879406231453,-0.782646628185749,0.230708472912215,2.96649921794033,-0.0811489251306211,-0.0348142526272369,0,0,0,0,0,0,0,0,0,0,0,0
2580.56,0.334428,8,0,7,1,1,0.1,0,0,0,0,0,0,0,0,0,0,5.6063151742843,-12.8240534803642,16.256255076658,3.52598177520529,-0.383783100336841,-0.723896797743121,11,0,-1.72769624391665,-2.01136953035464,-1.85741502443422,-0.666605297719139,-4.7213160435306,-3.24603444734682,-1.72768432298769,-2.01133376756777,-1.85743886629214,-0.666569534932272,-4.7212920824634,-3.24601036707033,0,0,0,0,0,0,0,0,0,0,0,0,-0.286914821023607,-0.782655550814712,0.230663646928533,2.96658629960679,-0.0812102690499988,-0.0348738152905294,-0.286901508174076,-0.782647549016781,0.230684298230299,2.96653543732124,-0.0812241164378492,-0.0348428688783443,0,0,0,0,0,0,0,0,0,0,0,0
2580.568,0.351097,8,0,7,1,1,0.1,0,0,0,0,0,0,0,0,0,0,6.15135202041545,-11.1840548300004,17.8475095999615,3.63867090092343,-0.409826182827004,-0.751368715920799,11,0,-1.72769624391665,-2.01136953035464,-1.85741502443422,-0.666605297719139,-4.7213160435306,-3.24603444734682,-1.72769624391665,-2.01134568849672,-1.85742694536318,-0.666605297719137,-4.72130412260164,-3.24602228799929,0,0,0,0,0,0,0,0,0,0,0,0,-0.286914821023607,-0.782655550814712,0.230663646928533,2.96658629960679,-0.0812102690499988,-0.0348738152905294,-0.286912519817984,-0.782647996758123,0.230676521104768,2.9665725286656,-0.0812263115962688,-0.0348569325707943,0,0,0,0,0,0,0,0,0,0,0,0
2580.576,0.3474,8,0,7,1,1,0.1,0,0,0,0,0,0,0,0,0,0,6.55217375488795,-11.6256764558344,17.650073140267,3.59383901348396,-0.331067709758901,-0.763795531577843,11,0,-1.72769624391665,-2.01136953035464,-1.85741502443422,-0.666605297719139,-4.7213160435306,-3.24603444734682,-1.72767240205874,-2.01134568849672,-1.85743886629214,-0.666605297719137,-4.7212920824634,-3.24598628679384,0,0,0,0,0,0,0,0,0,0,0,0,-0.286914821023607,-0.782655550814712,0.230663646928533,2.96658629960679,-0.0812102690499988,-0.0348738152905294,-0.286891928989907,-0.782649699767858,0.230669896802027,2.9665819419379,-0.0812429569991334,-0.0348293804166806,0,0,0,0,0,0,0,0,0,0,0,0
2580.584,0.33546,8,0,7,1,1,0.1,0,0,0,0,0,0,0,0,0,0,6.16550803755739,-12.3013269481114,17.0009062229929,3.56588172241306,-0.299675864269649,-0.797279676025327,11,0,-1.72769624391665,-2.01136953035464,-1.85741502443422,-0.666605297719139,-4.7213160435306,-3.24603444734682,-1.72763616243471,-2.01134568849672,-1.85745078722109,-0.666605297719137,-4.72130412260164,-3.24598628679384,0,0,0,0,0,0,0,0,0,0,0,0,-0.286914821023607,-0.782655550814712,0.230663646928533,2.96658629960679,-0.0812102690499988,-0.0348738152905294,-0.286863829392837,-0.782654606767956,0.230663270620075,2.96659622293838,-0.0811910931016039,-0.0348403297313046,0,0,0,0,0,0,0,0,0,0,0,0
2580.592,0.333852,8,0,7,1,1,0.1,0,0,0,0,0,0,0,0,0,0,6.6790426103119,-12.0623303440318,17.2118828936188,3.61868557024748,-0.360911437361694,-0.845605076506013,11,0,-1.72769624391665,-2.01136953035464,-1.85741502443422,-0.666605297719139,-4.7213160435306,-3.24603444734682,-1.72764856020083,-2.01134568849672,-1.85743886629214,-0.666593376790182,-4.7212920824634,-3.24603444734682,0,0,0,0,0,0,0,0,0,0,0,0,-0.286914821023607,-0.782655550814712,0.230663646928533,2.96658629960679,-0.0812102690499988,-0.0348738152905294,-0.286873415654392,-0.782657365261719,0.23067144754722,2.96657327194243,-0.0811359974144554,-0.0348347483334228,0,0,0,0,0,0,0,0,0,0,0,0
2580.6,0.337716,8,0,7,1,1,0.1,0,0,0,0,0,0,0,0,0,0,5.93636091946817,-11.6036315351359,17.6479110809717,3.61392087058301,-0.601050849006537,-0.774755588320504,11,0,-1.72769624391665,-2.01136953035464,-1.85741502443422,-0.666605297719139,-4.7213160435306,-3.24603444734682,-1.7277081648456,-2.01132184663881,-1.85745078722109,-0.666605297719137,-4.7212920824634,-3.24599844614138,0,0,0,0,0,0,0,0,0,0,0,0,-0.286914821023607,-0.782655550814712,0.230663646928533,2.96658629960679,-0.0812102690499988,-0.0348738152905294,-0.286918703503063,-0.782631710748365,0.230682769714294,2.96656963715305,-0.0812776117496917,-0.0348378160745888,0,0,0,0,0,0,0,0,0,0,0,0
2580.608,0.403308,8,0,7,1,1,0.1,0,0,0,0,0,0,0,0,0,0,6.750345578613,-11.7926876342697,17.1198781633267,3.48384765749963,-0.454498537046552,-0.681492067314655,11,0,-1.72769624391665,-2.01136953035464,-1.85741502443422,-0.666605297719139,-4.7213160435306,-3.24603444734682,-1.72766048112978,-2.01133376756777,-1.85745078722109,-0.666593376790182,-4.72128016153444,-3.24599844614138,0,0,0,0,0,0,0,0,0,0,0,0,-0.286914821023607,-0.782655550814712,0.230663646928533,2.96658629960679,-0.0812102690499988,-0.0348738152905294,-0.28688063514048,-0.782647598749992,0.230674572380405,2.96656977058891,-0.0812053991217453,-0.0348141600858189,0,0,0,0,0,0,0,0,0,0,0,0
2580.616,0.402589,8,0,7,1,1,0.1,0,0,0,0,0,0,0,0,0,0,7.166965782347,-10.5303866381644,18.5005808035482,3.62991995592501,-0.283421117388568,-0.859440301576817,11,0,-1.72769624391665,-2.01136953035464,-1.85741502443422,-0.666605297719139,-4.7213160435306,-3.24603444734682,-1.72767240205874,-2.01132184663881,-1.85742694536318,-0.666629616414205,-4.72128016153444,-3.24604636827578,0,0,0,0,0,0,0,0,0,0,0,0,-0.286914821023607,-0.782655550814712,0.230663646928533,2.96658629960679,-0.0812102690499988,-0.0348738152905294,-0.286890996500784,-0.782651087514417,0.230692857880426,2.96657229981712,-0.0811516777517976,-0.0348214829313837,0,0,0,0,0,0,0,0,0,0,0,0
2580.624,0.35226,8,0,7,1,1,0.1,0,0,0,0,0,0,0,0,0,0,6.33632618701373,-10.3353802576174,17.6092402252971,3.46481294865681,-0.372355045517357,-0.723991666074845,11,0,-1.72769624391665,-2.01136953035464,-1.85741502443422,-0.666605297719139,-4.7213160435306,-3.24603444734682,-1.72772008577456,-2.01134568849672,-1.85743886629214,-0.666605297719137,-4.721244160329,-3.24602228799929,0,0,0,0,0,0,0,0,0,0,0,0,-0.286914821023607,-0.782655550814712,0.230663646928533,2.96658629960679,-0.0812102690499988,-0.0348738152905294,-0.286924881466639,-0.782636719460546,0.230669900799963,2.96657702427721,-0.081253793233753,-0.0347696575245713,0,0,0,0,0,0,0,0,0,0,0,0
2580.632,0.336924,8,0,7,1,1,0.1,0,0,0,0,0,0,0,0,0,0,6.4216188382721,-12.2192062920129,16.69911911144,3.52617316764521,-0.424500572542365,-0.831877170854016,11,0,-1.72769624391665,-2.01136953035464,-1.85741502443422,-0.666605297719139,-4.7213160435306,-3.24603444734682,-1.72768432298769,-2.01132184663881,-1.8574631849872,-0.666605297719137,-4.7212920824634,-3.24602228799929,0,0,0,0,0,0,0,0,0,0,0,0,-0.286914821023607,-0.782655550814712,0.230663646928533,2.96658629960679,-0.0812102690499988,-0.0348738152905294,-0.286899176795266,-0.782633025393831,0.230675879430155,2.96658389730296,-0.0812071570662201,-0.034835643457851,0,0,0,0,0,0,0,0,0,0,0,0
2580.64,0.334128,8,0,7,1,1,0.1,0,0,0,0,0,0,0,0,0,0,6.37523144154923,-11.9226628513845,17.5649748672319,3.61122717042341,-0.480329620084744,-0.853248564851381,11,0,-1.72769624391665,-2.01136953035464,-1.85741502443422,-0.666605297719139,-4.7213160435306,-3.24603444734682,-1.7277081648456,-2.01132184663881,-1.8574631849872,-0.666581455861227,-4.7212681213962,-3.24599844614138,0,0,0,0,0,0,0,0,0,0,0,0,-0.286914821023607,-0.782655550814712,0.230663646928533,2.96658629960679,-0.0812102690499988,-0.0348738152905294,-0.286915945947489,-0.782628186593857,0.230678982902363,2.96655562935969,-0.0812742949134254,-0.0348048174181069,0,0,0,0,0,0,0,0,0,0,0,0
2580.648,0.334488,8,0,7,1,1,0.1,0,0,0,0,0,0,0,0,0,0,4.73545546955319,-13.59502434915,15.5262510920009,3.39492229885331,-0.469357793936629,-0.762638397889626,11,0,-1.72769624391665,-2.01136953035464,-1.85741502443422,-0.666605297719139,-4.7213160435306,-3.24603444734682,-1.7277081648456,-2.01132184663881,-1.8574631849872,-0.666605297719137,-4.72125608125796,-3.24607021013369,0,0,0,0,0,0,0,0,0,0,0,0,-0.286914821023607,-0.782655550814712,0.230663646928533,2.96658629960679,-0.0812102690499988,-0.0348738152905294,-0.286914555569715,-0.782626711289329,0.23067588241372,2.96658162746618,-0.0811665642484668,-0.0347919275045065,0,0,0,0,0,0,0,0,0,0,0,0
2580.656,0.333721,8,0,7,1,1,0.1,0,0,0,0,0,0,0,0,0,0,6.69954318292185,-10.189648645524,18.3290913481844,3.57078619927938,-0.392132977889865,-0.752442388317164,11,0,-1.72769624391665,-2.01136953035464,-1.85741502443422,-0.666605297719139,-4.7213160435306,-3.24603444734682,-1.7277081648456,-2.01134568849672,-1.8574631849872,-0.666593376790182,-4.72128016153444,-3.24601036707033,0,0,0,0,0,0,0,0,0,0,0,0,-0.286914821023607,-0.782655550814712,0.230663646928533,2.96658629960679,-0.0812102690499988,-0.0348738152905294,-0.286917277477781,-0.782629599922567,0.230657933140507,2.96659309208395,-0.0812590529260377,-0.0348175321362562,0,0,0,0,0,0,0,0,0,0,0,0
2580.664,0.352668,8,0,7,1,1,0.1,0,0,0,0,0,0,0,0,0,0,6.14547368458496,-12.6689948865911,16.4668813062466,3.50110869191749,-0.423756689487184,-0.744751670975588,11,0,-1.72769624391665,-2.01136953035464,-1.85741502443422,-0.666605297719139,-4.7213160435306,-3.24603444734682,-1.72767240205874,-2.01133376756777,-1.85743886629214,-0.666581455861227,-4.72123212019076,-3.24601036707033,0,0,0,0,0,0,0,0,0,0,0,0,-0.286914821023607,-0.782655550814712,0.230663646928533,2.96658629960679,-0.0812102690499988,-0.0348738152905294,-0.28688656766016,-0.782651019897928,0.230682752490394,2.96654101323205,-0.0811984431310933,-0.0347508355511034,0,0,0,0,0,0,0,0,0,0,0,0
2580.672,0.347424,8,0,7,1,1,0.1,0,0,0,0,0,0,0,0,0,0,6.59254338764838,-11.3205650200529,17.717696615152,3.57174248661753,-0.567344563984155,-0.779365289302527,11,0,-1.72769624391665,-2.01136953035464,-1.85741502443422,-0.666605297719139,-4.7213160435306,-3.24603444734682,-1.72772008577456,-2.01133376756777,-1.8574631849872,-0.666593376790182,-4.7212681213962,-3.24602228799929,0,0,0,0,0,0,0,0,0,0,0,0,-0.286914821023607,-0.782655550814712,0.230663646928533,2.96658629960679,-0.0812102690499988,-0.0348738152905294,-0.286925319481241,-0.782625148139794,0.230667683150175,2.96658016228275,-0.0812571060092451,-0.0348050552321132,0,0,0,0,0,0,0,0,0,0,0,0
2580.68,0.339,8,0,7,1,1,0.1,0,0,0,0,0,0,0,0,0,0,6.37639615236178,-11.5827138524439,17.9992466203733,3.64629780899466,-0.460488515076731,-0.685214478516226,11,0,-1.72769624391665,-2.01136953035464,-1.85741502443422,-0.666605297719139,-4.7213160435306,-3.24603444734682,-1.72768432298769,-2.01133376756777,-1.8574631849872,-0.666581455861227,-4.7213160435306,-3.24598628679384,0,0,0,0,0,0,0,0,0,0,0,0,-0.286914821023607,-0.782655550814712,0.230663646928533,2.96658629960679,-0.0812102690499988,-0.0348738152905294,-0.286901843904909,-0.782635534045259,0.230669230001988,2.96657287450472,-0.0812637891695087,-0.034868542801426,0,0,0,0,0,0,0,0,0,0,0,0
2580.688,0.335652,8,0,7,1,1,0.1,0,0,0,0,0,0,0,0,0,0,6.64175975714592,-10.7101166415246,18.3363402598888,3.68101730345673,-0.308164108931864,-0.856537181473287,11,0,-1.72769624391665,-2.01136953035464,-1.85741502443422,-0.666605297719139,-4.7213160435306,-3.24603444734682,-1.72768432298769,-2.01135760942568,-1.85742694536318,-0.666581455861227,-4.7212681213962,-3.24602228799929,0,0,0,0,0,0,0,0,0,0,0,0,-0.286914821023607,-0.782655550814712,0.230663646928533,2.96658629960679,-0.0812102690499988,-0.0348738152905294,-0.286900392999342,-0.782654802107851,0.23066987633847,2.96655707144753,-0.0812037148608904,-0.0348046771168906,0,0,0,0,0,0,0,0,0,0,0,0
2580.696,0.340657,8,0,7,1,1,0.1,0,0,0,0,0,0,0,0,0,0,7.07173701427635,-11.9076740047275,17.4700640558369,3.64233497393855,-0.326228197743088,-0.823495262287964,11,0,-1.72769624391665,-2.01136953035464,-1.85741502443422,-0.666605297719139,-4.7213160435306,-3.24603444734682,-1.72767240205874,-2.01132184663881,-1.85745078722109,-0.666593376790182,-4.7212681213962,-3.24604636827578,0,0,0,0,0,0,0,0,0,0,0,0,-0.286914821023607,-0.782655550814712,0.230663646928533,2.96658629960679,-0.0812102690499988,-0.0348738152905294,-0.286888677376712,-0.782643147146723,0.2306843224423,2.96655866972713,-0.0811500624650515,-0.0348063395425224,0,0,0,0,0,0,0,0,0,0,0,0
2580.704,0.334452,8,0,7,1,1,0.1,0,0,0,0,0,0,0,0,0,0,6.9764149129938,-11.2406967814795,17.6436375975678,3.56851574921132,-0.290772291906005,-0.914100669800784,11,0,-1.72769624391665,-2.01136953035464,-1.85741502443422,-0.666605297719139,-4.7213160435306,-3.24603444734682,-1.72766048112978,-2.01132184663881,-1.85741502443422,-0.666605297719137,-4.7213160435306,-3.24601036707033,0,0,0,0,0,0,0,0,0,0,0,0,-0.286914821023607,-0.782655550814712,0.230663646928533,2.96658629960679,-0.0812102690499988,-0.0348738152905294,-0.286886069008702,-0.782660980411416,0.230702644001254,2.96653879262663,-0.0811916598243945,-0.0348747292999589,0,0,0,0,0,0,0,0,0,0,0,0
2580.712,0.40704,8,0,7,1,1,0.1,0,0,0,0,0,0,0,0,0,0,5.55393435209489,-13.5463861278932,15.5416366116684,3.50811962022243,-0.408880615234335,-0.747742603953619,11,0,-1.72769624391665,-2.01136953035464,-1.85741502443422,-0.666605297719139,-4.7213160435306,-3.24603444734682,-1.7277081648456,-2.01133376756777,-1.85743886629214,-0.666593376790182,-4.72128016153444,-3.24603444734682,0,0,0,0,0,0,0,0,0,0,0,0,-0.286914821023607,-0.782655550814712,0.230663646928533,2.96658629960679,-0.0812102690499988,-0.0348738152905294,-0.28691878836131,-0.782639231561787,0.230681197664979,2.96655830157935,-0.0812224875029424,-0.0348270725086947,0,0,0,0,0,0,0,0,0,0,0,0
2580.72,0.35004,8,0,7,1,1,0.1,0,0,0,0,0,0,0,0,0,0,6.82308341401217,-11.5840266652383,17.3173622945079,3.53243587560217,-0.408263276431385,-0.892428265592857,11,0,-1.72769624391665,-2.01136953035464,-1.85741502443422,-0.666605297719139,-4.7213160435306,-3.24603444734682,-1.72766048112978,-2.01135760942568,-1.8574631849872,-0.666581455861227,-4.7212920824634,-3.24604636827578,0,0,0,0,0,0,0,0,0,0,0,0,-0.286914821023607,-0.782655550814712,0.230663646928533,2.96658629960679,-0.0812102690499988,-0.0348738152905294,-0.286881381753793,-0.782645139138581,0.230649733863984,2.96659768889459,-0.0811366908585909,-0.0348336296085915,0,0,0,0,0,0,0,0,0,0,0,0
2580.728,0.339828,8,0,7,1,1,0.1,0,0,0,0,0,0,0,0,0,0,5.96126367975808,-11.7949381671756,16.9457652766168,3.48084600481191,-0.397889982169373,-0.777681966581696,11,0,-1.72769624391665,-2.01136953035464,-1.85741502443422,-0.666605297719139,-4.7213160435306,-3.24603444734682,-1.72768432298769,-2.01134568849672,-1.85745078722109,-0.666605297719137,-4.7212920824634,-3.24602228799929,0,0,0,0,0,0,0,0,0,0,0,0,-0.286914821023607,-0.782655550814712,0.230663646928533,2.96658629960679,-0.0812102690499988,-0.0348738152905294,-0.286900424991256,-0.782640966341561,0.230663271591649,2.96659525866249,-0.081207515674371,-0.0348334887008437,0,0,0,0,0,0,0,0,0,0,0,0
2580.736,0.334296,8,0,7,1,1,0.1,0,0,0,0,0,0,0,0,0,0,6.88242268729899,-11.5760288978626,17.3342173871811,3.47857346446463,-0.38925337056344,-0.865359827141056,11,0,-1.72769624391665,-2.01136953035464,-1.85741502443422,-0.666605297719139,-4.7213160435306,-3.24603444734682,-1.72767240205874,-2.01134568849672,-1.85745078722109,-0.66661769548525,-4.7212681213962,-3.24601036707033,0,0,0,0,0,0,0,0,0,0,0,0,-0.286914821023607,-0.782655550814712,0.230663646928533,2.96658629960679,-0.0812102690499988,-0.0348738152905294,-0.286888759267901,-0.782643877891968,0.23066166081037,2.96660468178959,-0.0812044243370148,-0.0347928207041235,0,0,0,0,0,0,0,0,0,0,0,0
2580.744,0.333529,8,0,7,1,1,0.1,0,0,0,0,0,0,0,0,0,0,5.5620701771203,-12.9798012037976,16.379729228479,3.57954733196091,-0.58593009744964,-0.805136670953007,11,0,-1.72769624391665,-2.01136953035464,-1.85741502443422,-0.666605297719139,-4.7213160435306,-3.24603444734682,-1.72768432298769,-2.01133376756777,-1.8574631849872,-0.666593376790182,-4.72128016153444,-3.24601036707033,0,0,0,0,0,0,0,0,0,0,0,0,-0.286914821023607,-0.782655550814712,0.230663646928533,2.96658629960679,-0.0812102690499988,-0.0348738152905294,-0.28689842758964,-0.782635232891009,0.23066768215246,2.96658197485316,-0.081223365299901,-0.0348166127271933,0,0,0,0,0,0,0,0,0,0,0,0
2580.752,0.332988,8,0,7,1,1,0.1,0,0,0,0,0,0,0,0,0,0,6.05869999581538,-12.221852034404,16.98503712958,3.5155389073636,-0.575099876838867,-0.833814765149751,11,0,-1.72769624391665,-2.01136953035464,-1.85741502443422,-0.666605297719139,-4.7213160435306,-3.24603444734682,-1.72768432298769,-2.01133376756777,-1.85743886629214,-0.666593376790182,-4.72123212019076,-3.24603444734682,0,0,0,0,0,0,0,0,0,0,0,0,-0.286914821023607,-0.782655550814712,0.230663646928533,2.96658629960679,-0.0812102690499988,-0.0348738152905294,-0.286895750974153,-0.782646774249485,0.230681201725241,2.96655371499998,-0.0811805840829661,-0.0347532687473959,0,0,0,0,0,0,0,0,0,0,0,0
2580.76,0.333336,8,0,7,1,1,0.1,0,0,0,0,0,0,0,0,0,0,6.40320056768149,-11.1043201770701,18.0893609348266,3.63605862839664,-0.392611688295421,-0.782901634785459,11,0,-1.72769624391665,-2.01136953035464,-1.85741502443422,-0.666605297719139,-4.7213160435306,-3.24603444734682,-1.72769624391665,-2.01132184663881,-1.85743886629214,-0.66661769548525,-4.72125608125796,-3.24601036707033,0,0,0,0,0,0,0,0,0,0,0,0,-0.286914821023607,-0.782655550814712,0.230663646928533,2.96658629960679,-0.0812102690499988,-0.0348738152905294,-0.286906774668677,-0.7826401118237,0.230687785251835,2.96656709224164,-0.0812372617120137,-0.0347845965024711,0,0,0,0,0,0,0,0,0,0,0,0
2580.768,0.34284,8,0,7,1,1,0.1,0,0,0,0,0,0,0,0,0,0,5.7778507015254,-11.3677008761995,17.7013771341286,3.62642220726401,-0.477806995043406,-0.796644865531309,11,0,-1.72769624391665,-2.01136953035464,-1.85741502443422,-0.666605297719139,-4.7213160435306,-3.24603444734682,-1.72767240205874,-2.01128608385195,-1.85743886629214,-0.666593376790182,-4.7212920824634,-3.24599844614138,0,0,0,0,0,0,0,0,0,0,0,0,-0.286914821023607,-0.782655550814712,0.230663646928533,2.96658629960679,-0.0812102690499988,-0.0348738152905294,-0.286891123028776,-0.782644486238737,0.230720193115057,2.96651150720394,-0.0812231768328654,-0.0348439924264302,0,0,0,0,0,0,0,0,0,0,0,0
2580.776,0.346584,8,0,7,1,1,0.1,0,0,0,0,0,0,0,0,0,0,5.92838273785026,-12.1711314077734,17.0811557586403,3.5493944271074,-0.424900129623813,-0.717286016934645,11,0,-1.72769624391665,-2.01136953035464,-1.85741502443422,-0.666605297719139,-4.7213160435306,-3.24603444734682,-1.72769624391665,-2.01133376756777,-1.85747558275332,-0.666569534932272,-4.7212681213962,-3.24602228799929,0,0,0,0,0,0,0,0,0,0,0,0,-0.286914821023607,-0.782655550814712,0.230663646928533,2.96658629960679,-0.0812102690499988,-0.0348738152905294,-0.286906086060825,-0.782628114173799,0.23066389447026,2.96656952796669,-0.0812216763884387,-0.0348042459245207,0,0,0,0,0,0,0,0,0,0,0,0
2580.784,0.334345,8,0,7,1,1,0.1,0,0,0,0,0,0,0,0,0,0,5.78328062239567,-13.6072740476078,15.3210001373249,3.40725679753418,-0.333896472898403,-0.873107789027228,11,0,-1.72769624391665,-2.01136953035464,-1.85741502443422,-0.666605297719139,-4.7213160435306,-3.24603444734682,-1.72767240205874,-2.01133376756777,-1.85743886629214,-0.666593376790182,-4.7212920824634,-3.24603444734682,0,0,0,0,0,0,0,0,0,0,0,0,-0.286914821023607,-0.782655550814712,0.230663646928533,2.96658629960679,-0.0812102690499988,-0.0348738152905294,-0.286891885104905,-0.782649317832579,0.230681196689939,2.96656070581989,-0.0811710522846794,-0.0348399954548782,0,0,0,0,0,0,0,0,0,0,0,0
2580.792,0.340476,8,0,7,1,1,0.1,0,0,0,0,0,0,0,0,0,0,6.11444143425825,-13.4023340624352,15.818783820521,3.49513335653601,-0.258603091559103,-0.859882548203502,11,0,-1.72769624391665,-2.01136953035464,-1.85741502443422,-0.666605297719139,-4.7213160435306,-3.24603444734682,-1.7277081648456,-2.01133376756777,-1.85743886629214,-0.666605297719137,-4.72125608125796,-3.24604636827578,0,0,0,0,0,0,0,0,0,0,0,0,-0.286914821023607,-0.782655550814712,0.230663646928533,2.96658629960679,-0.0812102690499988,-0.0348738152905294,-0.286916447457536,-0.782638757953561,0.230679648918768,2.96656808635723,-0.0812017007130584,-0.034790942822174,0,0,0,0,0,0,0,0,0,0,0,0
2580.8,0.334716,8,0,7,1,1,0.1,0,0,0,0,0,0,0,0,0,0,5.81363980589035,-12.910711405179,16.4780725759357,3.54641319221977,-0.462772416078115,-0.768157838221729,11,0,-1.72769624391665,-2.01136953035464,-1.85741502443422,-0.666605297719139,-4.7213160435306,-3.24603444734682,-1.72766048112978,-2.01132184663881,-1.85745078722109,-0.666593376790182,-4.72128016153444,-3.24597436586489,0,0,0,0,0,0,0,0,0,0,0,0,-0.286914821023607,-0.782655550814712,0.230663646928533,2.96658629960679,-0.0812102690499988,-0.0348738152905294,-0.286880444675413,-0.782646391099448,0.230684321444465,2.96655670450303,-0.0812407938099192,-0.0348132088941977,0,0,0,0,0,0,0,0,0,0,0,0
2580.808,0.365136,8,0,7,1,1,0.1,0,0,0,0,0,0,0,0,0,0,6.26309965065595,-11.8511701227722,17.6129295155909,3.59077188983615,-0.439403400732691,-0.744814239108001,11,0,-1.72769624391665,-2.01136953035464,-1.85741502443422,-0.666605297719139,-4.7213160435306,-3.24603444734682,-1.72767240205874,-2.01135760942568,-1.85745078722109,-0.666593376790182,-4.72130412260164,-3.24604636827578,0,0,0,0,0,0,0,0,0,0,0,0,-0.286914821023607,-0.782655550814712,0.230663646928533,2.96658629960679,-0.0812102690499988,-0.0348738152905294,-0.286892529347702,-0.782646243529746,0.230655072262132,2.96659817593412,-0.0811559055983721,-0.034852844723667,0,0,0,0,0,0,0,0,0,0,0,0
2580.816,0.341736,8,0,7,1,1,0.1,0,0,0,0,0,0,0,0,0,0,5.31903865008818,-13.4738363656466,15.5760071935661,3.38047334500036,-0.501535561007442,-0.756588146429461,11,0,-1.72769624391665,-2.01136953035464,-1.85741502443422,-0.666605297719139,-4.7213160435306,-3.24603444734682,-1.72767240205874,-2.01133376756777,-1.85745078722109,-0.666569534932272,-4.72125608125796,-3.24601036707033,0,0,0,0,0,0,0,0,0,0,0,0,-0.286914821023607,-0.782655550814712,0.230663646928533,2.96658629960679,-0.0812102690499988,-0.0348738152905294,-0.286888063874091,-0.782646182075231,0.230677675909526,2.96654366987298,-0.0812017987952842,-0.0347862418840468,0,0,0,0,0,0,0,0,0,0,0,0
2580.824,0.350352,8,0,7,1,1,0.1,0,0,0,0,0,0,0,0,0,0,6.14437524954069,-11.9370725994031,17.4526433539027,3.67724045392976,-0.358415463137475,-0.818844749497182,11,0,-1.72769624391665,-2.01136953035464,-1.85741502443422,-0.666605297719139,-4.7213160435306,-3.24603444734682,-1.72766048112978,-2.01132184663881,-1.85748750368227,-0.666581455861227,-4.7212681213962,-3.24603444734682,0,0,0,0,0,0,0,0,0,0,0,0,-0.286914821023607,-0.782655550814712,0.230663646928533,2.96658629960679,-0.0812102690499988,-0.0348738152905294,-0.28687692612457,-0.782631027628059,0.230665467505301,2.96658308059781,-0.0811507007746064,-0.0347990446696618,0,0,0,0,0,0,0,0,0,0,0,0
2580.832,0.33444,8,0,7,1,1,0.1,0,0,0,0,0,0,0,0,0,0,6.72479621800236,-11.2041921760476,17.9766400357746,3.68893441225359,-0.351973403202719,-0.849189492856137,11,0,-1.72769624391665,-2.01136953035464,-1.85741502443422,-0.666605297719139,-4.7213160435306,-3.24603444734682,-1.72768432298769,-2.01130992570986,-1.85747558275332,-0.666593376790182,-4.7212920824634,-3.24599844614138,0,0,0,0,0,0,0,0,0,0,0,0,-0.286914821023607,-0.782655550814712,0.230663646928533,2.96658629960679,-0.0812102690499988,-0.0348738152905294,-0.286898265665189,-0.782627117598021,0.230680288865861,2.96657132504203,-0.0812423062382157,-0.034834774263569,0,0,0,0,0,0,0,0,0,0,0,0
2580.84,0.333792,8,0,7,1,1,0.1,0,0,0,0,0,0,0,0,0,0,5.96756868963515,-13.0314878159021,16.1901482075338,3.52732796531412,-0.386874045253188,-0.780951009878308,11,0,-1.72769624391665,-2.01136953035464,-1.85741502443422,-0.666605297719139,-4.7213160435306,-3.24603444734682,-1.72768432298769,-2.01128608385195,-1.85742694536318,-0.66661769548525,-4.7212920824634,-3.24601036707033,0,0,0,0,0,0,0,0,0,0,0,0,-0.286914821023607,-0.782655550814712,0.230663646928533,2.96658629960679,-0.0812102690499988,-0.0348738152905294,-0.286900987642362,-0.782644694868656,0.230723655088181,2.9665240579314,-0.0812232590484212,-0.0348446308353017,0,0,0,0,0,0,0,0,0,0,0,0
2580.848,0.332424,8,0,7,1,1,0.1,0,0,0,0,0,0,0,0,0,0,6.33332487692862,-11.724415879152,17.9311411220128,3.7816615719142,-0.527787516284933,-0.763498914885264,11,0,-1.72769624391665,-2.01136953035464,-1.85741502443422,-0.666605297719139,-4.7213160435306,-3.24603444734682,-1.72768432298769,-2.01133376756777,-1.85743886629214,-0.666593376790182,-4.72128016153444,-3.24599844614138,0,0,0,0,0,0,0,0,0,0,0,0,-0.286914821023607,-0.782655550814712,0.230663646928533,2.96658629960679,-0.0812102690499988,-0.0348738152905294,-0.286900128706407,-0.782646072016331,0.230681197664979,2.96655719656048,-0.0812405064712932,-0.0348193324799241,0,0,0,0,0,0,0,0,0,0,0,0
2580.856,0.333504,8,0,7,1,1,0.1,0,0,0,0,0,0,0,0,0,0,5.79029849522778,-12.4523428303282,16.6787380933705,3.5476778818543,-0.424760759824332,-0.832527211807473,11,0,-1.72769624391665,-2.01136953035464,-1.85741502443422,-0.666605297719139,-4.7213160435306,-3.24603444734682,-1.72769624391665,-2.01132184663881,-1.8574631849872,-0.66664153734316,-4.7213160435306,-3.24599844614138,0,0,0,0,0,0,0,0,0,0,0,0,-0.286914821023607,-0.782655550814712,0.230663646928533,2.96658629960679,-0.0812102690499988,-0.0348738152905294,-0.286910244208891,-0.782626744785152,0.230671163306834,2.96662096854772,-0.081263963138204,-0.0348626167320387,0,0,0,0,0,0,0,0,0,0,0,0
2580.864,0.332196,8,0,7,1,1,0.1,0,0,0,0,0,0,0,0,0,0,6.71427471868106,-11.4237596239611,18.0502223182027,3.64239768201488,-0.431335446853112,-0.690052879972962,11,0,-1.72769624391665,-2.01136953035464,-1.85741502443422,-0.666605297719139,-4.7213160435306,-3.24603444734682,-1.72766048112978,-2.01133376756777,-1.85743886629214,-0.666593376790182,-4.72128016153444,-3.24599844614138,0,0,0,0,0,0,0,0,0,0,0,0,-0.286914821023607,-0.782655550814712,0.230663646928533,2.96658629960679,-0.0812102690499988,-0.0348738152905294,-0.286881468888423,-0.782652912025991,0.230681197664979,2.96655792136064,-0.0812051356838194,-0.0348162487957699,0,0,0,0,0,0,0,0,0,0,0,0
2580.872,0.343021,8,0,7,1,1,0.1,0,0,0,0,0,0,0,0,0,0,5.91351133186957,-11.2346927798998,17.4336749659513,3.49420607710704,-0.474727188871957,-0.793362176706039,11,0,-1.72769624391665,-2.01136953035464,-1.85741502443422,-0.666605297719139,-4.7213160435306,-3.24603444734682,-1.72767240205874,-2.01134568849672,-1.85745078722109,-0.666593376790182,-4.72128016153444,-3.24602228799929,0,0,0,0,0,0,0,0,0,0,0,0,-0.286914821023607,-0.782655550814712,0.230663646928533,2.96658629960679,-0.0812102690499988,-0.0348738152905294,-0.286890155467826,-0.782645386344194,0.230664823301772,2.9665824619892,-0.0811880432493679,-0.0348166216645173,0,0,0,0,0,0,0,0,0,0,0,0
2580.88,0.339108,8,0,7,1,1,0.1,0,0,0,0,0,0,0,0,0,0,6.43687825928233,-11.7661247863573,17.7101441785832,3.69035371792136,-0.38866897888941,-0.785179662640143,11,0,-1.72769624391665,-2.01136953035464,-1.85741502443422,-0.666605297719139,-4.7213160435306,-3.24603444734682,-1.72768432298769,-2.01130992570986,-1.85743886629214,-0.666605297719137,-4.7212681213962,-3.24601036707033,0,0,0,0,0,0,0,0,0,0,0,0,-0.286914821023607,-0.782655550814712,0.230663646928533,2.96658629960679,-0.0812102690499988,-0.0348738152905294,-0.286898503937763,-0.782643006831006,0.230699146129537,2.96654462849236,-0.0812207238581954,-0.0348052545623109,0,0,0,0,0,0,0,0,0,0,0,0
2580.888,0.338676,8,0,7,1,1,0.1,0,0,0,0,0,0,0,0,0,0,6.01713085713329,-11.9574582281897,17.2126758244303,3.60133199345083,-0.472089933659523,-0.796853429568666,11,0,-1.72769624391665,-2.01136953035464,-1.85741502443422,-0.666605297719139,-4.7213160435306,-3.24603444734682,-1.7277081648456,-2.0112980047809,-1.85745078722109,-0.66661769548525,-4.7212681213962,-3.24596244493593,0,0,0,0,0,0,0,0,0,0,0,0,-0.286914821023607,-0.782655550814712,0.230663646928533,2.96658629960679,-0.0812102690499988,-0.0348738152905294,-0.286915986507258,-0.782628786803457,0.230700656956013,2.96655378833743,-0.0813272831611336,-0.0347999025340848,0,0,0,0,0,0,0,0,0,0,0,0
2580.896,0.333588,8,0,7,1,1,0.1,0,0,0,0,0,0,0,0,0,0,6.33528251368011,-11.1169575605358,17.5960536070007,3.51218799917018,-0.412477410443859,-0.80474606379371,11,0,-1.72769624391665,-2.01136953035464,-1.85741502443422,-0.666605297719139,-4.7213160435306,-3.24603444734682,-1.72769624391665,-2.01132184663881,-1.85742694536318,-0.666569534932272,-4.7212681213962,-3.24597436586489,0,0,0,0,0,0,0,0,0,0,0,0,-0.286914821023607,-0.782655550814712,0.230663646928533,2.96658629960679,-0.0812102690499988,-0.0348738152905294,-0.286909297992367,-0.782648584404925,0.230700674784276,2.96650690485052,-0.0812913516551328,-0.0348087340666588,0,0,0,0,0,0,0,0,0,0,0,0
2580.904,0.33354,8,0,7,1,1,0.1,0,0,0,0,0,0,0,0,0,0,5.85202062409516,-12.3932475478352,16.8071559787316,3.60290441253013,-0.332836217109894,-0.792401366303665,11,0,-1.72769624391665,-2.01136953035464,-1.85741502443422,-0.666605297719139,-4.7213160435306,-3.24603444734682,-1.72768432298769,-2.01130992570986,-1.85747558275332,-0.666593376790182,-4.72125608125796,-3.24601036707033,0,0,0,0,0,0,0,0,0,0,0,0,-0.286914821023607,-0.782655550814712,0.230663646928533,2.96658629960679,-0.0812102690499988,-0.0348738152905294,-0.286894985083278,-0.782627643847351,0.230680291849221,2.96656795181824,-0.0812197323096923,-0.0347833194237515,0,0,0,0,0,0,0,0,0,0,0,0
2580.912,0.406765,8,0,7,1,1,0.1,0,0,0,0,0,0,0,0,0,0,6.55552380521439,-12.7893134352399,16.417795367225,3.55094520469994,-0.273441903368676,-0.74393426635523,11,0,-1.72769624391665,-2.01136953035464,-1.85741502443422,-0.666605297719139,-4.7213160435306,-3.24603444734682,-1.72769624391665,-2.01132184663881,-1.85745078722109,-0.666605297719137,-4.72130412260164,-3.24599844614138,0,0,0,0,0,0,0,0,0,0,0,0,-0.286914821023607,-0.782655550814712,0.230663646928533,2.96658629960679,-0.0812102690499988,-0.0348738152905294,-0.286910470931095,-0.782634955015264,0.230682768742662,2.96657133033142,-0.0812615634097459,-0.034853998386404,0,0,0,0,0,0,0,0,0,0,0,0
2580.92,0.347052,8,0,7,1,1,0.1,0,0,0,0,0,0,0,0,0,0,6.28234471333398,-12.7554365336628,16.2751279449789,3.49698533072185,-0.318709144221105,-0.734382167642313,11,0,-1.72769624391665,-2.01136953035464,-1.85741502443422,-0.666605297719139,-4.7213160435306,-3.24603444734682,-1.7277081648456,-2.0112980047809,-1.85743886629214,-0.666593376790182,-4.7212681213962,-3.24601036707033,0,0,0,0,0,0,0,0,0,0,0,0,-0.286914821023607,-0.782655550814712,0.230663646928533,2.96658629960679,-0.0812102690499988,-0.0348738152905294,-0.286917119557807,-0.782635784082524,0.230710446003752,2.96652021991271,-0.0812556113375498,-0.0348127256873892,0,0,0,0,0,0,0,0,0,0,0,0
2580.928,0.342144,8,0,7,1,1,0.1,0,0,0,0,0,0,0,0,0,0,5.95728039403787,-13.2931348397268,15.7555170911933,3.42934923237946,-0.396773300805864,-0.776359087845546,11,0,-1.72769624391665,-2.01136953035464,-1.85741502443422,-0.666605297719139,-4.7213160435306,-3.24603444734682,-1.72766048112978,-2.01132184663881,-1.8574631849872,-0.666605297719137,-4.72128016153444,-3.24602228799929,0,0,0,0,0,0,0,0,0,0,0,0,-0.286914821023607,-0.782655550814712,0.230663646928533,2.96658629960679,-0.0812102690499988,-0.0348738152905294,-0.286879430999132,-0.782640039611884,0.230675880405051,2.96658330408863,-0.0811701651819808,-0.0348150115834586,0,0,0,0,0,0,0,0,0,0,0,0
2580.936,0.334272,8,0,7,1,1,0.1,0,0,0,0,0,0,0,0,0,0,6.07548555393602,-12.2213399853961,16.9209627527167,3.5597023514517,-0.422457453931566,-0.775450894081516,11,0,-1.72769624391665,-2.01136953035464,-1.85741502443422,-0.666605297719139,-4.7213160435306,-3.24603444734682,-1.72768432298769,-2.01135760942568,-1.8574631849872,-0.666605297719137,-4.721244160329,-3.24602228799929,0,0,0,0,0,0,0,0,0,0,0,0,-0.286914821023607,-0.782655550814712,0.230663646928533,2.96658629960679,-0.0812102690499988,-0.0348738152905294,-0.286895381307176,-0.78263734818862,0.230646636421474,2.96661412656041,-0.0812015913710685,-0.0347586062066195,0,0,0,0,0,0,0,0,0,0,0,0
2580.944,0.33258,8,0,7,1,1,0.1,0,0,0,0,0,0,0,0,0,0,6.17817643074802,-12.9130132086906,16.5265210790565,3.52101403826654,-0.454121306472706,-0.768907651042515,11,0,-1.72769624391665,-2.01136953035464,-1.85741502443422,-0.666605297719139,-4.7213160435306,-3.24603444734682,-1.72766048112978,-2.01132184663881,-1.8574631849872,-0.666569534932272,-4.7212681213962,-3.24601036707033,0,0,0,0,0,0,0,0,0,0,0,0,-0.286914821023607,-0.782655550814712,0.230663646928533,2.96658629960679,-0.0812102690499988,-0.0348738152905294,-0.286878773574303,-0.782642692564925,0.230680533667136,2.96654584387705,-0.0811857084239829,-0.034802414866384,0,0,0,0,0,0,0,0,0,0,0,0
2580.952,0.332868,8,0,7,1,1,0.1,0,0,0,0,0,0,0,0,0,0,6.85048282371795,-12.7114110766063,16.8656565906932,3.56652473151602,-0.307297290463493,-0.73827717122063,11,0,-1.72769624391665,-2.01136953035464,-1.85741502443422,-0.666605297719139,-4.7213160435306,-3.24603444734682,-1.72766048112978,-2.01132184663881,-1.85743886629214,-0.666581455861227,-4.72125608125796,-3.24599844614138,0,0,0,0,0,0,0,0,0,0,0,0,-0.286914821023607,-0.782655550814712,0.230663646928533,2.96658629960679,-0.0812102690499988,-0.0348738152905294,-0.286879230676011,-0.782652881861037,0.230692499577329,2.96653157649915,-0.0812013783441128,-0.0347851872644548,0,0,0,0,0,0,0,0,0,0,0,0
2580.96,0.333481,8,0,7,1,1,0.1,0,0,0,0,0,0,0,0,0,0,6.27106288073913,-12.2235162659306,17.0803061986689,3.5339977363946,-0.520122620133023,-0.786647769722037,11,0,-1.72769624391665,-2.01136953035464,-1.85741502443422,-0.666605297719139,-4.7213160435306,-3.24603444734682,-1.72767240205874,-2.01134568849672,-1.85742694536318,-0.666605297719137,-4.72130412260164,-3.24602228799929,0,0,0,0,0,0,0,0,0,0,0,0,-0.286914821023607,-0.782655550814712,0.230663646928533,2.96658629960679,-0.0812102690499988,-0.0348738152905294,-0.286893859954108,-0.782654837063211,0.230676521104768,2.96657325303187,-0.0811909406199788,-0.0348538491385959,0,0,0,0,0,0,0,0,0,0,0,0
2580.968,0.347856,8,0,7,1,1,0.1,0,0,0,0,0,0,0,0,0,0,5.96731380462771,-12.2718174346045,17.3337449938132,3.66150298942051,-0.520239054721632,-0.847700029303309,11,0,-1.72769624391665,-2.01136953035464,-1.85741502443422,-0.666605297719139,-4.7213160435306,-3.24603444734682,-1.72766048112978,-2.01135760942568,-1.8574631849872,-0.66661769548525,-4.72128016153444,-3.24603444734682,0,0,0,0,0,0,0,0,0,0,0,0,-0.286914821023607,-0.782655550814712,0.230663646928533,2.96658629960679,-0.0812102690499988,-0.0348738152905294,-0.286879849838841,-0.782642803138659,0.230645020666388,2.9666317634327,-0.0811532537023149,-0.0348077808503136,0,0,0,0,0,0,0,0,0,0,0,0
2580.976,0.349284,8,0,7,1,1,0.1,0,0,0,0,0,0,0,0,0,0,5.85238067936766,-12.9215834337432,16.2713835435046,3.52468965137198,-0.432072317568682,-0.801647792105292,11,0,-1.72769624391665,-2.01136953035464,-1.85741502443422,-0.666605297719139,-4.7213160435306,-3.24603444734682,-1.72767240205874,-2.01132184663881,-1.8574631849872,-0.666581455861227,-4.7212681213962,-3.24602228799929,0,0,0,0,0,0,0,0,0,0,0,0,-0.286914821023607,-0.782655550814712,0.230663646928533,2.96658629960679,-0.0812102690499988,-0.0348738152905294,-0.286887956798983,-0.782638447007196,0.230678982902363,2.9665579285274,-0.0811858813001429,-0.034803275570932,0,0,0,0,0,0,0,0,0,0,0,0
2580.984,0.410088,8,0,7,1,1,0.1,0,0,0,0,0,0,0,0,0,0,6.29010838418658,-10.9987137758891,17.9638955382839,3.62240146976074,-0.334876927954267,-0.735087364059857,11,0,-1.72769624391665,-2.01136953035464,-1.85741502443422,-0.666605297719139,-4.7213160435306,-3.24603444734682,-1.72766048112978,-2.01128608385195,-1.85745078722109,-0.666605297719137,-4.7212681213962,-3.24601036707033,0,0,0,0,0,0,0,0,0,0,0,0,-0.286914821023607,-0.782655550814712,0.230663646928533,2.96658629960679,-0.0812102690499988,-0.0348738152905294,-0.286878629451661,-0.782642117825109,0.230712018761949,2.96653351783117,-0.0811849839537971,-0.0348044087538375,0,0,0,0,0,0,0,0,0,0,0,0
2580.992,0.339588,8,0,7,1,1,0.1,0,0,0,0,0,0,0,0,0,0,6.97834475702953,-11.7134446324604,17.6950024470861,3.617792015399,-0.399338161709605,-0.694984303067504,11,0,-1.72769624391665,-2.01136953035464,-1.85741502443422,-0.666605297719139,-4.7213160435306,-3.24603444734682,-1.7277081648456,-2.01130992570986,-1.85743886629214,-0.666593376790182,-4.72128016153444,-3.24604636827578,0,0,0,0,0,0,0,0,0,0,0,0,-0.286914821023607,-0.782655550814712,0.230663646928533,2.96658629960679,-0.0812102690499988,-0.0348738152905294,-0.286918407273166,-0.782636816008054,0.23070069590675,2.9665352229452,-0.081204176092687,-0.0348329425570136,0,0,0,0,0,0,0,0,0,0,0,0
