Miguel-LA/TFM_MiguelLerinAlonso/workspace/ros_ur_driver/src/trayectories/data/muelle_sensual_poses.csv
q1,q2,q3,q4,q5,q6
-0.0053408,-0.055992,0.0043671,0.08043,0.31342,-0.012716
-0.0052376,-0.055985,0.0043339,0.079662,0.3206,-0.012887
-0.0051346,-0.055977,0.0042999,0.078896,0.32778,-0.013054
-0.0050319,-0.055969,0.0042652,0.078131,0.33496,-0.013216
-0.0049294,-0.055962,0.0042297,0.077369,0.34214,-0.013373
-0.0048271,-0.055954,0.0041935,0.07661,0.34932,-0.013525
-0.0047252,-0.055947,0.0041565,0.075852,0.3565,-0.013672
-0.0046235,-0.055939,0.0041188,0.075096,0.36368,-0.013815
-0.004522,-0.055932,0.0040804,0.074343,0.37086,-0.013952
-0.0044208,-0.055924,0.0040412,0.073592,0.37804,-0.014085
-0.00432,-0.055917,0.0040013,0.072843,0.38522,-0.014213
-0.0042194,-0.055909,0.0039607,0.072097,0.3924,-0.014336
-0.0041191,-0.055902,0.0039193,0.071352,0.39958,-0.014455
-0.0040191,-0.055894,0.0038772,0.07061,0.40676,-0.014568
-0.0039194,-0.055887,0.0038344,0.06987,0.41394,-0.014677
-0.00382,-0.055879,0.0037909,0.069132,0.42112,-0.014782
-0.0037209,-0.055871,0.0037466,0.068397,0.4283,-0.014881
-0.0036221,-0.055864,0.0037017,0.067664,0.43548,-0.014977
-0.0035237,-0.055856,0.003656,0.066933,0.44266,-0.015067
-0.0034256,-0.055849,0.0036096,0.066204,0.44984,-0.015153
-0.0033278,-0.055841,0.0035625,0.065478,0.45702,-0.015234
-0.0032304,-0.055834,0.0035147,0.064754,0.4642,-0.015311
-0.0031333,-0.055826,0.0034662,0.064032,0.47138,-0.015383
-0.0030366,-0.055819,0.003417,0.063313,0.47857,-0.015451
-0.0029402,-0.055811,0.0033671,0.062595,0.48575,-0.015514
-0.0028442,-0.055804,0.0033164,0.06188,0.49293,-0.015573
-0.0027485,-0.055796,0.0032651,0.061168,0.50011,-0.015628
-0.0026532,-0.055788,0.0032131,0.060458,0.50729,-0.015678
-0.0025583,-0.055781,0.0031605,0.05975,0.51447,-0.015723
-0.0024638,-0.055773,0.0031071,0.059044,0.52165,-0.015764
-0.0023697,-0.055766,0.003053,0.058341,0.52883,-0.015801
-0.0022759,-0.055758,0.0029983,0.05764,0.53602,-0.015834
-0.0021826,-0.055751,0.0029429,0.056941,0.5432,-0.015862
-0.0020896,-0.055743,0.0028868,0.056245,0.55038,-0.015886
-0.001997,-0.055736,0.00283,0.055551,0.55756,-0.015905
-0.0019049,-0.055728,0.0027726,0.05486,0.56474,-0.015921
-0.0018132,-0.055721,0.0027145,0.054171,0.57192,-0.015932
-0.0017219,-0.055713,0.0026557,0.053484,0.5791,-0.015939
-0.001631,-0.055706,0.0025963,0.0528,0.58629,-0.015941
-0.0015405,-0.055698,0.0025362,0.052118,0.59347,-0.01594
-0.0014505,-0.05569,0.0024755,0.051438,0.60065,-0.015934
-0.0013609,-0.055683,0.0024141,0.050761,0.60783,-0.015924
-0.0012718,-0.055675,0.0023521,0.050086,0.61501,-0.01591
-0.0011831,-0.055668,0.0022894,0.049414,0.6222,-0.015892
-0.0010949,-0.05566,0.0022261,0.048744,0.62938,-0.01587
-0.0010071,-0.055653,0.0021622,0.048077,0.63656,-0.015844
-0.00091978,-0.055645,0.0020976,0.047412,0.64374,-0.015814
-0.00083293,-0.055638,0.0020324,0.046749,0.65092,-0.015779
-0.00074655,-0.05563,0.0019665,0.046089,0.65811,-0.015741
-0.00066065,-0.055623,0.0019001,0.045431,0.66529,-0.015699
-0.00057523,-0.055615,0.001833,0.044776,0.67247,-0.015653
-0.00057523,-0.055615,0.001833,0.044776,0.67247,-0.015653
-0.00052312,-0.05561,0.0017916,0.044375,0.67687,-0.015622
-0.00047119,-0.055606,0.0017499,0.043975,0.68127,-0.01559
-0.00041945,-0.055601,0.001708,0.043575,0.68567,-0.015556
-0.0003679,-0.055596,0.0016659,0.043177,0.69007,-0.015521
-0.00031653,-0.055592,0.0016236,0.04278,0.69448,-0.015485
-0.00026535,-0.055587,0.001581,0.042383,0.69888,-0.015447
-0.00021435,-0.055583,0.0015383,0.041988,0.70328,-0.015408
-0.00016355,-0.055578,0.0014952,0.041593,0.70768,-0.015367
-0.00011293,-0.055573,0.001452,0.0412,0.71208,-0.015324
-6.2509e-05,-0.055569,0.0014085,0.040807,0.71648,-0.015281
-1.2278e-05,-0.055564,0.0013649,0.040415,0.72088,-0.015235
3.776e-05,-0.055559,0.0013209,0.040024,0.72528,-0.015189
8.7604e-05,-0.055555,0.0012768,0.039635,0.72969,-0.015141
0.00013725,-0.05555,0.0012325,0.039246,0.73409,-0.015091
0.0001867,-0.055546,0.0011879,0.038858,0.73849,-0.01504
0.00023596,-0.055541,0.0011431,0.038471,0.74289,-0.014988
0.00028502,-0.055536,0.0010981,0.038084,0.74729,-0.014934
0.00033387,-0.055532,0.0010529,0.037699,0.75169,-0.014878
0.00038253,-0.055527,0.0010074,0.037315,0.75609,-0.014822
0.00043099,-0.055522,0.00096175,0.036932,0.7605,-0.014764
0.00047924,-0.055518,0.00091588,0.036549,0.7649,-0.014704
0.00052729,-0.055513,0.00086979,0.036168,0.7693,-0.014643
0.00057514,-0.055509,0.00082349,0.035788,0.7737,-0.014581
0.00062278,-0.055504,0.00077698,0.035408,0.7781,-0.014517
0.00067022,-0.055499,0.00073026,0.03503,0.7825,-0.014452
0.00071745,-0.055495,0.00068333,0.034652,0.7869,-0.014386
0.00076447,-0.05549,0.00063619,0.034275,0.7913,-0.014318
0.00081129,-0.055485,0.00058884,0.0339,0.79571,-0.014249
0.00085789,-0.055481,0.00054128,0.033525,0.80011,-0.014178
0.00090429,-0.055476,0.00049352,0.033151,0.80451,-0.014106
0.00095047,-0.055471,0.00044555,0.032779,0.80891,-0.014033
0.00099644,-0.055467,0.00039737,0.032407,0.81331,-0.013958
0.0010422,-0.055462,0.000349,0.032036,0.81771,-0.013882
0.0010877,-0.055458,0.00030042,0.031666,0.82211,-0.013804
0.0011331,-0.055453,0.00025164,0.031297,0.82651,-0.013725
0.0011782,-0.055448,0.00020266,0.030929,0.83092,-0.013645
0.0012231,-0.055444,0.00015347,0.030562,0.83532,-0.013564
0.0012678,-0.055439,0.0001041,0.030196,0.83972,-0.013481
0.0013122,-0.055434,5.4518e-05,0.029831,0.84412,-0.013397
0.0013565,-0.05543,4.7433e-06,0.029467,0.84852,-0.013311
0.0014005,-0.055425,-4.5227e-05,0.029104,0.85292,-0.013224
0.0014443,-0.055421,-9.5392e-05,0.028741,0.85732,-0.013136
0.0014878,-0.055416,-0.00014575,0.02838,0.86173,-0.013047
0.0015312,-0.055411,-0.0001963,0.02802,0.86613,-0.012956
0.0015743,-0.055407,-0.00024705,0.027661,0.87053,-0.012863
0.0016172,-0.055402,-0.00029798,0.027302,0.87493,-0.01277
0.0016599,-0.055397,-0.0003491,0.026945,0.87933,-0.012675
0.0017024,-0.055393,-0.00040042,0.026589,0.88373,-0.012579
0.0017446,-0.055388,-0.00045192,0.026233,0.88813,-0.012482
0.0017866,-0.055384,-0.0005036,0.025879,0.89253,-0.012383
0.0017866,-0.055384,-0.0005036,0.025879,0.89253,-0.012383
0.001878,-0.055373,-0.00061773,0.025107,0.9022,-0.012163
0.0019683,-0.055363,-0.00073274,0.024339,0.91186,-0.011937
0.0020575,-0.055353,-0.00084863,0.023577,0.92152,-0.011704
0.0021455,-0.055343,-0.00096538,0.022819,0.93118,-0.011466
0.0022324,-0.055333,-0.001083,0.022066,0.94085,-0.011221
0.0023182,-0.055323,-0.0012014,0.021317,0.95051,-0.01097
0.0024028,-0.055313,-0.0013207,0.020573,0.96017,-0.010714
0.0024862,-0.055302,-0.0014408,0.019835,0.96983,-0.010451
0.0025685,-0.055292,-0.0015617,0.0191,0.9795,-0.010182
0.0026496,-0.055282,-0.0016834,0.018371,0.98916,-0.0099076
0.0027295,-0.055272,-0.0018058,0.017646,0.99882,-0.0096271
0.0028082,-0.055262,-0.0019291,0.016927,1.0085,-0.0093408
0.0028857,-0.055252,-0.0020531,0.016212,1.0181,-0.0090487
0.0029621,-0.055242,-0.0021778,0.015502,1.0278,-0.0087508
0.0030372,-0.055232,-0.0023033,0.014796,1.0375,-0.0084471
0.003111,-0.055222,-0.0024295,0.014096,1.0471,-0.0081378
0.0031837,-0.055211,-0.0025565,0.0134,1.0568,-0.0078228
0.0032551,-0.055201,-0.0026841,0.012709,1.0665,-0.0075021
0.0033253,-0.055191,-0.0028124,0.012024,1.0761,-0.0071758
0.0033942,-0.055181,-0.0029414,0.011343,1.0858,-0.0068439
0.0034619,-0.055171,-0.0030711,0.010667,1.0954,-0.0065065
0.0035283,-0.055161,-0.0032014,0.0099955,1.1051,-0.0061635
0.0035934,-0.055151,-0.0033323,0.0093293,1.1148,-0.0058151
0.0036573,-0.055141,-0.0034639,0.008668,1.1244,-0.0054612
0.0037199,-0.05513,-0.0035961,0.0080117,1.1341,-0.0051019
0.0037812,-0.05512,-0.0037289,0.0073603,1.1437,-0.0047372
0.0038412,-0.05511,-0.0038623,0.0067139,1.1534,-0.0043672
0.0038999,-0.0551,-0.0039962,0.0060724,1.1631,-0.0039918
0.0039573,-0.05509,-0.0041308,0.005436,1.1727,-0.0036112
0.0040134,-0.05508,-0.0042659,0.0048045,1.1824,-0.0032252
0.0040682,-0.05507,-0.0044015,0.004178,1.1921,-0.002834
0.0041217,-0.05506,-0.0045376,0.0035566,1.2017,-0.0024377
0.0041738,-0.055049,-0.0046743,0.0029401,1.2114,-0.0020361
0.0042246,-0.055039,-0.0048114,0.0023287,1.221,-0.0016294
0.0042741,-0.055029,-0.0049491,0.0017224,1.2307,-0.0012176
0.0043222,-0.055019,-0.0050872,0.0011211,1.2404,-0.00080066
0.004369,-0.055009,-0.0052258,0.00052486,1.25,-0.00037868
0.0044145,-0.054999,-0.0053648,-5.3054e-05,1.2597,3.8669e-05
0.0044586,-0.054989,-0.0055042,-0.00052334,1.2693,0.00038533
0.0045013,-0.054979,-0.0056441,-0.00099208,1.279,0.00073787
0.0045427,-0.054969,-0.0057844,-0.0014591,1.2887,0.0010962
0.0045827,-0.054958,-0.0059251,-0.0019243,1.2983,0.0014603
0.0046214,-0.054948,-0.0060662,-0.0023878,1.308,0.0018303
0.0046587,-0.054938,-0.0062076,-0.0028495,1.3176,0.0022061
0.0046946,-0.054928,-0.0063494,-0.0033099,1.3273,0.0025883
0.0047291,-0.054918,-0.0064915,-0.0037673,1.337,0.0029753
0.0047623,-0.054908,-0.006634,-0.0042233,1.3466,0.0033687
0.0047941,-0.054898,-0.0067767,-0.0046774,1.3563,0.003768
0.0048245,-0.054888,-0.0069198,-0.0051295,1.3659,0.0041732
0.0048535,-0.054878,-0.0070632,-0.0055796,1.3756,0.0045844
0.0048535,-0.054878,-0.0070632,-0.0055796,1.3756,0.0045844
0.0049031,-0.054859,-0.0073271,-0.0063849,1.3933,0.0053417
0.004948,-0.054841,-0.0075919,-0.0071831,1.4111,0.0061186
0.0049882,-0.054823,-0.0078575,-0.007974,1.4288,0.0069152
0.0050237,-0.054805,-0.0081237,-0.0087575,1.4465,0.0077319
0.0050544,-0.054787,-0.0083906,-0.0095331,1.4643,0.0085683
0.0050804,-0.054768,-0.0086579,-0.010301,1.482,0.0094248
0.0051015,-0.05475,-0.0089256,-0.01106,1.4997,0.010301
0.005118,-0.054732,-0.0091937,-0.011811,1.5175,0.011198
0.0051296,-0.054714,-0.009462,-0.012553,1.5352,0.012114
0.0051365,-0.054696,-0.0097305,-0.013286,1.553,0.013051
0.0051386,-0.054677,-0.009999,-0.01401,1.5707,0.014009
0.0051359,-0.054659,-0.010268,-0.014726,1.5884,0.014989
0.0051284,-0.054641,-0.010536,-0.015429,1.6062,0.015985
0.0051161,-0.054623,-0.010804,-0.016123,1.6239,0.017004
0.0050991,-0.054605,-0.011072,-0.016807,1.6416,0.018043
0.0050773,-0.054586,-0.01134,-0.017482,1.6594,0.019104
0.0050507,-0.054568,-0.011607,-0.018144,1.6771,0.020184
0.0050194,-0.05455,-0.011874,-0.018796,1.6948,0.021286
0.0049833,-0.054532,-0.01214,-0.019436,1.7125,0.022409
0.0049425,-0.054514,-0.012405,-0.020065,1.7303,0.023553
0.004897,-0.054495,-0.01267,-0.020682,1.748,0.024718
0.0048468,-0.054477,-0.012934,-0.021287,1.7657,0.025904
0.0047919,-0.054459,-0.013196,-0.021879,1.7835,0.027112
0.0047323,-0.054441,-0.013458,-0.022458,1.8012,0.028339
0.0046681,-0.054423,-0.013719,-0.023024,1.8189,0.02959
0.0045992,-0.054404,-0.013978,-0.023577,1.8366,0.030861
0.0045258,-0.054386,-0.014236,-0.024116,1.8544,0.032154
0.0044477,-0.054368,-0.014493,-0.024641,1.8721,0.033469
0.0043651,-0.05435,-0.014749,-0.025153,1.8898,0.034806
0.004278,-0.054332,-0.015002,-0.025649,1.9075,0.036164
0.0041863,-0.054313,-0.015255,-0.02613,1.9253,0.037544
0.0040902,-0.054295,-0.015505,-0.026596,1.943,0.038945
0.0039897,-0.054277,-0.015754,-0.027046,1.9607,0.040369
0.0038847,-0.054259,-0.016001,-0.027482,1.9784,0.041816
0.0037753,-0.054241,-0.016246,-0.027899,1.9961,0.043283
0.0036617,-0.054222,-0.016489,-0.0283,2.0138,0.044773
0.0035437,-0.054204,-0.01673,-0.028685,2.0316,0.046286
0.0034214,-0.054186,-0.016969,-0.029052,2.0493,0.04782
0.0032949,-0.054168,-0.017205,-0.029402,2.067,0.049378
0.0031642,-0.05415,-0.01744,-0.029733,2.0847,0.050957
0.0030294,-0.054131,-0.017672,-0.030047,2.1024,0.052559
0.0028905,-0.054113,-0.017901,-0.030341,2.1201,0.054184
0.0027475,-0.054095,-0.018128,-0.030616,2.1378,0.055832
0.0026005,-0.054077,-0.018352,-0.030872,2.1555,0.057502
0.0024496,-0.054059,-0.018574,-0.031108,2.1733,0.059196
0.0022947,-0.05404,-0.018793,-0.031324,2.191,0.060912
0.002136,-0.054022,-0.019009,-0.031519,2.2087,0.062651
0.0019734,-0.054004,-0.019222,-0.031693,2.2264,0.064414
0.0018071,-0.053986,-0.019432,-0.031845,2.2441,0.066199
0.0016371,-0.053968,-0.01964,-0.031975,2.2618,0.068008
0.0016371,-0.053968,-0.01964,-0.031975,2.2618,0.068008
0.0015459,-0.053958,-0.019748,-0.032032,2.2711,0.068964
0.0014537,-0.053949,-0.019855,-0.032081,2.2804,0.069926
0.0013606,-0.053939,-0.019962,-0.032125,2.2898,0.070894
0.0012664,-0.05393,-0.020067,-0.032162,2.2991,0.071869
0.0011712,-0.05392,-0.020172,-0.032193,2.3085,0.072852
0.0010751,-0.053911,-0.020275,-0.032217,2.3178,0.073839
0.00097799,-0.053901,-0.020378,-0.032237,2.3271,0.074837
0.00087993,-0.053892,-0.02048,-0.032247,2.3365,0.075834
0.00078092,-0.053882,-0.020581,-0.032252,2.3458,0.076843
0.00068097,-0.053873,-0.020681,-0.032249,2.3551,0.077856
0.00058009,-0.053863,-0.02078,-0.03224,2.3645,0.078876
0.00047828,-0.053854,-0.020878,-0.032224,2.3738,0.079903
0.00037556,-0.053844,-0.020975,-0.032202,2.3831,0.080937
0.00027194,-0.053835,-0.021071,-0.032173,2.3925,0.081979
0.00016743,-0.053825,-0.021167,-0.032135,2.4018,0.083023
6.2025e-05,-0.053816,-0.021261,-0.032091,2.4111,0.084076
-4.4253e-05,-0.053806,-0.021354,-0.03204,2.4205,0.085136
-0.0001514,-0.053797,-0.021446,-0.031981,2.4298,0.086202
-0.0002594,-0.053788,-0.021537,-0.031915,2.4391,0.087274
-0.00036825,-0.053778,-0.021627,-0.031842,2.4485,0.088355
-0.00047794,-0.053769,-0.021717,-0.031761,2.4578,0.08944
-0.00058845,-0.053759,-0.021805,-0.031672,2.4671,0.090532
-0.00069978,-0.05375,-0.021892,-0.031577,2.4764,0.091631
-0.00081192,-0.05374,-0.021978,-0.031473,2.4858,0.092737
-0.00092486,-0.053731,-0.022062,-0.031361,2.4951,0.09385
-0.0010386,-0.053721,-0.022146,-0.031242,2.5044,0.094968
-0.0011531,-0.053712,-0.022229,-0.031115,2.5138,0.096094
-0.0012684,-0.053702,-0.022311,-0.030979,2.5231,0.097226
-0.0013844,-0.053693,-0.022391,-0.030836,2.5324,0.098365
-0.0015012,-0.053683,-0.022471,-0.030684,2.5417,0.099511
-0.0016187,-0.053674,-0.022549,-0.030525,2.5511,0.10066
-0.0017369,-0.053664,-0.022626,-0.030356,2.5604,0.10182
-0.0018559,-0.053655,-0.022703,-0.03018,2.5697,0.10299
-0.0019755,-0.053645,-0.022778,-0.029995,2.579,0.10416
-0.0020959,-0.053636,-0.022852,-0.029801,2.5883,0.10534
-0.0022169,-0.053626,-0.022924,-0.029599,2.5977,0.10653
-0.0023386,-0.053617,-0.022996,-0.029388,2.607,0.10772
-0.002461,-0.053607,-0.023066,-0.029168,2.6163,0.10892
-0.002584,-0.053598,-0.023136,-0.02894,2.6256,0.11013
-0.0027077,-0.053588,-0.023204,-0.028702,2.6349,0.11134
-0.002832,-0.053579,-0.023271,-0.028455,2.6443,0.11256
-0.0029569,-0.05357,-0.023337,-0.0282,2.6536,0.11379
-0.0030824,-0.05356,-0.023401,-0.027935,2.6629,0.11502
-0.0032085,-0.053551,-0.023465,-0.02766,2.6722,0.11626
-0.0033352,-0.053541,-0.023527,-0.027376,2.6815,0.1175
-0.0034624,-0.053532,-0.023588,-0.027083,2.6908,0.11876
-0.0035903,-0.053522,-0.023648,-0.02678,2.7002,0.12002
-0.0037186,-0.053513,-0.023706,-0.026468,2.7095,0.12129
-0.0038475,-0.053503,-0.023764,-0.026146,2.7188,0.12256
-0.003977,-0.053494,-0.02382,-0.025815,2.7281,0.12385
-0.003977,-0.053494,-0.02382,-0.025815,2.7281,0.12385
-0.0044528,-0.053459,-0.024014,-0.024525,2.762,0.12859
-0.004935,-0.053424,-0.024192,-0.023098,2.7959,0.13344
-0.0054228,-0.053389,-0.024353,-0.02153,2.8298,0.13838
-0.0059157,-0.053355,-0.024498,-0.019815,2.8637,0.14341
-0.0064132,-0.05332,-0.024625,-0.017948,2.8975,0.14854
-0.0069147,-0.053285,-0.024735,-0.015924,2.9314,0.15376
-0.0074195,-0.05325,-0.024828,-0.013738,2.9652,0.15907
-0.0079271,-0.053216,-0.024904,-0.011384,2.9991,0.16448
-0.0084368,-0.053181,-0.024962,-0.0088555,3.0329,0.16998
-0.0089481,-0.053146,-0.025003,-0.0061478,3.0667,0.17558
-0.0094603,-0.053111,-0.025026,-0.0032542,3.1005,0.18127
-0.0099729,-0.053077,-0.025031,-0.00016836,3.1342,0.18706
-0.010485,-0.053042,-0.025019,-0.0030531,-3.1036,-0.18903
-0.010997,-0.053007,-0.02499,-0.0063339,-3.0694,-0.19071
-0.011507,-0.052973,-0.024943,-0.0096723,-3.0352,-0.19232
-0.012015,-0.052938,-0.024878,-0.013067,-3.001,-0.19386
-0.01252,-0.052903,-0.024797,-0.016516,-2.9668,-0.19534
-0.013022,-0.052868,-0.024697,-0.020018,-2.9326,-0.19673
-0.01352,-0.052834,-0.024581,-0.023571,-2.8984,-0.19806
-0.014014,-0.052799,-0.024448,-0.027174,-2.8642,-0.19932
-0.014503,-0.052765,-0.024298,-0.030826,-2.83,-0.2005
-0.014986,-0.05273,-0.024132,-0.034524,-2.7958,-0.20161
-0.015463,-0.052695,-0.023949,-0.038268,-2.7616,-0.20264
-0.015934,-0.052661,-0.02375,-0.042056,-2.7274,-0.2036
-0.016397,-0.052626,-0.023535,-0.045887,-2.6932,-0.20448
-0.016852,-0.052592,-0.023304,-0.049759,-2.6591,-0.20529
-0.017299,-0.052557,-0.023058,-0.053671,-2.6249,-0.20602
-0.017737,-0.052522,-0.022797,-0.057621,-2.5907,-0.20667
-0.018166,-0.052488,-0.022521,-0.061608,-2.5565,-0.20725
-0.018585,-0.052453,-0.022231,-0.065631,-2.5223,-0.20774
-0.018993,-0.052419,-0.021926,-0.069688,-2.4882,-0.20816
-0.019391,-0.052384,-0.021608,-0.073778,-2.454,-0.2085
-0.019777,-0.05235,-0.021277,-0.077899,-2.4198,-0.20876
-0.020152,-0.052315,-0.020932,-0.08205,-2.3856,-0.20894
-0.020514,-0.052281,-0.020576,-0.08623,-2.3515,-0.20903
-0.020864,-0.052247,-0.020207,-0.090437,-2.3173,-0.20905
-0.021201,-0.052212,-0.019826,-0.094669,-2.2832,-0.20898
-0.021525,-0.052178,-0.019435,-0.098927,-2.249,-0.20883
-0.021835,-0.052143,-0.019032,-0.10321,-2.2149,-0.2086
-0.02213,-0.052109,-0.01862,-0.10751,-2.1807,-0.20828
-0.022412,-0.052075,-0.018197,-0.11183,-2.1466,-0.20788
-0.022678,-0.05204,-0.017766,-0.11617,-2.1124,-0.2074
-0.022929,-0.052006,-0.017326,-0.12053,-2.0783,-0.20683
-0.023166,-0.051972,-0.016878,-0.12491,-2.0441,-0.20617
-0.023386,-0.051937,-0.016422,-0.12929,-2.01,-0.20543
-0.023591,-0.051903,-0.015959,-0.1337,-1.9759,-0.2046
-0.023779,-0.051869,-0.015489,-0.13811,-1.9418,-0.20368
-0.023951,-0.051835,-0.015014,-0.14253,-1.9076,-0.20268
-0.024107,-0.051801,-0.014533,-0.14697,-1.8735,-0.20159
-0.024246,-0.051766,-0.014047,-0.15141,-1.8394,-0.20041
-0.024246,-0.051766,-0.014047,-0.15141,-1.8394,-0.20041
-0.024336,-0.051741,-0.013695,-0.15463,-1.8149,-0.19954
-0.024417,-0.051716,-0.013342,-0.15785,-1.7903,-0.19862
-0.024489,-0.051691,-0.012986,-0.16107,-1.7658,-0.19765
-0.024552,-0.051667,-0.012629,-0.1643,-1.7413,-0.19663
-0.024607,-0.051642,-0.01227,-0.16752,-1.7168,-0.19557
-0.024652,-0.051617,-0.011911,-0.17075,-1.6923,-0.19446
-0.024689,-0.051592,-0.01155,-0.17398,-1.6677,-0.19331
-0.024717,-0.051567,-0.011189,-0.1772,-1.6432,-0.1921
-0.024735,-0.051542,-0.010828,-0.18043,-1.6187,-0.19085
-0.024745,-0.051517,-0.010466,-0.18365,-1.5942,-0.18955
-0.024746,-0.051492,-0.010104,-0.18688,-1.5697,-0.1882
-0.024738,-0.051468,-0.0097429,-0.1901,-1.5452,-0.18681
-0.024721,-0.051443,-0.0093819,-0.19331,-1.5207,-0.18537
-0.024696,-0.051418,-0.0090215,-0.19653,-1.4962,-0.18388
-0.024661,-0.051393,-0.0086621,-0.19973,-1.4717,-0.18233
-0.024618,-0.051368,-0.0083038,-0.20293,-1.4472,-0.18075
-0.024566,-0.051344,-0.0079468,-0.20613,-1.4227,-0.17911
-0.024505,-0.051319,-0.0075913,-0.20932,-1.3982,-0.17743
-0.024435,-0.051294,-0.0072376,-0.2125,-1.3737,-0.17569
-0.024356,-0.051269,-0.0068859,-0.21568,-1.3493,-0.17392
-0.024269,-0.051245,-0.0065364,-0.21885,-1.3248,-0.17208
-0.024174,-0.05122,-0.0061893,-0.22201,-1.3003,-0.1702
-0.02407,-0.051195,-0.0058448,-0.22516,-1.2758,-0.16828
-0.023957,-0.051171,-0.0055031,-0.2283,-1.2514,-0.1663
-0.023837,-0.051146,-0.0051645,-0.23143,-1.2269,-0.16427
-0.023708,-0.051121,-0.0048291,-0.23454,-1.2024,-0.1622
-0.02357,-0.051097,-0.0044971,-0.23765,-1.178,-0.16008
-0.023425,-0.051072,-0.0041688,-0.24074,-1.1535,-0.1579
-0.023272,-0.051047,-0.0038443,-0.24384,-1.1291,-0.15569
-0.023111,-0.051023,-0.0035238,-0.24689,-1.1046,-0.15341
-0.022942,-0.050998,-0.0032076,-0.24994,-1.0802,-0.15109
-0.022765,-0.050974,-0.0028957,-0.25298,-1.0557,-0.14873
-0.022581,-0.050949,-0.0025885,-0.256,-1.0313,-0.14631
-0.02239,-0.050925,-0.002286,-0.259,-1.0069,-0.14384
-0.022191,-0.0509,-0.0019885,-0.26199,-0.98242,-0.14133
-0.021985,-0.050876,-0.0016961,-0.26496,-0.958,-0.13876
-0.021772,-0.050851,-0.0014091,-0.26791,-0.93357,-0.13615
-0.021552,-0.050827,-0.0011275,-0.27085,-0.90915,-0.13349
-0.021325,-0.050802,-0.0008516,-0.27376,-0.88473,-0.13078
-0.021092,-0.050778,-0.00058149,-0.27665,-0.86032,-0.12802
-0.020852,-0.050753,-0.00031735,-0.27952,-0.83591,-0.12521
-0.020606,-0.050729,-5.9339e-05,-0.28237,-0.8115,-0.12235
-0.020353,-0.050704,0.0001924,-0.2852,-0.7871,-0.11944
-0.020095,-0.05068,0.00043771,-0.288,-0.7627,-0.11649
-0.019831,-0.050656,0.00067645,-0.29079,-0.73831,-0.11349
-0.019561,-0.050631,0.00090844,-0.29356,-0.71391,-0.11044
-0.019286,-0.050607,0.0011337,-0.29627,-0.68953,-0.10734
-0.019005,-0.050583,0.0013519,-0.29898,-0.66515,-0.10419
-0.01872,-0.050558,0.001563,-0.30166,-0.64077,-0.10099
-0.018429,-0.050534,0.0017669,-0.30431,-0.61639,-0.097747
-0.018429,-0.050534,0.0017669,-0.30431,-0.61639,-0.097747
-0.01836,-0.050528,0.0018139,-0.30494,-0.61065,-0.096977
-0.01829,-0.050522,0.0018605,-0.30556,-0.6049,-0.096202
-0.01822,-0.050517,0.0019067,-0.30618,-0.59916,-0.095425
-0.01815,-0.050511,0.0019524,-0.3068,-0.59341,-0.094649
-0.01808,-0.050505,0.0019978,-0.30741,-0.58767,-0.093864
-0.01801,-0.0505,0.0020427,-0.30802,-0.58193,-0.093079
-0.017939,-0.050494,0.0020872,-0.30864,-0.57618,-0.092292
-0.017868,-0.050488,0.0021313,-0.30925,-0.57044,-0.091502
-0.017796,-0.050482,0.002175,-0.30986,-0.5647,-0.09071
-0.017725,-0.050477,0.0022183,-0.31047,-0.55895,-0.089915
-0.017653,-0.050471,0.0022611,-0.31108,-0.55321,-0.089116
-0.017581,-0.050465,0.0023035,-0.31168,-0.54747,-0.088316
-0.017509,-0.050459,0.0023455,-0.31229,-0.54173,-0.087514
-0.017437,-0.050454,0.0023871,-0.31289,-0.53598,-0.086707
-0.017364,-0.050448,0.0024282,-0.31349,-0.53024,-0.085899
-0.017291,-0.050442,0.0024689,-0.31409,-0.5245,-0.085088
-0.017218,-0.050436,0.0025092,-0.31468,-0.51876,-0.084274
-0.017144,-0.050431,0.002549,-0.31528,-0.51302,-0.083458
-0.017071,-0.050425,0.0025884,-0.31587,-0.50728,-0.082638
-0.016997,-0.050419,0.0026274,-0.31646,-0.50154,-0.081817
-0.016923,-0.050413,0.002666,-0.31705,-0.4958,-0.080993
-0.016849,-0.050408,0.0027041,-0.31764,-0.49006,-0.080166
-0.016774,-0.050402,0.0027417,-0.31823,-0.48432,-0.079336
-0.0167,-0.050396,0.002779,-0.31881,-0.47858,-0.078505
-0.016625,-0.050391,0.0028158,-0.3194,-0.47284,-0.077669
-0.01655,-0.050385,0.0028521,-0.31998,-0.4671,-0.076832
-0.016474,-0.050379,0.002888,-0.32056,-0.46136,-0.075992
-0.016399,-0.050373,0.0029235,-0.32113,-0.45562,-0.07515
-0.016323,-0.050368,0.0029585,-0.32171,-0.44988,-0.074304
-0.016247,-0.050362,0.0029931,-0.32228,-0.44414,-0.073456
-0.016171,-0.050356,0.0030273,-0.32286,-0.43841,-0.072606
-0.016095,-0.050351,0.0030609,-0.32343,-0.43267,-0.071753
-0.016019,-0.050345,0.0030942,-0.324,-0.42693,-0.070898
-0.015942,-0.050339,0.003127,-0.32456,-0.4212,-0.070039
-0.015865,-0.050333,0.0031593,-0.32513,-0.41546,-0.069179
-0.015788,-0.050328,0.0031912,-0.32569,-0.40972,-0.068315
-0.015711,-0.050322,0.0032226,-0.32625,-0.40399,-0.067449
-0.015634,-0.050316,0.0032536,-0.32681,-0.39825,-0.06658
-0.015557,-0.050311,0.0032841,-0.32737,-0.39251,-0.065709
-0.015479,-0.050305,0.0033142,-0.32792,-0.38678,-0.064835
-0.015401,-0.050299,0.0033438,-0.32848,-0.38104,-0.063959
-0.015323,-0.050293,0.003373,-0.32903,-0.37531,-0.06308
-0.015245,-0.050288,0.0034017,-0.32958,-0.36957,-0.062198
-0.015167,-0.050282,0.0034299,-0.33013,-0.36384,-0.061314
-0.015088,-0.050276,0.0034577,-0.33067,-0.3581,-0.060427
-0.01501,-0.050271,0.0034851,-0.33122,-0.35237,-0.059538
-0.014931,-0.050265,0.0035119,-0.33176,-0.34664,-0.058647
-0.014852,-0.050259,0.0035383,-0.3323,-0.3409,-0.057752
-0.014773,-0.050253,0.0035643,-0.33284,-0.33517,-0.056855
-0.014694,-0.050248,0.0035898,-0.33337,-0.32944,-0.055956
-0.014694,-0.050248,0.0035898,-0.33337,-0.32944,-0.055956
-0.014691,-0.050216,0.0035788,-0.33577,-0.32945,-0.056368
-0.014688,-0.050184,0.0035678,-0.33815,-0.32946,-0.056777
-0.014686,-0.050152,0.0035568,-0.34051,-0.32948,-0.057185
-0.014683,-0.05012,0.0035457,-0.34287,-0.32949,-0.057591
-0.01468,-0.050088,0.0035345,-0.34521,-0.32951,-0.057995
-0.014677,-0.050056,0.0035232,-0.34753,-0.32952,-0.058396
-0.014674,-0.050024,0.0035118,-0.34985,-0.32953,-0.058797
-0.014671,-0.049992,0.0035004,-0.35214,-0.32955,-0.059193
-0.014668,-0.04996,0.0034889,-0.35443,-0.32956,-0.059588
-0.014664,-0.049929,0.0034774,-0.35669,-0.32957,-0.05998
-0.014661,-0.049897,0.0034658,-0.35895,-0.32959,-0.06037
-0.014658,-0.049865,0.0034541,-0.36118,-0.3296,-0.060757
-0.014655,-0.049833,0.0034424,-0.3634,-0.32961,-0.061142
-0.014652,-0.049802,0.0034305,-0.36561,-0.32963,-0.061525
-0.014649,-0.04977,0.0034187,-0.36779,-0.32964,-0.061903
-0.014645,-0.049739,0.0034067,-0.36996,-0.32965,-0.06228
-0.014642,-0.049707,0.0033947,-0.37211,-0.32967,-0.062653
-0.014639,-0.049675,0.0033826,-0.37425,-0.32968,-0.063024
-0.014636,-0.049644,0.0033705,-0.37636,-0.32969,-0.063392
-0.014632,-0.049612,0.0033583,-0.37846,-0.32971,-0.063756
-0.014629,-0.049581,0.0033461,-0.38053,-0.32972,-0.064118
-0.014626,-0.04955,0.0033338,-0.38259,-0.32974,-0.064476
-0.014622,-0.049518,0.0033214,-0.38463,-0.32975,-0.064831
-0.014619,-0.049487,0.0033089,-0.38664,-0.32977,-0.065183
-0.014615,-0.049455,0.0032965,-0.38864,-0.32978,-0.065531
-0.014612,-0.049424,0.0032839,-0.39061,-0.3298,-0.065876
-0.014608,-0.049393,0.0032713,-0.39256,-0.32981,-0.066217
-0.014605,-0.049362,0.0032586,-0.39449,-0.32983,-0.066555
-0.014601,-0.04933,0.0032459,-0.3964,-0.32984,-0.066889
-0.014598,-0.049299,0.0032331,-0.39828,-0.32986,-0.067219
-0.014594,-0.049268,0.0032203,-0.40015,-0.32988,-0.067546
-0.014591,-0.049237,0.0032074,-0.40199,-0.32989,-0.067869
-0.014587,-0.049206,0.0031945,-0.4038,-0.32991,-0.068188
-0.014583,-0.049175,0.0031815,-0.40559,-0.32993,-0.068503
-0.01458,-0.049144,0.0031685,-0.40736,-0.32995,-0.068814
-0.014576,-0.049112,0.0031553,-0.40911,-0.32996,-0.069121
-0.014572,-0.049082,0.0031422,-0.41082,-0.32998,-0.069423
-0.014569,-0.049051,0.0031291,-0.41251,-0.33,-0.069722
-0.014565,-0.04902,0.0031158,-0.41418,-0.33002,-0.070017
-0.014561,-0.048989,0.0031025,-0.41582,-0.33004,-0.070307
-0.014557,-0.048958,0.0030892,-0.41743,-0.33006,-0.070592
-0.014554,-0.048927,0.0030758,-0.41902,-0.33008,-0.070874
-0.01455,-0.048896,0.0030624,-0.42058,-0.3301,-0.071151
-0.014546,-0.048865,0.003049,-0.42211,-0.33013,-0.071423
-0.014542,-0.048834,0.0030355,-0.42362,-0.33015,-0.071691
-0.014538,-0.048804,0.0030219,-0.4251,-0.33017,-0.071954
-0.014534,-0.048773,0.0030083,-0.42655,-0.33019,-0.072213
-0.014531,-0.048742,0.0029947,-0.42797,-0.33022,-0.072467
-0.014527,-0.048711,0.002981,-0.42936,-0.33024,-0.072716
-0.014523,-0.048681,0.0029673,-0.43072,-0.33027,-0.07296
-0.014523,-0.048681,0.0029673,-0.43072,-0.33027,-0.07296
-0.014523,-0.048681,0.0029673,-0.43073,-0.33027,-0.07296
-0.014523,-0.048681,0.0029673,-0.43073,-0.33027,-0.07296
-0.014523,-0.048681,0.0029673,-0.43073,-0.33027,-0.07296
-0.014523,-0.048681,0.0029673,-0.43073,-0.33027,-0.072961
-0.014523,-0.048681,0.0029673,-0.43073,-0.33027,-0.072961
-0.014523,-0.048681,0.0029673,-0.43073,-0.33027,-0.072961
-0.014523,-0.048681,0.0029673,-0.43073,-0.33027,-0.072961
-0.014523,-0.048681,0.0029673,-0.43073,-0.33027,-0.072961
-0.014523,-0.048681,0.0029673,-0.43073,-0.33027,-0.072961
-0.014523,-0.048681,0.0029673,-0.43073,-0.33027,-0.072961
-0.014523,-0.048681,0.0029673,-0.43073,-0.33027,-0.072962
-0.014523,-0.048681,0.0029672,-0.43073,-0.33027,-0.072962
-0.014523,-0.048681,0.0029672,-0.43074,-0.33027,-0.072962
-0.014523,-0.048681,0.0029672,-0.43074,-0.33027,-0.072962
-0.014523,-0.048681,0.0029672,-0.43074,-0.33027,-0.072962
-0.014523,-0.04868,0.0029672,-0.43074,-0.33027,-0.072962
-0.014523,-0.04868,0.0029672,-0.43074,-0.33027,-0.072962
-0.014523,-0.04868,0.0029672,-0.43074,-0.33027,-0.072963
-0.014523,-0.04868,0.0029672,-0.43074,-0.33027,-0.072963
-0.014523,-0.04868,0.0029672,-0.43074,-0.33027,-0.072963
-0.014523,-0.04868,0.0029672,-0.43074,-0.33027,-0.072963
-0.014523,-0.04868,0.0029672,-0.43074,-0.33027,-0.072963
-0.014523,-0.04868,0.0029672,-0.43074,-0.33027,-0.072963
-0.014523,-0.04868,0.0029671,-0.43074,-0.33027,-0.072963
-0.014523,-0.04868,0.0029671,-0.43074,-0.33027,-0.072963
-0.014523,-0.04868,0.0029671,-0.43075,-0.33027,-0.072964
-0.014523,-0.04868,0.0029671,-0.43075,-0.33027,-0.072964
-0.014523,-0.04868,0.0029671,-0.43075,-0.33027,-0.072964
-0.014523,-0.04868,0.0029671,-0.43075,-0.33027,-0.072964
-0.014523,-0.04868,0.0029671,-0.43075,-0.33027,-0.072964
-0.014523,-0.04868,0.0029671,-0.43075,-0.33027,-0.072964
-0.014523,-0.04868,0.0029671,-0.43075,-0.33027,-0.072964
-0.014523,-0.04868,0.0029671,-0.43075,-0.33027,-0.072965
-0.014523,-0.04868,0.0029671,-0.43075,-0.33027,-0.072965
-0.014523,-0.04868,0.0029671,-0.43075,-0.33027,-0.072965
-0.014523,-0.04868,0.0029671,-0.43075,-0.33027,-0.072965
-0.014523,-0.04868,0.002967,-0.43075,-0.33027,-0.072965
-0.014523,-0.04868,0.002967,-0.43076,-0.33027,-0.072965
-0.014523,-0.04868,0.002967,-0.43076,-0.33027,-0.072965
-0.014523,-0.04868,0.002967,-0.43076,-0.33027,-0.072966
-0.014523,-0.04868,0.002967,-0.43076,-0.33027,-0.072966
-0.014523,-0.04868,0.002967,-0.43076,-0.33027,-0.072966
-0.014523,-0.04868,0.002967,-0.43076,-0.33027,-0.072966
-0.014523,-0.04868,0.002967,-0.43076,-0.33027,-0.072966
-0.014523,-0.04868,0.002967,-0.43076,-0.33027,-0.072966
-0.014523,-0.04868,0.002967,-0.43076,-0.33027,-0.072966
-0.014523,-0.04868,0.002967,-0.43076,-0.33027,-0.072966
-0.014523,-0.04868,0.002967,-0.43076,-0.33027,-0.072967
-0.014523,-0.04868,0.0029669,-0.43076,-0.33027,-0.072967
-0.014523,-0.04868,0.0029669,-0.43076,-0.33027,-0.072967
-0.014523,-0.04868,0.0029669,-0.43076,-0.33027,-0.072967
-0.014521,-0.04867,0.0029627,-0.43119,-0.33026,-0.073039
-0.01452,-0.04866,0.0029584,-0.43162,-0.33025,-0.073111
-0.014518,-0.048651,0.0029541,-0.43204,-0.33024,-0.073182
-0.014517,-0.048641,0.0029498,-0.43246,-0.33023,-0.073253
-0.014515,-0.048631,0.0029455,-0.43287,-0.33021,-0.073324
-0.014514,-0.048621,0.0029412,-0.43328,-0.3302,-0.073394
-0.014512,-0.048612,0.0029369,-0.43369,-0.33019,-0.073463
-0.014511,-0.048602,0.0029326,-0.4341,-0.33018,-0.073532
-0.014509,-0.048592,0.0029283,-0.4345,-0.33017,-0.0736
-0.014508,-0.048583,0.002924,-0.4349,-0.33016,-0.073668
-0.014506,-0.048573,0.0029197,-0.43531,-0.33015,-0.073736
-0.014505,-0.048563,0.0029154,-0.4357,-0.33014,-0.073802
-0.014503,-0.048553,0.0029111,-0.43609,-0.33013,-0.073869
-0.014502,-0.048544,0.0029067,-0.43648,-0.33012,-0.073935
-0.0145,-0.048534,0.0029024,-0.43686,-0.33011,-0.074
-0.014499,-0.048524,0.0028981,-0.43724,-0.33011,-0.074064
-0.014497,-0.048515,0.0028938,-0.43762,-0.3301,-0.074129
-0.014496,-0.048505,0.0028894,-0.438,-0.33009,-0.074192
-0.014494,-0.048495,0.0028851,-0.43837,-0.33008,-0.074255
-0.014493,-0.048486,0.0028808,-0.43874,-0.33007,-0.074318
-0.014491,-0.048476,0.0028764,-0.43911,-0.33006,-0.07438
-0.01449,-0.048466,0.0028721,-0.43947,-0.33005,-0.074442
-0.014488,-0.048456,0.0028677,-0.43983,-0.33004,-0.074503
-0.014487,-0.048447,0.0028634,-0.44019,-0.33003,-0.074564
-0.014485,-0.048437,0.002859,-0.44055,-0.33002,-0.074624
-0.014484,-0.048427,0.0028546,-0.4409,-0.33001,-0.074683
-0.014482,-0.048418,0.0028503,-0.44124,-0.33,-0.074742
-0.01448,-0.048408,0.0028459,-0.44159,-0.33,-0.0748
-0.014479,-0.048398,0.0028415,-0.44193,-0.32999,-0.074858
-0.014477,-0.048389,0.0028372,-0.44227,-0.32998,-0.074916
-0.014476,-0.048379,0.0028328,-0.44261,-0.32997,-0.074973
-0.014474,-0.048369,0.0028284,-0.44294,-0.32996,-0.075029
-0.014473,-0.04836,0.002824,-0.44327,-0.32995,-0.075085
-0.014471,-0.04835,0.0028197,-0.44359,-0.32994,-0.07514
-0.01447,-0.04834,0.0028153,-0.44392,-0.32994,-0.075194
-0.014468,-0.048331,0.0028109,-0.44423,-0.32993,-0.075249
-0.014467,-0.048321,0.0028065,-0.44455,-0.32992,-0.075302
-0.014465,-0.048311,0.0028021,-0.44486,-0.32991,-0.075355
-0.014464,-0.048302,0.0027977,-0.44517,-0.3299,-0.075408
-0.014462,-0.048292,0.0027933,-0.44548,-0.3299,-0.07546
-0.014461,-0.048282,0.0027888,-0.44579,-0.32989,-0.075511
-0.014459,-0.048273,0.0027845,-0.44608,-0.32988,-0.075562
-0.014458,-0.048263,0.0027801,-0.44638,-0.32987,-0.075612
-0.014456,-0.048253,0.0027757,-0.44667,-0.32987,-0.075662
-0.014454,-0.048244,0.0027713,-0.44696,-0.32986,-0.075711
-0.014453,-0.048234,0.0027668,-0.44725,-0.32985,-0.07576
-0.014451,-0.048224,0.0027624,-0.44754,-0.32984,-0.075808
-0.01445,-0.048215,0.002758,-0.44782,-0.32984,-0.075855
-0.014448,-0.048205,0.0027536,-0.44809,-0.32983,-0.075902
-0.014447,-0.048195,0.0027491,-0.44837,-0.32982,-0.075948
-0.014447,-0.048195,0.0027491,-0.44837,-0.32982,-0.075948
-0.01454,-0.048203,0.0027198,-0.44798,-0.33696,-0.077556
-0.014634,-0.04821,0.0026897,-0.44758,-0.3441,-0.079163
-0.014727,-0.048217,0.002659,-0.44718,-0.35124,-0.080767
-0.01482,-0.048224,0.0026275,-0.44678,-0.35838,-0.082369
-0.014913,-0.048231,0.0025954,-0.44637,-0.36552,-0.08397
-0.015005,-0.048238,0.0025626,-0.44595,-0.37266,-0.085569
-0.015098,-0.048245,0.0025291,-0.44553,-0.3798,-0.087166
-0.01519,-0.048252,0.002495,-0.4451,-0.38694,-0.088761
-0.015282,-0.048259,0.0024601,-0.44466,-0.39408,-0.090354
-0.015373,-0.048266,0.0024246,-0.44422,-0.40123,-0.091945
-0.015465,-0.048274,0.0023884,-0.44378,-0.40837,-0.093534
-0.015556,-0.048281,0.0023515,-0.44333,-0.41551,-0.095121
-0.015647,-0.048288,0.002314,-0.44287,-0.42265,-0.096706
-0.015738,-0.048295,0.0022758,-0.44241,-0.42979,-0.098289
-0.015828,-0.048302,0.0022369,-0.44194,-0.43694,-0.09987
-0.015918,-0.048309,0.0021974,-0.44147,-0.44408,-0.10145
-0.016008,-0.048316,0.0021571,-0.44099,-0.45122,-0.10303
-0.016098,-0.048323,0.0021163,-0.44051,-0.45837,-0.1046
-0.016187,-0.04833,0.0020747,-0.44002,-0.46551,-0.10617
-0.016276,-0.048338,0.0020325,-0.43952,-0.47265,-0.10774
-0.016365,-0.048345,0.0019897,-0.43902,-0.4798,-0.10931
-0.016454,-0.048352,0.0019461,-0.43852,-0.48694,-0.11088
-0.016542,-0.048359,0.001902,-0.438,-0.49409,-0.11244
-0.01663,-0.048366,0.0018571,-0.43749,-0.50123,-0.114
-0.016717,-0.048373,0.0018116,-0.43697,-0.50838,-0.11556
-0.016805,-0.04838,0.0017655,-0.43644,-0.51552,-0.11712
-0.016892,-0.048387,0.0017188,-0.4359,-0.52267,-0.11867
-0.016978,-0.048395,0.0016713,-0.43537,-0.52981,-0.12023
-0.017065,-0.048402,0.0016233,-0.43482,-0.53696,-0.12178
-0.017151,-0.048409,0.0015746,-0.43427,-0.5441,-0.12333
-0.017236,-0.048416,0.0015253,-0.43372,-0.55125,-0.12487
-0.017322,-0.048423,0.0014753,-0.43316,-0.5584,-0.12641
-0.017407,-0.04843,0.0014247,-0.43259,-0.56554,-0.12795
-0.017491,-0.048437,0.0013734,-0.43202,-0.57269,-0.12949
-0.017575,-0.048444,0.0013216,-0.43144,-0.57984,-0.13103
-0.017659,-0.048452,0.0012691,-0.43086,-0.58699,-0.13256
-0.017743,-0.048459,0.001216,-0.43028,-0.59413,-0.13409
-0.017826,-0.048466,0.0011623,-0.42968,-0.60128,-0.13562
-0.017909,-0.048473,0.0011079,-0.42909,-0.60843,-0.13715
-0.017991,-0.04848,0.0010529,-0.42849,-0.61558,-0.13867
-0.018073,-0.048487,0.00099737,-0.42787,-0.62273,-0.14019
-0.018155,-0.048494,0.00094118,-0.42726,-0.62988,-0.14171
-0.018236,-0.048501,0.00088438,-0.42664,-0.63703,-0.14323
-0.018317,-0.048509,0.00082698,-0.42602,-0.64418,-0.14474
-0.018397,-0.048516,0.00076897,-0.42539,-0.65133,-0.14625
-0.018478,-0.048523,0.00071038,-0.42475,-0.65848,-0.14776
-0.018557,-0.04853,0.00065118,-0.42412,-0.66563,-0.14927
-0.018636,-0.048537,0.00059139,-0.42347,-0.67278,-0.15077
-0.018715,-0.048544,0.00053098,-0.42282,-0.67993,-0.15227
-0.018794,-0.048551,0.00047004,-0.42216,-0.68708,-0.15377
-0.018794,-0.048551,0.00047004,-0.42216,-0.68708,-0.15377
-0.018872,-0.048559,0.00040813,-0.4215,-0.69427,-0.15527
-0.01895,-0.048566,0.00034565,-0.42083,-0.70147,-0.15677
-0.019027,-0.048573,0.0002825,-0.42017,-0.70866,-0.15827
-0.019105,-0.04858,0.00021893,-0.41948,-0.71585,-0.15976
-0.019181,-0.048587,0.0001547,-0.41879,-0.72304,-0.16125
-0.019257,-0.048595,8.9895e-05,-0.4181,-0.73023,-0.16274
-0.019333,-0.048602,2.451e-05,-0.41741,-0.73743,-0.16423
-0.019408,-0.048609,-4.1438e-05,-0.41671,-0.74462,-0.16571
-0.019483,-0.048616,-0.00010796,-0.416,-0.75181,-0.16719
-0.019557,-0.048623,-0.00017502,-0.41529,-0.75901,-0.16867
-0.019631,-0.048631,-0.00024266,-0.41458,-0.7662,-0.17015
-0.019705,-0.048638,-0.00031085,-0.41386,-0.7734,-0.17162
-0.019777,-0.048645,-0.0003796,-0.41313,-0.78059,-0.17309
-0.01985,-0.048652,-0.00044889,-0.4124,-0.78779,-0.17455
-0.019922,-0.048659,-0.00051873,-0.41166,-0.79498,-0.17601
-0.019993,-0.048667,-0.00058911,-0.41092,-0.80218,-0.17747
-0.020064,-0.048674,-0.00066004,-0.41018,-0.80937,-0.17893
-0.020134,-0.048681,-0.00073149,-0.40942,-0.81657,-0.18039
-0.020204,-0.048688,-0.00080349,-0.40867,-0.82376,-0.18184
-0.020274,-0.048695,-0.00087599,-0.40791,-0.83096,-0.18328
-0.020342,-0.048703,-0.00094903,-0.40714,-0.83816,-0.18473
-0.020411,-0.04871,-0.0010226,-0.40637,-0.84536,-0.18617
-0.020479,-0.048717,-0.0010967,-0.40559,-0.85255,-0.18761
-0.020546,-0.048724,-0.0011713,-0.40481,-0.85975,-0.18905
-0.020613,-0.048731,-0.0012464,-0.40403,-0.86695,-0.19048
-0.020679,-0.048739,-0.001322,-0.40324,-0.87415,-0.19191
-0.020744,-0.048746,-0.0013981,-0.40244,-0.88135,-0.19333
-0.02081,-0.048753,-0.0014747,-0.40164,-0.88855,-0.19476
-0.020874,-0.04876,-0.0015518,-0.40083,-0.89575,-0.19618
-0.020938,-0.048768,-0.0016294,-0.40002,-0.90295,-0.19759
-0.021002,-0.048775,-0.0017074,-0.39921,-0.91015,-0.199
-0.021065,-0.048782,-0.001786,-0.39839,-0.91735,-0.20041
-0.021127,-0.048789,-0.001865,-0.39756,-0.92455,-0.20182
-0.021189,-0.048796,-0.0019445,-0.39673,-0.93175,-0.20322
-0.02125,-0.048804,-0.0020245,-0.3959,-0.93895,-0.20462
-0.02131,-0.048811,-0.002105,-0.39506,-0.94615,-0.20602
-0.021371,-0.048818,-0.0021858,-0.39422,-0.95335,-0.20742
-0.02143,-0.048825,-0.0022672,-0.39337,-0.96056,-0.20881
-0.021489,-0.048833,-0.002349,-0.39251,-0.96776,-0.21019
-0.021547,-0.04884,-0.0024313,-0.39165,-0.97496,-0.21158
-0.021605,-0.048847,-0.002514,-0.39079,-0.98216,-0.21296
-0.021662,-0.048854,-0.0025972,-0.38992,-0.98937,-0.21433
-0.021719,-0.048862,-0.0026807,-0.38905,-0.99657,-0.21571
-0.021774,-0.048869,-0.0027648,-0.38817,-1.0038,-0.21707
-0.02183,-0.048876,-0.0028492,-0.38729,-1.011,-0.21844
-0.021884,-0.048883,-0.0029341,-0.3864,-1.0182,-0.2198
-0.021939,-0.04889,-0.0030194,-0.38551,-1.0254,-0.22116
-0.021992,-0.048898,-0.0031051,-0.38462,-1.0326,-0.22252
-0.022045,-0.048905,-0.0031912,-0.38372,-1.0398,-0.22387
-0.022097,-0.048912,-0.0032777,-0.38281,-1.047,-0.22522
-0.022097,-0.048912,-0.0032777,-0.38281,-1.047,-0.22522
-0.022204,-0.048927,-0.0034587,-0.38093,-1.062,-0.22802
-0.022307,-0.048942,-0.0036414,-0.37903,-1.0769,-0.2308
-0.022408,-0.048957,-0.0038258,-0.37711,-1.0919,-0.23357
-0.022506,-0.048971,-0.0040117,-0.37517,-1.1069,-0.23632
-0.022602,-0.048986,-0.0041992,-0.37321,-1.1218,-0.23906
-0.022694,-0.049001,-0.0043882,-0.37124,-1.1368,-0.24178
-0.022784,-0.049016,-0.0045787,-0.36924,-1.1518,-0.24449
-0.022871,-0.049031,-0.0047707,-0.36722,-1.1668,-0.24718
-0.022955,-0.049045,-0.004964,-0.36519,-1.1817,-0.24985
-0.023036,-0.04906,-0.0051587,-0.36314,-1.1967,-0.25251
-0.023114,-0.049075,-0.0053547,-0.36107,-1.2117,-0.25515
-0.023189,-0.04909,-0.0055519,-0.35898,-1.2267,-0.25778
-0.023261,-0.049105,-0.0057504,-0.35687,-1.2417,-0.26039
-0.02333,-0.04912,-0.00595,-0.35475,-1.2566,-0.26298
-0.023396,-0.049135,-0.0061507,-0.35261,-1.2716,-0.26556
-0.023459,-0.049149,-0.0063526,-0.35045,-1.2866,-0.26812
-0.023519,-0.049164,-0.0065554,-0.34827,-1.3016,-0.27066
-0.023576,-0.049179,-0.0067593,-0.34607,-1.3166,-0.27318
-0.02363,-0.049194,-0.006964,-0.34386,-1.3316,-0.2757
-0.023681,-0.049209,-0.0071697,-0.34163,-1.3466,-0.27819
-0.023728,-0.049224,-0.0073762,-0.33938,-1.3616,-0.28066
-0.023773,-0.049239,-0.0075835,-0.33712,-1.3766,-0.28312
-0.023814,-0.049254,-0.0077916,-0.33484,-1.3916,-0.28556
-0.023852,-0.049269,-0.0080003,-0.33254,-1.4066,-0.28799
-0.023888,-0.049283,-0.0082098,-0.33023,-1.4216,-0.29039
-0.023919,-0.049298,-0.0084198,-0.3279,-1.4366,-0.29278
-0.023948,-0.049313,-0.0086303,-0.32555,-1.4516,-0.29515
-0.023974,-0.049328,-0.0088414,-0.32319,-1.4666,-0.2975
-0.023996,-0.049343,-0.009053,-0.32081,-1.4816,-0.29984
-0.024015,-0.049358,-0.0092649,-0.31842,-1.4966,-0.30215
-0.024031,-0.049373,-0.0094772,-0.31601,-1.5116,-0.30445
-0.024043,-0.049388,-0.0096898,-0.31358,-1.5266,-0.30673
-0.024053,-0.049403,-0.0099027,-0.31114,-1.5416,-0.309
-0.024059,-0.049418,-0.010116,-0.30869,-1.5566,-0.31124
-0.024062,-0.049433,-0.010329,-0.30622,-1.5716,-0.31347
-0.024061,-0.049448,-0.010542,-0.30373,-1.5867,-0.31567
-0.024057,-0.049463,-0.010756,-0.30124,-1.6017,-0.31788
-0.024051,-0.049478,-0.010969,-0.29872,-1.6167,-0.32003
-0.02404,-0.049493,-0.011183,-0.29619,-1.6317,-0.32218
-0.024027,-0.049508,-0.011396,-0.29364,-1.6467,-0.32432
-0.02401,-0.049523,-0.011609,-0.29108,-1.6618,-0.32643
-0.02399,-0.049538,-0.011822,-0.28851,-1.6768,-0.32852
-0.023967,-0.049553,-0.012035,-0.28592,-1.6918,-0.3306
-0.023941,-0.049568,-0.012247,-0.28332,-1.7068,-0.33266
-0.023911,-0.049583,-0.01246,-0.28071,-1.7219,-0.33469
-0.023878,-0.049598,-0.012671,-0.27808,-1.7369,-0.33671
-0.023842,-0.049613,-0.012883,-0.27544,-1.7519,-0.33871
-0.023803,-0.049629,-0.013093,-0.27279,-1.767,-0.34069
-0.02376,-0.049644,-0.013304,-0.27012,-1.782,-0.34265
-0.023714,-0.049659,-0.013513,-0.26744,-1.797,-0.34459
-0.023714,-0.049659,-0.013513,-0.26744,-1.797,-0.34459
-0.023673,-0.049671,-0.013688,-0.26521,-1.8096,-0.34622
-0.02363,-0.049683,-0.013862,-0.26298,-1.8221,-0.34783
-0.023585,-0.049695,-0.014035,-0.26073,-1.8346,-0.34943
-0.023538,-0.049708,-0.014208,-0.25848,-1.8472,-0.35102
-0.023488,-0.04972,-0.01438,-0.25622,-1.8597,-0.35259
-0.023436,-0.049732,-0.014552,-0.25395,-1.8723,-0.35416
-0.023382,-0.049744,-0.014723,-0.25167,-1.8848,-0.3557
-0.023326,-0.049756,-0.014893,-0.24938,-1.8973,-0.35724
-0.023267,-0.049769,-0.015063,-0.24709,-1.9099,-0.35876
-0.023207,-0.049781,-0.015232,-0.24479,-1.9224,-0.36028
-0.023144,-0.049793,-0.0154,-0.24247,-1.935,-0.36176
-0.023079,-0.049805,-0.015568,-0.24015,-1.9475,-0.36324
-0.023012,-0.049818,-0.015735,-0.23782,-1.9601,-0.36471
-0.022943,-0.04983,-0.015901,-0.23548,-1.9726,-0.36616
-0.022871,-0.049842,-0.016066,-0.23314,-1.9852,-0.3676
-0.022798,-0.049855,-0.01623,-0.23079,-1.9977,-0.36903
-0.022722,-0.049867,-0.016393,-0.22843,-2.0103,-0.37044
-0.022645,-0.049879,-0.016556,-0.22606,-2.0228,-0.37185
-0.022565,-0.049891,-0.016717,-0.22368,-2.0354,-0.37323
-0.022483,-0.049904,-0.016878,-0.2213,-2.0479,-0.3746
-0.022399,-0.049916,-0.017037,-0.21891,-2.0605,-0.37596
-0.022313,-0.049928,-0.017196,-0.21651,-2.073,-0.3773
-0.022225,-0.049941,-0.017353,-0.2141,-2.0856,-0.37863
-0.022135,-0.049953,-0.01751,-0.21169,-2.0981,-0.37995
-0.022043,-0.049965,-0.017665,-0.20927,-2.1107,-0.38126
-0.021949,-0.049978,-0.017819,-0.20685,-2.1232,-0.38255
-0.021853,-0.04999,-0.017972,-0.20441,-2.1358,-0.38382
-0.021755,-0.050002,-0.018124,-0.20197,-2.1484,-0.38509
-0.021655,-0.050014,-0.018274,-0.19952,-2.1609,-0.38634
-0.021553,-0.050027,-0.018424,-0.19707,-2.1735,-0.38757
-0.02145,-0.050039,-0.018572,-0.19461,-2.1861,-0.38879
-0.021344,-0.050051,-0.018719,-0.19214,-2.1986,-0.39001
-0.021236,-0.050064,-0.018864,-0.18966,-2.2112,-0.39119
-0.021127,-0.050076,-0.019008,-0.18718,-2.2237,-0.39237
-0.021016,-0.050089,-0.019151,-0.18469,-2.2363,-0.39354
-0.020903,-0.050101,-0.019292,-0.1822,-2.2489,-0.39469
-0.020788,-0.050113,-0.019432,-0.1797,-2.2614,-0.39583
-0.020671,-0.050126,-0.019571,-0.17719,-2.274,-0.39695
-0.020552,-0.050138,-0.019708,-0.17468,-2.2866,-0.39806
-0.020432,-0.05015,-0.019844,-0.17216,-2.2992,-0.39916
-0.02031,-0.050163,-0.019978,-0.16964,-2.3117,-0.40024
-0.020186,-0.050175,-0.020111,-0.1671,-2.3243,-0.40131
-0.020061,-0.050188,-0.020242,-0.16457,-2.3369,-0.40237
-0.019933,-0.0502,-0.020371,-0.16202,-2.3494,-0.40341
-0.019805,-0.050212,-0.020499,-0.15948,-2.362,-0.40443
-0.019674,-0.050225,-0.020625,-0.15692,-2.3746,-0.40545
-0.019542,-0.050237,-0.02075,-0.15436,-2.3872,-0.40644
-0.019408,-0.05025,-0.020873,-0.1518,-2.3997,-0.40743
-0.019273,-0.050262,-0.020995,-0.14923,-2.4123,-0.4084
-0.019136,-0.050274,-0.021114,-0.14665,-2.4249,-0.40936
-0.019136,-0.050274,-0.021114,-0.14665,-2.4249,-0.40936
-0.018892,-0.050296,-0.021319,-0.14212,-2.4469,-0.41099
-0.018644,-0.050318,-0.021519,-0.13759,-2.4689,-0.41258
-0.018392,-0.05034,-0.021714,-0.13303,-2.491,-0.41412
-0.018135,-0.050362,-0.021903,-0.12846,-2.513,-0.41562
-0.017874,-0.050384,-0.022086,-0.12387,-2.535,-0.41708
-0.017608,-0.050406,-0.022264,-0.11927,-2.557,-0.4185
-0.017339,-0.050428,-0.022435,-0.11466,-2.5791,-0.41987
-0.017066,-0.05045,-0.022601,-0.11003,-2.6011,-0.4212
-0.016789,-0.050471,-0.02276,-0.10539,-2.6231,-0.42249
-0.016508,-0.050493,-0.022914,-0.10073,-2.6452,-0.42373
-0.016224,-0.050515,-0.023061,-0.096068,-2.6672,-0.42493
-0.015936,-0.050537,-0.023202,-0.091395,-2.6892,-0.42612
-0.015646,-0.050559,-0.023337,-0.086696,-2.7113,-0.4272
-0.015352,-0.050581,-0.023465,-0.081993,-2.7333,-0.42827
-0.015055,-0.050603,-0.023587,-0.077277,-2.7554,-0.4293
-0.014756,-0.050625,-0.023702,-0.072551,-2.7774,-0.43029
-0.014454,-0.050648,-0.02381,-0.067814,-2.7995,-0.43123
-0.014149,-0.05067,-0.023912,-0.063067,-2.8215,-0.43213
-0.013842,-0.050692,-0.024007,-0.058308,-2.8436,-0.43298
-0.013533,-0.050714,-0.024095,-0.05354,-2.8656,-0.4338
-0.013222,-0.050736,-0.024177,-0.048762,-2.8877,-0.43457
-0.012909,-0.050758,-0.024251,-0.043974,-2.9097,-0.43529
-0.012594,-0.05078,-0.024319,-0.039177,-2.9318,-0.43598
-0.012278,-0.050802,-0.024379,-0.034372,-2.9539,-0.43662
-0.01196,-0.050824,-0.024433,-0.029558,-2.9759,-0.43722
-0.011641,-0.050846,-0.024479,-0.024735,-2.998,-0.43778
-0.011321,-0.050869,-0.024518,-0.019904,-3.0201,-0.4383
-0.011,-0.050891,-0.024551,-0.015065,-3.0421,-0.43877
-0.010679,-0.050913,-0.024576,-0.010218,-3.0642,-0.4392
-0.010356,-0.050935,-0.024594,-0.0053633,-3.0863,-0.43959
-0.010033,-0.050957,-0.024604,-0.00050153,-3.1084,-0.43994
-0.0097101,-0.05098,-0.024608,-0.0043131,3.0915,0.43477
-0.0093868,-0.051002,-0.024604,-0.0090019,3.0702,0.42901
-0.0090636,-0.051024,-0.024593,-0.013566,3.0488,0.42328
-0.0087405,-0.051046,-0.024575,-0.01801,3.0275,0.4176
-0.0084177,-0.051069,-0.02455,-0.022331,3.0061,0.41192
-0.0080955,-0.051091,-0.024518,-0.026536,2.9847,0.40629
-0.0077739,-0.051113,-0.024478,-0.030624,2.9633,0.40069
-0.0074532,-0.051136,-0.024431,-0.034599,2.9419,0.39514
-0.0071334,-0.051158,-0.024378,-0.038462,2.9204,0.38962
-0.0068148,-0.05118,-0.024317,-0.042215,2.8989,0.38413
-0.0064975,-0.051203,-0.024248,-0.045861,2.8774,0.37868
-0.0061816,-0.051225,-0.024173,-0.0494,2.856,0.37327
-0.0058674,-0.051247,-0.024091,-0.052834,2.8344,0.36789
-0.005555,-0.05127,-0.024002,-0.056167,2.8129,0.36255
-0.0052445,-0.051292,-0.023905,-0.059398,2.7914,0.35724
-0.0049361,-0.051314,-0.023802,-0.06253,2.7698,0.35198
-0.0046299,-0.051337,-0.023692,-0.065566,2.7482,0.34675
-0.0043262,-0.051359,-0.023576,-0.068505,2.7267,0.34156
-0.004025,-0.051382,-0.023452,-0.07135,2.7051,0.3364
-0.004025,-0.051382,-0.023452,-0.07135,2.7051,0.3364
-0.0037129,-0.051405,-0.023315,-0.074235,2.6825,0.33108
-0.0034039,-0.051428,-0.023171,-0.077019,2.6598,0.3258
-0.0030982,-0.051451,-0.02302,-0.079707,2.6372,0.32056
-0.002796,-0.051475,-0.022862,-0.0823,2.6146,0.31536
-0.0024974,-0.051498,-0.022697,-0.084799,2.5919,0.3102
-0.0022026,-0.051521,-0.022525,-0.087208,2.5692,0.30509
-0.0019119,-0.051544,-0.022346,-0.089524,2.5465,0.30001
-0.0016252,-0.051568,-0.02216,-0.091753,2.5238,0.29498
-0.0013429,-0.051591,-0.021967,-0.093895,2.5011,0.28999
-0.001065,-0.051614,-0.021768,-0.095951,2.4784,0.28505
-0.00079176,-0.051638,-0.021562,-0.097923,2.4557,0.28014
-0.00052326,-0.051661,-0.02135,-0.099813,2.433,0.27528
-0.00025966,-0.051684,-0.021132,-0.10162,2.4102,0.27047
-1.1251e-06,-0.051708,-0.020908,-0.10335,2.3874,0.26569
0.0002522,-0.051731,-0.020677,-0.10501,2.3647,0.26097
0.00050009,-0.051754,-0.020441,-0.10661,2.3419,0.25634
0.0007427,-0.051778,-0.020198,-0.10808,2.3191,0.25163
0.00097958,-0.051801,-0.019951,-0.10951,2.2963,0.24703
0.0012107,-0.051825,-0.019697,-0.11086,2.2735,0.24247
0.001436,-0.051848,-0.019438,-0.11214,2.2507,0.23796
0.0016552,-0.051871,-0.019174,-0.11336,2.2279,0.23349
0.0018683,-0.051895,-0.018905,-0.1145,2.205,0.22906
0.0020752,-0.051918,-0.018631,-0.11558,2.1822,0.22468
0.0022757,-0.051942,-0.018352,-0.11659,2.1594,0.22034
0.0024697,-0.051965,-0.018068,-0.11753,2.1365,0.21604
0.0026571,-0.051989,-0.01778,-0.11842,2.1136,0.21179
0.0028378,-0.052012,-0.017488,-0.11924,2.0908,0.20758
0.0030117,-0.052035,-0.017191,-0.12,2.0679,0.20343
0.0031787,-0.052059,-0.01689,-0.1207,2.045,0.1993
0.0033387,-0.052082,-0.016585,-0.12134,2.0221,0.19522
0.0034917,-0.052106,-0.016277,-0.12192,1.9992,0.19119
0.0036374,-0.052129,-0.015965,-0.12244,1.9763,0.1872
0.0037759,-0.052153,-0.015649,-0.12291,1.9534,0.18325
0.0039071,-0.052176,-0.015331,-0.12333,1.9305,0.17935
0.0040309,-0.0522,-0.015009,-0.12369,1.9076,0.1755
0.0041471,-0.052224,-0.014684,-0.124,1.8846,0.17168
0.0042558,-0.052247,-0.014357,-0.12426,1.8617,0.16791
0.0043569,-0.052271,-0.014027,-0.12447,1.8388,0.16419
0.0044504,-0.052294,-0.013695,-0.12463,1.8158,0.1605
0.0045361,-0.052318,-0.013361,-0.12474,1.7929,0.15687
0.004614,-0.052341,-0.013024,-0.1248,1.7699,0.15327
0.0046841,-0.052365,-0.012686,-0.12482,1.747,0.14972
0.0047463,-0.052388,-0.012346,-0.12479,1.724,0.14621
0.0048006,-0.052412,-0.012005,-0.12472,1.701,0.14275
0.0048469,-0.052436,-0.011662,-0.1246,1.678,0.13933
0.0048853,-0.052459,-0.011319,-0.12444,1.6551,0.13595
0.0049157,-0.052483,-0.010974,-0.12424,1.6321,0.13262
0.0049381,-0.052507,-0.010629,-0.12399,1.6091,0.12932
0.0049525,-0.05253,-0.010283,-0.12371,1.5861,0.12608
0.0049588,-0.052554,-0.0099371,-0.12339,1.5631,0.12287
0.0049588,-0.052554,-0.0099371,-0.12339,1.5631,0.12287
0.0049566,-0.052579,-0.0095691,-0.12302,1.5386,0.11953
0.0049454,-0.052603,-0.0092011,-0.12261,1.5142,0.11623
0.004925,-0.052628,-0.0088334,-0.12216,1.4897,0.11298
0.0048955,-0.052653,-0.0084663,-0.12167,1.4652,0.10978
0.004857,-0.052678,-0.0080999,-0.12114,1.4408,0.10663
0.0048094,-0.052703,-0.0077344,-0.12057,1.4163,0.10353
0.0047528,-0.052728,-0.0073702,-0.11996,1.3918,0.10047
0.0046871,-0.052753,-0.0070074,-0.11932,1.3673,0.097459
0.0046125,-0.052778,-0.0066463,-0.11864,1.3428,0.094496
0.004529,-0.052803,-0.006287,-0.11793,1.3183,0.091581
0.0044366,-0.052828,-0.0059298,-0.11718,1.2938,0.088712
0.0043354,-0.052852,-0.0055749,-0.1164,1.2693,0.08589
0.0042254,-0.052877,-0.0052226,-0.11559,1.2448,0.083114
0.0041067,-0.052902,-0.004873,-0.11475,1.2203,0.080386
0.0039794,-0.052927,-0.0045263,-0.11387,1.1958,0.077703
0.0038435,-0.052952,-0.0041829,-0.11298,1.1713,0.075073
0.0036991,-0.052977,-0.0038428,-0.11204,1.1468,0.072478
0.0035464,-0.053002,-0.0035064,-0.11108,1.1223,0.069934
0.0033853,-0.053027,-0.0031737,-0.11009,1.0978,0.067436
0.003216,-0.053052,-0.0028451,-0.10908,1.0732,0.064984
0.0030386,-0.053077,-0.0025207,-0.10804,1.0487,0.062578
0.0028533,-0.053102,-0.0022007,-0.10698,1.0242,0.060217
0.00266,-0.053127,-0.0018853,-0.10589,0.99964,0.057901
0.0024589,-0.053152,-0.0015747,-0.10478,0.9751,0.055631
0.0022502,-0.053177,-0.0012692,-0.10364,0.95056,0.053405
0.002034,-0.053202,-0.0009688,-0.10249,0.92602,0.051224
0.0018104,-0.053227,-0.00067382,-0.10131,0.90148,0.049088
0.0015795,-0.053252,-0.0003844,-0.10011,0.87693,0.046996
0.0013415,-0.053277,-0.00010073,-0.098895,0.85238,0.044948
0.0010965,-0.053302,0.00017702,-0.097659,0.82783,0.042945
0.00084466,-0.053327,0.00044868,-0.096403,0.80328,0.040986
0.00058615,-0.053352,0.00071407,-0.095131,0.77873,0.03907
0.00032112,-0.053377,0.00097304,-0.093842,0.75417,0.037199
4.9722e-05,-0.053402,0.0012254,-0.092535,0.72961,0.03537
-0.00022787,-0.053427,0.0014711,-0.091213,0.70505,0.033585
-0.0005115,-0.053452,0.0017098,-0.089876,0.68049,0.031843
-0.00080098,-0.053477,0.0019415,-0.088524,0.65592,0.030143
-0.0010961,-0.053502,0.002166,-0.087158,0.63136,0.028487
-0.0013968,-0.053527,0.0023832,-0.085779,0.60679,0.026873
-0.0017028,-0.053552,0.0025929,-0.084387,0.58222,0.025301
-0.0020139,-0.053577,0.002795,-0.082983,0.55765,0.023772
-0.00233,-0.053602,0.0029894,-0.081568,0.53308,0.022285
-0.0026508,-0.053627,0.0031759,-0.080143,0.50851,0.02084
-0.0029762,-0.053652,0.0033545,-0.078705,0.48393,0.019435
-0.0033059,-0.053677,0.003525,-0.077258,0.45935,0.018073
-0.0036398,-0.053702,0.0036874,-0.075802,0.43478,0.016752
-0.0039776,-0.053727,0.0038414,-0.074338,0.4102,0.015472
-0.0043192,-0.053752,0.0039871,-0.072866,0.38562,0.014232
-0.0046643,-0.053778,0.0041243,-0.071387,0.36104,0.013034
-0.0050128,-0.053803,0.004253,-0.069899,0.33645,0.011876
-0.0050128,-0.053803,0.004253,-0.069899,0.33645,0.011876
-0.0050195,-0.053832,0.0042575,-0.068058,0.33594,0.011545
-0.0050263,-0.053861,0.004262,-0.066221,0.33543,0.011216
-0.0050331,-0.05389,0.0042664,-0.064394,0.33491,0.010889
-0.0050399,-0.053919,0.0042707,-0.062573,0.3344,0.010565
-0.0050467,-0.053948,0.004275,-0.060759,0.33389,0.010242
-0.0050535,-0.053978,0.0042792,-0.058951,0.33337,0.0099214
-0.0050604,-0.054007,0.0042834,-0.057151,0.33286,0.0096032
-0.0050673,-0.054036,0.0042876,-0.055358,0.33235,0.009287
-0.0050742,-0.054065,0.0042916,-0.053571,0.33183,0.008973
-0.0050811,-0.054094,0.0042957,-0.0518,0.33132,0.0086625
-0.0050881,-0.054123,0.0042996,-0.050022,0.3308,0.0083518
-0.005095,-0.054153,0.0043036,-0.048253,0.33029,0.0080436
-0.005102,-0.054182,0.0043074,-0.046495,0.32977,0.0077381
-0.005109,-0.054211,0.0043113,-0.044743,0.32926,0.0074346
-0.0051161,-0.05424,0.004315,-0.042999,0.32874,0.0071332
-0.0051231,-0.054269,0.0043187,-0.041261,0.32823,0.0068339
-0.0051302,-0.054298,0.0043224,-0.039532,0.32771,0.0065371
-0.0051372,-0.054328,0.004326,-0.037806,0.32719,0.0062415
-0.0051443,-0.054357,0.0043296,-0.036089,0.32668,0.0059484
-0.0051515,-0.054386,0.0043331,-0.034379,0.32616,0.0056573
-0.0051586,-0.054415,0.0043365,-0.032676,0.32564,0.0053683
-0.0051658,-0.054444,0.0043399,-0.03098,0.32513,0.0050814
-0.0051729,-0.054474,0.0043433,-0.02929,0.32461,0.0047965
-0.0051801,-0.054503,0.0043466,-0.027609,0.32409,0.0045139
-0.0051873,-0.054532,0.0043498,-0.025932,0.32357,0.0042328
-0.0051946,-0.054561,0.004353,-0.024264,0.32306,0.0039539
-0.0052018,-0.05459,0.0043562,-0.022603,0.32254,0.0036772
-0.0052091,-0.05462,0.0043593,-0.020947,0.32202,0.0034023
-0.0052164,-0.054649,0.0043623,-0.019299,0.3215,0.0031294
-0.0052236,-0.054678,0.0043653,-0.017658,0.32098,0.0028586
-0.005231,-0.054707,0.0043683,-0.016024,0.32047,0.0025897
-0.0052383,-0.054736,0.0043712,-0.014396,0.31995,0.0023229
-0.0052456,-0.054765,0.004374,-0.012776,0.31943,0.0020581
-0.005253,-0.054795,0.0043769,-0.011162,0.31891,0.0017951
-0.0052604,-0.054824,0.0043796,-0.0095545,0.31839,0.001534
-0.0052678,-0.054853,0.0043823,-0.0079544,0.31787,0.001275
-0.0052752,-0.054882,0.004385,-0.0063623,0.31735,0.0010181
-0.0052826,-0.054911,0.0043876,-0.0047744,0.31683,0.00076273
-0.0052901,-0.054941,0.0043901,-0.0031941,0.31631,0.00050943
-0.0052975,-0.05497,0.0043927,-0.0016209,0.31579,0.00025809
-0.005305,-0.054999,0.0043951,-5.4408e-05,0.31527,8.6485e-06
-0.0053125,-0.055028,0.0043975,0.0018955,0.31475,-0.00030079
-0.00532,-0.055057,0.0043999,0.0038802,0.31423,-0.0006147
-0.0053276,-0.055087,0.0044022,0.0058863,0.31371,-0.00093096
-0.0053351,-0.055116,0.0044044,0.0079143,0.31319,-0.0012496
-0.0053427,-0.055145,0.0044066,0.0099644,0.31267,-0.0015706
-0.0053503,-0.055174,0.0044087,0.012037,0.31215,-0.0018941
-0.0053579,-0.055204,0.0044108,0.014132,0.31163,-0.00222
-0.0053655,-0.055233,0.0044127,0.016251,0.31111,-0.0025485
-0.0053732,-0.055262,0.0044147,0.018393,0.31058,-0.0028795
-0.0053732,-0.055262,0.0044147,0.018393,0.31058,-0.0028795
-0.0053729,-0.055266,0.0044145,0.018696,0.3106,-0.0029272
-0.0053726,-0.05527,0.0044143,0.019,0.31062,-0.002975
-0.0053724,-0.055275,0.0044142,0.019305,0.31064,-0.0030229
-0.0053721,-0.055279,0.004414,0.01961,0.31066,-0.0030708
-0.0053718,-0.055283,0.0044138,0.019915,0.31068,-0.0031189
-0.0053716,-0.055287,0.0044137,0.020221,0.3107,-0.003167
-0.0053713,-0.055291,0.0044135,0.020528,0.31072,-0.0032152
-0.0053711,-0.055295,0.0044133,0.020834,0.31074,-0.0032635
-0.0053708,-0.055299,0.0044131,0.021142,0.31076,-0.0033119
-0.0053705,-0.055303,0.004413,0.02145,0.31078,-0.0033603
-0.0053703,-0.055308,0.0044128,0.021758,0.3108,-0.0034088
-0.00537,-0.055312,0.0044126,0.022067,0.31082,-0.0034574
-0.0053698,-0.055316,0.0044124,0.022376,0.31084,-0.0035061
-0.0053695,-0.05532,0.0044122,0.022686,0.31086,-0.0035549
-0.0053692,-0.055324,0.004412,0.022996,0.31088,-0.0036037
-0.005369,-0.055328,0.0044119,0.023307,0.3109,-0.0036527
-0.0053687,-0.055332,0.0044117,0.023618,0.31092,-0.0037017
-0.0053685,-0.055336,0.0044115,0.02393,0.31094,-0.0037508
-0.0053682,-0.055341,0.0044113,0.024242,0.31096,-0.0038
-0.0053679,-0.055345,0.0044111,0.024555,0.31098,-0.0038492
-0.0053677,-0.055349,0.0044109,0.024868,0.311,-0.0038986
-0.0053674,-0.055353,0.0044107,0.025181,0.31102,-0.003948
-0.0053672,-0.055357,0.0044105,0.025496,0.31104,-0.0039975
-0.0053669,-0.055361,0.0044103,0.02581,0.31106,-0.0040471
-0.0053667,-0.055365,0.0044102,0.026125,0.31107,-0.0040968
-0.0053664,-0.055369,0.00441,0.026441,0.31109,-0.0041466
-0.0053662,-0.055374,0.0044098,0.026757,0.31111,-0.0041964
-0.0053659,-0.055378,0.0044096,0.027074,0.31113,-0.0042464
-0.0053656,-0.055382,0.0044094,0.027391,0.31115,-0.0042964
-0.0053654,-0.055386,0.0044092,0.027709,0.31117,-0.0043465
-0.0053651,-0.05539,0.004409,0.028027,0.31119,-0.0043967
-0.0053649,-0.055394,0.0044087,0.028345,0.31121,-0.004447
-0.0053646,-0.055398,0.0044085,0.028664,0.31123,-0.0044973
-0.0053644,-0.055402,0.0044083,0.028984,0.31125,-0.0045478
-0.0053641,-0.055407,0.0044081,0.029304,0.31127,-0.0045983
-0.0053639,-0.055411,0.0044079,0.029625,0.31129,-0.0046489
-0.0053636,-0.055415,0.0044077,0.029946,0.31131,-0.0046996
-0.0053634,-0.055419,0.0044075,0.030268,0.31133,-0.0047504
-0.0053631,-0.055423,0.0044073,0.03059,0.31135,-0.0048013
-0.0053629,-0.055427,0.0044071,0.030913,0.31137,-0.0048522
-0.0053626,-0.055431,0.0044069,0.031236,0.31139,-0.0049033
-0.0053624,-0.055435,0.0044066,0.031559,0.31141,-0.0049544
-0.0053621,-0.05544,0.0044064,0.031884,0.31143,-0.0050056
-0.0053619,-0.055444,0.0044062,0.032208,0.31145,-0.005057
-0.0053616,-0.055448,0.004406,0.032534,0.31146,-0.0051084
-0.0053614,-0.055452,0.0044058,0.032859,0.31148,-0.0051598
-0.0053612,-0.055456,0.0044055,0.033186,0.3115,-0.0052114
-0.0053609,-0.05546,0.0044053,0.033512,0.31152,-0.0052631
-0.0053607,-0.055464,0.0044051,0.03384,0.31154,-0.0053148
-0.0053604,-0.055468,0.0044049,0.034167,0.31156,-0.0053667
-0.0053604,-0.055468,0.0044049,0.034167,0.31156,-0.0053667
-0.0053601,-0.055468,0.0044048,0.034169,0.31158,-0.0053673
-0.0053598,-0.055468,0.0044047,0.034171,0.3116,-0.0053679
-0.0053596,-0.055468,0.0044046,0.034172,0.31162,-0.0053684
-0.0053593,-0.055468,0.0044045,0.034174,0.31164,-0.005369
-0.005359,-0.055469,0.0044044,0.034175,0.31166,-0.0053696
-0.0053587,-0.055469,0.0044043,0.034177,0.31168,-0.0053702
-0.0053584,-0.055469,0.0044042,0.034178,0.3117,-0.0053708
-0.0053581,-0.055469,0.0044041,0.03418,0.31172,-0.0053714
-0.0053578,-0.055469,0.004404,0.034182,0.31174,-0.005372
-0.0053575,-0.055469,0.0044039,0.034183,0.31176,-0.0053726
-0.0053573,-0.055469,0.0044038,0.034185,0.31178,-0.0053732
-0.005357,-0.055469,0.0044037,0.034186,0.3118,-0.0053738
-0.0053567,-0.055469,0.0044036,0.034188,0.31182,-0.0053744
-0.0053564,-0.055469,0.0044035,0.034189,0.31184,-0.005375
-0.0053561,-0.055469,0.0044034,0.034191,0.31186,-0.0053756
-0.0053558,-0.055469,0.0044034,0.034193,0.31188,-0.0053762
-0.0053555,-0.055469,0.0044033,0.034194,0.3119,-0.0053768
-0.0053552,-0.055469,0.0044032,0.034196,0.31192,-0.0053774
-0.005355,-0.055469,0.0044031,0.034197,0.31194,-0.005378
-0.0053547,-0.055469,0.004403,0.034199,0.31196,-0.0053786
-0.0053544,-0.055469,0.0044029,0.0342,0.31198,-0.0053792
-0.0053541,-0.055469,0.0044028,0.034202,0.312,-0.0053798
-0.0053538,-0.055469,0.0044027,0.034204,0.31202,-0.0053804
-0.0053535,-0.055469,0.0044026,0.034205,0.31204,-0.005381
-0.0053532,-0.055469,0.0044025,0.034207,0.31206,-0.0053816
-0.0053529,-0.055469,0.0044024,0.034208,0.31208,-0.0053822
-0.0053526,-0.055469,0.0044023,0.03421,0.3121,-0.0053828
-0.0053524,-0.055469,0.0044022,0.034212,0.31212,-0.0053834
-0.0053521,-0.055469,0.0044021,0.034213,0.31214,-0.005384
-0.0053518,-0.055469,0.004402,0.034215,0.31216,-0.0053846
-0.0053515,-0.055469,0.004402,0.034216,0.31218,-0.0053852
-0.0053512,-0.055469,0.0044019,0.034218,0.3122,-0.0053858
-0.0053509,-0.055469,0.0044018,0.034219,0.31222,-0.0053864
-0.0053506,-0.055469,0.0044017,0.034221,0.31224,-0.005387
-0.0053503,-0.055469,0.0044016,0.034223,0.31226,-0.0053876
-0.0053501,-0.055469,0.0044015,0.034224,0.31228,-0.0053882
-0.0053498,-0.055469,0.0044014,0.034226,0.3123,-0.0053888
-0.0053495,-0.055469,0.0044013,0.034227,0.31232,-0.0053894
-0.0053492,-0.055469,0.0044012,0.034229,0.31234,-0.00539
-0.0053489,-0.055469,0.0044011,0.03423,0.31236,-0.0053906
-0.0053486,-0.055469,0.004401,0.034232,0.31238,-0.0053912
-0.0053483,-0.055469,0.0044009,0.034234,0.3124,-0.0053918
-0.005348,-0.055469,0.0044008,0.034235,0.31242,-0.0053924
-0.0053478,-0.055469,0.0044007,0.034237,0.31244,-0.005393
-0.0053475,-0.055469,0.0044006,0.034238,0.31246,-0.0053936
-0.0053472,-0.055469,0.0044005,0.03424,0.31248,-0.0053942
-0.0053469,-0.055469,0.0044005,0.034241,0.3125,-0.0053948
-0.0053466,-0.055469,0.0044004,0.034243,0.31252,-0.0053954
-0.0053463,-0.055469,0.0044003,0.034245,0.31254,-0.005396
-0.005346,-0.055469,0.0044002,0.034246,0.31256,-0.0053966
-0.005346,-0.055469,0.0044002,0.034246,0.31256,-0.0053966
-0.0053461,-0.055473,0.0044,0.034568,0.31256,-0.0054473
-0.0053461,-0.055478,0.0043999,0.034891,0.31256,-0.0054981
-0.0053462,-0.055482,0.0043998,0.035214,0.31256,-0.005549
-0.0053462,-0.055486,0.0043996,0.035537,0.31256,-0.0056
-0.0053462,-0.05549,0.0043995,0.035861,0.31256,-0.0056511
-0.0053463,-0.055494,0.0043994,0.036186,0.31256,-0.0057022
-0.0053463,-0.055498,0.0043992,0.036511,0.31256,-0.0057535
-0.0053464,-0.055502,0.0043991,0.036837,0.31256,-0.0058048
-0.0053464,-0.055506,0.0043989,0.037163,0.31256,-0.0058562
-0.0053465,-0.05551,0.0043988,0.037489,0.31256,-0.0059076
-0.0053465,-0.055514,0.0043986,0.037816,0.31255,-0.0059592
-0.0053466,-0.055518,0.0043985,0.038144,0.31255,-0.0060108
-0.0053466,-0.055522,0.0043983,0.038472,0.31255,-0.0060625
-0.0053467,-0.055526,0.0043982,0.038801,0.31255,-0.0061143
-0.0053467,-0.05553,0.004398,0.03913,0.31255,-0.0061662
-0.0053468,-0.055534,0.0043979,0.03946,0.31255,-0.0062181
-0.0053468,-0.055538,0.0043977,0.03979,0.31255,-0.0062702
-0.0053469,-0.055542,0.0043976,0.040121,0.31255,-0.0063223
-0.0053469,-0.055546,0.0043974,0.040452,0.31255,-0.0063745
-0.005347,-0.05555,0.0043973,0.040784,0.31255,-0.0064268
-0.005347,-0.055554,0.0043971,0.041116,0.31255,-0.0064791
-0.0053471,-0.055558,0.0043969,0.041449,0.31255,-0.0065316
-0.0053471,-0.055562,0.0043968,0.041782,0.31255,-0.0065841
-0.0053472,-0.055566,0.0043966,0.042116,0.31255,-0.0066367
-0.0053472,-0.055571,0.0043965,0.042451,0.31254,-0.0066894
-0.0053473,-0.055575,0.0043963,0.042786,0.31254,-0.0067422
-0.0053473,-0.055579,0.0043961,0.043121,0.31254,-0.0067951
-0.0053474,-0.055583,0.004396,0.043457,0.31254,-0.006848
-0.0053474,-0.055587,0.0043958,0.043794,0.31254,-0.0069011
-0.0053475,-0.055591,0.0043956,0.044131,0.31254,-0.0069542
-0.0053476,-0.055595,0.0043954,0.044468,0.31254,-0.0070074
-0.0053476,-0.055599,0.0043953,0.044806,0.31254,-0.0070607
-0.0053477,-0.055603,0.0043951,0.045145,0.31254,-0.007114
-0.0053477,-0.055607,0.0043949,0.045484,0.31254,-0.0071675
-0.0053478,-0.055611,0.0043947,0.045824,0.31254,-0.007221
-0.0053478,-0.055615,0.0043946,0.046164,0.31254,-0.0072746
-0.0053479,-0.055619,0.0043944,0.046505,0.31254,-0.0073283
-0.005348,-0.055623,0.0043942,0.046846,0.31253,-0.0073821
-0.005348,-0.055627,0.004394,0.047188,0.31253,-0.007436
-0.0053481,-0.055631,0.0043938,0.047531,0.31253,-0.00749
-0.0053481,-0.055635,0.0043936,0.047874,0.31253,-0.007544
-0.0053482,-0.055639,0.0043935,0.048217,0.31253,-0.0075982
-0.0053483,-0.055643,0.0043933,0.048561,0.31253,-0.0076524
-0.0053483,-0.055647,0.0043931,0.048906,0.31253,-0.0077067
-0.0053484,-0.055651,0.0043929,0.049251,0.31253,-0.0077611
-0.0053484,-0.055655,0.0043927,0.049597,0.31253,-0.0078156
-0.0053485,-0.055659,0.0043925,0.049943,0.31253,-0.0078702
-0.0053486,-0.055664,0.0043923,0.05029,0.31253,-0.0079248
-0.0053486,-0.055668,0.0043921,0.050638,0.31252,-0.0079796
-0.0053487,-0.055672,0.0043919,0.050986,0.31252,-0.0080344
-0.0053487,-0.055672,0.0043919,0.050986,0.31252,-0.0080344
-0.0053319,-0.055665,0.0043869,0.050377,0.31368,-0.0079685
-0.0053151,-0.055658,0.0043818,0.049771,0.31485,-0.0079022
-0.0052983,-0.055651,0.0043767,0.049166,0.31601,-0.0078354
-0.0052815,-0.055643,0.0043715,0.048563,0.31717,-0.0077682
-0.0052648,-0.055636,0.0043664,0.047962,0.31833,-0.0077005
-0.005248,-0.055629,0.0043612,0.047363,0.31949,-0.0076325
-0.0052312,-0.055622,0.004356,0.046765,0.32065,-0.007564
-0.0052145,-0.055615,0.0043508,0.046169,0.32181,-0.007495
-0.0051977,-0.055608,0.0043455,0.045574,0.32298,-0.0074257
-0.005181,-0.055601,0.0043402,0.044981,0.32414,-0.0073559
-0.0051642,-0.055594,0.0043349,0.04439,0.3253,-0.0072857
-0.0051475,-0.055587,0.0043296,0.043801,0.32646,-0.007215
-0.0051308,-0.05558,0.0043243,0.043213,0.32762,-0.007144
-0.0051141,-0.055573,0.0043189,0.042627,0.32878,-0.0070725
-0.0050974,-0.055566,0.0043135,0.042043,0.32994,-0.0070006
-0.0050807,-0.055559,0.0043081,0.04146,0.3311,-0.0069283
-0.005064,-0.055552,0.0043026,0.040879,0.33227,-0.0068556
-0.0050473,-0.055545,0.0042972,0.0403,0.33343,-0.0067825
-0.0050306,-0.055538,0.0042917,0.039722,0.33459,-0.0067089
-0.005014,-0.055531,0.0042862,0.039146,0.33575,-0.006635
-0.0049973,-0.055524,0.0042807,0.038572,0.33691,-0.0065606
-0.0049807,-0.055517,0.0042751,0.037999,0.33807,-0.0064859
-0.004964,-0.05551,0.0042695,0.037428,0.33923,-0.0064107
-0.0049474,-0.055503,0.0042639,0.036858,0.34039,-0.0063352
-0.0049308,-0.055496,0.0042583,0.03629,0.34155,-0.0062592
-0.0049141,-0.055489,0.0042526,0.035724,0.34272,-0.0061829
-0.0048975,-0.055482,0.004247,0.035159,0.34388,-0.0061061
-0.0048809,-0.055475,0.0042413,0.034596,0.34504,-0.006029
-0.0048643,-0.055468,0.0042356,0.034034,0.3462,-0.0059515
-0.0048477,-0.055461,0.0042298,0.033474,0.34736,-0.0058736
-0.0048311,-0.055453,0.004224,0.032916,0.34852,-0.0057953
-0.0048146,-0.055446,0.0042183,0.032359,0.34968,-0.0057166
-0.004798,-0.055439,0.0042125,0.031804,0.35084,-0.0056375
-0.0047814,-0.055432,0.0042066,0.03125,0.352,-0.0055581
-0.0047649,-0.055425,0.0042008,0.030698,0.35316,-0.0054782
-0.0047483,-0.055418,0.0041949,0.030147,0.35433,-0.005398
-0.0047318,-0.055411,0.004189,0.029598,0.35549,-0.0053174
-0.0047153,-0.055404,0.0041831,0.029051,0.35665,-0.0052364
-0.0046987,-0.055397,0.0041771,0.028505,0.35781,-0.0051551
-0.0046822,-0.05539,0.0041711,0.02796,0.35897,-0.0050734
-0.0046657,-0.055383,0.0041651,0.027417,0.36013,-0.0049913
-0.0046492,-0.055376,0.0041591,0.026876,0.36129,-0.0049088
-0.0046327,-0.055369,0.0041531,0.026336,0.36245,-0.004826
-0.0046163,-0.055362,0.004147,0.025798,0.36361,-0.0047428
-0.0045998,-0.055355,0.0041409,0.025261,0.36477,-0.0046593
-0.0045833,-0.055348,0.0041348,0.024726,0.36593,-0.0045754
-0.0045669,-0.055341,0.0041287,0.024192,0.36709,-0.0044911
-0.0045504,-0.055334,0.0041225,0.023659,0.36825,-0.0044064
-0.004534,-0.055327,0.0041164,0.023128,0.36942,-0.0043214
-0.0045176,-0.05532,0.0041102,0.022599,0.37058,-0.0042361
-0.0045176,-0.05532,0.0041102,0.022599,0.37058,-0.0042361
-0.0045063,-0.05532,0.0041058,0.022598,0.37138,-0.0042452
-0.004495,-0.05532,0.0041014,0.022597,0.37218,-0.0042544
-0.0044837,-0.05532,0.004097,0.022595,0.37298,-0.0042635
-0.0044724,-0.05532,0.0040926,0.022594,0.37378,-0.0042727
-0.0044612,-0.05532,0.0040881,0.022593,0.37458,-0.0042818
-0.0044499,-0.05532,0.0040837,0.022592,0.37538,-0.004291
-0.0044386,-0.05532,0.0040792,0.022591,0.37618,-0.0043001
-0.0044274,-0.05532,0.0040748,0.02259,0.37698,-0.0043092
-0.0044161,-0.05532,0.0040703,0.022589,0.37778,-0.0043184
-0.0044049,-0.05532,0.0040659,0.022587,0.37858,-0.0043275
-0.0043936,-0.05532,0.0040614,0.022586,0.37938,-0.0043367
-0.0043824,-0.05532,0.0040569,0.022585,0.38018,-0.0043458
-0.0043711,-0.05532,0.0040524,0.022584,0.38098,-0.004355
-0.0043599,-0.05532,0.0040479,0.022583,0.38178,-0.0043641
-0.0043486,-0.05532,0.0040434,0.022582,0.38258,-0.0043733
-0.0043374,-0.05532,0.0040388,0.02258,0.38338,-0.0043824
-0.0043262,-0.05532,0.0040343,0.022579,0.38418,-0.0043915
-0.004315,-0.05532,0.0040298,0.022578,0.38498,-0.0044007
-0.0043037,-0.05532,0.0040252,0.022577,0.38578,-0.0044098
-0.0042925,-0.05532,0.0040207,0.022576,0.38658,-0.004419
-0.0042813,-0.05532,0.0040161,0.022575,0.38738,-0.0044281
-0.0042701,-0.05532,0.0040115,0.022573,0.38818,-0.0044373
-0.0042589,-0.05532,0.0040069,0.022572,0.38898,-0.0044464
-0.0042477,-0.05532,0.0040023,0.022571,0.38978,-0.0044556
-0.0042365,-0.05532,0.0039977,0.02257,0.39058,-0.0044647
-0.0042253,-0.05532,0.0039931,0.022569,0.39138,-0.0044738
-0.0042141,-0.05532,0.0039885,0.022567,0.39218,-0.004483
-0.0042029,-0.05532,0.0039838,0.022566,0.39298,-0.0044921
-0.0041917,-0.05532,0.0039792,0.022565,0.39378,-0.0045013
-0.0041805,-0.05532,0.0039745,0.022564,0.39458,-0.0045104
-0.0041694,-0.05532,0.0039699,0.022563,0.39538,-0.0045196
-0.0041582,-0.05532,0.0039652,0.022561,0.39618,-0.0045287
-0.004147,-0.05532,0.0039605,0.02256,0.39698,-0.0045379
-0.0041358,-0.05532,0.0039558,0.022559,0.39778,-0.004547
-0.0041247,-0.05532,0.0039512,0.022558,0.39858,-0.0045561
-0.0041135,-0.05532,0.0039464,0.022556,0.39938,-0.0045653
-0.0041024,-0.05532,0.0039417,0.022555,0.40018,-0.0045744
-0.0040912,-0.05532,0.003937,0.022554,0.40098,-0.0045836
-0.0040801,-0.05532,0.0039323,0.022553,0.40178,-0.0045927
-0.0040689,-0.05532,0.0039275,0.022552,0.40258,-0.0046019
-0.0040578,-0.05532,0.0039228,0.02255,0.40337,-0.004611
-0.0040466,-0.05532,0.003918,0.022549,0.40417,-0.0046202
-0.0040355,-0.05532,0.0039133,0.022548,0.40497,-0.0046293
-0.0040244,-0.05532,0.0039085,0.022547,0.40577,-0.0046384
-0.0040133,-0.05532,0.0039037,0.022545,0.40657,-0.0046476
-0.0040021,-0.05532,0.0038989,0.022544,0.40737,-0.0046567
-0.003991,-0.05532,0.0038941,0.022543,0.40817,-0.0046659
-0.0039799,-0.05532,0.0038893,0.022542,0.40897,-0.004675
-0.0039688,-0.05532,0.0038845,0.02254,0.40977,-0.0046842
-0.0039577,-0.05532,0.0038796,0.022539,0.41057,-0.0046933
-0.0039577,-0.05532,0.0038796,0.022539,0.41057,-0.0046933
-0.0036341,-0.055265,0.0037355,0.018418,0.43398,-0.0040606
-0.0033141,-0.055209,0.0035836,0.014394,0.45738,-0.0033504
-0.0029977,-0.055154,0.0034241,0.010464,0.48079,-0.0025651
-0.0026853,-0.055099,0.003257,0.0066271,0.50419,-0.001707
-0.002377,-0.055043,0.0030825,0.0028819,0.52759,-0.00077837
-0.002073,-0.054988,0.0029006,-0.00062042,0.55099,0.00017538
-0.0017734,-0.054933,0.0027115,-0.0035322,0.57439,0.0010433
-0.0014783,-0.054878,0.0025153,-0.0064527,0.59779,0.0019883
-0.0011881,-0.054823,0.0023121,-0.0093826,0.62119,0.0030117
-0.00090282,-0.054768,0.002102,-0.012321,0.64458,0.0041145
-0.00062263,-0.054712,0.0018852,-0.015266,0.66798,0.0052972
-0.00034772,-0.054657,0.0016618,-0.018217,0.69137,0.006561
-7.8248e-05,-0.054602,0.001432,-0.021173,0.71476,0.0079068
0.00018564,-0.054547,0.0011957,-0.024133,0.73815,0.0093353
0.00044378,-0.054492,0.00095325,-0.027097,0.76154,0.010848
0.00069603,-0.054437,0.00070471,-0.030061,0.78493,0.012445
0.00094224,-0.054382,0.00045025,-0.033027,0.80831,0.014127
0.0011823,-0.054326,0.00019,-0.035992,0.83169,0.015896
0.001416,-0.054271,-7.5874e-05,-0.038955,0.85507,0.017753
0.0016432,-0.054216,-0.00034722,-0.041915,0.87844,0.019697
0.0018639,-0.054161,-0.00062388,-0.044872,0.90181,0.021731
0.0020778,-0.054106,-0.00090569,-0.047822,0.92518,0.023854
0.0022849,-0.054051,-0.0011925,-0.050767,0.94855,0.026069
0.002485,-0.053996,-0.0014841,-0.053703,0.97191,0.028376
0.0026781,-0.053941,-0.0017804,-0.056629,0.99526,0.030775
0.0028639,-0.053885,-0.0020811,-0.059546,1.0186,0.033268
0.0030425,-0.05383,-0.0023861,-0.06245,1.042,0.035856
0.0032137,-0.053775,-0.0026952,-0.065339,1.0653,0.038538
0.0033774,-0.05372,-0.0030083,-0.068212,1.0886,0.041316
0.0035334,-0.053665,-0.0033251,-0.07107,1.112,0.044191
0.0036819,-0.05361,-0.0036455,-0.073909,1.1353,0.047164
0.0038225,-0.053555,-0.0039692,-0.076728,1.1586,0.050237
0.0039553,-0.0535,-0.0042961,-0.079524,1.1819,0.053407
0.0040802,-0.053445,-0.004626,-0.082298,1.2053,0.056678
0.0041971,-0.05339,-0.0049587,-0.085047,1.2286,0.06005
0.004306,-0.053335,-0.005294,-0.087769,1.2519,0.063524
0.0044067,-0.05328,-0.0056317,-0.090461,1.2751,0.067099
0.0044993,-0.053225,-0.0059715,-0.093123,1.2984,0.070777
0.0045836,-0.05317,-0.0063134,-0.095753,1.3217,0.074559
0.0046597,-0.053115,-0.006657,-0.098348,1.345,0.078446
0.0047276,-0.05306,-0.0070023,-0.10091,1.3682,0.082437
0.004787,-0.053006,-0.0073489,-0.10343,1.3915,0.086533
0.0048381,-0.052951,-0.0076966,-0.10592,1.4147,0.090742
0.0048809,-0.052896,-0.0080454,-0.10835,1.4379,0.095045
0.0049152,-0.052841,-0.0083949,-0.11074,1.4612,0.099462
0.0049411,-0.052786,-0.0087449,-0.11308,1.4844,0.10398
0.0049586,-0.052732,-0.0090953,-0.11538,1.5076,0.10861
0.0049676,-0.052677,-0.0094459,-0.11763,1.5308,0.11335
0.0049682,-0.052622,-0.0097964,-0.11982,1.5539,0.1182
0.0049604,-0.052568,-0.010147,-0.12195,1.5771,0.12315
0.0049604,-0.052568,-0.010147,-0.12195,1.5771,0.12315
0.0049498,-0.052505,-0.0097945,-0.12665,1.5534,0.12492
0.0049305,-0.052443,-0.0094431,-0.13141,1.5297,0.1266
0.0049028,-0.05238,-0.0090924,-0.13623,1.506,0.12818
0.0048665,-0.052318,-0.0087428,-0.1411,1.4824,0.12968
0.0048217,-0.052256,-0.0083944,-0.14604,1.4587,0.13107
0.0047685,-0.052194,-0.0080475,-0.15102,1.435,0.13237
0.0047068,-0.052131,-0.0077023,-0.15606,1.4113,0.13357
0.0046368,-0.052069,-0.0073589,-0.16115,1.3876,0.13467
0.0045586,-0.052007,-0.0070175,-0.16628,1.3639,0.13567
0.004472,-0.051945,-0.0066785,-0.17146,1.3403,0.13657
0.0043773,-0.051883,-0.006342,-0.17669,1.3166,0.13736
0.0042745,-0.051821,-0.0060081,-0.18195,1.2929,0.13805
0.0041637,-0.05176,-0.0056772,-0.18725,1.2693,0.13863
0.0040449,-0.051698,-0.0053494,-0.19259,1.2456,0.1391
0.0039182,-0.051636,-0.0050248,-0.19796,1.2219,0.13947
0.0037838,-0.051575,-0.0047038,-0.20337,1.1983,0.13972
0.0036417,-0.051513,-0.0043864,-0.2088,1.1746,0.13986
0.0034921,-0.051451,-0.0040729,-0.21425,1.151,0.13989
0.003335,-0.05139,-0.0037634,-0.21973,1.1273,0.13981
0.0031705,-0.051329,-0.0034582,-0.22523,1.1037,0.13961
0.0029988,-0.051267,-0.0031574,-0.23075,1.08,0.1393
0.00282,-0.051206,-0.0028613,-0.23627,1.0564,0.13887
0.0026342,-0.051145,-0.0025698,-0.24181,1.0328,0.13832
0.0024415,-0.051084,-0.0022834,-0.24735,1.0092,0.13765
0.0022421,-0.051023,-0.002002,-0.2529,0.98557,0.13686
0.0020361,-0.050962,-0.0017259,-0.25845,0.96197,0.13596
0.0018237,-0.050902,-0.0014553,-0.26399,0.93838,0.13493
0.001605,-0.050841,-0.0011902,-0.26953,0.9148,0.13379
0.0013801,-0.05078,-0.00093088,-0.27506,0.89122,0.13252
0.0011493,-0.05072,-0.00067743,-0.28057,0.86765,0.13113
0.00091259,-0.05066,-0.00043001,-0.28607,0.8441,0.12962
0.00067022,-0.050599,-0.00018876,-0.29155,0.82055,0.12799
0.00042236,-0.050539,4.6222e-05,-0.297,0.79701,0.12623
0.00016916,-0.050479,0.00027476,-0.30242,0.77348,0.12435
-8.9209e-05,-0.050419,0.00049676,-0.30781,0.74996,0.12235
-0.00035257,-0.050359,0.00071209,-0.31316,0.72645,0.12023
-0.00062075,-0.050299,0.00092064,-0.31848,0.70295,0.11799
-0.00089356,-0.050239,0.0011223,-0.32375,0.67946,0.11563
-0.0011708,-0.05018,0.001317,-0.32897,0.65598,0.11315
-0.0014524,-0.05012,0.0015045,-0.33414,0.63252,0.11055
-0.001738,-0.050061,0.0016849,-0.33926,0.60906,0.10782
-0.0020275,-0.050001,0.001858,-0.34431,0.58562,0.10499
-0.0023207,-0.049942,0.0020238,-0.34931,0.56219,0.10203
-0.0026174,-0.049883,0.0021821,-0.35423,0.53877,0.098959
-0.0029174,-0.049824,0.0023329,-0.35909,0.51536,0.095773
-0.0032206,-0.049765,0.0024762,-0.36386,0.49196,0.092475
-0.0035267,-0.049706,0.0026118,-0.36856,0.46858,0.089064
-0.0038355,-0.049648,0.0027397,-0.37318,0.44521,0.085544
-0.0041468,-0.049589,0.0028599,-0.37771,0.42185,0.081916
-0.0044604,-0.049531,0.0029722,-0.38215,0.3985,0.078181
-0.0044604,-0.049531,0.0029722,-0.38215,0.3985,0.078181
-0.0044665,-0.049521,0.0029708,-0.38275,0.39813,0.078232
-0.0044727,-0.049512,0.0029693,-0.38335,0.39776,0.078282
-0.0044788,-0.049503,0.0029679,-0.38395,0.39739,0.078332
-0.004485,-0.049494,0.0029664,-0.38454,0.39702,0.078381
-0.0044911,-0.049485,0.0029649,-0.38514,0.39665,0.07843
-0.0044973,-0.049476,0.0029634,-0.38573,0.39628,0.078479
-0.0045034,-0.049466,0.0029619,-0.38632,0.39591,0.078526
-0.0045095,-0.049457,0.0029604,-0.38691,0.39554,0.078573
-0.0045157,-0.049448,0.0029589,-0.38749,0.39516,0.07862
-0.0045218,-0.049439,0.0029574,-0.38808,0.39479,0.078666
-0.004528,-0.04943,0.0029558,-0.38866,0.39442,0.078711
-0.0045341,-0.049421,0.0029543,-0.38924,0.39405,0.078756
-0.0045403,-0.049411,0.0029528,-0.38982,0.39368,0.0788
-0.0045464,-0.049402,0.0029512,-0.3904,0.39331,0.078843
-0.0045525,-0.049393,0.0029497,-0.39097,0.39294,0.078886
-0.0045587,-0.049384,0.0029481,-0.39155,0.39257,0.078929
-0.0045648,-0.049375,0.0029465,-0.39212,0.3922,0.078971
-0.004571,-0.049366,0.0029449,-0.39269,0.39183,0.079012
-0.0045771,-0.049357,0.0029434,-0.39326,0.39146,0.079053
-0.0045833,-0.049348,0.0029418,-0.39382,0.39109,0.079093
-0.0045894,-0.049338,0.0029402,-0.39439,0.39072,0.079132
-0.0045956,-0.049329,0.0029385,-0.39495,0.39035,0.079171
-0.0046017,-0.04932,0.0029369,-0.39551,0.38998,0.07921
-0.0046078,-0.049311,0.0029353,-0.39607,0.38961,0.079247
-0.004614,-0.049302,0.0029337,-0.39663,0.38924,0.079284
-0.0046201,-0.049293,0.002932,-0.39718,0.38887,0.079321
-0.0046263,-0.049284,0.0029304,-0.39774,0.3885,0.079357
-0.0046324,-0.049275,0.0029287,-0.39829,0.38813,0.079392
-0.0046386,-0.049266,0.0029271,-0.39884,0.38776,0.079427
-0.0046447,-0.049257,0.0029254,-0.39938,0.38739,0.079461
-0.0046509,-0.049247,0.0029237,-0.39993,0.38702,0.079495
-0.004657,-0.049238,0.002922,-0.40047,0.38665,0.079528
-0.0046631,-0.049229,0.0029204,-0.40101,0.38628,0.079561
-0.0046693,-0.04922,0.0029187,-0.40155,0.38591,0.079593
-0.0046754,-0.049211,0.002917,-0.40209,0.38554,0.079624
-0.0046816,-0.049202,0.0029152,-0.40262,0.38518,0.079654
-0.0046877,-0.049193,0.0029135,-0.40316,0.38481,0.079684
-0.0046939,-0.049184,0.0029118,-0.40369,0.38444,0.079714
-0.0047,-0.049175,0.0029101,-0.40422,0.38407,0.079743
-0.0047061,-0.049166,0.0029083,-0.40474,0.3837,0.079771
-0.0047123,-0.049157,0.0029066,-0.40527,0.38333,0.079799
-0.0047185,-0.049147,0.0029047,-0.4058,0.38296,0.079828
-0.0047246,-0.049138,0.0029031,-0.40631,0.38259,0.079852
-0.0047307,-0.049129,0.0029013,-0.40683,0.38222,0.079878
-0.0047369,-0.04912,0.0028995,-0.40735,0.38186,0.079903
-0.004743,-0.049111,0.0028977,-0.40787,0.38149,0.079929
-0.0047491,-0.049102,0.002896,-0.40837,0.38112,0.079952
-0.0047553,-0.049093,0.0028942,-0.40888,0.38075,0.079976
-0.0047614,-0.049084,0.0028924,-0.40939,0.38038,0.079999
-0.0047676,-0.049075,0.0028906,-0.4099,0.38001,0.080021
-0.0047676,-0.049075,0.0028906,-0.4099,0.38001,0.080021
-0.0047632,-0.049084,0.0028932,-0.40938,0.38024,0.079966
-0.0047588,-0.049094,0.0028959,-0.40886,0.38047,0.079911
-0.0047544,-0.049103,0.0028986,-0.40833,0.38071,0.079855
-0.00475,-0.049112,0.0029012,-0.40781,0.38094,0.079799
-0.0047456,-0.049122,0.0029039,-0.40727,0.38117,0.079741
-0.0047412,-0.049131,0.0029065,-0.40674,0.3814,0.079683
-0.0047368,-0.049141,0.0029092,-0.40621,0.38163,0.079625
-0.0047324,-0.04915,0.0029118,-0.40567,0.38186,0.079566
-0.0047281,-0.04916,0.0029144,-0.40513,0.38209,0.079507
-0.0047237,-0.049169,0.0029171,-0.40459,0.38232,0.079447
-0.0047193,-0.049178,0.0029197,-0.40405,0.38256,0.079386
-0.0047149,-0.049188,0.0029223,-0.4035,0.38279,0.079325
-0.0047105,-0.049197,0.0029249,-0.40296,0.38302,0.079265
-0.0047061,-0.049207,0.0029275,-0.40241,0.38325,0.079202
-0.0047017,-0.049216,0.0029301,-0.40185,0.38348,0.079139
-0.0046974,-0.049225,0.0029327,-0.4013,0.38371,0.079076
-0.004693,-0.049235,0.0029353,-0.40074,0.38395,0.079012
-0.0046886,-0.049244,0.0029379,-0.40019,0.38418,0.078948
-0.0046842,-0.049254,0.0029404,-0.39963,0.38441,0.078883
-0.0046798,-0.049263,0.002943,-0.39906,0.38464,0.078817
-0.0046754,-0.049273,0.0029456,-0.3985,0.38487,0.078751
-0.0046711,-0.049282,0.0029481,-0.39793,0.3851,0.078685
-0.0046667,-0.049291,0.0029506,-0.39736,0.38534,0.078618
-0.0046624,-0.049301,0.0029531,-0.39681,0.38557,0.078553
-0.0046579,-0.04931,0.0029557,-0.39622,0.3858,0.078482
-0.0046536,-0.04932,0.0029583,-0.39564,0.38603,0.078413
-0.0046492,-0.049329,0.0029608,-0.39507,0.38627,0.078344
-0.0046448,-0.049339,0.0029633,-0.39449,0.3865,0.078274
-0.0046404,-0.049348,0.0029658,-0.39391,0.38673,0.078204
-0.004636,-0.049358,0.0029683,-0.39332,0.38696,0.078133
-0.0046317,-0.049367,0.0029708,-0.39274,0.3872,0.078062
-0.0046273,-0.049377,0.0029733,-0.39215,0.38743,0.07799
-0.0046229,-0.049386,0.0029758,-0.39156,0.38766,0.077917
-0.0046186,-0.049395,0.0029782,-0.39097,0.38789,0.077845
-0.0046142,-0.049405,0.0029807,-0.39038,0.38813,0.077771
-0.0046098,-0.049414,0.0029832,-0.38978,0.38836,0.077697
-0.0046054,-0.049424,0.0029856,-0.38918,0.38859,0.077622
-0.0046011,-0.049433,0.0029881,-0.38858,0.38882,0.077547
-0.0045967,-0.049443,0.0029905,-0.38798,0.38906,0.077472
-0.0045923,-0.049452,0.002993,-0.38738,0.38929,0.077396
-0.004588,-0.049462,0.0029953,-0.38679,0.38952,0.077323
-0.0045836,-0.049471,0.0029978,-0.38617,0.38976,0.077242
-0.0045792,-0.049481,0.0030003,-0.38556,0.38999,0.077164
-0.0045749,-0.04949,0.0030027,-0.38495,0.39022,0.077086
-0.0045705,-0.0495,0.0030051,-0.38434,0.39046,0.077007
-0.0045661,-0.049509,0.0030075,-0.38372,0.39069,0.076928
-0.0045618,-0.049519,0.0030099,-0.3831,0.39092,0.076848
-0.0045574,-0.049528,0.0030123,-0.38249,0.39115,0.076768
-0.0045531,-0.049538,0.0030146,-0.38187,0.39139,0.076687
-0.0045487,-0.049547,0.003017,-0.38124,0.39162,0.076606
-0.0045487,-0.049547,0.003017,-0.38124,0.39162,0.076606
-0.0044588,-0.04954,0.0029759,-0.38151,0.39852,0.07805
-0.0043693,-0.049534,0.0029343,-0.38177,0.40542,0.079496
-0.00428,-0.049527,0.0028919,-0.38203,0.41232,0.080946
-0.0041911,-0.04952,0.002849,-0.38228,0.41922,0.082398
-0.0041024,-0.049513,0.0028055,-0.38253,0.42611,0.083854
-0.0040141,-0.049506,0.0027613,-0.38277,0.43301,0.085312
-0.0039262,-0.049499,0.0027165,-0.38301,0.43991,0.086773
-0.0038386,-0.049492,0.0026712,-0.38324,0.4468,0.088237
-0.0037513,-0.049485,0.0026252,-0.38347,0.4537,0.089704
-0.0036643,-0.049478,0.0025786,-0.38369,0.46059,0.091174
-0.0035777,-0.049471,0.0025314,-0.38391,0.46749,0.092647
-0.0034915,-0.049464,0.0024836,-0.38412,0.47438,0.094122
-0.0034056,-0.049458,0.0024352,-0.38433,0.48128,0.095601
-0.0033201,-0.049451,0.0023863,-0.38454,0.48817,0.097082
-0.0032349,-0.049444,0.0023367,-0.38474,0.49506,0.098566
-0.0031501,-0.049437,0.0022865,-0.38493,0.50196,0.10005
-0.0030657,-0.04943,0.0022358,-0.38512,0.50885,0.10154
-0.0029816,-0.049423,0.0021845,-0.3853,0.51574,0.10303
-0.002898,-0.049416,0.0021326,-0.38549,0.52263,0.10453
-0.0028147,-0.049409,0.0020801,-0.38566,0.52952,0.10603
-0.0027318,-0.049402,0.002027,-0.38583,0.53641,0.10753
-0.0026493,-0.049396,0.0019734,-0.38599,0.5433,0.10903
-0.0025672,-0.049389,0.0019192,-0.38615,0.55019,0.11054
-0.0024855,-0.049382,0.0018645,-0.38631,0.55708,0.11205
-0.0024041,-0.049375,0.0018091,-0.38646,0.56397,0.11356
-0.0023233,-0.049368,0.0017533,-0.38661,0.57086,0.11507
-0.0022428,-0.049361,0.0016968,-0.38675,0.57774,0.11659
-0.0021627,-0.049354,0.0016398,-0.38688,0.58463,0.11811
-0.002083,-0.049347,0.0015823,-0.38701,0.59152,0.11963
-0.0020038,-0.049341,0.0015242,-0.38714,0.5984,0.12115
-0.001925,-0.049334,0.0014656,-0.38726,0.60529,0.12268
-0.0018466,-0.049327,0.0014064,-0.38737,0.61217,0.12421
-0.0017687,-0.04932,0.0013467,-0.38748,0.61906,0.12574
-0.0016912,-0.049313,0.0012865,-0.38758,0.62594,0.12728
-0.0016142,-0.049306,0.0012257,-0.38768,0.63283,0.12882
-0.0015375,-0.049299,0.0011644,-0.38778,0.63971,0.13036
-0.0014614,-0.049292,0.0011026,-0.38787,0.64659,0.1319
-0.0013857,-0.049286,0.0010402,-0.38795,0.65347,0.13345
-0.0013104,-0.049279,0.00097734,-0.38803,0.66036,0.13499
-0.0012356,-0.049272,0.00091399,-0.3881,0.66724,0.13654
-0.0011613,-0.049265,0.00085009,-0.38817,0.67412,0.1381
-0.0010874,-0.049258,0.0007857,-0.38823,0.681,0.13965
-0.001014,-0.049251,0.00072079,-0.38829,0.68788,0.14121
-0.00094111,-0.049244,0.00065539,-0.38834,0.69476,0.14277
-0.00086866,-0.049238,0.00058949,-0.38839,0.70164,0.14433
-0.0007967,-0.049231,0.0005231,-0.38843,0.70852,0.1459
-0.00072522,-0.049224,0.00045621,-0.38847,0.71539,0.14746
-0.00065423,-0.049217,0.00038883,-0.3885,0.72227,0.14903
-0.00058372,-0.04921,0.00032098,-0.38853,0.72915,0.1506
-0.00051372,-0.049203,0.00025265,-0.38855,0.73602,0.15218
-0.00051372,-0.049203,0.00025265,-0.38855,0.73602,0.15218
-0.00042032,-0.049194,0.0001599,-0.38857,0.74528,0.1543
-0.00032779,-0.049185,6.6357e-05,-0.38858,0.75453,0.15643
-0.00023619,-0.049176,-2.8058e-05,-0.38858,0.76378,0.15856
-0.00014552,-0.049166,-0.00012331,-0.38857,0.77303,0.16069
-5.5776e-05,-0.049157,-0.00021939,-0.38855,0.78228,0.16283
3.2954e-05,-0.049148,-0.00031635,-0.38853,0.79153,0.16498
0.00012088,-0.049139,-0.00041399,-0.38848,0.80078,0.16712
0.00020779,-0.04913,-0.00051249,-0.38843,0.81003,0.16928
0.00029373,-0.04912,-0.00061178,-0.38837,0.81927,0.17143
0.00037867,-0.049111,-0.00071187,-0.38831,0.82852,0.17359
0.0004627,-0.049102,-0.00081269,-0.38822,0.83776,0.17575
0.00054571,-0.049093,-0.0009143,-0.38814,0.84701,0.17792
0.00062774,-0.049084,-0.0010167,-0.38804,0.85625,0.18009
0.00070877,-0.049074,-0.0011197,-0.38793,0.86549,0.18227
0.0007888,-0.049065,-0.0012236,-0.38781,0.87473,0.18444
0.00086782,-0.049056,-0.0013281,-0.38768,0.88397,0.18663
0.00094583,-0.049047,-0.0014334,-0.38753,0.89321,0.18881
0.0010228,-0.049038,-0.0015394,-0.38738,0.90245,0.191
0.0010987,-0.049028,-0.001646,-0.38723,0.91169,0.1932
0.0011737,-0.049019,-0.0017534,-0.38705,0.92092,0.19539
0.0012475,-0.04901,-0.0018614,-0.38688,0.93016,0.1976
0.0013204,-0.049001,-0.00197,-0.38668,0.9394,0.19979
0.0013922,-0.048992,-0.0020794,-0.38647,0.94863,0.202
0.0014629,-0.048982,-0.0021893,-0.38626,0.95786,0.20421
0.0015325,-0.048973,-0.0023,-0.38604,0.96709,0.20643
0.0016011,-0.048964,-0.0024112,-0.3858,0.97633,0.20864
0.0016686,-0.048955,-0.002523,-0.38555,0.98556,0.21086
0.0017351,-0.048946,-0.0026354,-0.3853,0.99479,0.21309
0.0018004,-0.048937,-0.0027485,-0.38503,1.004,0.21531
0.0018647,-0.048927,-0.0028621,-0.38475,1.0132,0.21754
0.0019278,-0.048918,-0.0029762,-0.38447,1.0225,0.21978
0.0019899,-0.048909,-0.003091,-0.38417,1.0317,0.22201
0.0020508,-0.0489,-0.0032063,-0.38386,1.0409,0.22425
0.0021107,-0.048891,-0.0033221,-0.38354,1.0501,0.22649
0.0021694,-0.048882,-0.0034384,-0.38321,1.0594,0.22874
0.002227,-0.048873,-0.0035553,-0.38286,1.0686,0.23099
0.0022835,-0.048863,-0.0036726,-0.38251,1.0778,0.23324
0.0023388,-0.048854,-0.0037905,-0.38214,1.087,0.23549
0.002393,-0.048845,-0.0039088,-0.38177,1.0963,0.23775
0.0024461,-0.048836,-0.0040277,-0.38138,1.1055,0.24001
0.002498,-0.048827,-0.0041469,-0.38098,1.1147,0.24227
0.0025488,-0.048818,-0.0042666,-0.38057,1.1239,0.24454
0.0025984,-0.048809,-0.0043868,-0.38015,1.1331,0.2468
0.0026469,-0.048799,-0.0045074,-0.37972,1.1423,0.24907
0.0026943,-0.04879,-0.0046284,-0.37928,1.1516,0.25135
0.0027404,-0.048781,-0.0047498,-0.37883,1.1608,0.25362
0.0027854,-0.048772,-0.0048716,-0.37836,1.17,0.2559
0.0028293,-0.048763,-0.0049938,-0.37788,1.1792,0.25818
0.0028719,-0.048754,-0.0051164,-0.3774,1.1884,0.26046
0.0029134,-0.048745,-0.0052393,-0.3769,1.1976,0.26275
0.0029134,-0.048745,-0.0052393,-0.3769,1.1976,0.26275
0.0029832,-0.048728,-0.0054557,-0.37601,1.2138,0.26677
0.0030493,-0.048712,-0.0056732,-0.37508,1.2299,0.2708
0.0031118,-0.048696,-0.0058916,-0.37412,1.2461,0.27483
0.0031707,-0.048679,-0.0061109,-0.37313,1.2622,0.27887
0.0032258,-0.048663,-0.0063311,-0.37209,1.2783,0.28292
0.0032773,-0.048647,-0.0065519,-0.37102,1.2945,0.28698
0.003325,-0.048631,-0.0067735,-0.36992,1.3106,0.29104
0.0033691,-0.048614,-0.0069958,-0.36878,1.3267,0.2951
0.0034094,-0.048598,-0.0072186,-0.3676,1.3429,0.29918
0.0034461,-0.048582,-0.0074419,-0.36638,1.359,0.30325
0.003479,-0.048566,-0.0076657,-0.36513,1.3751,0.30733
0.0035081,-0.048549,-0.0078898,-0.36384,1.3912,0.31142
0.0035336,-0.048533,-0.0081143,-0.36251,1.4074,0.3155
0.0035552,-0.048517,-0.0083391,-0.36115,1.4235,0.3196
0.0035732,-0.048501,-0.008564,-0.35975,1.4396,0.3237
0.0035874,-0.048484,-0.0087891,-0.35831,1.4557,0.3278
0.0035979,-0.048468,-0.0090143,-0.35683,1.4718,0.3319
0.0036046,-0.048452,-0.0092395,-0.35532,1.4879,0.33601
0.0036076,-0.048436,-0.0094646,-0.35376,1.504,0.34012
0.0036069,-0.04842,-0.0096897,-0.35217,1.5201,0.34423
0.0036024,-0.048403,-0.0099145,-0.35054,1.5362,0.34834
0.0035942,-0.048387,-0.010139,-0.34887,1.5523,0.35246
0.0035823,-0.048371,-0.010363,-0.34717,1.5684,0.35658
0.0035667,-0.048355,-0.010587,-0.34542,1.5845,0.3607
0.0035474,-0.048339,-0.010811,-0.34363,1.6006,0.36482
0.0035244,-0.048323,-0.011034,-0.34181,1.6166,0.36894
0.0034977,-0.048306,-0.011257,-0.33995,1.6327,0.37307
0.0034674,-0.04829,-0.011479,-0.33804,1.6488,0.37719
0.0034334,-0.048274,-0.0117,-0.3361,1.6649,0.38131
0.0033957,-0.048258,-0.01192,-0.33412,1.681,0.38544
0.0033545,-0.048242,-0.01214,-0.3321,1.697,0.38956
0.0033096,-0.048226,-0.012359,-0.33004,1.7131,0.39368
0.0032611,-0.04821,-0.012577,-0.32794,1.7292,0.3978
0.0032091,-0.048193,-0.012794,-0.32579,1.7452,0.40193
0.0031534,-0.048177,-0.01301,-0.32361,1.7613,0.40605
0.0030943,-0.048161,-0.013225,-0.32139,1.7773,0.41016
0.0030316,-0.048145,-0.013439,-0.31913,1.7934,0.41428
0.0029655,-0.048129,-0.013652,-0.31682,1.8094,0.41839
0.0028958,-0.048113,-0.013863,-0.31448,1.8255,0.4225
0.0028227,-0.048097,-0.014074,-0.3121,1.8415,0.42661
0.0027462,-0.048081,-0.014282,-0.30967,1.8576,0.43072
0.0026663,-0.048065,-0.01449,-0.3072,1.8736,0.43482
0.002583,-0.048049,-0.014695,-0.3047,1.8896,0.43892
0.0024964,-0.048033,-0.0149,-0.30215,1.9057,0.44301
0.0024064,-0.048016,-0.015103,-0.29956,1.9217,0.44711
0.0023132,-0.048,-0.015304,-0.29692,1.9377,0.45119
0.0022167,-0.047984,-0.015503,-0.29425,1.9538,0.45528
0.0021169,-0.047968,-0.015701,-0.29154,1.9698,0.45935
0.002014,-0.047952,-0.015897,-0.28878,1.9858,0.46343
0.0019079,-0.047936,-0.016091,-0.28598,2.0018,0.46749
0.0019079,-0.047936,-0.016091,-0.28598,2.0018,0.46749
0.0018195,-0.047923,-0.016246,-0.28368,2.0148,0.47079
0.0017291,-0.04791,-0.016401,-0.28136,2.0278,0.47408
0.0016367,-0.047896,-0.016554,-0.27901,2.0407,0.47737
0.0015423,-0.047883,-0.016706,-0.27663,2.0537,0.48065
0.0014459,-0.04787,-0.016856,-0.27423,2.0667,0.48393
0.0013475,-0.047856,-0.017005,-0.27179,2.0796,0.4872
0.0012472,-0.047843,-0.017153,-0.26933,2.0926,0.49047
0.001145,-0.04783,-0.017299,-0.26684,2.1056,0.49374
0.0010409,-0.047817,-0.017444,-0.26432,2.1185,0.497
0.00093485,-0.047803,-0.017587,-0.26177,2.1315,0.50025
0.00082699,-0.04779,-0.017729,-0.2592,2.1444,0.5035
0.00071729,-0.047777,-0.017869,-0.25659,2.1574,0.50674
0.00060578,-0.047763,-0.018008,-0.25396,2.1703,0.50998
0.00049247,-0.04775,-0.018145,-0.2513,2.1833,0.51321
0.00037737,-0.047737,-0.018281,-0.24861,2.1962,0.51644
0.00026055,-0.047724,-0.018415,-0.24589,2.2092,0.51965
0.000142,-0.04771,-0.018547,-0.24314,2.2221,0.52287
2.1741e-05,-0.047697,-0.018678,-0.24036,2.235,0.52607
-0.0001002,-0.047684,-0.018806,-0.23756,2.248,0.52927
-0.00022379,-0.047671,-0.018934,-0.23473,2.2609,0.53247
-0.00034904,-0.047657,-0.019059,-0.23186,2.2739,0.53565
-0.00047585,-0.047644,-0.019183,-0.22897,2.2868,0.53883
-0.00060427,-0.047631,-0.019305,-0.22605,2.2997,0.54201
-0.00073424,-0.047618,-0.019425,-0.2231,2.3127,0.54517
-0.00086575,-0.047604,-0.019543,-0.22012,2.3256,0.54833
-0.00099876,-0.047591,-0.01966,-0.21711,2.3385,0.55148
-0.0011333,-0.047578,-0.019775,-0.21408,2.3514,0.55462
-0.0012692,-0.047564,-0.019887,-0.21101,2.3644,0.55776
-0.0014066,-0.047551,-0.019998,-0.20792,2.3773,0.56088
-0.0015454,-0.047538,-0.020107,-0.20479,2.3902,0.564
-0.0016856,-0.047525,-0.020214,-0.20164,2.4031,0.56711
-0.0018271,-0.047512,-0.020319,-0.19845,2.416,0.57021
-0.0019699,-0.047498,-0.020423,-0.19524,2.429,0.5733
-0.002114,-0.047485,-0.020524,-0.19199,2.4419,0.57639
-0.0022595,-0.047472,-0.020623,-0.18872,2.4548,0.57946
-0.0024061,-0.047459,-0.02072,-0.18542,2.4677,0.58253
-0.002554,-0.047445,-0.020815,-0.18209,2.4806,0.58559
-0.002703,-0.047432,-0.020909,-0.17872,2.4935,0.58863
-0.0028532,-0.047419,-0.021,-0.17533,2.5064,0.59167
-0.0030046,-0.047406,-0.021089,-0.17191,2.5193,0.5947
-0.003157,-0.047392,-0.021176,-0.16846,2.5322,0.59772
-0.0033105,-0.047379,-0.021261,-0.16498,2.5451,0.60073
-0.0034651,-0.047366,-0.021343,-0.16146,2.558,0.60373
-0.0036207,-0.047353,-0.021424,-0.15792,2.5709,0.60672
-0.0037773,-0.047339,-0.021502,-0.15435,2.5838,0.60969
-0.0039348,-0.047326,-0.021579,-0.15075,2.5967,0.61266
-0.0040932,-0.047313,-0.021653,-0.14711,2.6095,0.61562
-0.0042526,-0.0473,-0.021725,-0.14345,2.6224,0.61857
-0.0044128,-0.047287,-0.021795,-0.13976,2.6353,0.6215
-0.0045739,-0.047273,-0.021863,-0.13603,2.6482,0.62443
-0.0045739,-0.047273,-0.021863,-0.13603,2.6482,0.62443
-0.0047465,-0.047259,-0.021932,-0.13203,2.6619,0.62753
-0.0049199,-0.047245,-0.021999,-0.12799,2.6756,0.63062
-0.0050942,-0.04723,-0.022064,-0.12392,2.6894,0.6337
-0.0052694,-0.047216,-0.022126,-0.11981,2.7031,0.63676
-0.0054453,-0.047202,-0.022186,-0.11567,2.7168,0.63981
-0.0056219,-0.047187,-0.022243,-0.11149,2.7305,0.64284
-0.0057992,-0.047173,-0.022297,-0.10727,2.7442,0.64586
-0.0059772,-0.047159,-0.022349,-0.10302,2.7579,0.64887
-0.0061558,-0.047144,-0.022398,-0.09874,2.7716,0.65186
-0.006335,-0.04713,-0.022445,-0.09442,2.7853,0.65484
-0.0065148,-0.047116,-0.022489,-0.090064,2.799,0.65781
-0.0066951,-0.047101,-0.02253,-0.085673,2.8127,0.66075
-0.0068758,-0.047087,-0.022569,-0.081246,2.8264,0.66369
-0.0070569,-0.047073,-0.022606,-0.076783,2.8401,0.66661
-0.0072385,-0.047058,-0.02264,-0.072285,2.8538,0.66951
-0.0074205,-0.047044,-0.022671,-0.06775,2.8675,0.6724
-0.0076027,-0.04703,-0.022699,-0.063179,2.8812,0.67527
-0.0077853,-0.047015,-0.022725,-0.058572,2.8949,0.67812
-0.0079681,-0.047001,-0.022748,-0.053929,2.9086,0.68096
-0.0081511,-0.046987,-0.022769,-0.049249,2.9222,0.68379
-0.0083342,-0.046972,-0.022787,-0.044533,2.9359,0.6866
-0.0085176,-0.046958,-0.022802,-0.03978,2.9496,0.68939
-0.008701,-0.046943,-0.022815,-0.034991,2.9633,0.69216
-0.0088845,-0.046929,-0.022825,-0.030165,2.9769,0.69492
-0.009068,-0.046915,-0.022833,-0.025301,2.9906,0.69766
-0.0092515,-0.0469,-0.022838,-0.020401,3.0042,0.70038
-0.0094349,-0.046886,-0.02284,-0.015463,3.0179,0.70309
-0.0096183,-0.046872,-0.02284,-0.010489,3.0316,0.70578
-0.0098015,-0.046857,-0.022837,-0.0054764,3.0452,0.70845
-0.0099846,-0.046843,-0.022831,-0.00042666,3.0589,0.7111
-0.010167,-0.046829,-0.022823,-0.0046232,-3.0477,-0.70798
-0.01035,-0.046814,-0.022812,-0.0096217,-3.0343,-0.70432
-0.010532,-0.0468,-0.022799,-0.014569,-3.0209,-0.70066
-0.010715,-0.046786,-0.022783,-0.019465,-3.0074,-0.69698
-0.010896,-0.046771,-0.022765,-0.02431,-2.994,-0.69329
-0.011078,-0.046757,-0.022744,-0.029105,-2.9805,-0.6896
-0.011259,-0.046743,-0.02272,-0.033849,-2.9671,-0.68589
-0.011439,-0.046728,-0.022694,-0.038543,-2.9536,-0.68218
-0.011619,-0.046714,-0.022665,-0.043188,-2.9401,-0.67847
-0.011798,-0.046699,-0.022634,-0.047784,-2.9267,-0.67474
-0.011977,-0.046685,-0.0226,-0.05233,-2.9132,-0.67101
-0.012156,-0.046671,-0.022563,-0.056828,-2.8997,-0.66727
-0.012333,-0.046656,-0.022525,-0.061277,-2.8862,-0.66352
-0.01251,-0.046642,-0.022483,-0.065678,-2.8727,-0.65977
-0.012686,-0.046628,-0.022439,-0.07003,-2.8592,-0.65601
-0.012862,-0.046613,-0.022393,-0.074336,-2.8457,-0.65224
-0.013037,-0.046599,-0.022344,-0.078593,-2.8321,-0.64847
-0.013211,-0.046584,-0.022293,-0.082803,-2.8186,-0.64469
-0.013384,-0.04657,-0.022239,-0.086967,-2.8051,-0.6409
-0.013556,-0.046556,-0.022183,-0.091083,-2.7915,-0.63711
-0.013556,-0.046556,-0.022183,-0.091083,-2.7915,-0.63711
-0.013689,-0.046544,-0.022138,-0.094249,-2.781,-0.63416
-0.013822,-0.046533,-0.022091,-0.097387,-2.7705,-0.63121
-0.013954,-0.046522,-0.022043,-0.1005,-2.7599,-0.62825
-0.014085,-0.046511,-0.021993,-0.10358,-2.7494,-0.62529
-0.014216,-0.046499,-0.021942,-0.10663,-2.7389,-0.62232
-0.014346,-0.046488,-0.021889,-0.10966,-2.7283,-0.61936
-0.014476,-0.046477,-0.021835,-0.11266,-2.7178,-0.61639
-0.014605,-0.046465,-0.02178,-0.11563,-2.7072,-0.61341
-0.014733,-0.046454,-0.021723,-0.11858,-2.6967,-0.61044
-0.014861,-0.046443,-0.021665,-0.1215,-2.6861,-0.60746
-0.014987,-0.046432,-0.021606,-0.12439,-2.6756,-0.60448
-0.015114,-0.04642,-0.021545,-0.12725,-2.665,-0.6015
-0.015239,-0.046409,-0.021483,-0.13009,-2.6544,-0.59852
-0.015364,-0.046398,-0.021419,-0.1329,-2.6439,-0.59554
-0.015487,-0.046386,-0.021354,-0.13568,-2.6333,-0.59255
-0.015611,-0.046375,-0.021288,-0.13844,-2.6227,-0.58956
-0.015733,-0.046364,-0.02122,-0.14117,-2.6122,-0.58657
-0.015854,-0.046353,-0.021151,-0.14388,-2.6016,-0.58358
-0.015975,-0.046341,-0.021081,-0.14655,-2.591,-0.58058
-0.016095,-0.04633,-0.021009,-0.14921,-2.5804,-0.57759
-0.016214,-0.046319,-0.020937,-0.15183,-2.5698,-0.57459
-0.016332,-0.046307,-0.020862,-0.15443,-2.5592,-0.5716
-0.016449,-0.046296,-0.020787,-0.15701,-2.5486,-0.5686
-0.016565,-0.046285,-0.02071,-0.15956,-2.538,-0.5656
-0.016681,-0.046273,-0.020633,-0.16208,-2.5274,-0.5626
-0.016795,-0.046262,-0.020553,-0.16458,-2.5168,-0.5596
-0.016909,-0.046251,-0.020473,-0.16705,-2.5062,-0.55659
-0.017022,-0.046239,-0.020391,-0.1695,-2.4956,-0.55359
-0.017133,-0.046228,-0.020309,-0.17192,-2.485,-0.55059
-0.017244,-0.046217,-0.020225,-0.17432,-2.4744,-0.54759
-0.017354,-0.046205,-0.02014,-0.17669,-2.4637,-0.54458
-0.017463,-0.046194,-0.020053,-0.17904,-2.4531,-0.54158
-0.01757,-0.046183,-0.019966,-0.18136,-2.4425,-0.53857
-0.017677,-0.046171,-0.019877,-0.18366,-2.4319,-0.53557
-0.017783,-0.04616,-0.019787,-0.18594,-2.4212,-0.53257
-0.017887,-0.046149,-0.019696,-0.18818,-2.4106,-0.52956
-0.017991,-0.046137,-0.019604,-0.19041,-2.4,-0.52656
-0.018094,-0.046126,-0.019511,-0.19261,-2.3893,-0.52356
-0.018195,-0.046115,-0.019417,-0.19479,-2.3787,-0.52055
-0.018295,-0.046103,-0.019322,-0.19694,-2.368,-0.51755
-0.018395,-0.046092,-0.019226,-0.19906,-2.3574,-0.51454
-0.018493,-0.046081,-0.019128,-0.20117,-2.3467,-0.51155
-0.01859,-0.046069,-0.01903,-0.20325,-2.3361,-0.50855
-0.018686,-0.046058,-0.01893,-0.20531,-2.3254,-0.50555
-0.018781,-0.046047,-0.01883,-0.20734,-2.3148,-0.50255
-0.018874,-0.046035,-0.018728,-0.20935,-2.3041,-0.49955
-0.018967,-0.046024,-0.018626,-0.21134,-2.2934,-0.49656
-0.019058,-0.046013,-0.018523,-0.2133,-2.2828,-0.49356
-0.019148,-0.046001,-0.018418,-0.21524,-2.2721,-0.49057
-0.019237,-0.04599,-0.018313,-0.21715,-2.2614,-0.48757
-0.019237,-0.04599,-0.018313,-0.21715,-2.2614,-0.48757
-0.019324,-0.045978,-0.018207,-0.21904,-2.2508,-0.48458
